liamjosephnolan/thesis_matlab/roll_step_response/roll_step_response_roll_-15_pitch_15.csv
__time,/psm_joint_telemetry/header/stamp,/psm_joint_telemetry/insertion/effort,/psm_joint_telemetry/insertion/position,/psm_joint_telemetry/insertion/velocity,/psm_joint_telemetry/pitch/effort,/psm_joint_telemetry/pitch/position,/psm_joint_telemetry/pitch/velocity,/psm_joint_telemetry/roll/effort,/psm_joint_telemetry/roll/position,/psm_joint_telemetry/roll/velocity
1748252108.604248,22.783000000,0.000000000,-333.357879639,0.000000000,0.000000000,15.091125488,-53.428066254,0.000000000,-15.068999290,-13.812870979
1748252108.607033,22.785000000,0.000000000,-333.357879639,0.000000000,0.000000000,15.091125488,-53.428031921,0.000000000,-15.068999290,-13.812870979
1748252108.609675,22.788000000,0.000000000,-333.357879639,0.000000000,0.000000000,15.091125488,-53.427997589,0.000000000,-15.068999290,-13.812870979
1748252108.612460,22.791000000,0.000000000,-333.357879639,0.000000000,0.000000000,15.091125488,-53.427963257,0.000000000,-15.068999290,-13.812870979
1748252108.615114,22.794000000,0.000000000,-333.357879639,0.000000000,0.000000000,15.091125488,-53.427928925,0.000000000,-15.068999290,-13.812870979
1748252108.618717,22.797000000,0.000000000,-333.357879639,0.000000000,0.000000000,15.091125488,-53.427894592,0.000000000,-15.068999290,-13.812870979
1748252108.621523,22.800000000,0.000000000,-333.357879639,0.000000000,0.000000000,15.091125488,-53.427852631,0.000000000,-15.068999290,-13.812870979
1748252108.624113,22.803000000,0.000000000,-333.357879639,0.000000000,0.000000000,15.091125488,-53.427810669,0.000000000,-15.068999290,-13.812870979
1748252108.626762,22.805000000,0.000000000,-333.357879639,0.000000000,0.000000000,15.091125488,-53.427776337,0.000000000,-15.068999290,-13.812870979
1748252108.629467,22.808000000,0.000000000,-333.357879639,0.000000000,0.000000000,15.091125488,-53.427742004,0.000000000,-15.068999290,-13.812870979
1748252108.632545,22.811000000,0.000000000,-333.357879639,0.000000000,0.000000000,15.091125488,-53.427707672,0.000000000,-15.068999290,-13.812870979
1748252108.635784,22.814000000,0.000000000,-333.357879639,0.000000000,0.000000000,15.091125488,-53.427669525,0.000000000,-15.068999290,-13.812870979
1748252108.638651,22.817000000,0.000000000,-333.357879639,0.000000000,0.000000000,15.091125488,-53.427627563,0.000000000,-15.068999290,-13.812870979
1748252108.641755,22.820000000,0.000000000,-333.357879639,0.000000000,0.000000000,15.091125488,-53.427589417,0.000000000,-15.068999290,-13.812870979
1748252108.644355,22.823000000,0.000000000,-333.357879639,0.000000000,0.000000000,15.091125488,-53.427547455,0.000000000,-15.068999290,-13.812870979
1748252108.647036,22.826000000,0.000000000,-333.357879639,0.000000000,0.000000000,15.091125488,-53.427513123,0.000000000,-15.068999290,-13.812870979
1748252108.649661,22.828000000,0.000000000,-333.357879639,0.000000000,0.000000000,15.091125488,-53.427478790,0.000000000,-15.068999290,-13.812870979
1748252108.652290,22.831000000,0.000000000,-333.357879639,0.000000000,0.000000000,15.091125488,-53.427444458,0.000000000,-15.068999290,-13.812870979
1748252108.655028,22.833000000,0.000000000,-333.357879639,0.000000000,0.000000000,15.091125488,-53.427410126,0.000000000,-15.068999290,-13.812870979
1748252108.657566,22.836000000,0.000000000,-333.357879639,0.000000000,0.000000000,15.091125488,-53.427375793,0.000000000,-15.068999290,-13.812870979
1748252108.660801,22.839000000,0.000000000,-333.357879639,0.000000000,0.000000000,15.091125488,-53.427341461,0.000000000,-15.068999290,-13.812870979
1748252108.663901,22.842000000,0.000000000,-333.357879639,0.000000000,0.000000000,15.091125488,-53.427303314,0.000000000,-15.068999290,-13.812870979
1748252108.667134,22.845000000,0.000000000,-333.357879639,0.000000000,0.000000000,15.091125488,-53.427265167,0.000000000,-15.068999290,-13.812870979
1748252108.670089,22.849000000,0.000000000,-333.357879639,0.000000000,0.000000000,15.091125488,-53.427219391,0.000000000,-15.068999290,-13.812870979
1748252108.672691,22.851000000,0.000000000,-333.357879639,0.000000000,0.000000000,15.091125488,-53.427185059,0.000000000,-15.068999290,-13.812870979
1748252108.675607,22.854000000,0.000000000,-333.357879639,0.000000000,0.000000000,15.091125488,-53.427150726,0.000000000,-15.068999290,-13.812870979
1748252108.678283,22.857000000,0.000000000,-333.357879639,0.000000000,0.000000000,15.091125488,-53.427112579,0.000000000,-15.068999290,-13.812870979
1748252108.680883,22.860000000,0.000000000,-333.357879639,0.000000000,0.000000000,15.091125488,-53.427078247,0.000000000,-15.068999290,-13.812870979
1748252108.683920,22.862000000,0.000000000,-333.357879639,0.000000000,0.000000000,15.091125488,-53.427043915,0.000000000,-15.068999290,-13.812870979
1748252108.686654,22.865000000,0.000000000,-333.357879639,0.000000000,0.000000000,15.091125488,-53.427005768,0.000000000,-15.068999290,-13.812870979
1748252108.689313,22.868000000,0.000000000,-333.357879639,0.000000000,0.000000000,15.091125488,-53.426971436,0.000000000,-15.068999290,-13.812870979
1748252108.692079,22.871000000,0.000000000,-333.357879639,0.000000000,0.000000000,15.091125488,-53.426937103,0.000000000,-15.068999290,-13.812870979
1748252108.694800,22.873000000,0.000000000,-333.357879639,0.000000000,0.000000000,15.091125488,-53.426902771,0.000000000,-15.068999290,-13.812870979
1748252108.697490,22.876000000,0.000000000,-333.357879639,0.000000000,0.000000000,15.091125488,-53.426868439,0.000000000,-15.068999290,-13.812870979
1748252108.700320,22.879000000,0.000000000,-333.357879639,0.000000000,0.000000000,15.091125488,-53.426834106,0.000000000,-15.068999290,-13.812870979
1748252108.702940,22.881000000,0.000000000,-333.357879639,0.000000000,0.000000000,15.091125488,-53.426799774,0.000000000,-15.068999290,-13.812870979
1748252108.705886,22.884000000,0.000000000,-333.357879639,0.000000000,0.000000000,15.091125488,-53.426765442,0.000000000,-15.068999290,-13.812870979
1748252108.708472,22.887000000,0.000000000,-333.357879639,0.000000000,0.000000000,15.091125488,-53.426723480,0.000000000,-15.068999290,-13.812870979
1748252108.711055,22.890000000,0.000000000,-333.357879639,0.000000000,0.000000000,15.091125488,-53.426689148,0.000000000,-15.068999290,-13.812870979
1748252108.713656,22.892000000,0.000000000,-333.357879639,0.000000000,0.000000000,15.091125488,-53.426654816,0.000000000,-15.068999290,-13.812870979
1748252108.716687,22.895000000,0.000000000,-333.357879639,0.000000000,0.000000000,15.091125488,-53.426620483,0.000000000,-15.068999290,-13.812870979
1748252108.719566,22.898000000,0.000000000,-333.357879639,0.000000000,0.000000000,15.091125488,-53.426582336,0.000000000,-15.068999290,-13.812870979
1748252108.722064,22.901000000,0.000000000,-333.357879639,0.000000000,0.000000000,15.091125488,-53.426544189,0.000000000,-15.068999290,-13.812870979
1748252108.725031,22.903000000,0.000000000,-333.357879639,0.000000000,0.000000000,15.091125488,-53.426509857,0.000000000,-15.068999290,-13.812870979
1748252108.727533,22.906000000,0.000000000,-333.357879639,0.000000000,0.000000000,15.091125488,-53.426471710,0.000000000,-15.068999290,-13.812870979
1748252108.730505,22.909000000,0.000000000,-333.357879639,0.000000000,0.000000000,15.091125488,-53.426437378,0.000000000,-15.068999290,-13.812870979
1748252108.733326,22.912000000,0.000000000,-333.357879639,0.000000000,0.000000000,15.091125488,-53.426395416,0.000000000,-15.068999290,-13.812870979
1748252108.735960,22.914000000,0.000000000,-333.357879639,0.000000000,0.000000000,15.091125488,-53.426361084,0.000000000,-15.068999290,-13.812870979
1748252108.738595,22.917000000,0.000000000,-333.357879639,0.000000000,0.000000000,15.091125488,-53.426326752,0.000000000,-15.068999290,-13.812870979
1748252108.741180,22.920000000,0.000000000,-333.357879639,0.000000000,0.000000000,15.091125488,-53.426292419,0.000000000,-15.068999290,-13.812870979
1748252108.743834,22.922000000,0.000000000,-333.357879639,0.000000000,0.000000000,15.091125488,-53.426258087,0.000000000,-15.068999290,-13.812870979
1748252108.746426,22.925000000,0.000000000,-333.357879639,0.000000000,0.000000000,15.091125488,-53.426223755,0.000000000,-15.068999290,-13.812870979
1748252108.748979,22.928000000,0.000000000,-333.357879639,0.000000000,0.000000000,15.091125488,-53.426189423,0.000000000,-15.068999290,-13.812870979
1748252108.751841,22.930000000,0.000000000,-333.357879639,0.000000000,0.000000000,15.091125488,-53.426155090,0.000000000,-15.068999290,-13.812870979
1748252108.754369,22.933000000,0.000000000,-333.357879639,0.000000000,0.000000000,15.091125488,-53.426120758,0.000000000,-15.068999290,-13.812870979
1748252108.757031,22.936000000,0.000000000,-333.357879639,0.000000000,0.000000000,15.091125488,-53.426086426,0.000000000,-15.068999290,-13.812870979
1748252108.759656,22.938000000,0.000000000,-333.357879639,0.000000000,0.000000000,15.091125488,-53.426052094,0.000000000,-15.068999290,-13.812870979
1748252108.763059,22.941000000,0.000000000,-333.357879639,0.000000000,0.000000000,15.091125488,-53.426017761,0.000000000,-15.068999290,-13.812870979
1748252108.765630,22.944000000,0.000000000,-333.357879639,0.000000000,0.000000000,15.091125488,-53.425975800,0.000000000,-15.068999290,-13.812870979
1748252108.768598,22.947000000,0.000000000,-333.357879639,0.000000000,0.000000000,15.091125488,-53.425941467,0.000000000,-15.068999290,-13.812870979
1748252108.771511,22.950000000,0.000000000,-333.357879639,0.000000000,0.000000000,15.091125488,-53.425899506,0.000000000,-15.068999290,-13.812870979
1748252108.775011,22.953000000,0.000000000,-333.357879639,0.000000000,0.000000000,15.091125488,-53.425861359,0.000000000,-15.068999290,-13.812870979
1748252108.777584,22.956000000,0.000000000,-333.357879639,0.000000000,0.000000000,15.091125488,-53.425819397,0.000000000,-15.068999290,-13.812870979
1748252108.781091,22.959000000,0.000000000,-333.357879639,0.000000000,0.000000000,15.091125488,-53.425785065,0.000000000,-15.068999290,-13.812870979
1748252108.783957,22.962000000,0.000000000,-333.357879639,0.000000000,0.000000000,15.091125488,-53.425739288,0.000000000,-15.068999290,-13.812870979
1748252108.786794,22.965000000,0.000000000,-333.357879639,0.000000000,0.000000000,15.091125488,-53.425701141,0.000000000,-15.068999290,-13.812870979
1748252108.789320,22.968000000,0.000000000,-333.357879639,0.000000000,0.000000000,15.091125488,-53.425666809,0.000000000,-15.068999290,-13.812870979
1748252108.791958,22.971000000,0.000000000,-333.357879639,0.000000000,0.000000000,15.091125488,-53.425632477,0.000000000,-15.068999290,-13.812870979
1748252108.794630,22.973000000,0.000000000,-333.357879639,0.000000000,0.000000000,15.091125488,-53.425598145,0.000000000,-15.068999290,-13.812870979
1748252108.797233,22.976000000,0.000000000,-333.357879639,0.000000000,0.000000000,15.091125488,-53.425563812,0.000000000,-15.068999290,-13.812870979
1748252108.799912,22.978000000,0.000000000,-333.357879639,0.000000000,0.000000000,15.091125488,-53.425529480,0.000000000,-15.068999290,-13.812870979
1748252108.802911,22.981000000,0.000000000,-333.357879639,0.000000000,0.000000000,15.091125488,-53.425495148,0.000000000,-15.068999290,-13.812870979
1748252108.805815,22.984000000,0.000000000,-333.357879639,0.000000000,0.000000000,15.091125488,-53.425457001,0.000000000,-15.068999290,-13.812870979
1748252108.808441,22.987000000,0.000000000,-333.357879639,0.000000000,0.000000000,15.091125488,-53.425418854,0.000000000,-15.068999290,-13.812870979
1748252108.811213,22.990000000,0.000000000,-333.357879639,0.000000000,0.000000000,15.091125488,-53.425384521,0.000000000,-15.068999290,-13.812870979
1748252108.814041,22.992000000,0.000000000,-333.357879639,0.000000000,0.000000000,15.091125488,-53.425350189,0.000000000,-15.068999290,-13.812870979
1748252108.816991,22.995000000,0.000000000,-333.357879639,0.000000000,0.000000000,15.091125488,-53.425308228,0.000000000,-15.068999290,-13.812870979
1748252108.819849,22.998000000,0.000000000,-333.357879639,0.000000000,0.000000000,15.091125488,-53.425270081,0.000000000,-15.068999290,-13.812870979
1748252108.823285,23.002000000,0.000000000,-333.357879639,0.000000000,0.000000000,15.091125488,-53.425235748,0.000000000,-15.068999290,-13.812870979
1748252108.826486,23.005000000,0.000000000,-333.357879639,0.000000000,0.000000000,15.091125488,-53.425193787,0.000000000,-15.068999290,-13.812870979
1748252108.829021,23.008000000,0.000000000,-333.357879639,0.000000000,0.000000000,15.091125488,-53.425155640,0.000000000,-15.068999290,-13.812870979
1748252108.831714,23.010000000,0.000000000,-333.357879639,0.000000000,0.000000000,15.091125488,-53.425121307,0.000000000,-15.068999290,-13.812870979
1748252108.834364,23.013000000,0.000000000,-333.357879639,0.000000000,0.000000000,15.091125488,-53.425086975,0.000000000,-15.068999290,-13.812870979
1748252108.837058,23.016000000,0.000000000,-333.357879639,0.000000000,0.000000000,15.091125488,-53.425048828,0.000000000,-15.068999290,-13.812870979
1748252108.839711,23.018000000,0.000000000,-333.357879639,0.000000000,0.000000000,15.091125488,-53.425014496,0.000000000,-15.068999290,-13.812870979
1748252108.842596,23.021000000,0.000000000,-333.357879639,0.000000000,0.000000000,15.091125488,-53.424980164,0.000000000,-15.068999290,-13.812870979
1748252108.845329,23.024000000,0.000000000,-333.357879639,0.000000000,0.000000000,15.091125488,-53.424942017,0.000000000,-15.068999290,-13.812870979
1748252108.847884,23.026000000,0.000000000,-333.357879639,0.000000000,0.000000000,15.091125488,-53.424907684,0.000000000,-15.068999290,-13.812870979
1748252108.850892,23.029000000,0.000000000,-333.357879639,0.000000000,0.000000000,15.091125488,-53.424873352,0.000000000,-15.068999290,-13.812870979
1748252108.853415,23.032000000,0.000000000,-333.357879639,0.000000000,0.000000000,15.091125488,-53.424835205,0.000000000,-15.068999290,-13.812870979
1748252108.856339,23.035000000,0.000000000,-333.357879639,0.000000000,0.000000000,15.091125488,-53.424800873,0.000000000,-15.068999290,-13.812870979
1748252108.859113,23.038000000,0.000000000,-333.357879639,0.000000000,0.000000000,15.091125488,-53.424762726,0.000000000,-15.068999290,-13.812870979
1748252108.861696,23.040000000,0.000000000,-333.357879639,0.000000000,0.000000000,15.091125488,-53.424728394,0.000000000,-15.068999290,-13.812870979
1748252108.865078,23.043000000,0.000000000,-333.357879639,0.000000000,0.000000000,15.091125488,-53.424694061,0.000000000,-15.068999290,-13.812870979
1748252108.868203,23.046000000,0.000000000,-333.357879639,0.000000000,0.000000000,15.091125488,-53.424652100,0.000000000,-15.068999290,-13.812870979
1748252108.870826,23.049000000,0.000000000,-333.357879639,0.000000000,0.000000000,15.091125488,-53.424610138,0.000000000,-15.068999290,-13.812870979
1748252108.873761,23.052000000,0.000000000,-333.357879639,0.000000000,0.000000000,15.091125488,-53.424575806,0.000000000,-15.068999290,-13.812870979
1748252108.876392,23.055000000,0.000000000,-333.357879639,0.000000000,0.000000000,15.091125488,-53.424537659,0.000000000,-15.068999290,-13.812870979
1748252108.879024,23.058000000,0.000000000,-333.357879639,0.000000000,0.000000000,15.091125488,-53.424503326,0.000000000,-15.068999290,-13.812870979
1748252108.881738,23.060000000,0.000000000,-333.357879639,0.000000000,0.000000000,15.091125488,-53.424468994,0.000000000,-15.068999290,-13.812870979
1748252108.884584,23.063000000,0.000000000,-333.357879639,0.000000000,0.000000000,15.091125488,-53.424434662,0.000000000,-15.068999290,-13.812870979
1748252108.887246,23.066000000,0.000000000,-333.357879639,0.000000000,0.000000000,15.091125488,-53.424400330,0.000000000,-15.068999290,-13.812870979
1748252108.889761,23.068000000,0.000000000,-333.357879639,0.000000000,0.000000000,15.091125488,-53.424365997,0.000000000,-15.068999290,-13.812870979
1748252108.892439,23.071000000,0.000000000,-333.357879639,0.000000000,0.000000000,15.091125488,-53.424331665,0.000000000,-15.068999290,-13.812870979
1748252108.895138,23.074000000,0.000000000,-333.357879639,0.000000000,0.000000000,15.091125488,-53.424297333,0.000000000,-15.068999290,-13.812870979
1748252108.898097,23.076000000,0.000000000,-333.357879639,0.000000000,0.000000000,15.091125488,-53.424259186,0.000000000,-15.068999290,-13.812870979
1748252108.901026,23.079000000,0.000000000,-333.357879639,0.000000000,0.000000000,15.091125488,-53.424221039,0.000000000,-15.068999290,-13.812870979
1748252108.903669,23.082000000,0.000000000,-333.357879639,0.000000000,0.000000000,15.091125488,-53.424182892,0.000000000,-15.068999290,-13.812870979
1748252108.906477,23.085000000,0.000000000,-333.357879639,0.000000000,0.000000000,15.091125488,-53.424148560,0.000000000,-15.068999290,-13.812870979
1748252108.909649,23.088000000,0.000000000,-333.357879639,0.000000000,0.000000000,15.091125488,-53.424114227,0.000000000,-15.068999290,-13.812870979
1748252108.912773,23.091000000,0.000000000,-333.357879639,0.000000000,0.000000000,15.091125488,-53.424072266,0.000000000,-15.068999290,-13.812870979
1748252108.915595,23.094000000,0.000000000,-333.357879639,0.000000000,0.000000000,15.091125488,-53.424034119,0.000000000,-15.068999290,-13.812870979
1748252108.918191,23.097000000,0.000000000,-333.357879639,0.000000000,0.000000000,15.091125488,-53.423992157,0.000000000,-15.068999290,-13.812870979
1748252108.920934,23.099000000,0.000000000,-333.357879639,0.000000000,0.000000000,15.091125488,-53.423957825,0.000000000,-15.068999290,-13.812870979
1748252108.923584,23.102000000,0.000000000,-333.357879639,0.000000000,0.000000000,15.091125488,-53.423923492,0.000000000,-15.068999290,-13.812870979
1748252108.926640,23.105000000,0.000000000,-333.357879639,0.000000000,0.000000000,15.091125488,-53.423889160,0.000000000,-15.068999290,-13.812870979
1748252108.929217,23.108000000,0.000000000,-333.357879639,0.000000000,0.000000000,15.091125488,-53.423851013,0.000000000,-15.068999290,-13.812870979
1748252108.933031,23.111000000,0.000000000,-333.357879639,0.000000000,0.000000000,15.091125488,-53.423816681,0.000000000,-15.068999290,-13.812870979
1748252108.935927,23.114000000,0.000000000,-333.357879639,0.000000000,0.000000000,15.091125488,-53.423770905,0.000000000,-15.068999290,-13.812870979
1748252108.938885,23.117000000,0.000000000,-333.357879639,0.000000000,0.000000000,15.091125488,-53.423728943,0.000000000,-15.068999290,-13.812870979
1748252108.941474,23.120000000,0.000000000,-333.357879639,0.000000000,0.000000000,15.091125488,-53.423694611,0.000000000,-15.068999290,-13.812870979
1748252108.944162,23.123000000,0.000000000,-333.357879639,0.000000000,0.000000000,15.091125488,-53.423660278,0.000000000,-15.068999290,-13.812870979
1748252108.947172,23.125000000,0.000000000,-333.357879639,0.000000000,0.000000000,15.091125488,-53.423625946,0.000000000,-15.068999290,-13.812870979
1748252108.950590,23.129000000,0.000000000,-333.357879639,0.000000000,0.000000000,15.091125488,-53.423587799,0.000000000,-15.068999290,-13.812870979
1748252108.953219,23.132000000,0.000000000,-333.357879639,0.000000000,0.000000000,15.091125488,-53.423545837,0.000000000,-15.068999290,-13.812870979
1748252108.956663,23.135000000,0.000000000,-333.357879639,0.000000000,0.000000000,15.091125488,-53.423511505,0.000000000,-15.068999290,-13.812870979
1748252108.959880,23.138000000,0.000000000,-333.357879639,0.000000000,0.000000000,15.091125488,-53.423465729,0.000000000,-15.068999290,-13.812870979
1748252108.962378,23.141000000,0.000000000,-333.357879639,0.000000000,0.000000000,15.091125488,-53.423423767,0.000000000,-15.068999290,-13.812870979
1748252108.965010,23.144000000,0.000000000,-333.357879639,0.000000000,0.000000000,15.091125488,-53.423389435,0.000000000,-15.068999290,-13.812870979
1748252108.967734,23.146000000,0.000000000,-333.357879639,0.000000000,0.000000000,15.091125488,-53.423355103,0.000000000,-15.068999290,-13.812870979
1748252108.970362,23.149000000,0.000000000,-333.357879639,0.000000000,0.000000000,15.091125488,-53.423320770,0.000000000,-15.068999290,-13.812870979
1748252108.972949,23.151000000,0.000000000,-333.357879639,0.000000000,0.000000000,15.091125488,-53.423286438,0.000000000,-15.068999290,-13.812870979
1748252108.975609,23.154000000,0.000000000,-333.357879639,0.000000000,0.000000000,15.091125488,-53.423252106,0.000000000,-15.068999290,-13.812870979
1748252108.978356,23.157000000,0.000000000,-333.357879639,0.000000000,0.000000000,15.091125488,-53.423217773,0.000000000,-15.068999290,-13.812870979
1748252108.981572,23.160000000,0.000000000,-333.357879639,0.000000000,0.000000000,15.091125488,-53.423183441,0.000000000,-15.068999290,-13.812870979
1748252108.984932,23.163000000,0.000000000,-333.357879639,0.000000000,0.000000000,15.091125488,-53.423141479,0.000000000,-15.068999290,-13.812870979
1748252108.987634,23.166000000,0.000000000,-333.357879639,0.000000000,0.000000000,15.091125488,-53.423099518,0.000000000,-15.068999290,-13.812870979
1748252108.990196,23.169000000,0.000000000,-333.357879639,0.000000000,0.000000000,15.091125488,-53.423065186,0.000000000,-15.068999290,-13.812870979
1748252108.993237,23.172000000,0.000000000,-333.357879639,0.000000000,0.000000000,15.091125488,-53.423030853,0.000000000,-15.068999290,-13.812870979
1748252108.996251,23.175000000,0.000000000,-333.357879639,0.000000000,0.000000000,15.091125488,-53.422992706,0.000000000,-15.068999290,-13.812870979
1748252108.998806,23.177000000,0.000000000,-333.357879639,0.000000000,0.000000000,15.091125488,-53.422954559,0.000000000,-15.068999290,-13.812870979
1748252109.001482,23.180000000,0.000000000,-333.357879639,0.000000000,0.000000000,15.091125488,-53.422920227,0.000000000,-15.068999290,-13.812870979
1748252109.004097,23.183000000,0.000000000,-333.357879639,0.000000000,0.000000000,15.091125488,-53.422885895,0.000000000,-15.068999290,-13.812870979
1748252109.006714,23.185000000,0.000000000,-333.357879639,0.000000000,0.000000000,15.091125488,-53.422851563,0.000000000,-15.068999290,-13.812870979
1748252109.009350,23.188000000,0.000000000,-333.357879639,0.000000000,0.000000000,15.091125488,-53.422817230,0.000000000,-15.068999290,-13.812870979
1748252109.012070,23.191000000,0.000000000,-333.357879639,0.000000000,0.000000000,15.091125488,-53.422779083,0.000000000,-15.068999290,-13.812870979
1748252109.014753,23.193000000,0.000000000,-333.357879639,0.000000000,0.000000000,15.091125488,-53.422744751,0.000000000,-15.068999290,-13.812870979
1748252109.017407,23.196000000,0.000000000,-333.357879639,0.000000000,0.000000000,15.091125488,-53.422710419,0.000000000,-15.068999290,-13.812870979
1748252109.020058,23.199000000,0.000000000,-333.357879639,0.000000000,0.000000000,15.091125488,-53.422676086,0.000000000,-15.068999290,-13.812870979
1748252109.022744,23.201000000,0.000000000,-333.357879639,0.000000000,0.000000000,15.091125488,-53.422641754,0.000000000,-15.068999290,-13.812870979
1748252109.025791,23.204000000,0.000000000,-333.357879639,0.000000000,0.000000000,15.091125488,-53.422607422,0.000000000,-15.068999290,-13.812870979
1748252109.028417,23.207000000,0.000000000,-333.357879639,0.000000000,0.000000000,15.091125488,-53.422569275,0.000000000,-15.068999290,-13.812870979
1748252109.031483,23.210000000,0.000000000,-333.357879639,0.000000000,0.000000000,15.091125488,-53.422534943,0.000000000,-15.068999290,-13.812870979
1748252109.034468,23.213000000,0.000000000,-333.357879639,0.000000000,0.000000000,15.091125488,-53.422496796,0.000000000,-15.068999290,-13.812870979
1748252109.037001,23.216000000,0.000000000,-333.357879639,0.000000000,0.000000000,15.091125488,-53.422458649,0.000000000,-15.068999290,-13.812870979
1748252109.039651,23.218000000,0.000000000,-333.357879639,0.000000000,0.000000000,15.091125488,-53.422424316,0.000000000,-15.068999290,-13.812870979
1748252109.042587,23.221000000,0.000000000,-333.357879639,0.000000000,0.000000000,15.091125488,-53.422389984,0.000000000,-15.068999290,-13.812870979
1748252109.045256,23.224000000,0.000000000,-333.357879639,0.000000000,0.000000000,15.091125488,-53.422348022,0.000000000,-15.068999290,-13.812870979
1748252109.048278,23.227000000,0.000000000,-333.357879639,0.000000000,0.000000000,15.091125488,-53.422313690,0.000000000,-15.068999290,-13.812870979
1748252109.051188,23.230000000,0.000000000,-333.357879639,0.000000000,0.000000000,15.091125488,-53.422275543,0.000000000,-15.068999290,-13.812870979
1748252109.054163,23.232000000,0.000000000,-333.357879639,0.000000000,0.000000000,15.091125488,-53.422237396,0.000000000,-15.068999290,-13.812870979
1748252109.056946,23.235000000,0.000000000,-333.357879639,0.000000000,0.000000000,15.091125488,-53.422199249,0.000000000,-15.068999290,-13.812870979
1748252109.059671,23.238000000,0.000000000,-333.357879639,0.000000000,0.000000000,15.091125488,-53.422164917,0.000000000,-15.068999290,-13.812870979
1748252109.062646,23.241000000,0.000000000,-333.357879639,0.000000000,0.000000000,15.091125488,-53.422130585,0.000000000,-15.068999290,-13.812870979
1748252109.065214,23.244000000,0.000000000,-333.357879639,0.000000000,0.000000000,15.091125488,-53.422088623,0.000000000,-15.068999290,-13.812870979
1748252109.067820,23.246000000,0.000000000,-333.357879639,0.000000000,0.000000000,15.091125488,-53.422054291,0.000000000,-15.068999290,-13.812870979
1748252109.070434,23.249000000,0.000000000,-333.357879639,0.000000000,0.000000000,15.091125488,-53.422019958,0.000000000,-15.068999290,-13.812870979
1748252109.073267,23.252000000,0.000000000,-333.357879639,0.000000000,0.000000000,15.091125488,-53.421985626,0.000000000,-15.068999290,-13.812870979
1748252109.075888,23.254000000,0.000000000,-333.357879639,0.000000000,0.000000000,15.091125488,-53.421951294,0.000000000,-15.068999290,-13.812870979
1748252109.078576,23.257000000,0.000000000,-333.357879639,0.000000000,0.000000000,15.091125488,-53.421916962,0.000000000,-15.068999290,-13.812870979
1748252109.081158,23.260000000,0.000000000,-333.357879639,0.000000000,0.000000000,15.091125488,-53.421882629,0.000000000,-15.068999290,-13.812870979
1748252109.084073,23.262000000,0.000000000,-333.357879639,0.000000000,0.000000000,15.091125488,-53.421848297,0.000000000,-15.068999290,-13.812870979
1748252109.086736,23.265000000,0.000000000,-333.357879639,0.000000000,0.000000000,15.091125488,-53.421813965,0.000000000,-15.068999290,-13.812870979
1748252109.089353,23.268000000,0.000000000,-333.357879639,0.000000000,0.000000000,15.091125488,-53.421779633,0.000000000,-15.068999290,-13.812870979
1748252109.092031,23.271000000,0.000000000,-333.357879639,0.000000000,0.000000000,15.091125488,-53.421745300,0.000000000,-15.068999290,-13.812870979
1748252109.094653,23.273000000,0.000000000,-333.357879639,0.000000000,0.000000000,15.091125488,-53.421710968,0.000000000,-15.068999290,-13.812870979
1748252109.097905,23.276000000,0.000000000,-333.357879639,0.000000000,0.000000000,15.091125488,-53.421676636,0.000000000,-15.068999290,-13.812870979
1748252109.101215,23.280000000,0.000000000,-333.357879639,0.000000000,0.000000000,15.091125488,-53.421638489,0.000000000,-15.068999290,-13.812870979
1748252109.103731,23.282000000,0.000000000,-333.357879639,0.000000000,0.000000000,15.091125488,-53.421592712,0.000000000,-15.068999290,-13.812870979
1748252109.106400,23.285000000,0.000000000,-333.357879639,0.000000000,0.000000000,15.091125488,-53.421558380,0.000000000,-15.068999290,-13.812870979
1748252109.109502,23.288000000,0.000000000,-333.357879639,0.000000000,0.000000000,15.091125488,-53.421524048,0.000000000,-15.068999290,-13.812870979
1748252109.112420,23.291000000,0.000000000,-333.357879639,0.000000000,0.000000000,15.091125488,-53.421485901,0.000000000,-15.068999290,-13.812870979
1748252109.115460,23.294000000,0.000000000,-333.357879639,0.000000000,0.000000000,15.091125488,-53.421447754,0.000000000,-15.068999290,-13.812870979
1748252109.118358,23.297000000,0.000000000,-333.357879639,0.000000000,0.000000000,15.091125488,-53.421409607,0.000000000,-15.068999290,-13.812870979
1748252109.121623,23.300000000,0.000000000,-333.357879639,0.000000000,0.000000000,15.091125488,-53.421371460,0.000000000,-15.068999290,-13.812870979
1748252109.124511,23.303000000,0.000000000,-333.357879639,0.000000000,0.000000000,15.091125488,-53.421325684,0.000000000,-15.068999290,-13.812870979
1748252109.127080,23.306000000,0.000000000,-333.357879639,0.000000000,0.000000000,15.091125488,-53.421287537,0.000000000,-15.068999290,-13.812870979
1748252109.129757,23.308000000,0.000000000,-333.357879639,0.000000000,0.000000000,15.091125488,-53.421253204,0.000000000,-15.068999290,-13.812870979
1748252109.132430,23.311000000,0.000000000,-333.357879639,0.000000000,0.000000000,15.091125488,-53.421218872,0.000000000,-15.068999290,-13.812870979
1748252109.135090,23.314000000,0.000000000,-333.357879639,0.000000000,0.000000000,15.091125488,-53.421184540,0.000000000,-15.068999290,-13.812870979
1748252109.137781,23.316000000,0.000000000,-333.357879639,0.000000000,0.000000000,15.091125488,-53.421150208,0.000000000,-15.068999290,-13.812870979
1748252109.140371,23.319000000,0.000000000,-333.357879639,0.000000000,0.000000000,15.091125488,-53.421115875,0.000000000,-15.068999290,-13.812870979
1748252109.143038,23.322000000,0.000000000,-333.357879639,0.000000000,0.000000000,15.091125488,-53.421081543,0.000000000,-15.068999290,-13.812870979
1748252109.146027,23.324000000,0.000000000,-333.357879639,0.000000000,0.000000000,15.091125488,-53.421047211,0.000000000,-15.068999290,-13.812870979
1748252109.148592,23.327000000,0.000000000,-333.357879639,0.000000000,0.000000000,15.091125488,-53.421009064,0.000000000,-15.068999290,-13.812870979
1748252109.151827,23.330000000,0.000000000,-333.357879639,0.000000000,0.000000000,15.091125488,-53.420970917,0.000000000,-15.068999290,-13.812870979
1748252109.154394,23.333000000,0.000000000,-333.357879639,0.000000000,0.000000000,15.091125488,-53.420932770,0.000000000,-15.068999290,-13.812870979
1748252109.157054,23.336000000,0.000000000,-333.357879639,0.000000000,0.000000000,15.091125488,-53.420898438,0.000000000,-15.068999290,-13.812870979
1748252109.160132,23.338000000,0.000000000,-333.357879639,0.000000000,0.000000000,15.091125488,-53.420864105,0.000000000,-15.068999290,-13.812870979
1748252109.163395,23.342000000,0.000000000,-333.357879639,0.000000000,0.000000000,15.091125488,-53.420825958,0.000000000,-15.068999290,-13.812870979
1748252109.166154,23.344000000,0.000000000,-333.357879639,0.000000000,0.000000000,15.091125488,-53.420787811,0.000000000,-15.068999290,-13.812870979
1748252109.169164,23.348000000,0.000000000,-333.357879639,0.000000000,0.000000000,15.091125488,-53.420749664,0.000000000,-15.068999290,-13.812870979
1748252109.171742,23.350000000,0.000000000,-333.357879639,0.000000000,0.000000000,15.091125488,-53.420707703,0.000000000,-15.068999290,-13.812870979
1748252109.175067,23.353000000,0.000000000,-333.357879639,0.000000000,0.000000000,15.091125488,-53.420673370,0.000000000,-15.068999290,-13.812870979
1748252109.177763,23.356000000,0.000000000,-333.357879639,0.000000000,0.000000000,15.091125488,-53.420631409,0.000000000,-15.068999290,-13.812870979
1748252109.180910,23.359000000,0.000000000,-333.357879639,0.000000000,0.000000000,15.091125488,-53.420597076,0.000000000,-15.068999290,-13.812870979
1748252109.183985,23.362000000,0.000000000,-333.357879639,0.000000000,0.000000000,15.091125488,-53.420558929,0.000000000,-15.068999290,-13.812870979
1748252109.186568,23.365000000,0.000000000,-333.357879639,0.000000000,0.000000000,15.091125488,-53.420520782,0.000000000,-15.068999290,-13.812870979
1748252109.189251,23.368000000,0.000000000,-333.357879639,0.000000000,0.000000000,15.091125488,-53.420486450,0.000000000,-15.068999290,-13.812870979
1748252109.192023,23.370000000,0.000000000,-333.357879639,0.000000000,0.000000000,15.091125488,-53.420452118,0.000000000,-15.068999290,-13.812870979
1748252109.194618,23.373000000,0.000000000,-333.357879639,0.000000000,0.000000000,15.091125488,-53.420417786,0.000000000,-15.068999290,-13.812870979
1748252109.197267,23.376000000,0.000000000,-333.357879639,0.000000000,0.000000000,15.091125488,-53.420383453,0.000000000,-15.068999290,-13.812870979
1748252109.199910,23.378000000,0.000000000,-333.357879639,0.000000000,0.000000000,15.091125488,-53.420345306,0.000000000,-15.068999290,-13.812870979
1748252109.202534,23.381000000,0.000000000,-333.357879639,0.000000000,0.000000000,15.091125488,-53.420310974,0.000000000,-15.068999290,-13.812870979
1748252109.205152,23.384000000,0.000000000,-333.357879639,0.000000000,0.000000000,15.091125488,-53.420276642,0.000000000,-15.068999290,-13.812870979
1748252109.208232,23.386000000,0.000000000,-333.357879639,0.000000000,0.000000000,15.091125488,-53.420242310,0.000000000,-15.068999290,-13.812870979
1748252109.210805,23.389000000,0.000000000,-333.357879639,0.000000000,0.000000000,15.091125488,-53.420204163,0.000000000,-15.068999290,-13.812870979
1748252109.213495,23.392000000,0.000000000,-333.357879639,0.000000000,0.000000000,15.091125488,-53.420169830,0.000000000,-15.068999290,-13.812870979
1748252109.216590,23.395000000,0.000000000,-333.357879639,0.000000000,0.000000000,15.091125488,-53.420135498,0.000000000,-15.068999290,-13.812870979
1748252109.219438,23.398000000,0.000000000,-333.357879639,0.000000000,0.000000000,15.091125488,-53.420097351,0.000000000,-15.068999290,-13.812870979
1748252109.222836,23.401000000,0.000000000,-333.357879639,0.000000000,0.000000000,15.091125488,-53.420063019,0.000000000,-15.068999290,-13.812870979
1748252109.225704,23.404000000,0.000000000,-333.357879639,0.000000000,0.000000000,15.091125488,-53.420017242,0.000000000,-15.068999290,-13.812870979
1748252109.228681,23.407000000,0.000000000,-333.357879639,0.000000000,0.000000000,15.091125488,-53.419979095,0.000000000,-15.068999290,-13.812870979
1748252109.232202,23.410000000,0.000000000,-333.357879639,0.000000000,0.000000000,15.091125488,-53.419940948,0.000000000,-15.068999290,-13.812870979
1748252109.234910,23.413000000,0.000000000,-333.357879639,0.000000000,0.000000000,15.091125488,-53.419895172,0.000000000,-15.068999290,-13.812870979
1748252109.238397,23.417000000,0.000000000,-333.357879639,0.000000000,0.000000000,15.091125488,-53.419860840,0.000000000,-15.068999290,-13.812870979
1748252109.241381,23.420000000,0.000000000,-333.357879639,0.000000000,0.000000000,15.091125488,-53.419815063,0.000000000,-15.068999290,-13.812870979
1748252109.244182,23.423000000,0.000000000,-333.357879639,0.000000000,0.000000000,15.091125488,-53.419776917,0.000000000,-15.068999290,-13.812870979
1748252109.246776,23.425000000,0.000000000,-333.357879639,0.000000000,0.000000000,15.091125488,-53.419738770,0.000000000,-15.068999290,-13.812870979
1748252109.249593,23.428000000,0.000000000,-333.357879639,0.000000000,0.000000000,15.091125488,-53.419704437,0.000000000,-15.068999290,-13.812870979
1748252109.252315,23.431000000,0.000000000,-333.357879639,0.000000000,0.000000000,15.091125488,-53.419670105,0.000000000,-15.068999290,-13.812870979
1748252109.255013,23.433000000,0.000000000,-333.357879639,0.000000000,0.000000000,15.091125488,-53.419635773,0.000000000,-15.068999290,-13.812870979
1748252109.257538,23.436000000,0.000000000,-333.357879639,0.000000000,0.000000000,15.091125488,-53.419601440,0.000000000,-15.068999290,-13.812870979
1748252109.260629,23.439000000,0.000000000,-333.357879639,0.000000000,0.000000000,15.091125488,-53.419567108,0.000000000,-15.068999290,-13.812870979
1748252109.263510,23.442000000,0.000000000,-333.357879639,0.000000000,0.000000000,15.091125488,-53.419528961,0.000000000,-15.068999290,-13.812870979
1748252109.266362,23.445000000,0.000000000,-333.357879639,0.000000000,0.000000000,15.091125488,-53.419487000,0.000000000,-15.068999290,-13.812870979
1748252109.269179,23.448000000,0.000000000,-333.357879639,0.000000000,0.000000000,15.091125488,-53.419452667,0.000000000,-15.068999290,-13.812870979
1748252109.272193,23.451000000,0.000000000,-333.357879639,0.000000000,0.000000000,15.091125488,-53.419414520,0.000000000,-15.068999290,-13.812870979
1748252109.274808,23.453000000,0.000000000,-333.357879639,0.000000000,0.000000000,15.091125488,-53.419376373,0.000000000,-15.068999290,-13.812870979
1748252109.277551,23.456000000,0.000000000,-333.357879639,0.000000000,0.000000000,15.091125488,-53.419342041,0.000000000,-15.068999290,-13.812870979
1748252109.280385,23.459000000,0.000000000,-333.357879639,0.000000000,0.000000000,15.091125488,-53.419307709,0.000000000,-15.068999290,-13.812870979
1748252109.283101,23.462000000,0.000000000,-333.357879639,0.000000000,0.000000000,15.091125488,-53.419273376,0.000000000,-15.068999290,-13.812870979
1748252109.285913,23.464000000,0.000000000,-333.357879639,0.000000000,0.000000000,15.091125488,-53.419239044,0.000000000,-15.068999290,-13.812870979
1748252109.288967,23.467000000,0.000000000,-333.357879639,0.000000000,0.000000000,15.091125488,-53.419200897,0.000000000,-15.068999290,-13.812870979
1748252109.291499,23.470000000,0.000000000,-333.357879639,0.000000000,0.000000000,15.091125488,-53.419158936,0.000000000,-15.068999290,-13.812870979
1748252109.294118,23.473000000,0.000000000,-333.357879639,0.000000000,0.000000000,15.091125488,-53.419124603,0.000000000,-15.068999290,-13.812870979
1748252109.296744,23.475000000,0.000000000,-333.357879639,0.000000000,0.000000000,15.091125488,-53.419090271,0.000000000,-15.068999290,-13.812870979
1748252109.299259,23.478000000,0.000000000,-333.357879639,0.000000000,0.000000000,15.091125488,-53.419055939,0.000000000,-15.068999290,-13.812870979
1748252109.301944,23.480000000,0.000000000,-333.357879639,0.000000000,0.000000000,15.091125488,-53.419021606,0.000000000,-15.068999290,-13.812870979
1748252109.304653,23.483000000,0.000000000,-333.357879639,0.000000000,0.000000000,15.091125488,-53.418987274,0.000000000,-15.068999290,-13.812870979
1748252109.307323,23.486000000,0.000000000,-333.357879639,0.000000000,0.000000000,15.091125488,-53.418952942,0.000000000,-15.068999290,-13.812870979
1748252109.310004,23.489000000,0.000000000,-333.357879639,0.000000000,0.000000000,15.091125488,-53.418918610,0.000000000,-15.068999290,-13.812870979
1748252109.312722,23.491000000,0.000000000,-333.357879639,0.000000000,0.000000000,15.091125488,-53.418884277,0.000000000,-15.068999290,-13.812870979
1748252109.315588,23.494000000,0.000000000,-333.357879639,0.000000000,0.000000000,15.091125488,-53.418849945,0.000000000,-15.068999290,-13.812870979
1748252109.318600,23.497000000,0.000000000,-333.357879639,0.000000000,0.000000000,15.091125488,-53.418811798,0.000000000,-15.068999290,-13.812870979
1748252109.321354,23.500000000,0.000000000,-333.357879639,0.000000000,0.000000000,15.091125488,-53.418773651,0.000000000,-15.068999290,-13.812870979
1748252109.323949,23.502000000,0.000000000,-333.357879639,0.000000000,0.000000000,15.091125488,-53.418739319,0.000000000,-15.068999290,-13.812870979
1748252109.327035,23.505000000,0.000000000,-333.357879639,0.000000000,0.000000000,15.091125488,-53.418701172,0.000000000,-15.068999290,-13.812870979
1748252109.330013,23.508000000,0.000000000,-333.357879639,0.000000000,0.000000000,15.091125488,-53.418663025,0.000000000,-15.068999290,-13.812870979
1748252109.332590,23.511000000,0.000000000,-333.357879639,0.000000000,0.000000000,15.091125488,-53.418624878,0.000000000,-15.068999290,-13.812870979
1748252109.335496,23.514000000,0.000000000,-333.357879639,0.000000000,0.000000000,15.091125488,-53.418590546,0.000000000,-15.068999290,-13.812870979
1748252109.338593,23.517000000,0.000000000,-333.357879639,0.000000000,0.000000000,15.091125488,-53.418556213,0.000000000,-15.068999290,-13.812870979
1748252109.341411,23.520000000,0.000000000,-333.357879639,0.000000000,0.000000000,15.091125488,-53.418518066,0.000000000,-15.068999290,-13.812870979
1748252109.343975,23.523000000,0.000000000,-333.357879639,0.000000000,0.000000000,15.091125488,-53.418483734,0.000000000,-15.068999290,-13.812870979
1748252109.346642,23.525000000,0.000000000,-333.357879639,0.000000000,0.000000000,15.091125488,-53.418449402,0.000000000,-15.068999290,-13.812870979
1748252109.349399,23.528000000,0.000000000,-333.357879639,0.000000000,0.000000000,15.091125488,-53.418415070,0.000000000,-15.068999290,-13.812870979
1748252109.352107,23.531000000,0.000000000,-333.357879639,0.000000000,0.000000000,15.091125488,-53.418380737,0.000000000,-15.068999290,-13.812870979
1748252109.354809,23.533000000,0.000000000,-333.357879639,0.000000000,0.000000000,15.091125488,-53.418346405,0.000000000,-15.068999290,-13.812870979
1748252109.357486,23.536000000,0.000000000,-333.357879639,0.000000000,0.000000000,15.091125488,-53.418312073,0.000000000,-15.068999290,-13.812870979
1748252109.360612,23.539000000,0.000000000,-333.357879639,0.000000000,0.000000000,15.091125488,-53.418273926,0.000000000,-15.068999290,-13.812870979
1748252109.363323,23.542000000,0.000000000,-333.357879639,0.000000000,0.000000000,15.091125488,-53.418235779,0.000000000,-15.068999290,-13.812870979
1748252109.367616,23.545000000,0.000000000,-333.357879639,0.000000000,0.000000000,15.091125488,-53.418201447,0.000000000,-15.068999290,-13.812870979
1748252109.370282,23.549000000,0.000000000,-333.357879639,0.000000000,0.000000000,15.091125488,-53.418148041,0.000000000,-15.068999290,-13.812870979
1748252109.373201,23.552000000,0.000000000,-333.357879639,0.000000000,0.000000000,15.091125488,-53.418113708,0.000000000,-15.068999290,-13.812870979
1748252109.376180,23.555000000,0.000000000,-333.357879639,0.000000000,0.000000000,15.091125488,-53.418071747,0.000000000,-15.068999290,-13.812870979
1748252109.378741,23.557000000,0.000000000,-333.357879639,0.000000000,0.000000000,15.091125488,-53.418033600,0.000000000,-15.068999290,-13.812870979
1748252109.381410,23.560000000,0.000000000,-333.357879639,0.000000000,0.000000000,15.091125488,-53.417999268,0.000000000,-15.068999290,-13.812870979
1748252109.384373,23.563000000,0.000000000,-333.357879639,0.000000000,0.000000000,15.091125488,-53.417964935,0.000000000,-15.068999290,-13.812870979
1748252109.387011,23.566000000,0.000000000,-333.357879639,0.000000000,0.000000000,15.091125488,-53.417926788,0.000000000,-15.068999290,-13.812870979
1748252109.389668,23.568000000,0.000000000,-333.357879639,0.000000000,0.000000000,15.091125488,-53.417892456,0.000000000,-15.068999290,-13.812870979
1748252109.392270,23.571000000,0.000000000,-333.357879639,0.000000000,0.000000000,15.091125488,-53.417858124,0.000000000,-15.068999290,-13.812870979
1748252109.394883,23.573000000,0.000000000,-333.357879639,0.000000000,0.000000000,15.091125488,-53.417823792,0.000000000,-15.068999290,-13.812870979
1748252109.397490,23.576000000,0.000000000,-333.357879639,0.000000000,0.000000000,15.091125488,-53.417789459,0.000000000,-15.068999290,-13.812870979
1748252109.400126,23.579000000,0.000000000,-333.357879639,0.000000000,0.000000000,15.091125488,-53.417755127,0.000000000,-15.068999290,-13.812870979
1748252109.403143,23.582000000,0.000000000,-333.357879639,0.000000000,0.000000000,15.091125488,-53.417720795,0.000000000,-15.068999290,-13.812870979
1748252109.405807,23.584000000,0.000000000,-333.357879639,0.000000000,0.000000000,15.091125488,-53.417678833,0.000000000,-15.068999290,-13.812870979
1748252109.408433,23.587000000,0.000000000,-333.357879639,0.000000000,0.000000000,15.091125488,-53.417644501,0.000000000,-15.068999290,-13.812870979
1748252109.411183,23.590000000,0.000000000,-333.357879639,0.000000000,0.000000000,15.091125488,-53.417610168,0.000000000,-15.068999290,-13.812870979
1748252109.414130,23.592000000,0.000000000,-333.357879639,0.000000000,0.000000000,15.091125488,-53.417575836,0.000000000,-15.068999290,-13.812870979
1748252109.417311,23.596000000,0.000000000,-333.357879639,0.000000000,0.000000000,15.091125488,-53.417537689,0.000000000,-15.068999290,-13.812870979
1748252109.420339,23.599000000,0.000000000,-333.357879639,0.000000000,0.000000000,15.091125488,-53.417499542,0.000000000,-15.068999290,-13.812870979
1748252109.422828,23.601000000,0.000000000,-333.357879639,0.000000000,0.000000000,15.091125488,-53.417461395,0.000000000,-15.068999290,-13.812870979
1748252109.425643,23.604000000,0.000000000,-333.357879639,0.000000000,0.000000000,15.091125488,-53.417427063,0.000000000,-15.068999290,-13.812870979
1748252109.428417,23.607000000,0.000000000,-333.357879639,0.000000000,0.000000000,15.091125488,-53.417392731,0.000000000,-15.068999290,-13.812870979
1748252109.431032,23.610000000,0.000000000,-333.357879639,0.000000000,0.000000000,15.091125488,-53.417358398,0.000000000,-15.068999290,-13.812870979
1748252109.434018,23.612000000,0.000000000,-333.357879639,0.000000000,0.000000000,15.091125488,-53.417320251,0.000000000,-15.068999290,-13.812870979
1748252109.436880,23.615000000,0.000000000,-333.357879639,0.000000000,0.000000000,15.091125488,-53.417282104,0.000000000,-15.068999290,-13.812870979
1748252109.440095,23.619000000,0.000000000,-333.357879639,0.000000000,0.000000000,15.091125488,-53.417243958,0.000000000,-15.068999290,-13.812870979
1748252109.442725,23.621000000,0.000000000,-333.357879639,0.000000000,0.000000000,15.091125488,-53.417201996,0.000000000,-15.068999290,-13.812870979
1748252109.445417,23.624000000,0.000000000,-333.357879639,0.000000000,0.000000000,15.091125488,-53.417167664,0.000000000,-15.068999290,-13.812870979
1748252109.448162,23.627000000,0.000000000,-333.357879639,0.000000000,0.000000000,15.091125488,-53.417133331,0.000000000,-15.068999290,-13.812870979
1748252109.450833,23.629000000,0.000000000,-333.357879639,0.000000000,0.000000000,15.091125488,-53.417098999,0.000000000,-15.068999290,-13.812870979
1748252109.453494,23.632000000,0.000000000,-333.357879639,0.000000000,0.000000000,15.091125488,-53.417064667,0.000000000,-15.068999290,-13.812870979
1748252109.456126,23.635000000,0.000000000,-333.357879639,0.000000000,0.000000000,15.091125488,-53.417030334,0.000000000,-15.068999290,-13.812870979
1748252109.459191,23.637000000,0.000000000,-333.357879639,0.000000000,0.000000000,15.091125488,-53.416996002,0.000000000,-15.068999290,-13.812870979
1748252109.461776,23.640000000,0.000000000,-333.357879639,0.000000000,0.000000000,15.091125488,-53.416954041,0.000000000,-15.068999290,-13.812870979
1748252109.464691,23.643000000,0.000000000,-333.357879639,0.000000000,0.000000000,15.091125488,-53.416919708,0.000000000,-15.068999290,-13.812870979
1748252109.467301,23.646000000,0.000000000,-333.357879639,0.000000000,0.000000000,15.091125488,-53.416885376,0.000000000,-15.068999290,-13.812870979
1748252109.469902,23.648000000,0.000000000,-333.357879639,0.000000000,0.000000000,15.091125488,-53.416851044,0.000000000,-15.068999290,-13.812870979
1748252109.473384,23.652000000,0.000000000,-333.357879639,0.000000000,0.000000000,15.091125488,-53.416816711,0.000000000,-15.068999290,-13.812870979
1748252109.476529,23.655000000,0.000000000,-333.357879639,0.000000000,0.000000000,15.091125488,-53.416774750,0.000000000,-15.068999290,-13.812870979
1748252109.479539,23.658000000,0.000000000,-333.357879639,0.000000000,0.000000000,15.091125488,-53.416736603,0.000000000,-15.068999290,-13.812870979
1748252109.482038,23.661000000,0.000000000,-333.357879639,0.000000000,0.000000000,15.091125488,-53.416694641,0.000000000,-15.068999290,-13.812870979
1748252109.484777,23.663000000,0.000000000,-333.357879639,0.000000000,0.000000000,15.091125488,-53.416660309,0.000000000,-15.068999290,-13.812870979
1748252109.487523,23.666000000,0.000000000,-333.357879639,0.000000000,0.000000000,15.091125488,-53.416625977,0.000000000,-15.068999290,-13.812870979
1748252109.490091,23.669000000,0.000000000,-333.357879639,0.000000000,0.000000000,15.091125488,-53.416591644,0.000000000,-15.068999290,-13.812870979
1748252109.492873,23.671000000,0.000000000,-333.357879639,0.000000000,0.000000000,15.091125488,-53.416557312,0.000000000,-15.068999290,-13.812870979
1748252109.495710,23.674000000,0.000000000,-333.357879639,0.000000000,0.000000000,15.091125488,-53.416522980,0.000000000,-15.068999290,-13.812870979
1748252109.498481,23.677000000,0.000000000,-333.357879639,0.000000000,0.000000000,15.091125488,-53.416488647,0.000000000,-15.068999290,-13.812870979
1748252109.501475,23.680000000,0.000000000,-333.357879639,0.000000000,0.000000000,15.091125488,-53.416454315,0.000000000,-15.068999290,-13.812870979
1748252109.504172,23.683000000,0.000000000,-333.357879639,0.000000000,0.000000000,15.091125488,-53.416416168,0.000000000,-15.068999290,-13.812870979
1748252109.506893,23.685000000,0.000000000,-333.357879639,0.000000000,0.000000000,15.091125488,-53.416381836,0.000000000,-15.068999290,-13.812870979
1748252109.509711,23.688000000,0.000000000,-333.357879639,0.000000000,0.000000000,15.091125488,-53.416347504,0.000000000,-15.068999290,-13.812870979
1748252109.512472,23.691000000,0.000000000,-333.357879639,0.000000000,0.000000000,15.091125488,-53.416313171,0.000000000,-15.068999290,-13.812870979
1748252109.515434,23.694000000,0.000000000,-333.357879639,0.000000000,0.000000000,15.091125488,-53.416278839,0.000000000,-15.068999290,-13.812870979
1748252109.518384,23.697000000,0.000000000,-333.357879639,0.000000000,0.000000000,15.091125488,-53.416240692,0.000000000,-15.068999290,-13.812870979
1748252109.521474,23.700000000,0.000000000,-333.357879639,0.000000000,0.000000000,15.091125488,-53.416198730,0.000000000,-15.068999290,-13.812870979
1748252109.523872,23.702000000,0.000000000,-333.357879639,0.000000000,0.000000000,15.091125488,-53.416160583,0.000000000,-15.068999290,-13.812870979
1748252109.526650,23.705000000,0.000000000,-333.357879639,0.000000000,0.000000000,15.091125488,-53.416126251,0.000000000,-15.068999290,-13.812870979
1748252109.529258,23.708000000,0.000000000,-333.357879639,0.000000000,0.000000000,15.091125488,-53.416091919,0.000000000,-15.068999290,-13.812870979
1748252109.531982,23.710000000,0.000000000,-333.357879639,0.000000000,0.000000000,15.091125488,-53.416057587,0.000000000,-15.068999290,-13.812870979
1748252109.534509,23.713000000,0.000000000,-333.357879639,0.000000000,0.000000000,15.091125488,-53.416023254,0.000000000,-15.068999290,-13.812870979
1748252109.537181,23.716000000,0.000000000,-333.357879639,0.000000000,0.000000000,15.091125488,-53.415988922,0.000000000,-15.068999290,-13.812870979
1748252109.540000,23.718000000,0.000000000,-333.357879639,0.000000000,0.000000000,15.091125488,-53.415954590,0.000000000,-15.068999290,-13.812870979
1748252109.542720,23.721000000,0.000000000,-333.357879639,0.000000000,0.000000000,15.091125488,-53.415920258,0.000000000,-15.068999290,-13.812870979
1748252109.545439,23.724000000,0.000000000,-333.357879639,0.000000000,0.000000000,15.091125488,-53.415885925,0.000000000,-15.068999290,-13.812870979
1748252109.548429,23.727000000,0.000000000,-333.357879639,0.000000000,0.000000000,15.091125488,-53.415851593,0.000000000,-15.068999290,-13.812870979
1748252109.551316,23.730000000,0.000000000,-333.357879639,0.000000000,0.000000000,15.091125488,-53.415813446,0.000000000,-15.068999290,-13.812870979
1748252109.553867,23.732000000,0.000000000,-333.357879639,0.000000000,0.000000000,15.091125488,-53.415771484,0.000000000,-15.068999290,-13.812870979
1748252109.556520,23.735000000,0.000000000,-333.357879639,0.000000000,0.000000000,15.091125488,-53.415737152,0.000000000,-15.068999290,-13.812870979
1748252109.559590,23.738000000,0.000000000,-333.357879639,0.000000000,0.000000000,15.091125488,-53.415702820,0.000000000,-15.068999290,-13.812870979
1748252109.562631,23.741000000,0.000000000,-333.357879639,0.000000000,0.000000000,15.091125488,-53.415664673,0.000000000,-15.068999290,-13.812870979
1748252109.566087,23.744000000,0.000000000,-333.357879639,0.000000000,0.000000000,15.091125488,-53.415626526,0.000000000,-15.068999290,-13.812870979
1748252109.569456,23.748000000,0.000000000,-333.357879639,0.000000000,0.000000000,15.091125488,-53.415584564,0.000000000,-15.068999290,-13.812870979
1748252109.572815,23.751000000,0.000000000,-333.357879639,0.000000000,0.000000000,15.091125488,-53.415538788,0.000000000,-15.068999290,-13.812870979
1748252109.575485,23.754000000,0.000000000,-333.357879639,0.000000000,0.000000000,15.091125488,-53.415496826,0.000000000,-15.068999290,-13.812870979
1748252109.578088,23.757000000,0.000000000,-333.357879639,0.000000000,0.000000000,15.091125488,-53.415458679,0.000000000,-15.068999290,-13.812870979
1748252109.580713,23.759000000,0.000000000,-333.357879639,0.000000000,0.000000000,15.091125488,-53.415424347,0.000000000,-15.068999290,-13.812870979
1748252109.583327,23.762000000,0.000000000,-333.357879639,0.000000000,0.000000000,15.091125488,-53.415390015,0.000000000,-15.068999290,-13.812870979
1748252109.586012,23.765000000,0.000000000,-333.357879639,0.000000000,0.000000000,15.091125488,-53.415355682,0.000000000,-15.068999290,-13.812870979
1748252109.588823,23.767000000,0.000000000,-333.357879639,0.000000000,0.000000000,15.091125488,-53.415321350,0.000000000,-15.068999290,-13.812870979
1748252109.591511,23.770000000,0.000000000,-333.357879639,0.000000000,0.000000000,15.091125488,-53.415287018,0.000000000,-15.068999290,-13.812870979
1748252109.594204,23.773000000,0.000000000,-333.357879639,0.000000000,0.000000000,15.091125488,-53.415252686,0.000000000,-15.068999290,-13.812870979
1748252109.597095,23.775000000,0.000000000,-333.357879639,0.000000000,0.000000000,15.091125488,-53.415214539,0.000000000,-15.068999290,-13.812870979
1748252109.599713,23.778000000,0.000000000,-333.357879639,0.000000000,0.000000000,15.091125488,-53.415180206,0.000000000,-15.068999290,-13.812870979
1748252109.602808,23.781000000,0.000000000,-333.357879639,0.000000000,0.000000000,15.091125488,-53.415145874,0.000000000,-15.068999290,-13.812870979
1748252109.605339,23.784000000,0.000000000,-333.357879639,0.000000000,0.000000000,15.091125488,-53.415107727,0.000000000,-15.068999290,-13.812870979
1748252109.608006,23.786000000,0.000000000,-333.357879639,0.000000000,0.000000000,15.091125488,-53.415073395,0.000000000,-15.068999290,-13.812870979
1748252109.610833,23.789000000,0.000000000,-333.357879639,0.000000000,0.000000000,15.091125488,-53.415039063,0.000000000,-15.068999290,-13.812870979
1748252109.613501,23.792000000,0.000000000,-333.357879639,0.000000000,0.000000000,15.091125488,-53.415004730,0.000000000,-15.068999290,-13.812870979
1748252109.616539,23.795000000,0.000000000,-333.357879639,0.000000000,0.000000000,15.091125488,-53.414970398,0.000000000,-15.068999290,-13.812870979
1748252109.619622,23.798000000,0.000000000,-333.357879639,0.000000000,0.000000000,15.091125488,-53.414932251,0.000000000,-15.068999290,-13.812870979
1748252109.622462,23.801000000,0.000000000,-333.357879639,0.000000000,0.000000000,15.091125488,-53.414894104,0.000000000,-15.068999290,-13.812870979
1748252109.625440,23.804000000,0.000000000,-333.357879639,0.000000000,0.000000000,15.091125488,-53.414852142,0.000000000,-15.068999290,-13.812870979
1748252109.627922,23.806000000,0.000000000,-333.357879639,0.000000000,0.000000000,15.091125488,-53.414813995,0.000000000,-15.068999290,-13.812870979
1748252109.630589,23.809000000,0.000000000,-333.357879639,0.000000000,0.000000000,15.091125488,-53.414779663,0.000000000,-15.068999290,-13.812870979
1748252109.633214,23.812000000,0.000000000,-333.357879639,0.000000000,0.000000000,15.091125488,-53.414745331,0.000000000,-15.068999290,-13.812870979
1748252109.635900,23.814000000,0.000000000,-333.357879639,0.000000000,0.000000000,15.091125488,-53.414710999,0.000000000,-15.068999290,-13.812870979
1748252109.638547,23.817000000,0.000000000,-333.357879639,0.000000000,0.000000000,15.091125488,-53.414676666,0.000000000,-15.068999290,-13.812870979
1748252109.641143,23.820000000,0.000000000,-333.357879639,0.000000000,0.000000000,15.091125488,-53.414642334,0.000000000,-15.068999290,-13.812870979
1748252109.643787,23.822000000,0.000000000,-333.357879639,0.000000000,0.000000000,15.091125488,-53.414608002,0.000000000,-15.068999290,-13.812870979
1748252109.646720,23.825000000,0.000000000,-333.357879639,0.000000000,0.000000000,15.091125488,-53.414573669,0.000000000,-15.068999290,-13.812870979
1748252109.649802,23.828000000,0.000000000,-333.357879639,0.000000000,0.000000000,15.091125488,-53.414535522,0.000000000,-15.068999290,-13.812870979
1748252109.653005,23.831000000,0.000000000,-333.357879639,0.000000000,0.000000000,15.091125488,-53.414497375,0.000000000,-15.068999290,-13.812870979
1748252109.655548,23.834000000,0.000000000,-333.357879639,0.000000000,0.000000000,15.091125488,-53.414455414,0.000000000,-15.068999290,-13.812870979
1748252109.658872,23.837000000,0.000000000,-333.357879639,0.000000000,0.000000000,15.091125488,-53.414421082,0.000000000,-15.068999290,-13.812870979
1748252109.661424,23.840000000,0.000000000,-333.357879639,0.000000000,0.000000000,15.091125488,-53.414379120,0.000000000,-15.068999290,-13.812870979
1748252109.664437,23.843000000,0.000000000,-333.357879639,0.000000000,0.000000000,15.091125488,-53.414344788,0.000000000,-15.068999290,-13.812870979
1748252109.667842,23.846000000,0.000000000,-333.357879639,0.000000000,0.000000000,15.091125488,-53.414306641,0.000000000,-15.068999290,-13.812870979
1748252109.670944,23.849000000,0.000000000,-333.357879639,0.000000000,0.000000000,15.091125488,-53.414260864,0.000000000,-15.068999290,-13.812870979
1748252109.674394,23.853000000,0.000000000,-333.357879639,0.000000000,0.000000000,15.091125488,-53.414222717,0.000000000,-15.068999290,-13.812870979
1748252109.676828,23.855000000,0.000000000,-333.357879639,0.000000000,0.000000000,15.091125488,-53.414180756,0.000000000,-15.068999290,-13.812870979
1748252109.679765,23.858000000,0.000000000,-333.357879639,0.000000000,0.000000000,15.091125488,-53.414146423,0.000000000,-15.068999290,-13.812870979
1748252109.682452,23.861000000,0.000000000,-333.357879639,0.000000000,0.000000000,15.091125488,-53.414108276,0.000000000,-15.068999290,-13.812870979
1748252109.685158,23.864000000,0.000000000,-333.357879639,0.000000000,0.000000000,15.091125488,-53.414073944,0.000000000,-15.068999290,-13.812870979
1748252109.687796,23.866000000,0.000000000,-333.357879639,0.000000000,0.000000000,15.091125488,-53.414039612,0.000000000,-15.068999290,-13.812870979
1748252109.690465,23.869000000,0.000000000,-333.357879639,0.000000000,0.000000000,15.091125488,-53.414005280,0.000000000,-15.068999290,-13.812870979
1748252109.693502,23.872000000,0.000000000,-333.357879639,0.000000000,0.000000000,15.091125488,-53.413970947,0.000000000,-15.068999290,-13.812870979
1748252109.696026,23.875000000,0.000000000,-333.357879639,0.000000000,0.000000000,15.091125488,-53.413928986,0.000000000,-15.068999290,-13.812870979
1748252109.699074,23.877000000,0.000000000,-333.357879639,0.000000000,0.000000000,15.091125488,-53.413894653,0.000000000,-15.068999290,-13.812870979
1748252109.702148,23.880000000,0.000000000,-333.357879639,0.000000000,0.000000000,15.091125488,-53.413856506,0.000000000,-15.068999290,-13.812870979
1748252109.704964,23.883000000,0.000000000,-333.357879639,0.000000000,0.000000000,15.091125488,-53.413818359,0.000000000,-15.068999290,-13.812870979
1748252109.707558,23.886000000,0.000000000,-333.357879639,0.000000000,0.000000000,15.091125488,-53.413784027,0.000000000,-15.068999290,-13.812870979
1748252109.710221,23.889000000,0.000000000,-333.357879639,0.000000000,0.000000000,15.091125488,-53.413749695,0.000000000,-15.068999290,-13.812870979
1748252109.712848,23.891000000,0.000000000,-333.357879639,0.000000000,0.000000000,15.091125488,-53.413715363,0.000000000,-15.068999290,-13.812870979
1748252109.715788,23.894000000,0.000000000,-333.357879639,0.000000000,0.000000000,15.091125488,-53.413681030,0.000000000,-15.068999290,-13.812870979
1748252109.718810,23.897000000,0.000000000,-333.357879639,0.000000000,0.000000000,15.091125488,-53.413642883,0.000000000,-15.068999290,-13.812870979
1748252109.721740,23.900000000,0.000000000,-333.357879639,0.000000000,0.000000000,15.091125488,-53.413600922,0.000000000,-15.068999290,-13.812870979
1748252109.724636,23.903000000,0.000000000,-333.357879639,0.000000000,0.000000000,15.091125488,-53.413562775,0.000000000,-15.068999290,-13.812870979
1748252109.727599,23.906000000,0.000000000,-333.357879639,0.000000000,0.000000000,15.091125488,-53.413524628,0.000000000,-15.068999290,-13.812870979
1748252109.730452,23.909000000,0.000000000,-333.357879639,0.000000000,0.000000000,15.091125488,-53.413486481,0.000000000,-15.068999290,-13.812870979
1748252109.735131,23.912000000,0.000000000,-333.357879639,0.000000000,0.000000000,15.091125488,-53.413448334,0.000000000,-15.068999290,-13.812870979
1748252109.737781,23.916000000,0.000000000,-333.357879639,0.000000000,0.000000000,15.091125488,-53.413387299,0.000000000,-15.068999290,-13.812870979
1748252109.740688,23.919000000,0.000000000,-333.357879639,0.000000000,0.000000000,15.091125488,-53.413352966,0.000000000,-15.068999290,-13.812870979
1748252109.743665,23.922000000,0.000000000,-333.357879639,0.000000000,0.000000000,15.091125488,-53.413314819,0.000000000,-15.068999290,-13.812870979
1748252109.747004,23.925000000,0.000000000,-333.357879639,0.000000000,0.000000000,15.091125488,-53.413272858,0.000000000,-15.068999290,-13.812870979
1748252109.749911,23.928000000,0.000000000,-333.357879639,0.000000000,0.000000000,15.091125488,-53.413230896,0.000000000,-15.068999290,-13.812870979
1748252109.752898,23.931000000,0.000000000,-333.357879639,0.000000000,0.000000000,15.091125488,-53.413192749,0.000000000,-15.068999290,-13.812870979
1748252109.755875,23.934000000,0.000000000,-333.357879639,0.000000000,0.000000000,15.091125488,-53.413154602,0.000000000,-15.068999290,-13.812870979
1748252109.758874,23.937000000,0.000000000,-333.357879639,0.000000000,0.000000000,15.091125488,-53.413116455,0.000000000,-15.068999290,-13.812870979
1748252109.761852,23.940000000,0.000000000,-333.357879639,0.000000000,0.000000000,15.091125488,-53.413074493,0.000000000,-15.068999290,-13.812870979
1748252109.764824,23.943000000,0.000000000,-333.357879639,0.000000000,0.000000000,15.091125488,-53.413036346,0.000000000,-15.068999290,-13.812870979
1748252109.767768,23.946000000,0.000000000,-333.357879639,0.000000000,0.000000000,15.091125488,-53.412998199,0.000000000,-15.068999290,-13.812870979
1748252109.770463,23.949000000,0.000000000,-333.357879639,0.000000000,0.000000000,15.091125488,-53.412960052,0.000000000,-15.068999290,-13.812870979
1748252109.774090,23.952000000,0.000000000,-333.357879639,0.000000000,0.000000000,15.091125488,-53.412925720,0.000000000,-15.068999290,-13.812870979
1748252109.777160,23.956000000,0.000000000,-333.357879639,0.000000000,0.000000000,15.091125488,-53.412876129,0.000000000,-15.068999290,-13.812870979
1748252109.779924,23.958000000,0.000000000,-333.357879639,0.000000000,0.000000000,15.091125488,-53.412834167,0.000000000,-15.068999290,-13.812870979
1748252109.782766,23.961000000,0.000000000,-333.357879639,0.000000000,0.000000000,15.091125488,-53.412799835,0.000000000,-15.068999290,-13.812870979
1748252109.785393,23.964000000,0.000000000,-333.357879639,0.000000000,0.000000000,15.091125488,-53.412761688,0.000000000,-15.068999290,-13.812870979
1748252109.787974,23.967000000,0.000000000,-333.357879639,0.000000000,0.000000000,15.091125488,-53.412727356,0.000000000,-15.068999290,-13.812870979
1748252109.790590,23.969000000,0.000000000,-333.357879639,0.000000000,0.000000000,15.091125488,-53.412693024,0.000000000,-15.068999290,-13.812870979
1748252109.793335,23.972000000,0.000000000,-333.357879639,0.000000000,0.000000000,15.091125488,-53.412658691,0.000000000,-15.068999290,-13.812870979
1748252109.795985,23.975000000,0.000000000,-333.357879639,0.000000000,0.000000000,15.091125488,-53.412624359,0.000000000,-15.068999290,-13.812870979
1748252109.799075,23.977000000,0.000000000,-333.357879639,0.000000000,0.000000000,15.091125488,-53.412590027,0.000000000,-15.068999290,-13.812870979
1748252109.801914,23.980000000,0.000000000,-333.357879639,0.000000000,0.000000000,15.091125488,-53.412548065,0.000000000,-15.068999290,-13.812870979
1748252109.804529,23.983000000,0.000000000,-333.357879639,0.000000000,0.000000000,15.091125488,-53.412509918,0.000000000,-15.068999290,-13.812870979
1748252109.807190,23.986000000,0.000000000,-333.357879639,0.000000000,0.000000000,15.091125488,-53.412475586,0.000000000,-15.068999290,-13.812870979
1748252109.810050,23.988000000,0.000000000,-333.357879639,0.000000000,0.000000000,15.091125488,-53.412441254,0.000000000,-15.068999290,-13.812870979
1748252109.813170,23.991000000,0.000000000,-333.357879639,0.000000000,0.000000000,15.091125488,-53.412403107,0.000000000,-15.068999290,-13.812870979
1748252109.816212,23.994000000,0.000000000,-333.357879639,0.000000000,0.000000000,15.091125488,-53.412364960,0.000000000,-15.068999290,-13.812870979
1748252109.819517,23.998000000,0.000000000,-333.357879639,0.000000000,0.000000000,15.091125488,-53.412326813,0.000000000,-15.068999290,-13.812870979
1748252109.823002,24.001000000,0.000000000,-333.357879639,0.000000000,0.000000000,15.091125488,-53.412281036,0.000000000,-15.068999290,-13.812870979
1748252109.826100,24.004000000,0.000000000,-333.357879639,0.000000000,0.000000000,15.091125488,-53.412239075,0.000000000,-15.068999290,-13.812870979
1748252109.829219,24.008000000,0.000000000,-333.357879639,0.000000000,0.000000000,15.091125488,-53.412200928,0.000000000,-15.068999290,-13.812870979
1748252109.832168,24.011000000,0.000000000,-333.357879639,0.000000000,0.000000000,15.091125488,-53.412155151,0.000000000,-15.068999290,-13.812870979
1748252109.835027,24.014000000,0.000000000,-333.357879639,0.000000000,0.000000000,15.091125488,-53.412117004,0.000000000,-15.068999290,-13.812870979
1748252109.837627,24.016000000,0.000000000,-333.357879639,0.000000000,0.000000000,15.091125488,-53.412082672,0.000000000,-15.068999290,-13.812870979
1748252109.840376,24.019000000,0.000000000,-333.357879639,0.000000000,0.000000000,15.091125488,-53.412048340,0.000000000,-15.068999290,-13.812870979
1748252109.843050,24.022000000,0.000000000,-333.357879639,0.000000000,0.000000000,15.091125488,-53.412014008,0.000000000,-15.068999290,-13.812870979
1748252109.845761,24.024000000,0.000000000,-333.357879639,0.000000000,0.000000000,15.091125488,-53.411979675,0.000000000,-15.068999290,-13.812870979
1748252109.848375,24.027000000,0.000000000,-333.357879639,0.000000000,0.000000000,15.091125488,-53.411945343,0.000000000,-15.068999290,-13.812870979
1748252109.851460,24.030000000,0.000000000,-333.357879639,0.000000000,0.000000000,15.091125488,-53.411911011,0.000000000,-15.068999290,-13.812870979
1748252109.854089,24.033000000,0.000000000,-333.357879639,0.000000000,0.000000000,15.091125488,-53.411872864,0.000000000,-15.068999290,-13.812870979
1748252109.856744,24.035000000,0.000000000,-333.357879639,0.000000000,0.000000000,15.091125488,-53.411838531,0.000000000,-15.068999290,-13.812870979
1748252109.859673,24.038000000,0.000000000,-333.357879639,0.000000000,0.000000000,15.091125488,-53.411804199,0.000000000,-15.068999290,-13.812870979
1748252109.862490,24.041000000,0.000000000,-333.357879639,0.000000000,0.000000000,15.091125488,-53.411769867,0.000000000,-15.068999290,-13.812870979
1748252109.865422,24.044000000,0.000000000,-333.357879639,0.000000000,0.000000000,15.091125488,-53.411735535,0.000000000,-15.068999290,-13.812870979
1748252109.868479,24.047000000,0.000000000,-333.357879639,0.000000000,0.000000000,15.091125488,-53.411693573,0.000000000,-15.068999290,-13.812870979
1748252109.871950,24.050000000,0.000000000,-333.357879639,0.000000000,0.000000000,15.091125488,-53.411655426,0.000000000,-15.068999290,-13.812870979
1748252109.875249,24.053000000,0.000000000,-333.357879639,0.000000000,0.000000000,15.091125488,-53.411613464,0.000000000,-15.068999290,-13.812870979
1748252109.877793,24.056000000,0.000000000,-333.357879639,0.000000000,0.000000000,15.091125488,-53.411571503,0.000000000,-15.068999290,-13.812870979
1748252109.880772,24.059000000,0.000000000,-333.357879639,0.000000000,0.000000000,15.091125488,-53.411537170,0.000000000,-15.068999290,-13.812870979
1748252109.883361,24.062000000,0.000000000,-333.357879639,0.000000000,0.000000000,15.091125488,-53.411495209,0.000000000,-15.068999290,-13.812870979
1748252109.886133,24.065000000,0.000000000,-333.357879639,0.000000000,0.000000000,15.091125488,-53.411460876,0.000000000,-15.068999290,-13.812870979
1748252109.888764,24.067000000,0.000000000,-333.357879639,0.000000000,0.000000000,15.091125488,-53.411426544,0.000000000,-15.068999290,-13.812870979
1748252109.891596,24.070000000,0.000000000,-333.357879639,0.000000000,0.000000000,15.091125488,-53.411392212,0.000000000,-15.068999290,-13.812870979
1748252109.894312,24.073000000,0.000000000,-333.357879639,0.000000000,0.000000000,15.091125488,-53.411357880,0.000000000,-15.068999290,-13.812870979
1748252109.896901,24.075000000,0.000000000,-333.357879639,0.000000000,0.000000000,15.091125488,-53.411323547,0.000000000,-15.068999290,-13.812870979
1748252109.899790,24.078000000,0.000000000,-333.357879639,0.000000000,0.000000000,15.091125488,-53.411289215,0.000000000,-15.068999290,-13.812870979
1748252109.902584,24.081000000,0.000000000,-333.357879639,0.000000000,0.000000000,15.091125488,-53.411251068,0.000000000,-15.068999290,-13.812870979
1748252109.905164,24.084000000,0.000000000,-333.357879639,0.000000000,0.000000000,15.091125488,-53.411216736,0.000000000,-15.068999290,-13.812870979
1748252109.907657,24.086000000,0.000000000,-333.357879639,0.000000000,0.000000000,15.091125488,-53.411182404,0.000000000,-15.068999290,-13.812870979
1748252109.910479,24.089000000,0.000000000,-333.357879639,0.000000000,0.000000000,15.091125488,-53.411148071,0.000000000,-15.068999290,-13.812870979
1748252109.913421,24.092000000,0.000000000,-333.357879639,0.000000000,0.000000000,15.091125488,-53.411113739,0.000000000,-15.068999290,-13.812870979
1748252109.916061,24.095000000,0.000000000,-333.357879639,0.000000000,0.000000000,15.091125488,-53.411075592,0.000000000,-15.068999290,-13.812870979
1748252109.919942,24.098000000,0.000000000,-333.357879639,0.000000000,0.000000000,15.091125488,-53.411037445,0.000000000,-15.068999290,-13.812870979
1748252109.923073,24.101000000,0.000000000,-333.357879639,0.000000000,0.000000000,15.091125488,-53.410991669,0.000000000,-15.068999290,-13.812870979
1748252109.926287,24.105000000,0.000000000,-333.357879639,0.000000000,0.000000000,15.091125488,-53.410953522,0.000000000,-15.068999290,-13.812870979
1748252109.929252,24.108000000,0.000000000,-333.357879639,0.000000000,0.000000000,15.091125488,-53.410911560,0.000000000,-15.068999290,-13.812870979
1748252109.932956,24.111000000,0.000000000,-333.357879639,0.000000000,0.000000000,15.091125488,-53.410869598,0.000000000,-15.068999290,-13.812870979
1748252109.936047,24.115000000,0.000000000,-333.357879639,0.000000000,0.000000000,15.091125488,-53.410823822,0.000000000,-15.068999290,-13.812870979
1748252109.938724,24.117000000,0.000000000,-333.357879639,0.000000000,0.000000000,15.091125488,-53.410781860,0.000000000,-15.068999290,-13.812870979
1748252109.941406,24.120000000,0.000000000,-333.357879639,0.000000000,0.000000000,15.091125488,-53.410747528,0.000000000,-15.068999290,-13.812870979
1748252109.944018,24.122000000,0.000000000,-333.357879639,0.000000000,0.000000000,15.091125488,-53.410709381,0.000000000,-15.068999290,-13.812870979
1748252109.947069,24.125000000,0.000000000,-333.357879639,0.000000000,0.000000000,15.091125488,-53.410675049,0.000000000,-15.068999290,-13.812870979
1748252109.950351,24.129000000,0.000000000,-333.357879639,0.000000000,0.000000000,15.091125488,-53.410636902,0.000000000,-15.068999290,-13.812870979
1748252109.953291,24.132000000,0.000000000,-333.357879639,0.000000000,0.000000000,15.091125488,-53.410594940,0.000000000,-15.068999290,-13.812870979
1748252109.955981,24.134000000,0.000000000,-333.357879639,0.000000000,0.000000000,15.091125488,-53.410556793,0.000000000,-15.068999290,-13.812870979
1748252109.958828,24.137000000,0.000000000,-333.357879639,0.000000000,0.000000000,15.091125488,-53.410522461,0.000000000,-15.068999290,-13.812870979
1748252109.961538,24.140000000,0.000000000,-333.357879639,0.000000000,0.000000000,15.091125488,-53.410488129,0.000000000,-15.068999290,-13.812870979
1748252109.964556,24.143000000,0.000000000,-333.357879639,0.000000000,0.000000000,15.091125488,-53.410453796,0.000000000,-15.068999290,-13.812870979
1748252109.967592,24.146000000,0.000000000,-333.357879639,0.000000000,0.000000000,15.091125488,-53.410411835,0.000000000,-15.068999290,-13.812870979
1748252109.970478,24.149000000,0.000000000,-333.357879639,0.000000000,0.000000000,15.091125488,-53.410373688,0.000000000,-15.068999290,-13.812870979
1748252109.973514,24.152000000,0.000000000,-333.357879639,0.000000000,0.000000000,15.091125488,-53.410335541,0.000000000,-15.068999290,-13.812870979
1748252109.976506,24.155000000,0.000000000,-333.357879639,0.000000000,0.000000000,15.091125488,-53.410297394,0.000000000,-15.068999290,-13.812870979
1748252109.979187,24.158000000,0.000000000,-333.357879639,0.000000000,0.000000000,15.091125488,-53.410259247,0.000000000,-15.068999290,-13.812870979
1748252109.981863,24.160000000,0.000000000,-333.357879639,0.000000000,0.000000000,15.091125488,-53.410224915,0.000000000,-15.068999290,-13.812870979
1748252109.984577,24.163000000,0.000000000,-333.357879639,0.000000000,0.000000000,15.091125488,-53.410190582,0.000000000,-15.068999290,-13.812870979
1748252109.987229,24.166000000,0.000000000,-333.357879639,0.000000000,0.000000000,15.091125488,-53.410156250,0.000000000,-15.068999290,-13.812870979
1748252109.989967,24.168000000,0.000000000,-333.357879639,0.000000000,0.000000000,15.091125488,-53.410121918,0.000000000,-15.068999290,-13.812870979
1748252109.992895,24.171000000,0.000000000,-333.357879639,0.000000000,0.000000000,15.091125488,-53.410083771,0.000000000,-15.068999290,-13.812870979
1748252109.995717,24.174000000,0.000000000,-333.357879639,0.000000000,0.000000000,15.091125488,-53.410045624,0.000000000,-15.068999290,-13.812870979
1748252109.998717,24.177000000,0.000000000,-333.357879639,0.000000000,0.000000000,15.091125488,-53.410007477,0.000000000,-15.068999290,-13.812870979
1748252110.001366,24.180000000,0.000000000,-333.357879639,0.000000000,0.000000000,15.091125488,-53.409969330,0.000000000,-15.068999290,-13.812870979
1748252110.003966,24.182000000,0.000000000,-333.357879639,0.000000000,0.000000000,15.091125488,-53.409934998,0.000000000,-15.068999290,-13.812870979
1748252110.006643,24.185000000,0.000000000,-333.357879639,0.000000000,0.000000000,15.091125488,-53.409900665,0.000000000,-15.068999290,-13.812870979
1748252110.009998,24.188000000,0.000000000,-333.357879639,0.000000000,0.000000000,15.091125488,-53.409866333,0.000000000,-15.068999290,-13.812870979
1748252110.012789,24.191000000,0.000000000,-333.357879639,0.000000000,0.000000000,15.091125488,-53.409820557,0.000000000,-15.068999290,-13.812870979
1748252110.015472,24.194000000,0.000000000,-333.357879639,0.000000000,0.000000000,15.091125488,-53.409786224,0.000000000,-15.068999290,-13.812870979
1748252110.018473,24.197000000,0.000000000,-333.357879639,0.000000000,0.000000000,15.091125488,-53.409751892,0.000000000,-15.068999290,-13.812870979
1748252110.021541,24.200000000,0.000000000,-333.357879639,0.000000000,0.000000000,15.091125488,-53.409713745,0.000000000,-15.068999290,-13.812870979
1748252110.025307,24.203000000,0.000000000,-333.357879639,0.000000000,0.000000000,15.091125488,-53.409675598,0.000000000,-15.068999290,-13.812870979
1748252110.027984,24.206000000,0.000000000,-333.357879639,0.000000000,0.000000000,15.091125488,-53.409629822,0.000000000,-15.068999290,-13.812870979
1748252110.030612,24.209000000,0.000000000,-333.357879639,0.000000000,0.000000000,15.091125488,-53.409595490,0.000000000,-15.068999290,-13.812870979
1748252110.033260,24.212000000,0.000000000,-333.357879639,0.000000000,0.000000000,15.091125488,-53.409557343,0.000000000,-15.068999290,-13.812870979
1748252110.035973,24.214000000,0.000000000,-333.357879639,0.000000000,0.000000000,15.091125488,-53.409523010,0.000000000,-15.068999290,-13.812870979
1748252110.038584,24.217000000,0.000000000,-333.357879639,0.000000000,0.000000000,15.091125488,-53.409488678,0.000000000,-15.068999290,-13.812870979
1748252110.041280,24.220000000,0.000000000,-333.357879639,0.000000000,0.000000000,15.091125488,-53.409454346,0.000000000,-15.068999290,-13.812870979
1748252110.043885,24.222000000,0.000000000,-333.357879639,0.000000000,0.000000000,15.091125488,-53.409420013,0.000000000,-15.068999290,-13.812870979
1748252110.046543,24.225000000,0.000000000,-333.357879639,0.000000000,0.000000000,15.091125488,-53.409385681,0.000000000,-15.068999290,-13.812870979
1748252110.049549,24.228000000,0.000000000,-333.357879639,0.000000000,0.000000000,15.091125488,-53.409351349,0.000000000,-15.068999290,-13.812870979
1748252110.052557,24.231000000,0.000000000,-333.357879639,0.000000000,0.000000000,15.091125488,-53.409313202,0.000000000,-15.068999290,-13.812870979
1748252110.055510,24.234000000,0.000000000,-333.357879639,0.000000000,0.000000000,15.091125488,-53.409275055,0.000000000,-15.068999290,-13.812870979
1748252110.058110,24.237000000,0.000000000,-333.357879639,0.000000000,0.000000000,15.091125488,-53.409236908,0.000000000,-15.068999290,-13.812870979
1748252110.061144,24.239000000,0.000000000,-333.357879639,0.000000000,0.000000000,15.091125488,-53.409202576,0.000000000,-15.068999290,-13.812870979
1748252110.064078,24.242000000,0.000000000,-333.357879639,0.000000000,0.000000000,15.091125488,-53.409160614,0.000000000,-15.068999290,-13.812870979
1748252110.066811,24.245000000,0.000000000,-333.357879639,0.000000000,0.000000000,15.091125488,-53.409122467,0.000000000,-15.068999290,-13.812870979
1748252110.069567,24.248000000,0.000000000,-333.357879639,0.000000000,0.000000000,15.091125488,-53.409088135,0.000000000,-15.068999290,-13.812870979
1748252110.072837,24.251000000,0.000000000,-333.357879639,0.000000000,0.000000000,15.091125488,-53.409053802,0.000000000,-15.068999290,-13.812870979
1748252110.076128,24.254000000,0.000000000,-333.357879639,0.000000000,0.000000000,15.091125488,-53.409015656,0.000000000,-15.068999290,-13.812870979
1748252110.079546,24.258000000,0.000000000,-333.357879639,0.000000000,0.000000000,15.091125488,-53.408973694,0.000000000,-15.068999290,-13.812870979
1748252110.082777,24.261000000,0.000000000,-333.357879639,0.000000000,0.000000000,15.091125488,-53.408927917,0.000000000,-15.068999290,-13.812870979
1748252110.085781,24.264000000,0.000000000,-333.357879639,0.000000000,0.000000000,15.091125488,-53.408885956,0.000000000,-15.068999290,-13.812870979
1748252110.088434,24.267000000,0.000000000,-333.357879639,0.000000000,0.000000000,15.091125488,-53.408847809,0.000000000,-15.068999290,-13.812870979
1748252110.091013,24.270000000,0.000000000,-333.357879639,0.000000000,0.000000000,15.091125488,-53.408813477,0.000000000,-15.068999290,-13.812870979
1748252110.093520,24.272000000,0.000000000,-333.357879639,0.000000000,0.000000000,15.091125488,-53.408779144,0.000000000,-15.068999290,-13.812870979
1748252110.096251,24.275000000,0.000000000,-333.357879639,0.000000000,0.000000000,15.091125488,-53.408744812,0.000000000,-15.068999290,-13.812870979
1748252110.098879,24.277000000,0.000000000,-333.357879639,0.000000000,0.000000000,15.091125488,-53.408710480,0.000000000,-15.068999290,-13.812870979
1748252110.101610,24.280000000,0.000000000,-333.357879639,0.000000000,0.000000000,15.091125488,-53.408676147,0.000000000,-15.068999290,-13.812870979
1748252110.104268,24.283000000,0.000000000,-333.357879639,0.000000000,0.000000000,15.091125488,-53.408641815,0.000000000,-15.068999290,-13.812870979
1748252110.107300,24.286000000,0.000000000,-333.357879639,0.000000000,0.000000000,15.091125488,-53.408603668,0.000000000,-15.068999290,-13.812870979
1748252110.109828,24.288000000,0.000000000,-333.357879639,0.000000000,0.000000000,15.091125488,-53.408565521,0.000000000,-15.068999290,-13.812870979
1748252110.113305,24.291000000,0.000000000,-333.357879639,0.000000000,0.000000000,15.091125488,-53.408531189,0.000000000,-15.068999290,-13.812870979
1748252110.116735,24.295000000,0.000000000,-333.357879639,0.000000000,0.000000000,15.091125488,-53.408489227,0.000000000,-15.068999290,-13.812870979
1748252110.119780,24.298000000,0.000000000,-333.357879639,0.000000000,0.000000000,15.091125488,-53.408447266,0.000000000,-15.068999290,-13.812870979
1748252110.122427,24.301000000,0.000000000,-333.357879639,0.000000000,0.000000000,15.091125488,-53.408405304,0.000000000,-15.068999290,-13.812870979
1748252110.125158,24.304000000,0.000000000,-333.357879639,0.000000000,0.000000000,15.091125488,-53.408370972,0.000000000,-15.068999290,-13.812870979
1748252110.127757,24.306000000,0.000000000,-333.357879639,0.000000000,0.000000000,15.091125488,-53.408336639,0.000000000,-15.068999290,-13.812870979
1748252110.130481,24.309000000,0.000000000,-333.357879639,0.000000000,0.000000000,15.091125488,-53.408302307,0.000000000,-15.068999290,-13.812870979
1748252110.133125,24.312000000,0.000000000,-333.357879639,0.000000000,0.000000000,15.091125488,-53.408267975,0.000000000,-15.068999290,-13.812870979
1748252110.135782,24.314000000,0.000000000,-333.357879639,0.000000000,0.000000000,15.091125488,-53.408233643,0.000000000,-15.068999290,-13.812870979
1748252110.138442,24.317000000,0.000000000,-333.357879639,0.000000000,0.000000000,15.091125488,-53.408199310,0.000000000,-15.068999290,-13.812870979
1748252110.141134,24.320000000,0.000000000,-333.357879639,0.000000000,0.000000000,15.091125488,-53.408164978,0.000000000,-15.068999290,-13.812870979
1748252110.143806,24.322000000,0.000000000,-333.357879639,0.000000000,0.000000000,15.091125488,-53.408130646,0.000000000,-15.068999290,-13.812870979
1748252110.146438,24.325000000,0.000000000,-333.357879639,0.000000000,0.000000000,15.091125488,-53.408096313,0.000000000,-15.068999290,-13.812870979
1748252110.149129,24.328000000,0.000000000,-333.357879639,0.000000000,0.000000000,15.091125488,-53.408061981,0.000000000,-15.068999290,-13.812870979
1748252110.151757,24.330000000,0.000000000,-333.357879639,0.000000000,0.000000000,15.091125488,-53.408027649,0.000000000,-15.068999290,-13.812870979
1748252110.154471,24.333000000,0.000000000,-333.357879639,0.000000000,0.000000000,15.091125488,-53.407993317,0.000000000,-15.068999290,-13.812870979
1748252110.157106,24.336000000,0.000000000,-333.357879639,0.000000000,0.000000000,15.091125488,-53.407958984,0.000000000,-15.068999290,-13.812870979
1748252110.159977,24.338000000,0.000000000,-333.357879639,0.000000000,0.000000000,15.091125488,-53.407924652,0.000000000,-15.068999290,-13.812870979
1748252110.162916,24.341000000,0.000000000,-333.357879639,0.000000000,0.000000000,15.091125488,-53.407890320,0.000000000,-15.068999290,-13.812870979
1748252110.165959,24.344000000,0.000000000,-333.357879639,0.000000000,0.000000000,15.091125488,-53.407852173,0.000000000,-15.068999290,-13.812870979
1748252110.169034,24.347000000,0.000000000,-333.357879639,0.000000000,0.000000000,15.091125488,-53.407810211,0.000000000,-15.068999290,-13.812870979
1748252110.172489,24.351000000,0.000000000,-333.357879639,0.000000000,0.000000000,15.091125488,-53.407772064,0.000000000,-15.068999290,-13.812870979
1748252110.175580,24.354000000,0.000000000,-333.357879639,0.000000000,0.000000000,15.091125488,-53.407730103,0.000000000,-15.068999290,-13.812870979
1748252110.178756,24.357000000,0.000000000,-333.357879639,0.000000000,0.000000000,15.091125488,-53.407691956,0.000000000,-15.068999290,-13.812870979
1748252110.181666,24.360000000,0.000000000,-333.357879639,0.000000000,0.000000000,15.091125488,-53.407646179,0.000000000,-15.068999290,-13.812870979
1748252110.184186,24.363000000,0.000000000,-333.357879639,0.000000000,0.000000000,15.091125488,-53.407611847,0.000000000,-15.068999290,-13.812870979
1748252110.186850,24.365000000,0.000000000,-333.357879639,0.000000000,0.000000000,15.091125488,-53.407577515,0.000000000,-15.068999290,-13.812870979
1748252110.189549,24.368000000,0.000000000,-333.357879639,0.000000000,0.000000000,15.091125488,-53.407543182,0.000000000,-15.068999290,-13.812870979
1748252110.192242,24.371000000,0.000000000,-333.357879639,0.000000000,0.000000000,15.091125488,-53.407508850,0.000000000,-15.068999290,-13.812870979
1748252110.194935,24.373000000,0.000000000,-333.357879639,0.000000000,0.000000000,15.091125488,-53.407474518,0.000000000,-15.068999290,-13.812870979
1748252110.197616,24.376000000,0.000000000,-333.357879639,0.000000000,0.000000000,15.091125488,-53.407440186,0.000000000,-15.068999290,-13.812870979
1748252110.200300,24.379000000,0.000000000,-333.357879639,0.000000000,0.000000000,15.091125488,-53.407405853,0.000000000,-15.068999290,-13.812870979
1748252110.202962,24.381000000,0.000000000,-333.357879639,0.000000000,0.000000000,15.091125488,-53.407371521,0.000000000,-15.068999290,-13.812870979
1748252110.205925,24.384000000,0.000000000,-333.357879639,0.000000000,0.000000000,15.091125488,-53.407337189,0.000000000,-15.068999290,-13.812870979
1748252110.209081,24.387000000,0.000000000,-333.357879639,0.000000000,0.000000000,15.091125488,-53.407299042,0.000000000,-15.068999290,-13.812870979
1748252110.211650,24.390000000,0.000000000,-333.357879639,0.000000000,0.000000000,15.091125488,-53.407260895,0.000000000,-15.068999290,-13.812870979
1748252110.214801,24.393000000,0.000000000,-333.357879639,0.000000000,0.000000000,15.091125488,-53.407222748,0.000000000,-15.068999290,-13.812870979
1748252110.218045,24.396000000,0.000000000,-333.357879639,0.000000000,0.000000000,15.091125488,-53.407184601,0.000000000,-15.068999290,-13.812870979
1748252110.221048,24.399000000,0.000000000,-333.357879639,0.000000000,0.000000000,15.091125488,-53.407142639,0.000000000,-15.068999290,-13.812870979
1748252110.224007,24.402000000,0.000000000,-333.357879639,0.000000000,0.000000000,15.091125488,-53.407104492,0.000000000,-15.068999290,-13.812870979
1748252110.226781,24.405000000,0.000000000,-333.357879639,0.000000000,0.000000000,15.091125488,-53.407066345,0.000000000,-15.068999290,-13.812870979
1748252110.229942,24.408000000,0.000000000,-333.357879639,0.000000000,0.000000000,15.091125488,-53.407032013,0.000000000,-15.068999290,-13.812870979
1748252110.232463,24.411000000,0.000000000,-333.357879639,0.000000000,0.000000000,15.091125488,-53.406990051,0.000000000,-15.068999290,-13.812870979
1748252110.235061,24.414000000,0.000000000,-333.357879639,0.000000000,0.000000000,15.091125488,-53.406955719,0.000000000,-15.068999290,-13.812870979
1748252110.237765,24.416000000,0.000000000,-333.357879639,0.000000000,0.000000000,15.091125488,-53.406921387,0.000000000,-15.068999290,-13.812870979
1748252110.240371,24.419000000,0.000000000,-333.357879639,0.000000000,0.000000000,15.091125488,-53.406887054,0.000000000,-15.068999290,-13.812870979
1748252110.243063,24.422000000,0.000000000,-333.357879639,0.000000000,0.000000000,15.091125488,-53.406852722,0.000000000,-15.068999290,-13.812870979
1748252110.245642,24.424000000,0.000000000,-333.357879639,0.000000000,0.000000000,15.091125488,-53.406818390,0.000000000,-15.068999290,-13.812870979
1748252110.248369,24.427000000,0.000000000,-333.357879639,0.000000000,0.000000000,15.091125488,-53.406784058,0.000000000,-15.068999290,-13.812870979
1748252110.251333,24.430000000,0.000000000,-333.357879639,0.000000000,0.000000000,15.091125488,-53.406749725,0.000000000,-15.068999290,-13.812870979
1748252110.254031,24.432000000,0.000000000,-333.357879639,0.000000000,0.000000000,15.091125488,-53.406711578,0.000000000,-15.068999290,-13.812870979
1748252110.256649,24.435000000,0.000000000,-333.357879639,0.000000000,0.000000000,15.091125488,-53.406677246,0.000000000,-15.068999290,-13.812870979
1748252110.259714,24.438000000,0.000000000,-333.357879639,0.000000000,0.000000000,15.091125488,-53.406642914,0.000000000,-15.068999290,-13.812870979
1748252110.262809,24.441000000,0.000000000,-333.357879639,0.000000000,0.000000000,15.091125488,-53.406604767,0.000000000,-15.068999290,-13.812870979
1748252110.265835,24.444000000,0.000000000,-333.357879639,0.000000000,0.000000000,15.091125488,-53.406562805,0.000000000,-15.068999290,-13.812870979
1748252110.269149,24.448000000,0.000000000,-333.357879639,0.000000000,0.000000000,15.091125488,-53.406524658,0.000000000,-15.068999290,-13.812870979
1748252110.272112,24.450000000,0.000000000,-333.357879639,0.000000000,0.000000000,15.091125488,-53.406482697,0.000000000,-15.068999290,-13.812870979
1748252110.275131,24.453000000,0.000000000,-333.357879639,0.000000000,0.000000000,15.091125488,-53.406444550,0.000000000,-15.068999290,-13.812870979
1748252110.278086,24.457000000,0.000000000,-333.357879639,0.000000000,0.000000000,15.091125488,-53.406406403,0.000000000,-15.068999290,-13.812870979
1748252110.280685,24.459000000,0.000000000,-333.357879639,0.000000000,0.000000000,15.091125488,-53.406364441,0.000000000,-15.068999290,-13.812870979
1748252110.283349,24.462000000,0.000000000,-333.357879639,0.000000000,0.000000000,15.091125488,-53.406330109,0.000000000,-15.068999290,-13.812870979
1748252110.286053,24.465000000,0.000000000,-333.357879639,0.000000000,0.000000000,15.091125488,-53.406295776,0.000000000,-15.068999290,-13.812870979
1748252110.288699,24.467000000,0.000000000,-333.357879639,0.000000000,0.000000000,15.091125488,-53.406261444,0.000000000,-15.068999290,-13.812870979
1748252110.291403,24.470000000,0.000000000,-333.357879639,0.000000000,0.000000000,15.091125488,-53.406227112,0.000000000,-15.068999290,-13.812870979
1748252110.294101,24.473000000,0.000000000,-333.357879639,0.000000000,0.000000000,15.091125488,-53.406192780,0.000000000,-15.068999290,-13.812870979
1748252110.296675,24.475000000,0.000000000,-333.357879639,0.000000000,0.000000000,15.091125488,-53.406158447,0.000000000,-15.068999290,-13.812870979
1748252110.299328,24.478000000,0.000000000,-333.357879639,0.000000000,0.000000000,15.091125488,-53.406124115,0.000000000,-15.068999290,-13.812870979
1748252110.302063,24.480000000,0.000000000,-333.357879639,0.000000000,0.000000000,15.091125488,-53.406089783,0.000000000,-15.068999290,-13.812870979
1748252110.304575,24.483000000,0.000000000,-333.357879639,0.000000000,0.000000000,15.091125488,-53.406055450,0.000000000,-15.068999290,-13.812870979
1748252110.307243,24.486000000,0.000000000,-333.357879639,0.000000000,0.000000000,15.091125488,-53.406021118,0.000000000,-15.068999290,-13.812870979
1748252110.310360,24.489000000,0.000000000,-333.357879639,0.000000000,0.000000000,15.091125488,-53.405986786,0.000000000,-15.068999290,-13.812870979
1748252110.313133,24.491000000,0.000000000,-333.357879639,0.000000000,0.000000000,15.091125488,-53.405948639,0.000000000,-15.068999290,-13.812870979
1748252110.316116,24.494000000,0.000000000,-333.357879639,0.000000000,0.000000000,15.091125488,-53.405914307,0.000000000,-15.068999290,-13.812870979
1748252110.319392,24.497000000,0.000000000,-333.357879639,0.000000000,0.000000000,15.091125488,-53.405872345,0.000000000,-15.068999290,-13.812870979
1748252110.321995,24.500000000,0.000000000,-333.357879639,0.000000000,0.000000000,15.091125488,-53.405830383,0.000000000,-15.068999290,-13.812870979
1748252110.325285,24.503000000,0.000000000,-333.357879639,0.000000000,0.000000000,15.091125488,-53.405796051,0.000000000,-15.068999290,-13.812870979
1748252110.328512,24.507000000,0.000000000,-333.357879639,0.000000000,0.000000000,15.091125488,-53.405754089,0.000000000,-15.068999290,-13.812870979
1748252110.331745,24.510000000,0.000000000,-333.357879639,0.000000000,0.000000000,15.091125488,-53.405708313,0.000000000,-15.068999290,-13.812870979
1748252110.335055,24.513000000,0.000000000,-333.357879639,0.000000000,0.000000000,15.091125488,-53.405670166,0.000000000,-15.068999290,-13.812870979
1748252110.338228,24.516000000,0.000000000,-333.357879639,0.000000000,0.000000000,15.091125488,-53.405632019,0.000000000,-15.068999290,-13.812870979
1748252110.341181,24.519000000,0.000000000,-333.357879639,0.000000000,0.000000000,15.091125488,-53.405590057,0.000000000,-15.068999290,-13.812870979
1748252110.343744,24.522000000,0.000000000,-333.357879639,0.000000000,0.000000000,15.091125488,-53.405551910,0.000000000,-15.068999290,-13.812870979
1748252110.346453,24.525000000,0.000000000,-333.357879639,0.000000000,0.000000000,15.091125488,-53.405517578,0.000000000,-15.068999290,-13.812870979
1748252110.349146,24.528000000,0.000000000,-333.357879639,0.000000000,0.000000000,15.091125488,-53.405479431,0.000000000,-15.068999290,-13.812870979
1748252110.351796,24.530000000,0.000000000,-333.357879639,0.000000000,0.000000000,15.091125488,-53.405445099,0.000000000,-15.068999290,-13.812870979
1748252110.354434,24.533000000,0.000000000,-333.357879639,0.000000000,0.000000000,15.091125488,-53.405410767,0.000000000,-15.068999290,-13.812870979
1748252110.357122,24.536000000,0.000000000,-333.357879639,0.000000000,0.000000000,15.091125488,-53.405376434,0.000000000,-15.068999290,-13.812870979
1748252110.360295,24.539000000,0.000000000,-333.357879639,0.000000000,0.000000000,15.091125488,-53.405342102,0.000000000,-15.068999290,-13.812870979
1748252110.363324,24.542000000,0.000000000,-333.357879639,0.000000000,0.000000000,15.091125488,-53.405303955,0.000000000,-15.068999290,-13.812870979
1748252110.366361,24.545000000,0.000000000,-333.357879639,0.000000000,0.000000000,15.091125488,-53.405265808,0.000000000,-15.068999290,-13.812870979
1748252110.369716,24.548000000,0.000000000,-333.357879639,0.000000000,0.000000000,15.091125488,-53.405227661,0.000000000,-15.068999290,-13.812870979
1748252110.373205,24.552000000,0.000000000,-333.357879639,0.000000000,0.000000000,15.091125488,-53.405181885,0.000000000,-15.068999290,-13.812870979
1748252110.376138,24.555000000,0.000000000,-333.357879639,0.000000000,0.000000000,15.091125488,-53.405136108,0.000000000,-15.068999290,-13.812870979
1748252110.378820,24.557000000,0.000000000,-333.357879639,0.000000000,0.000000000,15.091125488,-53.405097961,0.000000000,-15.068999290,-13.812870979
1748252110.381468,24.560000000,0.000000000,-333.357879639,0.000000000,0.000000000,15.091125488,-53.405063629,0.000000000,-15.068999290,-13.812870979
1748252110.384188,24.563000000,0.000000000,-333.357879639,0.000000000,0.000000000,15.091125488,-53.405029297,0.000000000,-15.068999290,-13.812870979
1748252110.386740,24.565000000,0.000000000,-333.357879639,0.000000000,0.000000000,15.091125488,-53.404994965,0.000000000,-15.068999290,-13.812870979
1748252110.389410,24.568000000,0.000000000,-333.357879639,0.000000000,0.000000000,15.091125488,-53.404960632,0.000000000,-15.068999290,-13.812870979
1748252110.392074,24.571000000,0.000000000,-333.357879639,0.000000000,0.000000000,15.091125488,-53.404926300,0.000000000,-15.068999290,-13.812870979
1748252110.394730,24.573000000,0.000000000,-333.357879639,0.000000000,0.000000000,15.091125488,-53.404891968,0.000000000,-15.068999290,-13.812870979
1748252110.397423,24.576000000,0.000000000,-333.357879639,0.000000000,0.000000000,15.091125488,-53.404853821,0.000000000,-15.068999290,-13.812870979
1748252110.400078,24.579000000,0.000000000,-333.357879639,0.000000000,0.000000000,15.091125488,-53.404819489,0.000000000,-15.068999290,-13.812870979
1748252110.403166,24.581000000,0.000000000,-333.357879639,0.000000000,0.000000000,15.091125488,-53.404785156,0.000000000,-15.068999290,-13.812870979
1748252110.405774,24.584000000,0.000000000,-333.357879639,0.000000000,0.000000000,15.091125488,-53.404747009,0.000000000,-15.068999290,-13.812870979
1748252110.408683,24.587000000,0.000000000,-333.357879639,0.000000000,0.000000000,15.091125488,-53.404712677,0.000000000,-15.068999290,-13.812870979
1748252110.411469,24.590000000,0.000000000,-333.357879639,0.000000000,0.000000000,15.091125488,-53.404678345,0.000000000,-15.068999290,-13.812870979
1748252110.414066,24.593000000,0.000000000,-333.357879639,0.000000000,0.000000000,15.091125488,-53.404644012,0.000000000,-15.068999290,-13.812870979
1748252110.417026,24.595000000,0.000000000,-333.357879639,0.000000000,0.000000000,15.091125488,-53.404609680,0.000000000,-15.068999290,-13.812870979
1748252110.420044,24.598000000,0.000000000,-333.357879639,0.000000000,0.000000000,15.091125488,-53.404571533,0.000000000,-15.068999290,-13.812870979
1748252110.423456,24.602000000,0.000000000,-333.357879639,0.000000000,0.000000000,15.091125488,-53.404533386,0.000000000,-15.068999290,-13.812870979
1748252110.426324,24.605000000,0.000000000,-333.357879639,0.000000000,0.000000000,15.091125488,-53.404487610,0.000000000,-15.068999290,-13.812870979
1748252110.429773,24.608000000,0.000000000,-333.357879639,0.000000000,0.000000000,15.091125488,-53.404449463,0.000000000,-15.068999290,-13.812870979
1748252110.433276,24.611000000,0.000000000,-333.357879639,0.000000000,0.000000000,15.091125488,-53.404407501,0.000000000,-15.068999290,-13.812870979
1748252110.436314,24.615000000,0.000000000,-333.357879639,0.000000000,0.000000000,15.091125488,-53.404357910,0.000000000,-15.068999290,-13.812870979
1748252110.439775,24.618000000,0.000000000,-333.357879639,0.000000000,0.000000000,15.091125488,-53.404319763,0.000000000,-15.068999290,-13.812870979
1748252110.442245,24.621000000,0.000000000,-333.357879639,0.000000000,0.000000000,15.091125488,-53.404277802,0.000000000,-15.068999290,-13.812870979
1748252110.444869,24.623000000,0.000000000,-333.357879639,0.000000000,0.000000000,15.091125488,-53.404243469,0.000000000,-15.068999290,-13.812870979
1748252110.447880,24.626000000,0.000000000,-333.357879639,0.000000000,0.000000000,15.091125488,-53.404209137,0.000000000,-15.068999290,-13.812870979
1748252110.450529,24.629000000,0.000000000,-333.357879639,0.000000000,0.000000000,15.091125488,-53.404170990,0.000000000,-15.068999290,-13.812870979
1748252110.453145,24.632000000,0.000000000,-333.357879639,0.000000000,0.000000000,15.091125488,-53.404136658,0.000000000,-15.068999290,-13.812870979
1748252110.456189,24.634000000,0.000000000,-333.357879639,0.000000000,0.000000000,15.091125488,-53.404098511,0.000000000,-15.068999290,-13.812870979
1748252110.459128,24.637000000,0.000000000,-333.357879639,0.000000000,0.000000000,15.091125488,-53.404060364,0.000000000,-15.068999290,-13.812870979
1748252110.461636,24.640000000,0.000000000,-333.357879639,0.000000000,0.000000000,15.091125488,-53.404022217,0.000000000,-15.068999290,-13.812870979
1748252110.464502,24.643000000,0.000000000,-333.357879639,0.000000000,0.000000000,15.091125488,-53.403987885,0.000000000,-15.068999290,-13.812870979
1748252110.467465,24.646000000,0.000000000,-333.357879639,0.000000000,0.000000000,15.091125488,-53.403953552,0.000000000,-15.068999290,-13.812870979
1748252110.470046,24.649000000,0.000000000,-333.357879639,0.000000000,0.000000000,15.091125488,-53.403915405,0.000000000,-15.068999290,-13.812870979
1748252110.473049,24.651000000,0.000000000,-333.357879639,0.000000000,0.000000000,15.091125488,-53.403881073,0.000000000,-15.068999290,-13.812870979
1748252110.475839,24.654000000,0.000000000,-333.357879639,0.000000000,0.000000000,15.091125488,-53.403842926,0.000000000,-15.068999290,-13.812870979
1748252110.478620,24.657000000,0.000000000,-333.357879639,0.000000000,0.000000000,15.091125488,-53.403808594,0.000000000,-15.068999290,-13.812870979
1748252110.481384,24.660000000,0.000000000,-333.357879639,0.000000000,0.000000000,15.091125488,-53.403774261,0.000000000,-15.068999290,-13.812870979
1748252110.484068,24.663000000,0.000000000,-333.357879639,0.000000000,0.000000000,15.091125488,-53.403736115,0.000000000,-15.068999290,-13.812870979
1748252110.486722,24.665000000,0.000000000,-333.357879639,0.000000000,0.000000000,15.091125488,-53.403701782,0.000000000,-15.068999290,-13.812870979
1748252110.489386,24.668000000,0.000000000,-333.357879639,0.000000000,0.000000000,15.091125488,-53.403667450,0.000000000,-15.068999290,-13.812870979
1748252110.492377,24.671000000,0.000000000,-333.357879639,0.000000000,0.000000000,15.091125488,-53.403633118,0.000000000,-15.068999290,-13.812870979
1748252110.495068,24.674000000,0.000000000,-333.357879639,0.000000000,0.000000000,15.091125488,-53.403594971,0.000000000,-15.068999290,-13.812870979
1748252110.497661,24.676000000,0.000000000,-333.357879639,0.000000000,0.000000000,15.091125488,-53.403560638,0.000000000,-15.068999290,-13.812870979
