liamjosephnolan/thesis_matlab/roll_step_response/roll_step_response_roll_-15_pitch_15.csv
__time,/psm_joint_telemetry/header/stamp,/psm_joint_telemetry/insertion/effort,/psm_joint_telemetry/insertion/position,/psm_joint_telemetry/insertion/velocity,/psm_joint_telemetry/pitch/effort,/psm_joint_telemetry/pitch/position,/psm_joint_telemetry/pitch/velocity,/psm_joint_telemetry/roll/effort,/psm_joint_telemetry/roll/position,/psm_joint_telemetry/roll/velocity
1747311378.536139,21.400000000,0.000000000,58337.632812500,0.000000000,0.000000000,14.996625900,-62.620880127,0.000000000,-15.051000595,-10.209737778
1747311378.538807,21.403000000,0.000000000,58337.632812500,0.000000000,0.000000000,14.996625900,-62.620880127,0.000000000,-15.051000595,-10.209737778
1747311378.541010,21.405000000,0.000000000,58337.632812500,0.000000000,0.000000000,14.996625900,-62.620880127,0.000000000,-15.051000595,-10.209737778
1747311378.543391,21.408000000,0.000000000,58337.632812500,0.000000000,0.000000000,14.996625900,-62.620880127,0.000000000,-15.051000595,-10.209737778
1747311378.545851,21.410000000,0.000000000,58337.632812500,0.000000000,0.000000000,14.996625900,-62.620880127,0.000000000,-15.051000595,-10.209737778
1747311378.548217,21.412000000,0.000000000,58337.632812500,0.000000000,0.000000000,14.996625900,-62.620880127,0.000000000,-15.051000595,-10.209737778
1747311378.550580,21.415000000,0.000000000,58337.632812500,0.000000000,0.000000000,14.996625900,-62.620880127,0.000000000,-15.051000595,-10.209737778
1747311378.553037,21.417000000,0.000000000,58337.632812500,0.000000000,0.000000000,14.996625900,-62.620880127,0.000000000,-15.051000595,-10.209737778
1747311378.555598,21.420000000,0.000000000,58337.632812500,0.000000000,0.000000000,14.996625900,-62.620880127,0.000000000,-15.051000595,-10.209737778
1747311378.558042,21.422000000,0.000000000,58337.632812500,0.000000000,0.000000000,14.996625900,-62.620880127,0.000000000,-15.051000595,-10.209737778
1747311378.560436,21.425000000,0.000000000,58337.632812500,0.000000000,0.000000000,14.996625900,-62.620880127,0.000000000,-15.051000595,-10.209737778
1747311378.562775,21.427000000,0.000000000,58337.632812500,0.000000000,0.000000000,14.996625900,-62.620880127,0.000000000,-15.051000595,-10.209737778
1747311378.565150,21.429000000,0.000000000,58337.632812500,0.000000000,0.000000000,14.996625900,-62.620880127,0.000000000,-15.051000595,-10.209737778
1747311378.567514,21.432000000,0.000000000,58337.632812500,0.000000000,0.000000000,14.996625900,-62.620880127,0.000000000,-15.051000595,-10.209737778
1747311378.569866,21.434000000,0.000000000,58337.632812500,0.000000000,0.000000000,14.996625900,-62.620880127,0.000000000,-15.051000595,-10.209737778
1747311378.572266,21.436000000,0.000000000,58337.632812500,0.000000000,0.000000000,14.996625900,-62.620880127,0.000000000,-15.051000595,-10.209737778
1747311378.574641,21.439000000,0.000000000,58337.632812500,0.000000000,0.000000000,14.996625900,-62.620880127,0.000000000,-15.051000595,-10.209737778
1747311378.577041,21.441000000,0.000000000,58337.632812500,0.000000000,0.000000000,14.996625900,-62.620880127,0.000000000,-15.051000595,-10.209737778
1747311378.579427,21.444000000,0.000000000,58337.632812500,0.000000000,0.000000000,14.996625900,-62.620880127,0.000000000,-15.051000595,-10.209737778
1747311378.581832,21.446000000,0.000000000,58337.632812500,0.000000000,0.000000000,14.996625900,-62.620880127,0.000000000,-15.051000595,-10.209737778
1747311378.584201,21.448000000,0.000000000,58337.632812500,0.000000000,0.000000000,14.996625900,-62.620880127,0.000000000,-15.051000595,-10.209737778
1747311378.586596,21.451000000,0.000000000,58337.632812500,0.000000000,0.000000000,14.996625900,-62.620880127,0.000000000,-15.051000595,-10.209737778
1747311378.588969,21.453000000,0.000000000,58337.632812500,0.000000000,0.000000000,14.996625900,-62.620880127,0.000000000,-15.051000595,-10.209737778
1747311378.591300,21.456000000,0.000000000,58337.632812500,0.000000000,0.000000000,14.996625900,-62.620880127,0.000000000,-15.051000595,-10.209737778
1747311378.593672,21.458000000,0.000000000,58337.632812500,0.000000000,0.000000000,14.996625900,-62.620880127,0.000000000,-15.051000595,-10.209737778
1747311378.596035,21.460000000,0.000000000,58337.632812500,0.000000000,0.000000000,14.996625900,-62.620880127,0.000000000,-15.051000595,-10.209737778
1747311378.598531,21.463000000,0.000000000,58337.632812500,0.000000000,0.000000000,14.996625900,-62.620880127,0.000000000,-15.051000595,-10.209737778
1747311378.600805,21.465000000,0.000000000,58337.632812500,0.000000000,0.000000000,14.996625900,-62.620880127,0.000000000,-15.051000595,-10.209737778
1747311378.603259,21.467000000,0.000000000,58337.632812500,0.000000000,0.000000000,14.996625900,-62.620880127,0.000000000,-15.051000595,-10.209737778
1747311378.605560,21.470000000,0.000000000,58337.632812500,0.000000000,0.000000000,14.996625900,-62.620880127,0.000000000,-15.051000595,-10.209737778
1747311378.607937,21.472000000,0.000000000,58337.632812500,0.000000000,0.000000000,14.996625900,-62.620880127,0.000000000,-15.051000595,-10.209737778
1747311378.610311,21.474000000,0.000000000,58337.632812500,0.000000000,0.000000000,14.996625900,-62.620880127,0.000000000,-15.051000595,-10.209737778
1747311378.612684,21.477000000,0.000000000,58337.632812500,0.000000000,0.000000000,14.996625900,-62.620880127,0.000000000,-15.051000595,-10.209737778
1747311378.615075,21.479000000,0.000000000,58337.632812500,0.000000000,0.000000000,14.996625900,-62.620880127,0.000000000,-15.051000595,-10.209737778
1747311378.617438,21.482000000,0.000000000,58337.632812500,0.000000000,0.000000000,14.996625900,-62.620880127,0.000000000,-15.051000595,-10.209737778
1747311378.619812,21.484000000,0.000000000,58337.632812500,0.000000000,0.000000000,14.996625900,-62.620880127,0.000000000,-15.051000595,-10.209737778
1747311378.622197,21.486000000,0.000000000,58337.632812500,0.000000000,0.000000000,14.996625900,-62.620880127,0.000000000,-15.051000595,-10.209737778
1747311378.624575,21.489000000,0.000000000,58337.632812500,0.000000000,0.000000000,14.996625900,-62.620880127,0.000000000,-15.051000595,-10.209737778
1747311378.626973,21.491000000,0.000000000,58337.632812500,0.000000000,0.000000000,14.996625900,-62.620880127,0.000000000,-15.051000595,-10.209737778
1747311378.629371,21.494000000,0.000000000,58337.632812500,0.000000000,0.000000000,14.996625900,-62.620880127,0.000000000,-15.051000595,-10.209737778
1747311378.631747,21.496000000,0.000000000,58337.632812500,0.000000000,0.000000000,14.996625900,-62.620880127,0.000000000,-15.051000595,-10.209737778
1747311378.634148,21.498000000,0.000000000,58337.632812500,0.000000000,0.000000000,14.996625900,-62.620880127,0.000000000,-15.051000595,-10.209737778
1747311378.636550,21.501000000,0.000000000,58337.632812500,0.000000000,0.000000000,14.996625900,-62.620880127,0.000000000,-15.051000595,-10.209737778
1747311378.639064,21.503000000,0.000000000,58337.632812500,0.000000000,0.000000000,14.996625900,-62.620880127,0.000000000,-15.051000595,-10.209737778
1747311378.641533,21.506000000,0.000000000,58337.632812500,0.000000000,0.000000000,14.996625900,-62.620880127,0.000000000,-15.051000595,-10.209737778
1747311378.643955,21.508000000,0.000000000,58337.632812500,0.000000000,0.000000000,14.996625900,-62.620880127,0.000000000,-15.051000595,-10.209737778
1747311378.646433,21.511000000,0.000000000,58337.632812500,0.000000000,0.000000000,14.996625900,-62.620880127,0.000000000,-15.051000595,-10.209737778
1747311378.648839,21.513000000,0.000000000,58337.632812500,0.000000000,0.000000000,14.996625900,-62.620880127,0.000000000,-15.051000595,-10.209737778
1747311378.651202,21.515000000,0.000000000,58337.632812500,0.000000000,0.000000000,14.996625900,-62.620880127,0.000000000,-15.051000595,-10.209737778
1747311378.653578,21.518000000,0.000000000,58337.632812500,0.000000000,0.000000000,14.996625900,-62.620880127,0.000000000,-15.051000595,-10.209737778
1747311378.655989,21.520000000,0.000000000,58337.632812500,0.000000000,0.000000000,14.996625900,-62.620880127,0.000000000,-15.051000595,-10.209737778
1747311378.658340,21.523000000,0.000000000,58337.632812500,0.000000000,0.000000000,14.996625900,-62.620880127,0.000000000,-15.051000595,-10.209737778
1747311378.660705,21.525000000,0.000000000,58337.632812500,0.000000000,0.000000000,14.996625900,-62.620880127,0.000000000,-15.051000595,-10.209737778
1747311378.663096,21.527000000,0.000000000,58337.632812500,0.000000000,0.000000000,14.996625900,-62.620880127,0.000000000,-15.051000595,-10.209737778
1747311378.665474,21.530000000,0.000000000,58337.632812500,0.000000000,0.000000000,14.996625900,-62.620880127,0.000000000,-15.051000595,-10.209737778
1747311378.667841,21.532000000,0.000000000,58337.632812500,0.000000000,0.000000000,14.996625900,-62.620880127,0.000000000,-15.051000595,-10.209737778
1747311378.670243,21.534000000,0.000000000,58337.632812500,0.000000000,0.000000000,14.996625900,-62.620880127,0.000000000,-15.051000595,-10.209737778
1747311378.672590,21.537000000,0.000000000,58337.632812500,0.000000000,0.000000000,14.996625900,-62.620880127,0.000000000,-15.051000595,-10.209737778
1747311378.674988,21.539000000,0.000000000,58337.632812500,0.000000000,0.000000000,14.996625900,-62.620880127,0.000000000,-15.051000595,-10.209737778
1747311378.677441,21.542000000,0.000000000,58337.632812500,0.000000000,0.000000000,14.996625900,-62.620880127,0.000000000,-15.051000595,-10.209737778
1747311378.679842,21.544000000,0.000000000,58337.632812500,0.000000000,0.000000000,14.996625900,-62.620880127,0.000000000,-15.051000595,-10.209737778
1747311378.682184,21.546000000,0.000000000,58337.632812500,0.000000000,0.000000000,14.996625900,-62.620880127,0.000000000,-15.051000595,-10.209737778
1747311378.684546,21.549000000,0.000000000,58337.632812500,0.000000000,0.000000000,14.996625900,-62.620880127,0.000000000,-15.051000595,-10.209737778
1747311378.686884,21.551000000,0.000000000,58337.632812500,0.000000000,0.000000000,14.996625900,-62.620880127,0.000000000,-15.051000595,-10.209737778
1747311378.689305,21.553000000,0.000000000,58337.632812500,0.000000000,0.000000000,14.996625900,-62.620880127,0.000000000,-15.051000595,-10.209737778
1747311378.691647,21.556000000,0.000000000,58337.632812500,0.000000000,0.000000000,14.996625900,-62.620880127,0.000000000,-15.051000595,-10.209737778
1747311378.694018,21.558000000,0.000000000,58337.632812500,0.000000000,0.000000000,14.996625900,-62.620880127,0.000000000,-15.051000595,-10.209737778
1747311378.696419,21.561000000,0.000000000,58337.632812500,0.000000000,0.000000000,14.996625900,-62.620880127,0.000000000,-15.051000595,-10.209737778
1747311378.698764,21.563000000,0.000000000,58337.632812500,0.000000000,0.000000000,14.996625900,-62.620880127,0.000000000,-15.051000595,-10.209737778
1747311378.701147,21.565000000,0.000000000,58337.632812500,0.000000000,0.000000000,14.996625900,-62.620880127,0.000000000,-15.051000595,-10.209737778
1747311378.703526,21.568000000,0.000000000,58337.632812500,0.000000000,0.000000000,14.996625900,-62.620880127,0.000000000,-15.051000595,-10.209737778
1747311378.705899,21.570000000,0.000000000,58337.632812500,0.000000000,0.000000000,14.996625900,-62.620880127,0.000000000,-15.051000595,-10.209737778
1747311378.708256,21.572000000,0.000000000,58337.632812500,0.000000000,0.000000000,14.996625900,-62.620880127,0.000000000,-15.051000595,-10.209737778
1747311378.710630,21.575000000,0.000000000,58337.632812500,0.000000000,0.000000000,14.996625900,-62.620880127,0.000000000,-15.051000595,-10.209737778
1747311378.713037,21.577000000,0.000000000,58337.632812500,0.000000000,0.000000000,14.996625900,-62.620880127,0.000000000,-15.051000595,-10.209737778
1747311378.715410,21.580000000,0.000000000,58337.632812500,0.000000000,0.000000000,14.996625900,-62.620880127,0.000000000,-15.051000595,-10.209737778
1747311378.717787,21.582000000,0.000000000,58337.632812500,0.000000000,0.000000000,14.996625900,-62.620880127,0.000000000,-15.051000595,-10.209737778
1747311378.720222,21.584000000,0.000000000,58337.632812500,0.000000000,0.000000000,14.996625900,-62.620880127,0.000000000,-15.051000595,-10.209737778
1747311378.722616,21.587000000,0.000000000,58337.632812500,0.000000000,0.000000000,14.996625900,-62.620880127,0.000000000,-15.051000595,-10.209737778
1747311378.724992,21.589000000,0.000000000,58337.632812500,0.000000000,0.000000000,14.996625900,-62.620880127,0.000000000,-15.051000595,-10.209737778
1747311378.727383,21.592000000,0.000000000,58337.632812500,0.000000000,0.000000000,14.996625900,-62.620880127,0.000000000,-15.051000595,-10.209737778
1747311378.729754,21.594000000,0.000000000,58337.632812500,0.000000000,0.000000000,14.996625900,-62.620880127,0.000000000,-15.051000595,-10.209737778
1747311378.732175,21.596000000,0.000000000,58337.632812500,0.000000000,0.000000000,14.996625900,-62.620880127,0.000000000,-15.051000595,-10.209737778
1747311378.734594,21.599000000,0.000000000,58337.632812500,0.000000000,0.000000000,14.996625900,-62.620880127,0.000000000,-15.051000595,-10.209737778
1747311378.737021,21.601000000,0.000000000,58337.632812500,0.000000000,0.000000000,14.996625900,-62.620880127,0.000000000,-15.051000595,-10.209737778
1747311378.739408,21.604000000,0.000000000,58337.632812500,0.000000000,0.000000000,14.996625900,-62.620880127,0.000000000,-15.051000595,-10.209737778
1747311378.741800,21.606000000,0.000000000,58337.632812500,0.000000000,0.000000000,14.996625900,-62.620880127,0.000000000,-15.051000595,-10.209737778
1747311378.744224,21.608000000,0.000000000,58337.632812500,0.000000000,0.000000000,14.996625900,-62.620880127,0.000000000,-15.051000595,-10.209737778
1747311378.746683,21.611000000,0.000000000,58337.632812500,0.000000000,0.000000000,14.996625900,-62.620880127,0.000000000,-15.051000595,-10.209737778
1747311378.749058,21.613000000,0.000000000,58337.632812500,0.000000000,0.000000000,14.996625900,-62.620880127,0.000000000,-15.051000595,-10.209737778
1747311378.751454,21.616000000,0.000000000,58337.632812500,0.000000000,0.000000000,14.996625900,-62.620880127,0.000000000,-15.051000595,-10.209737778
1747311378.753843,21.618000000,0.000000000,58337.632812500,0.000000000,0.000000000,14.996625900,-62.620880127,0.000000000,-15.051000595,-10.209737778
1747311378.756240,21.620000000,0.000000000,58337.632812500,0.000000000,0.000000000,14.996625900,-62.620880127,0.000000000,-15.051000595,-10.209737778
1747311378.758640,21.623000000,0.000000000,58337.632812500,0.000000000,0.000000000,14.996625900,-62.620880127,0.000000000,-15.051000595,-10.209737778
1747311378.761021,21.625000000,0.000000000,58337.632812500,0.000000000,0.000000000,14.996625900,-62.620880127,0.000000000,-15.051000595,-10.209737778
1747311378.763414,21.628000000,0.000000000,58337.632812500,0.000000000,0.000000000,14.996625900,-62.620880127,0.000000000,-15.051000595,-10.209737778
1747311378.765785,21.630000000,0.000000000,58337.632812500,0.000000000,0.000000000,14.996625900,-62.620880127,0.000000000,-15.051000595,-10.209737778
1747311378.768173,21.632000000,0.000000000,58337.632812500,0.000000000,0.000000000,14.996625900,-62.620880127,0.000000000,-15.051000595,-10.209737778
1747311378.770561,21.635000000,0.000000000,58337.632812500,0.000000000,0.000000000,14.996625900,-62.620880127,0.000000000,-15.051000595,-10.209737778
1747311378.773025,21.637000000,0.000000000,58337.632812500,0.000000000,0.000000000,14.996625900,-62.620880127,0.000000000,-15.051000595,-10.209737778
1747311378.775383,21.640000000,0.000000000,58337.632812500,0.000000000,0.000000000,14.996625900,-62.620880127,0.000000000,-15.051000595,-10.209737778
1747311378.777794,21.642000000,0.000000000,58337.632812500,0.000000000,0.000000000,14.996625900,-62.620880127,0.000000000,-15.051000595,-10.209737778
1747311378.780246,21.644000000,0.000000000,58337.632812500,0.000000000,0.000000000,14.996625900,-62.620880127,0.000000000,-15.051000595,-10.209737778
1747311378.782757,21.647000000,0.000000000,58337.632812500,0.000000000,0.000000000,14.996625900,-62.620880127,0.000000000,-15.051000595,-10.209737778
1747311378.785287,21.649000000,0.000000000,58337.632812500,0.000000000,0.000000000,14.996625900,-62.620880127,0.000000000,-15.051000595,-10.209737778
1747311378.787737,21.652000000,0.000000000,58337.632812500,0.000000000,0.000000000,14.996625900,-62.620880127,0.000000000,-15.051000595,-10.209737778
1747311378.790189,21.654000000,0.000000000,58337.632812500,0.000000000,0.000000000,14.996625900,-62.620880127,0.000000000,-15.051000595,-10.209737778
1747311378.792724,21.657000000,0.000000000,58337.632812500,0.000000000,0.000000000,14.996625900,-62.620880127,0.000000000,-15.051000595,-10.209737778
1747311378.795178,21.659000000,0.000000000,58337.632812500,0.000000000,0.000000000,14.996625900,-62.620880127,0.000000000,-15.051000595,-10.209737778
1747311378.797696,21.662000000,0.000000000,58337.632812500,0.000000000,0.000000000,14.996625900,-62.620880127,0.000000000,-15.051000595,-10.209737778
1747311378.800113,21.664000000,0.000000000,58337.632812500,0.000000000,0.000000000,14.996625900,-62.620880127,0.000000000,-15.051000595,-10.209737778
1747311378.802564,21.667000000,0.000000000,58337.632812500,0.000000000,0.000000000,14.996625900,-62.620880127,0.000000000,-15.051000595,-10.209737778
1747311378.805050,21.669000000,0.000000000,58337.632812500,0.000000000,0.000000000,14.996625900,-62.620880127,0.000000000,-15.051000595,-10.209737778
1747311378.807522,21.672000000,0.000000000,58337.632812500,0.000000000,0.000000000,14.996625900,-62.620880127,0.000000000,-15.051000595,-10.209737778
1747311378.810024,21.674000000,0.000000000,58337.632812500,0.000000000,0.000000000,14.996625900,-62.620880127,0.000000000,-15.051000595,-10.209737778
1747311378.812525,21.677000000,0.000000000,58337.632812500,0.000000000,0.000000000,14.996625900,-62.620880127,0.000000000,-15.051000595,-10.209737778
1747311378.815004,21.679000000,0.000000000,58337.632812500,0.000000000,0.000000000,14.996625900,-62.620880127,0.000000000,-15.051000595,-10.209737778
1747311378.817454,21.682000000,0.000000000,58337.632812500,0.000000000,0.000000000,14.996625900,-62.620880127,0.000000000,-15.051000595,-10.209737778
1747311378.819930,21.684000000,0.000000000,58337.632812500,0.000000000,0.000000000,14.996625900,-62.620880127,0.000000000,-15.051000595,-10.209737778
1747311378.822442,21.687000000,0.000000000,58337.632812500,0.000000000,0.000000000,14.996625900,-62.620880127,0.000000000,-15.051000595,-10.209737778
1747311378.824905,21.689000000,0.000000000,58337.632812500,0.000000000,0.000000000,14.996625900,-62.620880127,0.000000000,-15.051000595,-10.209737778
1747311378.827358,21.692000000,0.000000000,58337.632812500,0.000000000,0.000000000,14.996625900,-62.620880127,0.000000000,-15.051000595,-10.209737778
1747311378.829855,21.694000000,0.000000000,58337.632812500,0.000000000,0.000000000,14.996625900,-62.620880127,0.000000000,-15.051000595,-10.209737778
1747311378.832327,21.696000000,0.000000000,58337.632812500,0.000000000,0.000000000,14.996625900,-62.620880127,0.000000000,-15.051000595,-10.209737778
1747311378.834802,21.699000000,0.000000000,58337.632812500,0.000000000,0.000000000,14.996625900,-62.620880127,0.000000000,-15.051000595,-10.209737778
1747311378.837313,21.701000000,0.000000000,58337.632812500,0.000000000,0.000000000,14.996625900,-62.620880127,0.000000000,-15.051000595,-10.209737778
1747311378.839762,21.704000000,0.000000000,58337.632812500,0.000000000,0.000000000,14.996625900,-62.620880127,0.000000000,-15.051000595,-10.209737778
1747311378.842236,21.706000000,0.000000000,58337.632812500,0.000000000,0.000000000,14.996625900,-62.620880127,0.000000000,-15.051000595,-10.209737778
1747311378.844719,21.709000000,0.000000000,58337.632812500,0.000000000,0.000000000,14.996625900,-62.620880127,0.000000000,-15.051000595,-10.209737778
1747311378.847220,21.711000000,0.000000000,58337.632812500,0.000000000,0.000000000,14.996625900,-62.620880127,0.000000000,-15.051000595,-10.209737778
1747311378.849699,21.714000000,0.000000000,58337.632812500,0.000000000,0.000000000,14.996625900,-62.620880127,0.000000000,-15.051000595,-10.209737778
1747311378.852180,21.716000000,0.000000000,58337.632812500,0.000000000,0.000000000,14.996625900,-62.620880127,0.000000000,-15.051000595,-10.209737778
1747311378.854681,21.719000000,0.000000000,58337.632812500,0.000000000,0.000000000,14.996625900,-62.620880127,0.000000000,-15.051000595,-10.209737778
1747311378.857159,21.721000000,0.000000000,58337.632812500,0.000000000,0.000000000,14.996625900,-62.620880127,0.000000000,-15.051000595,-10.209737778
1747311378.859649,21.724000000,0.000000000,58337.632812500,0.000000000,0.000000000,14.996625900,-62.620880127,0.000000000,-15.051000595,-10.209737778
1747311378.862169,21.726000000,0.000000000,58337.632812500,0.000000000,0.000000000,14.996625900,-62.620880127,0.000000000,-15.051000595,-10.209737778
1747311378.864666,21.729000000,0.000000000,58337.632812500,0.000000000,0.000000000,14.996625900,-62.620880127,0.000000000,-15.051000595,-10.209737778
1747311378.867160,21.731000000,0.000000000,58337.632812500,0.000000000,0.000000000,14.996625900,-62.620880127,0.000000000,-15.051000595,-10.209737778
1747311378.869653,21.734000000,0.000000000,58337.632812500,0.000000000,0.000000000,14.996625900,-62.620880127,0.000000000,-15.051000595,-10.209737778
1747311378.872166,21.736000000,0.000000000,58337.632812500,0.000000000,0.000000000,14.996625900,-62.620880127,0.000000000,-15.051000595,-10.209737778
1747311378.874666,21.739000000,0.000000000,58337.632812500,0.000000000,0.000000000,14.996625900,-62.620880127,0.000000000,-15.051000595,-10.209737778
1747311378.877161,21.741000000,0.000000000,58337.632812500,0.000000000,0.000000000,14.996625900,-62.620880127,0.000000000,-15.051000595,-10.209737778
1747311378.879632,21.744000000,0.000000000,58337.632812500,0.000000000,0.000000000,14.996625900,-62.620880127,0.000000000,-15.051000595,-10.209737778
1747311378.882044,21.746000000,0.000000000,58337.632812500,0.000000000,0.000000000,14.996625900,-62.620880127,0.000000000,-15.051000595,-10.209737778
1747311378.884426,21.749000000,0.000000000,58337.632812500,0.000000000,0.000000000,14.996625900,-62.620880127,0.000000000,-15.051000595,-10.209737778
1747311378.886794,21.751000000,0.000000000,58337.632812500,0.000000000,0.000000000,14.996625900,-62.620880127,0.000000000,-15.051000595,-10.209737778
1747311378.889230,21.753000000,0.000000000,58337.632812500,0.000000000,0.000000000,14.996625900,-62.620880127,0.000000000,-15.051000595,-10.209737778
1747311378.891654,21.756000000,0.000000000,58337.632812500,0.000000000,0.000000000,14.996625900,-62.620880127,0.000000000,-15.051000595,-10.209737778
1747311378.894153,21.758000000,0.000000000,58337.632812500,0.000000000,0.000000000,14.996625900,-62.620880127,0.000000000,-15.051000595,-10.209737778
1747311378.896565,21.761000000,0.000000000,58337.632812500,0.000000000,0.000000000,14.996625900,-62.620880127,0.000000000,-15.051000595,-10.209737778
1747311378.898957,21.763000000,0.000000000,58337.632812500,0.000000000,0.000000000,14.996625900,-62.620880127,0.000000000,-15.051000595,-10.209737778
1747311378.901371,21.766000000,0.000000000,58337.632812500,0.000000000,0.000000000,14.996625900,-62.620880127,0.000000000,-15.051000595,-10.209737778
1747311378.903768,21.768000000,0.000000000,58337.632812500,0.000000000,0.000000000,14.996625900,-62.620880127,0.000000000,-15.051000595,-10.209737778
1747311378.906133,21.770000000,0.000000000,58337.632812500,0.000000000,0.000000000,14.996625900,-62.620880127,0.000000000,-15.051000595,-10.209737778
1747311378.908490,21.773000000,0.000000000,58337.632812500,0.000000000,0.000000000,14.996625900,-62.620880127,0.000000000,-15.051000595,-10.209737778
1747311378.910866,21.775000000,0.000000000,58337.632812500,0.000000000,0.000000000,14.996625900,-62.620880127,0.000000000,-15.051000595,-10.209737778
1747311378.913289,21.777000000,0.000000000,58337.632812500,0.000000000,0.000000000,14.996625900,-62.620880127,0.000000000,-15.051000595,-10.209737778
1747311378.915709,21.780000000,0.000000000,58337.632812500,0.000000000,0.000000000,14.996625900,-62.620880127,0.000000000,-15.051000595,-10.209737778
1747311378.918095,21.782000000,0.000000000,58337.632812500,0.000000000,0.000000000,14.996625900,-62.620880127,0.000000000,-15.051000595,-10.209737778
1747311378.920626,21.785000000,0.000000000,58337.632812500,0.000000000,0.000000000,14.996625900,-62.620880127,0.000000000,-15.051000595,-10.209737778
1747311378.923226,21.787000000,0.000000000,58337.632812500,0.000000000,0.000000000,14.996625900,-62.620880127,0.000000000,-15.051000595,-10.209737778
1747311378.925597,21.790000000,0.000000000,58337.632812500,0.000000000,0.000000000,14.996625900,-62.620880127,0.000000000,-15.051000595,-10.209737778
1747311378.927963,21.792000000,0.000000000,58337.632812500,0.000000000,0.000000000,14.996625900,-62.620880127,0.000000000,-15.051000595,-10.209737778
1747311378.930315,21.795000000,0.000000000,58337.632812500,0.000000000,0.000000000,14.996625900,-62.620880127,0.000000000,-15.051000595,-10.209737778
1747311378.932644,21.797000000,0.000000000,58337.632812500,0.000000000,0.000000000,14.996625900,-62.620880127,0.000000000,-15.051000595,-10.209737778
1747311378.934984,21.799000000,0.000000000,58337.632812500,0.000000000,0.000000000,14.996625900,-62.620880127,0.000000000,-15.051000595,-10.209737778
1747311378.937347,21.802000000,0.000000000,58337.632812500,0.000000000,0.000000000,14.996625900,-62.620880127,0.000000000,-15.051000595,-10.209737778
1747311378.939741,21.804000000,0.000000000,58337.632812500,0.000000000,0.000000000,14.996625900,-62.620880127,0.000000000,-15.051000595,-10.209737778
1747311378.942145,21.806000000,0.000000000,58337.632812500,0.000000000,0.000000000,14.996625900,-62.620880127,0.000000000,-15.051000595,-10.209737778
1747311378.944533,21.809000000,0.000000000,58337.632812500,0.000000000,0.000000000,14.996625900,-62.620880127,0.000000000,-15.051000595,-10.209737778
1747311378.946896,21.811000000,0.000000000,58337.632812500,0.000000000,0.000000000,14.996625900,-62.620880127,0.000000000,-15.051000595,-10.209737778
1747311378.949244,21.813000000,0.000000000,58337.632812500,0.000000000,0.000000000,14.996625900,-62.620880127,0.000000000,-15.051000595,-10.209737778
1747311378.951588,21.816000000,0.000000000,58337.632812500,0.000000000,0.000000000,14.996625900,-62.620880127,0.000000000,-15.051000595,-10.209737778
1747311378.953961,21.818000000,0.000000000,58337.632812500,0.000000000,0.000000000,14.996625900,-62.620880127,0.000000000,-15.051000595,-10.209737778
1747311378.956311,21.821000000,0.000000000,58337.632812500,0.000000000,0.000000000,14.996625900,-62.620880127,0.000000000,-15.051000595,-10.209737778
1747311378.958651,21.823000000,0.000000000,58337.632812500,0.000000000,0.000000000,14.996625900,-62.620880127,0.000000000,-15.051000595,-10.209737778
1747311378.960986,21.825000000,0.000000000,58337.632812500,0.000000000,0.000000000,14.996625900,-62.620880127,0.000000000,-15.051000595,-10.209737778
1747311378.963334,21.828000000,0.000000000,58337.632812500,0.000000000,0.000000000,14.996625900,-62.620880127,0.000000000,-15.051000595,-10.209737778
1747311378.965674,21.830000000,0.000000000,58337.632812500,0.000000000,0.000000000,14.996625900,-62.620880127,0.000000000,-15.051000595,-10.209737778
1747311378.968024,21.832000000,0.000000000,58337.632812500,0.000000000,0.000000000,14.996625900,-62.620880127,0.000000000,-15.051000595,-10.209737778
1747311378.970386,21.835000000,0.000000000,58337.632812500,0.000000000,0.000000000,14.996625900,-62.620880127,0.000000000,-15.051000595,-10.209737778
1747311378.972748,21.837000000,0.000000000,58337.632812500,0.000000000,0.000000000,14.996625900,-62.620880127,0.000000000,-15.051000595,-10.209737778
1747311378.975131,21.839000000,0.000000000,58337.632812500,0.000000000,0.000000000,14.996625900,-62.620880127,0.000000000,-15.051000595,-10.209737778
1747311378.977463,21.842000000,0.000000000,58337.632812500,0.000000000,0.000000000,14.996625900,-62.620880127,0.000000000,-15.051000595,-10.209737778
1747311378.979850,21.844000000,0.000000000,58337.632812500,0.000000000,0.000000000,14.996625900,-62.620880127,0.000000000,-15.051000595,-10.209737778
1747311378.982205,21.846000000,0.000000000,58337.632812500,0.000000000,0.000000000,14.996625900,-62.620880127,0.000000000,-15.051000595,-10.209737778
1747311378.984560,21.849000000,0.000000000,58337.632812500,0.000000000,0.000000000,14.996625900,-62.620880127,0.000000000,-15.051000595,-10.209737778
1747311378.986911,21.851000000,0.000000000,58337.632812500,0.000000000,0.000000000,14.996625900,-62.620880127,0.000000000,-15.051000595,-10.209737778
1747311378.989287,21.853000000,0.000000000,58337.632812500,0.000000000,0.000000000,14.996625900,-62.620880127,0.000000000,-15.051000595,-10.209737778
1747311378.991638,21.856000000,0.000000000,58337.632812500,0.000000000,0.000000000,14.996625900,-62.620880127,0.000000000,-15.051000595,-10.209737778
1747311378.993987,21.858000000,0.000000000,58337.632812500,0.000000000,0.000000000,14.996625900,-62.620880127,0.000000000,-15.051000595,-10.209737778
1747311378.996350,21.861000000,0.000000000,58337.632812500,0.000000000,0.000000000,14.996625900,-62.620880127,0.000000000,-15.051000595,-10.209737778
1747311378.998708,21.863000000,0.000000000,58337.632812500,0.000000000,0.000000000,14.996625900,-62.620880127,0.000000000,-15.051000595,-10.209737778
1747311379.001063,21.865000000,0.000000000,58337.632812500,0.000000000,0.000000000,14.996625900,-62.620880127,0.000000000,-15.051000595,-10.209737778
1747311379.003429,21.868000000,0.000000000,58337.632812500,0.000000000,0.000000000,14.996625900,-62.620880127,0.000000000,-15.051000595,-10.209737778
1747311379.005801,21.870000000,0.000000000,58337.632812500,0.000000000,0.000000000,14.996625900,-62.620880127,0.000000000,-15.051000595,-10.209737778
1747311379.008153,21.872000000,0.000000000,58337.632812500,0.000000000,0.000000000,14.996625900,-62.620880127,0.000000000,-15.051000595,-10.209737778
1747311379.010530,21.875000000,0.000000000,58337.632812500,0.000000000,0.000000000,14.996625900,-62.620880127,0.000000000,-15.051000595,-10.209737778
1747311379.012880,21.877000000,0.000000000,58337.632812500,0.000000000,0.000000000,14.996625900,-62.620880127,0.000000000,-15.051000595,-10.209737778
1747311379.015241,21.879000000,0.000000000,58337.632812500,0.000000000,0.000000000,14.996625900,-62.620880127,0.000000000,-15.051000595,-10.209737778
1747311379.017547,21.882000000,0.000000000,58337.632812500,0.000000000,0.000000000,14.996625900,-62.620880127,0.000000000,-15.051000595,-10.209737778
1747311379.019910,21.884000000,0.000000000,58337.632812500,0.000000000,0.000000000,14.996625900,-62.620880127,0.000000000,-15.051000595,-10.209737778
1747311379.022276,21.886000000,0.000000000,58337.632812500,0.000000000,0.000000000,14.996625900,-62.620880127,0.000000000,-15.051000595,-10.209737778
1747311379.024664,21.889000000,0.000000000,58337.632812500,0.000000000,0.000000000,14.996625900,-62.620880127,0.000000000,-15.051000595,-10.209737778
1747311379.027068,21.891000000,0.000000000,58337.632812500,0.000000000,0.000000000,14.996625900,-62.620880127,0.000000000,-15.051000595,-10.209737778
1747311379.029429,21.894000000,0.000000000,58337.632812500,0.000000000,0.000000000,14.996625900,-62.620880127,0.000000000,-15.051000595,-10.209737778
1747311379.031814,21.896000000,0.000000000,58337.632812500,0.000000000,0.000000000,14.996625900,-62.620880127,0.000000000,-15.051000595,-10.209737778
1747311379.034212,21.898000000,0.000000000,58337.632812500,0.000000000,0.000000000,14.996625900,-62.620880127,0.000000000,-15.051000595,-10.209737778
1747311379.036618,21.901000000,0.000000000,58337.632812500,0.000000000,0.000000000,14.996625900,-62.620880127,0.000000000,-15.051000595,-10.209737778
1747311379.039013,21.903000000,0.000000000,58337.632812500,0.000000000,0.000000000,14.996625900,-62.620880127,0.000000000,-15.051000595,-10.209737778
1747311379.041462,21.906000000,0.000000000,58337.632812500,0.000000000,0.000000000,14.996625900,-62.620880127,0.000000000,-15.051000595,-10.209737778
1747311379.043883,21.908000000,0.000000000,58337.632812500,0.000000000,0.000000000,14.996625900,-62.620880127,0.000000000,-15.051000595,-10.209737778
1747311379.046319,21.910000000,0.000000000,58337.632812500,0.000000000,0.000000000,14.996625900,-62.620880127,0.000000000,-15.051000595,-10.209737778
1747311379.048742,21.913000000,0.000000000,58337.632812500,0.000000000,0.000000000,14.996625900,-62.620880127,0.000000000,-15.051000595,-10.209737778
1747311379.051113,21.915000000,0.000000000,58337.632812500,0.000000000,0.000000000,14.996625900,-62.620880127,0.000000000,-15.051000595,-10.209737778
1747311379.053432,21.918000000,0.000000000,58337.632812500,0.000000000,0.000000000,14.996625900,-62.620880127,0.000000000,-15.051000595,-10.209737778
1747311379.055864,21.920000000,0.000000000,58337.632812500,0.000000000,0.000000000,14.996625900,-62.620880127,0.000000000,-15.051000595,-10.209737778
1747311379.058272,21.922000000,0.000000000,58337.632812500,0.000000000,0.000000000,14.996625900,-62.620880127,0.000000000,-15.051000595,-10.209737778
1747311379.060765,21.925000000,0.000000000,58337.632812500,0.000000000,0.000000000,14.996625900,-62.620880127,0.000000000,-15.051000595,-10.209737778
1747311379.063145,21.927000000,0.000000000,58337.632812500,0.000000000,0.000000000,14.996625900,-62.620880127,0.000000000,-15.051000595,-10.209737778
1747311379.065490,21.930000000,0.000000000,58337.632812500,0.000000000,0.000000000,14.996625900,-62.620880127,0.000000000,-15.051000595,-10.209737778
1747311379.067835,21.932000000,0.000000000,58337.632812500,0.000000000,0.000000000,14.996625900,-62.620880127,0.000000000,-15.051000595,-10.209737778
1747311379.070198,21.934000000,0.000000000,58337.632812500,0.000000000,0.000000000,14.996625900,-62.620880127,0.000000000,-15.051000595,-10.209737778
1747311379.072551,21.937000000,0.000000000,58337.632812500,0.000000000,0.000000000,14.996625900,-62.620880127,0.000000000,-15.051000595,-10.209737778
1747311379.074876,21.939000000,0.000000000,58337.632812500,0.000000000,0.000000000,14.996625900,-62.620880127,0.000000000,-15.051000595,-10.209737778
1747311379.077209,21.941000000,0.000000000,58337.632812500,0.000000000,0.000000000,14.996625900,-62.620880127,0.000000000,-15.051000595,-10.209737778
1747311379.079599,21.944000000,0.000000000,58337.632812500,0.000000000,0.000000000,14.996625900,-62.620880127,0.000000000,-15.051000595,-10.209737778
1747311379.081932,21.946000000,0.000000000,58337.632812500,0.000000000,0.000000000,14.996625900,-62.620880127,0.000000000,-15.051000595,-10.209737778
1747311379.084255,21.948000000,0.000000000,58337.632812500,0.000000000,0.000000000,14.996625900,-62.620880127,0.000000000,-15.051000595,-10.209737778
1747311379.086616,21.951000000,0.000000000,58337.632812500,0.000000000,0.000000000,14.996625900,-62.620880127,0.000000000,-15.051000595,-10.209737778
1747311379.088978,21.953000000,0.000000000,58337.632812500,0.000000000,0.000000000,14.996625900,-62.620880127,0.000000000,-15.051000595,-10.209737778
1747311379.091329,21.956000000,0.000000000,58337.632812500,0.000000000,0.000000000,14.996625900,-62.620880127,0.000000000,-15.051000595,-10.209737778
1747311379.093668,21.958000000,0.000000000,58337.632812500,0.000000000,0.000000000,14.996625900,-62.620880127,0.000000000,-15.051000595,-10.209737778
1747311379.096004,21.960000000,0.000000000,58337.632812500,0.000000000,0.000000000,14.996625900,-62.620880127,0.000000000,-15.051000595,-10.209737778
1747311379.098356,21.963000000,0.000000000,58337.632812500,0.000000000,0.000000000,14.996625900,-62.620880127,0.000000000,-15.051000595,-10.209737778
1747311379.100701,21.965000000,0.000000000,58337.632812500,0.000000000,0.000000000,14.996625900,-62.620880127,0.000000000,-15.051000595,-10.209737778
1747311379.103033,21.967000000,0.000000000,58337.632812500,0.000000000,0.000000000,14.996625900,-62.620880127,0.000000000,-15.051000595,-10.209737778
1747311379.105400,21.970000000,0.000000000,58337.632812500,0.000000000,0.000000000,14.996625900,-62.620880127,0.000000000,-15.051000595,-10.209737778
1747311379.107792,21.972000000,0.000000000,58337.632812500,0.000000000,0.000000000,14.996625900,-62.620880127,0.000000000,-15.051000595,-10.209737778
1747311379.110195,21.974000000,0.000000000,58337.632812500,0.000000000,0.000000000,14.996625900,-62.620880127,0.000000000,-15.051000595,-10.209737778
1747311379.112704,21.977000000,0.000000000,58337.632812500,0.000000000,0.000000000,14.996625900,-62.620880127,0.000000000,-15.051000595,-10.209737778
1747311379.115251,21.979000000,0.000000000,58337.632812500,0.000000000,0.000000000,14.996625900,-62.620880127,0.000000000,-15.051000595,-10.209737778
1747311379.117528,21.982000000,0.000000000,58337.632812500,0.000000000,0.000000000,14.996625900,-62.620880127,0.000000000,-15.051000595,-10.209737778
1747311379.119839,21.984000000,0.000000000,58337.632812500,0.000000000,0.000000000,14.996625900,-62.620880127,0.000000000,-15.051000595,-10.209737778
1747311379.122186,21.986000000,0.000000000,58337.632812500,0.000000000,0.000000000,14.996625900,-62.620880127,0.000000000,-15.051000595,-10.209737778
1747311379.124540,21.989000000,0.000000000,58337.632812500,0.000000000,0.000000000,14.996625900,-62.620880127,0.000000000,-15.051000595,-10.209737778
1747311379.126888,21.991000000,0.000000000,58337.632812500,0.000000000,0.000000000,14.996625900,-62.620880127,0.000000000,-15.051000595,-10.209737778
1747311379.129218,21.993000000,0.000000000,58337.632812500,0.000000000,0.000000000,14.996625900,-62.620880127,0.000000000,-15.051000595,-10.209737778
1747311379.131561,21.996000000,0.000000000,58337.632812500,0.000000000,0.000000000,14.996625900,-62.620880127,0.000000000,-15.051000595,-10.209737778
1747311379.133891,21.998000000,0.000000000,58337.632812500,0.000000000,0.000000000,14.996625900,-62.620880127,0.000000000,-15.051000595,-10.209737778
1747311379.136224,22.000000000,0.000000000,58337.632812500,0.000000000,0.000000000,14.996625900,-62.620880127,0.000000000,-15.051000595,-10.209737778
1747311379.138607,22.003000000,0.000000000,58337.632812500,0.000000000,0.000000000,14.996625900,-62.620880127,0.000000000,-15.051000595,-10.209737778
1747311379.141027,22.005000000,0.000000000,58337.632812500,0.000000000,0.000000000,14.996625900,-62.620880127,0.000000000,-15.051000595,-10.209737778
1747311379.143444,22.008000000,0.000000000,58337.632812500,0.000000000,0.000000000,14.996625900,-62.620880127,0.000000000,-15.051000595,-10.209737778
1747311379.145853,22.010000000,0.000000000,58337.632812500,0.000000000,0.000000000,14.996625900,-62.620880127,0.000000000,-15.051000595,-10.209737778
1747311379.148281,22.012000000,0.000000000,58337.632812500,0.000000000,0.000000000,14.996625900,-62.620880127,0.000000000,-15.051000595,-10.209737778
1747311379.150704,22.015000000,0.000000000,58337.632812500,0.000000000,0.000000000,14.996625900,-62.620880127,0.000000000,-15.051000595,-10.209737778
1747311379.153137,22.017000000,0.000000000,58337.632812500,0.000000000,0.000000000,14.996625900,-62.620880127,0.000000000,-15.051000595,-10.209737778
1747311379.155516,22.020000000,0.000000000,58337.632812500,0.000000000,0.000000000,14.996625900,-62.620880127,0.000000000,-15.051000595,-10.209737778
1747311379.157983,22.022000000,0.000000000,58337.632812500,0.000000000,0.000000000,14.996625900,-62.620880127,0.000000000,-15.051000595,-10.209737778
1747311379.160457,22.025000000,0.000000000,58337.632812500,0.000000000,0.000000000,14.996625900,-62.620880127,0.000000000,-15.051000595,-10.209737778
1747311379.162856,22.027000000,0.000000000,58337.632812500,0.000000000,0.000000000,14.996625900,-62.620880127,0.000000000,-15.051000595,-10.209737778
1747311379.165260,22.029000000,0.000000000,58337.632812500,0.000000000,0.000000000,14.996625900,-62.620880127,0.000000000,-15.051000595,-10.209737778
1747311379.167659,22.032000000,0.000000000,58337.632812500,0.000000000,0.000000000,14.996625900,-62.620880127,0.000000000,-15.051000595,-10.209737778
1747311379.170040,22.034000000,0.000000000,58337.632812500,0.000000000,0.000000000,14.996625900,-62.620880127,0.000000000,-15.051000595,-10.209737778
1747311379.172414,22.037000000,0.000000000,58337.632812500,0.000000000,0.000000000,14.996625900,-62.620880127,0.000000000,-15.051000595,-10.209737778
1747311379.174846,22.039000000,0.000000000,58337.632812500,0.000000000,0.000000000,14.996625900,-62.620880127,0.000000000,-15.051000595,-10.209737778
1747311379.177288,22.041000000,0.000000000,58337.632812500,0.000000000,0.000000000,14.996625900,-62.620880127,0.000000000,-15.051000595,-10.209737778
1747311379.179648,22.044000000,0.000000000,58337.632812500,0.000000000,0.000000000,14.996625900,-62.620880127,0.000000000,-15.051000595,-10.209737778
1747311379.182051,22.046000000,0.000000000,58337.632812500,0.000000000,0.000000000,14.996625900,-62.620880127,0.000000000,-15.051000595,-10.209737778
1747311379.184435,22.049000000,0.000000000,58337.632812500,0.000000000,0.000000000,14.996625900,-62.620880127,0.000000000,-15.051000595,-10.209737778
1747311379.186893,22.051000000,0.000000000,58337.632812500,0.000000000,0.000000000,14.996625900,-62.620880127,0.000000000,-15.051000595,-10.209737778
1747311379.189308,22.053000000,0.000000000,58337.632812500,0.000000000,0.000000000,14.996625900,-62.620880127,0.000000000,-15.051000595,-10.209737778
1747311379.191819,22.056000000,0.000000000,58337.632812500,0.000000000,0.000000000,14.996625900,-62.620880127,0.000000000,-15.051000595,-10.209737778
1747311379.194293,22.058000000,0.000000000,58337.632812500,0.000000000,0.000000000,14.996625900,-62.620880127,0.000000000,-15.051000595,-10.209737778
1747311379.196783,22.061000000,0.000000000,58337.632812500,0.000000000,0.000000000,14.996625900,-62.620880127,0.000000000,-15.051000595,-10.209737778
1747311379.199224,22.063000000,0.000000000,58337.632812500,0.000000000,0.000000000,14.996625900,-62.620880127,0.000000000,-15.051000595,-10.209737778
1747311379.201658,22.066000000,0.000000000,58337.632812500,0.000000000,0.000000000,14.996625900,-62.620880127,0.000000000,-15.051000595,-10.209737778
1747311379.204066,22.068000000,0.000000000,58337.632812500,0.000000000,0.000000000,14.996625900,-62.620880127,0.000000000,-15.051000595,-10.209737778
1747311379.206428,22.071000000,0.000000000,58337.632812500,0.000000000,0.000000000,14.996625900,-62.620880127,0.000000000,-15.051000595,-10.209737778
1747311379.208805,22.073000000,0.000000000,58337.632812500,0.000000000,0.000000000,14.996625900,-62.620880127,0.000000000,-15.051000595,-10.209737778
1747311379.211191,22.075000000,0.000000000,58337.632812500,0.000000000,0.000000000,14.996625900,-62.620880127,0.000000000,-15.051000595,-10.209737778
1747311379.213617,22.078000000,0.000000000,58337.632812500,0.000000000,0.000000000,14.996625900,-62.620880127,0.000000000,-15.051000595,-10.209737778
1747311379.216029,22.080000000,0.000000000,58337.632812500,0.000000000,0.000000000,14.996625900,-62.620880127,0.000000000,-15.051000595,-10.209737778
1747311379.218380,22.083000000,0.000000000,58337.632812500,0.000000000,0.000000000,14.996625900,-62.620880127,0.000000000,-15.051000595,-10.209737778
1747311379.220785,22.085000000,0.000000000,58337.632812500,0.000000000,0.000000000,14.996625900,-62.620880127,0.000000000,-15.051000595,-10.209737778
1747311379.223147,22.087000000,0.000000000,58337.632812500,0.000000000,0.000000000,14.996625900,-62.620880127,0.000000000,-15.051000595,-10.209737778
1747311379.225519,22.090000000,0.000000000,58337.632812500,0.000000000,0.000000000,14.996625900,-62.620880127,0.000000000,-15.051000595,-10.209737778
1747311379.227907,22.092000000,0.000000000,58337.632812500,0.000000000,0.000000000,14.996625900,-62.620880127,0.000000000,-15.051000595,-10.209737778
1747311379.230295,22.094000000,0.000000000,58337.632812500,0.000000000,0.000000000,14.996625900,-62.620880127,0.000000000,-15.051000595,-10.209737778
1747311379.232677,22.097000000,0.000000000,58337.632812500,0.000000000,0.000000000,14.996625900,-62.620880127,0.000000000,-15.051000595,-10.209737778
1747311379.235103,22.099000000,0.000000000,58337.632812500,0.000000000,0.000000000,14.996625900,-62.620880127,0.000000000,-15.051000595,-10.209737778
1747311379.237539,22.102000000,0.000000000,58337.632812500,0.000000000,0.000000000,14.996625900,-62.620880127,0.000000000,-15.051000595,-10.209737778
1747311379.240037,22.104000000,0.000000000,58337.632812500,0.000000000,0.000000000,14.996625900,-62.620880127,0.000000000,-15.051000595,-10.209737778
1747311379.242473,22.107000000,0.000000000,58337.632812500,0.000000000,0.000000000,14.996625900,-62.620880127,0.000000000,-15.051000595,-10.209737778
1747311379.244918,22.109000000,0.000000000,58337.632812500,0.000000000,0.000000000,14.996625900,-62.620880127,0.000000000,-15.051000595,-10.209737778
1747311379.247300,22.111000000,0.000000000,58337.632812500,0.000000000,0.000000000,14.996625900,-62.620880127,0.000000000,-15.051000595,-10.209737778
1747311379.249692,22.114000000,0.000000000,58337.632812500,0.000000000,0.000000000,14.996625900,-62.620880127,0.000000000,-15.051000595,-10.209737778
1747311379.252057,22.116000000,0.000000000,58337.632812500,0.000000000,0.000000000,14.996625900,-62.620880127,0.000000000,-15.051000595,-10.209737778
1747311379.254447,22.119000000,0.000000000,58337.632812500,0.000000000,0.000000000,14.996625900,-62.620880127,0.000000000,-15.051000595,-10.209737778
1747311379.256859,22.121000000,0.000000000,58337.632812500,0.000000000,0.000000000,14.996625900,-62.620880127,0.000000000,-15.051000595,-10.209737778
1747311379.259238,22.123000000,0.000000000,58337.632812500,0.000000000,0.000000000,14.996625900,-62.620880127,0.000000000,-15.051000595,-10.209737778
1747311379.261676,22.126000000,0.000000000,58337.632812500,0.000000000,0.000000000,14.996625900,-62.620880127,0.000000000,-15.051000595,-10.209737778
1747311379.264148,22.128000000,0.000000000,58337.632812500,0.000000000,0.000000000,14.996625900,-62.620880127,0.000000000,-15.051000595,-10.209737778
1747311379.266591,22.131000000,0.000000000,58337.632812500,0.000000000,0.000000000,14.996625900,-62.620880127,0.000000000,-15.051000595,-10.209737778
1747311379.269046,22.133000000,0.000000000,58337.632812500,0.000000000,0.000000000,14.996625900,-62.620880127,0.000000000,-15.051000595,-10.209737778
1747311379.271523,22.136000000,0.000000000,58337.632812500,0.000000000,0.000000000,14.996625900,-62.620880127,0.000000000,-15.051000595,-10.209737778
1747311379.274003,22.138000000,0.000000000,58337.632812500,0.000000000,0.000000000,14.996625900,-62.620880127,0.000000000,-15.051000595,-10.209737778
1747311379.276469,22.141000000,0.000000000,58337.632812500,0.000000000,0.000000000,14.996625900,-62.620880127,0.000000000,-15.051000595,-10.209737778
1747311379.278852,22.143000000,0.000000000,58337.632812500,0.000000000,0.000000000,14.996625900,-62.620880127,0.000000000,-15.051000595,-10.209737778
1747311379.281298,22.145000000,0.000000000,58337.632812500,0.000000000,0.000000000,14.996625900,-62.620880127,0.000000000,-15.051000595,-10.209737778
1747311379.283713,22.148000000,0.000000000,58337.632812500,0.000000000,0.000000000,14.996625900,-62.620880127,0.000000000,-15.051000595,-10.209737778
1747311379.286213,22.150000000,0.000000000,58337.632812500,0.000000000,0.000000000,14.996625900,-62.620880127,0.000000000,-15.051000595,-10.209737778
1747311379.288623,22.153000000,0.000000000,58337.632812500,0.000000000,0.000000000,14.996625900,-62.620880127,0.000000000,-15.051000595,-10.209737778
1747311379.291040,22.155000000,0.000000000,58337.632812500,0.000000000,0.000000000,14.996625900,-62.620880127,0.000000000,-15.051000595,-10.209737778
1747311379.293520,22.158000000,0.000000000,58337.632812500,0.000000000,0.000000000,14.996625900,-62.620880127,0.000000000,-15.051000595,-10.209737778
1747311379.295973,22.160000000,0.000000000,58337.632812500,0.000000000,0.000000000,14.996625900,-62.620880127,0.000000000,-15.051000595,-10.209737778
1747311379.298477,22.163000000,0.000000000,58337.632812500,0.000000000,0.000000000,14.996625900,-62.620880127,0.000000000,-15.051000595,-10.209737778
1747311379.300847,22.165000000,0.000000000,58337.632812500,0.000000000,0.000000000,14.996625900,-62.620880127,0.000000000,-15.051000595,-10.209737778
1747311379.303250,22.167000000,0.000000000,58337.632812500,0.000000000,0.000000000,14.996625900,-62.620880127,0.000000000,-15.051000595,-10.209737778
1747311379.305651,22.170000000,0.000000000,58337.632812500,0.000000000,0.000000000,14.996625900,-62.620880127,0.000000000,-15.051000595,-10.209737778
1747311379.308165,22.172000000,0.000000000,58337.632812500,0.000000000,0.000000000,14.996625900,-62.620880127,0.000000000,-15.051000595,-10.209737778
1747311379.310608,22.175000000,0.000000000,58337.632812500,0.000000000,0.000000000,14.996625900,-62.620880127,0.000000000,-15.051000595,-10.209737778
1747311379.313084,22.177000000,0.000000000,58337.632812500,0.000000000,0.000000000,14.996625900,-62.620880127,0.000000000,-15.051000595,-10.209737778
1747311379.315552,22.180000000,0.000000000,58337.632812500,0.000000000,0.000000000,14.996625900,-62.620880127,0.000000000,-15.051000595,-10.209737778
1747311379.317972,22.182000000,0.000000000,58337.632812500,0.000000000,0.000000000,14.996625900,-62.620880127,0.000000000,-15.051000595,-10.209737778
1747311379.320433,22.185000000,0.000000000,58337.632812500,0.000000000,0.000000000,14.996625900,-62.620880127,0.000000000,-15.051000595,-10.209737778
1747311379.322949,22.187000000,0.000000000,58337.632812500,0.000000000,0.000000000,14.996625900,-62.620880127,0.000000000,-15.051000595,-10.209737778
1747311379.325390,22.190000000,0.000000000,58337.632812500,0.000000000,0.000000000,14.996625900,-62.620880127,0.000000000,-15.051000595,-10.209737778
1747311379.327841,22.192000000,0.000000000,58337.632812500,0.000000000,0.000000000,14.996625900,-62.620880127,0.000000000,-15.051000595,-10.209737778
1747311379.330246,22.194000000,0.000000000,58337.632812500,0.000000000,0.000000000,14.996625900,-62.620880127,0.000000000,-15.051000595,-10.209737778
1747311379.332614,22.197000000,0.000000000,58337.632812500,0.000000000,0.000000000,14.996625900,-62.620880127,0.000000000,-15.051000595,-10.209737778
1747311379.334993,22.199000000,0.000000000,58337.632812500,0.000000000,0.000000000,14.996625900,-62.620880127,0.000000000,-15.051000595,-10.209737778
1747311379.337461,22.202000000,0.000000000,58337.632812500,0.000000000,0.000000000,14.996625900,-62.620880127,0.000000000,-15.051000595,-10.209737778
1747311379.339825,22.204000000,0.000000000,58337.632812500,0.000000000,0.000000000,14.996625900,-62.620880127,0.000000000,-15.051000595,-10.209737778
1747311379.342228,22.206000000,0.000000000,58337.632812500,0.000000000,0.000000000,14.996625900,-62.620880127,0.000000000,-15.051000595,-10.209737778
1747311379.344603,22.209000000,0.000000000,58337.632812500,0.000000000,0.000000000,14.996625900,-62.620880127,0.000000000,-15.051000595,-10.209737778
1747311379.346996,22.211000000,0.000000000,58337.632812500,0.000000000,0.000000000,14.996625900,-62.620880127,0.000000000,-15.051000595,-10.209737778
1747311379.349373,22.214000000,0.000000000,58337.632812500,0.000000000,0.000000000,14.996625900,-62.620880127,0.000000000,-15.051000595,-10.209737778
1747311379.351766,22.216000000,0.000000000,58337.632812500,0.000000000,0.000000000,14.996625900,-62.620880127,0.000000000,-15.051000595,-10.209737778
1747311379.354292,22.218000000,0.000000000,58337.632812500,0.000000000,0.000000000,14.996625900,-62.620880127,0.000000000,-15.051000595,-10.209737778
1747311379.356783,22.221000000,0.000000000,58337.632812500,0.000000000,0.000000000,14.996625900,-62.620880127,0.000000000,-15.051000595,-10.209737778
1747311379.359306,22.223000000,0.000000000,58337.632812500,0.000000000,0.000000000,14.996625900,-62.620880127,0.000000000,-15.051000595,-10.209737778
1747311379.361798,22.226000000,0.000000000,58337.632812500,0.000000000,0.000000000,14.996625900,-62.620880127,0.000000000,-15.051000595,-10.209737778
1747311379.364278,22.228000000,0.000000000,58337.632812500,0.000000000,0.000000000,14.996625900,-62.620880127,0.000000000,-15.051000595,-10.209737778
1747311379.366806,22.231000000,0.000000000,58337.632812500,0.000000000,0.000000000,14.996625900,-62.620880127,0.000000000,-15.051000595,-10.209737778
1747311379.369322,22.233000000,0.000000000,58337.632812500,0.000000000,0.000000000,14.996625900,-62.620880127,0.000000000,-15.051000595,-10.209737778
1747311379.371789,22.236000000,0.000000000,58337.632812500,0.000000000,0.000000000,14.996625900,-62.620880127,0.000000000,-15.051000595,-10.209737778
1747311379.374343,22.238000000,0.000000000,58337.632812500,0.000000000,0.000000000,14.996625900,-62.620880127,0.000000000,-15.051000595,-10.209737778
1747311379.376860,22.241000000,0.000000000,58337.632812500,0.000000000,0.000000000,14.996625900,-62.620880127,0.000000000,-15.051000595,-10.209737778
1747311379.379291,22.243000000,0.000000000,58337.632812500,0.000000000,0.000000000,14.996625900,-62.620880127,0.000000000,-15.051000595,-10.209737778
1747311379.381692,22.246000000,0.000000000,58337.632812500,0.000000000,0.000000000,14.996625900,-62.620880127,0.000000000,-15.051000595,-10.209737778
1747311379.384087,22.248000000,0.000000000,58337.632812500,0.000000000,0.000000000,14.996625900,-62.620880127,0.000000000,-15.051000595,-10.209737778
1747311379.386491,22.251000000,0.000000000,58337.632812500,0.000000000,0.000000000,14.996625900,-62.620880127,0.000000000,-15.051000595,-10.209737778
1747311379.388882,22.253000000,0.000000000,58337.632812500,0.000000000,0.000000000,14.996625900,-62.620880127,0.000000000,-15.051000595,-10.209737778
1747311379.391281,22.255000000,0.000000000,58337.632812500,0.000000000,0.000000000,14.996625900,-62.620880127,0.000000000,-15.051000595,-10.209737778
1747311379.393698,22.258000000,0.000000000,58337.632812500,0.000000000,0.000000000,14.996625900,-62.620880127,0.000000000,-15.051000595,-10.209737778
1747311379.396201,22.260000000,0.000000000,58337.632812500,0.000000000,0.000000000,14.996625900,-62.620880127,0.000000000,-15.051000595,-10.209737778
1747311379.398699,22.263000000,0.000000000,58337.632812500,0.000000000,0.000000000,14.996625900,-62.620880127,0.000000000,-15.051000595,-10.209737778
1747311379.401166,22.265000000,0.000000000,58337.632812500,0.000000000,0.000000000,14.996625900,-62.620880127,0.000000000,-15.051000595,-10.209737778
1747311379.403638,22.268000000,0.000000000,58337.632812500,0.000000000,0.000000000,14.996625900,-62.620880127,0.000000000,-15.051000595,-10.209737778
1747311379.406058,22.270000000,0.000000000,58337.632812500,0.000000000,0.000000000,14.996625900,-62.620880127,0.000000000,-15.051000595,-10.209737778
1747311379.408435,22.273000000,0.000000000,58337.632812500,0.000000000,0.000000000,14.996625900,-62.620880127,0.000000000,-15.051000595,-10.209737778
1747311379.410819,22.275000000,0.000000000,58337.632812500,0.000000000,0.000000000,14.996625900,-62.620880127,0.000000000,-15.051000595,-10.209737778
1747311379.413271,22.277000000,0.000000000,58337.632812500,0.000000000,0.000000000,14.996625900,-62.620880127,0.000000000,-15.051000595,-10.209737778
1747311379.415626,22.280000000,0.000000000,58337.632812500,0.000000000,0.000000000,14.996625900,-62.620880127,0.000000000,-15.051000595,-10.209737778
1747311379.418030,22.282000000,0.000000000,58337.632812500,0.000000000,0.000000000,14.996625900,-62.620880127,0.000000000,-15.051000595,-10.209737778
1747311379.420421,22.285000000,0.000000000,58337.632812500,0.000000000,0.000000000,14.996625900,-62.620880127,0.000000000,-15.051000595,-10.209737778
1747311379.422831,22.287000000,0.000000000,58337.632812500,0.000000000,0.000000000,14.996625900,-62.620880127,0.000000000,-15.051000595,-10.209737778
1747311379.425239,22.289000000,0.000000000,58337.632812500,0.000000000,0.000000000,14.996625900,-62.620880127,0.000000000,-15.051000595,-10.209737778
1747311379.427634,22.292000000,0.000000000,58337.632812500,0.000000000,0.000000000,14.996625900,-62.620880127,0.000000000,-15.051000595,-10.209737778
1747311379.430013,22.294000000,0.000000000,58337.632812500,0.000000000,0.000000000,14.996625900,-62.620880127,0.000000000,-15.051000595,-10.209737778
1747311379.432436,22.297000000,0.000000000,58337.632812500,0.000000000,0.000000000,14.996625900,-62.620880127,0.000000000,-15.051000595,-10.209737778
1747311379.434846,22.299000000,0.000000000,58337.632812500,0.000000000,0.000000000,14.996625900,-62.620880127,0.000000000,-15.051000595,-10.209737778
1747311379.437319,22.301000000,0.000000000,58337.632812500,0.000000000,0.000000000,14.996625900,-62.620880127,0.000000000,-15.051000595,-10.209737778
1747311379.439665,22.304000000,0.000000000,58337.632812500,0.000000000,0.000000000,14.996625900,-62.620880127,0.000000000,-15.051000595,-10.209737778
1747311379.442032,22.306000000,0.000000000,58337.632812500,0.000000000,0.000000000,14.996625900,-62.620880127,0.000000000,-15.051000595,-10.209737778
1747311379.444403,22.309000000,0.000000000,58337.632812500,0.000000000,0.000000000,14.996625900,-62.620880127,0.000000000,-15.051000595,-10.209737778
1747311379.446811,22.311000000,0.000000000,58337.632812500,0.000000000,0.000000000,14.996625900,-62.620880127,0.000000000,-15.051000595,-10.209737778
1747311379.449245,22.313000000,0.000000000,58337.632812500,0.000000000,0.000000000,14.996625900,-62.620880127,0.000000000,-15.051000595,-10.209737778
1747311379.451597,22.316000000,0.000000000,58337.632812500,0.000000000,0.000000000,14.996625900,-62.620880127,0.000000000,-15.051000595,-10.209737778
1747311379.453973,22.318000000,0.000000000,58337.632812500,0.000000000,0.000000000,14.996625900,-62.620880127,0.000000000,-15.051000595,-10.209737778
1747311379.456378,22.321000000,0.000000000,58337.632812500,0.000000000,0.000000000,14.996625900,-62.620880127,0.000000000,-15.051000595,-10.209737778
1747311379.458750,22.323000000,0.000000000,58337.632812500,0.000000000,0.000000000,14.996625900,-62.620880127,0.000000000,-15.051000595,-10.209737778
1747311379.461173,22.325000000,0.000000000,58337.632812500,0.000000000,0.000000000,14.996625900,-62.620880127,0.000000000,-15.051000595,-10.209737778
1747311379.463580,22.328000000,0.000000000,58337.632812500,0.000000000,0.000000000,14.996625900,-62.620880127,0.000000000,-15.051000595,-10.209737778
1747311379.465946,22.330000000,0.000000000,58337.632812500,0.000000000,0.000000000,14.996625900,-62.620880127,0.000000000,-15.051000595,-10.209737778
1747311379.468323,22.333000000,0.000000000,58337.632812500,0.000000000,0.000000000,14.996625900,-62.620880127,0.000000000,-15.051000595,-10.209737778
1747311379.470711,22.335000000,0.000000000,58337.632812500,0.000000000,0.000000000,14.996625900,-62.620880127,0.000000000,-15.051000595,-10.209737778
1747311379.473078,22.337000000,0.000000000,58337.632812500,0.000000000,0.000000000,14.996625900,-62.620880127,0.000000000,-15.051000595,-10.209737778
1747311379.475458,22.340000000,0.000000000,58337.632812500,0.000000000,0.000000000,14.996625900,-62.620880127,0.000000000,-15.051000595,-10.209737778
1747311379.477978,22.342000000,0.000000000,58337.632812500,0.000000000,0.000000000,14.996625900,-62.620880127,0.000000000,-15.051000595,-10.209737778
1747311379.480484,22.345000000,0.000000000,58337.632812500,0.000000000,0.000000000,14.996625900,-62.620880127,0.000000000,-15.051000595,-10.209737778
1747311379.482963,22.347000000,0.000000000,58337.632812500,0.000000000,0.000000000,14.996625900,-62.620880127,0.000000000,-15.051000595,-10.209737778
1747311379.485498,22.350000000,0.000000000,58337.632812500,0.000000000,0.000000000,14.996625900,-62.620880127,0.000000000,-15.051000595,-10.209737778
1747311379.487991,22.352000000,0.000000000,58337.632812500,0.000000000,0.000000000,14.996625900,-62.620880127,0.000000000,-15.051000595,-10.209737778
1747311379.490464,22.355000000,0.000000000,58337.632812500,0.000000000,0.000000000,14.996625900,-62.620880127,0.000000000,-15.051000595,-10.209737778
1747311379.492905,22.357000000,0.000000000,58337.632812500,0.000000000,0.000000000,14.996625900,-62.620880127,0.000000000,-15.051000595,-10.209737778
1747311379.495409,22.360000000,0.000000000,58337.632812500,0.000000000,0.000000000,14.996625900,-62.620880127,0.000000000,-15.051000595,-10.209737778
1747311379.497907,22.362000000,0.000000000,58337.632812500,0.000000000,0.000000000,14.996625900,-62.620880127,0.000000000,-15.051000595,-10.209737778
1747311379.500421,22.364000000,0.000000000,58337.632812500,0.000000000,0.000000000,14.996625900,-62.620880127,0.000000000,-15.051000595,-10.209737778
1747311379.502864,22.367000000,0.000000000,58337.632812500,0.000000000,0.000000000,14.996625900,-62.620880127,0.000000000,-15.051000595,-10.209737778
1747311379.505328,22.369000000,0.000000000,58337.632812500,0.000000000,0.000000000,14.996625900,-62.620880127,0.000000000,-15.051000595,-10.209737778
1747311379.507782,22.372000000,0.000000000,58337.632812500,0.000000000,0.000000000,14.996625900,-62.620880127,0.000000000,-15.051000595,-10.209737778
1747311379.510282,22.374000000,0.000000000,58337.632812500,0.000000000,0.000000000,14.996625900,-62.620880127,0.000000000,-15.051000595,-10.209737778
1747311379.512781,22.377000000,0.000000000,58337.632812500,0.000000000,0.000000000,14.996625900,-62.620880127,0.000000000,-15.051000595,-10.209737778
1747311379.515311,22.379000000,0.000000000,58337.632812500,0.000000000,0.000000000,14.996625900,-62.620880127,0.000000000,-15.051000595,-10.209737778
1747311379.517792,22.382000000,0.000000000,58337.632812500,0.000000000,0.000000000,14.996625900,-62.620880127,0.000000000,-15.051000595,-10.209737778
1747311379.520284,22.384000000,0.000000000,58337.632812500,0.000000000,0.000000000,14.996625900,-62.620880127,0.000000000,-15.051000595,-10.209737778
1747311379.522770,22.387000000,0.000000000,58337.632812500,0.000000000,0.000000000,14.996625900,-62.620880127,0.000000000,-15.051000595,-10.209737778
1747311379.525294,22.389000000,0.000000000,58337.632812500,0.000000000,0.000000000,14.996625900,-62.620880127,0.000000000,-15.051000595,-10.209737778
1747311379.527779,22.392000000,0.000000000,58337.632812500,0.000000000,0.000000000,14.996625900,-62.620880127,0.000000000,-15.051000595,-10.209737778
1747311379.530303,22.394000000,0.000000000,58337.632812500,0.000000000,0.000000000,14.996625900,-62.620880127,0.000000000,-15.051000595,-10.209737778
1747311379.532835,22.397000000,0.000000000,58337.632812500,0.000000000,0.000000000,14.996625900,-62.620880127,0.000000000,-15.051000595,-10.209737778
1747311379.535348,22.399000000,0.000000000,58337.632812500,0.000000000,0.000000000,14.996625900,-62.620880127,0.000000000,-15.051000595,-10.209737778
1747311379.537930,22.402000000,0.000000000,58337.632812500,0.000000000,0.000000000,14.996625900,-62.620880127,0.000000000,-15.051000595,-10.209737778
1747311379.540526,22.405000000,0.000000000,58337.632812500,0.000000000,0.000000000,14.996625900,-62.620880127,0.000000000,-15.051000595,-10.209737778
1747311379.543140,22.407000000,0.000000000,58337.632812500,0.000000000,0.000000000,14.996625900,-62.620880127,0.000000000,-15.051000595,-10.209737778
1747311379.545738,22.410000000,0.000000000,58337.632812500,0.000000000,0.000000000,14.996625900,-62.620880127,0.000000000,-15.051000595,-10.209737778
1747311379.548337,22.412000000,0.000000000,58337.632812500,0.000000000,0.000000000,14.996625900,-62.620880127,0.000000000,-15.051000595,-10.209737778
1747311379.550886,22.415000000,0.000000000,58337.632812500,0.000000000,0.000000000,14.996625900,-62.620880127,0.000000000,-15.051000595,-10.209737778
1747311379.553476,22.417000000,0.000000000,58337.632812500,0.000000000,0.000000000,14.996625900,-62.620880127,0.000000000,-15.051000595,-10.209737778
1747311379.556011,22.420000000,0.000000000,58337.632812500,0.000000000,0.000000000,14.996625900,-62.620880127,0.000000000,-15.051000595,-10.209737778
1747311379.558580,22.423000000,0.000000000,58337.632812500,0.000000000,0.000000000,14.996625900,-62.620880127,0.000000000,-15.051000595,-10.209737778
1747311379.561188,22.425000000,0.000000000,58337.632812500,0.000000000,0.000000000,14.996625900,-62.620880127,0.000000000,-15.051000595,-10.209737778
1747311379.563784,22.428000000,0.000000000,58337.632812500,0.000000000,0.000000000,14.996625900,-62.620880127,0.000000000,-15.051000595,-10.209737778
1747311379.566300,22.430000000,0.000000000,58337.632812500,0.000000000,0.000000000,14.996625900,-62.620880127,0.000000000,-15.051000595,-10.209737778
1747311379.568682,22.433000000,0.000000000,58337.632812500,0.000000000,0.000000000,14.996625900,-62.620880127,0.000000000,-15.051000595,-10.209737778
1747311379.571202,22.435000000,0.000000000,58337.632812500,0.000000000,0.000000000,14.996625900,-62.620880127,0.000000000,-15.051000595,-10.209737778
1747311379.573630,22.438000000,0.000000000,58337.632812500,0.000000000,0.000000000,14.996625900,-62.620880127,0.000000000,-15.051000595,-10.209737778
1747311379.576164,22.440000000,0.000000000,58337.632812500,0.000000000,0.000000000,14.996625900,-62.620880127,0.000000000,-15.051000595,-10.209737778
1747311379.578686,22.443000000,0.000000000,58337.632812500,0.000000000,0.000000000,14.996625900,-62.620880127,0.000000000,-15.051000595,-10.209737778
1747311379.581145,22.445000000,0.000000000,58337.632812500,0.000000000,0.000000000,14.996625900,-62.620880127,0.000000000,-15.051000595,-10.209737778
1747311379.583632,22.448000000,0.000000000,58337.632812500,0.000000000,0.000000000,14.996625900,-62.620880127,0.000000000,-15.051000595,-10.209737778
1747311379.586027,22.450000000,0.000000000,58337.632812500,0.000000000,0.000000000,14.996625900,-62.620880127,0.000000000,-15.051000595,-10.209737778
1747311379.588444,22.453000000,0.000000000,58337.632812500,0.000000000,0.000000000,14.996625900,-62.620880127,0.000000000,-15.051000595,-10.209737778
1747311379.590851,22.455000000,0.000000000,58337.632812500,0.000000000,0.000000000,14.996625900,-62.620880127,0.000000000,-15.051000595,-10.209737778
1747311379.593244,22.457000000,0.000000000,58337.632812500,0.000000000,0.000000000,14.996625900,-62.620880127,0.000000000,-15.051000595,-10.209737778
1747311379.595614,22.460000000,0.000000000,58337.632812500,0.000000000,0.000000000,14.996625900,-62.620880127,0.000000000,-15.051000595,-10.209737778
1747311379.597992,22.462000000,0.000000000,58337.632812500,0.000000000,0.000000000,14.996625900,-62.620880127,0.000000000,-15.051000595,-10.209737778
1747311379.600416,22.465000000,0.000000000,58337.632812500,0.000000000,0.000000000,14.996625900,-62.620880127,0.000000000,-15.051000595,-10.209737778
1747311379.602821,22.467000000,0.000000000,58337.632812500,0.000000000,0.000000000,14.996625900,-62.620880127,0.000000000,-15.051000595,-10.209737778
1747311379.605261,22.469000000,0.000000000,58337.632812500,0.000000000,0.000000000,14.996625900,-62.620880127,0.000000000,-15.051000595,-10.209737778
1747311379.607620,22.472000000,0.000000000,58337.632812500,0.000000000,0.000000000,14.996625900,-62.620880127,0.000000000,-15.051000595,-10.209737778
1747311379.609997,22.474000000,0.000000000,58337.632812500,0.000000000,0.000000000,14.996625900,-62.620880127,0.000000000,-15.051000595,-10.209737778
1747311379.612387,22.477000000,0.000000000,58337.632812500,0.000000000,0.000000000,14.996625900,-62.620880127,0.000000000,-15.051000595,-10.209737778
1747311379.614792,22.479000000,0.000000000,58337.632812500,0.000000000,0.000000000,14.996625900,-62.620880127,0.000000000,-15.051000595,-10.209737778
1747311379.617179,22.481000000,0.000000000,58337.632812500,0.000000000,0.000000000,14.996625900,-62.620880127,0.000000000,-15.051000595,-10.209737778
1747311379.619552,22.484000000,0.000000000,58337.632812500,0.000000000,0.000000000,14.996625900,-62.620880127,0.000000000,-15.051000595,-10.209737778
1747311379.621935,22.486000000,0.000000000,58337.632812500,0.000000000,0.000000000,14.996625900,-62.620880127,0.000000000,-15.051000595,-10.209737778
1747311379.624343,22.488000000,0.000000000,58337.632812500,0.000000000,0.000000000,14.996625900,-62.620880127,0.000000000,-15.051000595,-10.209737778
1747311379.626743,22.491000000,0.000000000,58337.632812500,0.000000000,0.000000000,14.996625900,-62.620880127,0.000000000,-15.051000595,-10.209737778
1747311379.629169,22.493000000,0.000000000,58337.632812500,0.000000000,0.000000000,14.996625900,-62.620880127,0.000000000,-15.051000595,-10.209737778
1747311379.631623,22.496000000,0.000000000,58337.632812500,0.000000000,0.000000000,14.996625900,-62.620880127,0.000000000,-15.051000595,-10.209737778
1747311379.634055,22.498000000,0.000000000,58337.632812500,0.000000000,0.000000000,14.996625900,-62.620880127,0.000000000,-15.051000595,-10.209737778
1747311379.636513,22.501000000,0.000000000,58337.632812500,0.000000000,0.000000000,14.996625900,-62.620880127,0.000000000,-15.051000595,-10.209737778
1747311379.638997,22.503000000,0.000000000,58337.632812500,0.000000000,0.000000000,14.996625900,-62.620880127,0.000000000,-15.051000595,-10.209737778
1747311379.641377,22.506000000,0.000000000,58337.632812500,0.000000000,0.000000000,14.996625900,-62.620880127,0.000000000,-15.051000595,-10.209737778
1747311379.643725,22.508000000,0.000000000,58337.632812500,0.000000000,0.000000000,14.996625900,-62.620880127,0.000000000,-15.051000595,-10.209737778
1747311379.646073,22.510000000,0.000000000,58337.632812500,0.000000000,0.000000000,14.996625900,-62.620880127,0.000000000,-15.051000595,-10.209737778
1747311379.648433,22.513000000,0.000000000,58337.632812500,0.000000000,0.000000000,14.996625900,-62.620880127,0.000000000,-15.051000595,-10.209737778
1747311379.650837,22.515000000,0.000000000,58337.632812500,0.000000000,0.000000000,14.996625900,-62.620880127,0.000000000,-15.051000595,-10.209737778
1747311379.653196,22.517000000,0.000000000,58337.632812500,0.000000000,0.000000000,14.996625900,-62.620880127,0.000000000,-15.051000595,-10.209737778
1747311379.655537,22.520000000,0.000000000,58337.632812500,0.000000000,0.000000000,14.996625900,-62.620880127,0.000000000,-15.051000595,-10.209737778
1747311379.657929,22.522000000,0.000000000,58337.632812500,0.000000000,0.000000000,14.996625900,-62.620880127,0.000000000,-15.051000595,-10.209737778
1747311379.660282,22.524000000,0.000000000,58337.632812500,0.000000000,0.000000000,14.996625900,-62.620880127,0.000000000,-15.051000595,-10.209737778
1747311379.662652,22.527000000,0.000000000,58337.632812500,0.000000000,0.000000000,14.996625900,-62.620880127,0.000000000,-15.051000595,-10.209737778
1747311379.665032,22.529000000,0.000000000,58337.632812500,0.000000000,0.000000000,14.996625900,-62.620880127,0.000000000,-15.051000595,-10.209737778
1747311379.667424,22.532000000,0.000000000,58337.632812500,0.000000000,0.000000000,14.996625900,-62.620880127,0.000000000,-15.051000595,-10.209737778
1747311379.669780,22.534000000,0.000000000,58337.632812500,0.000000000,0.000000000,14.996625900,-62.620880127,0.000000000,-15.051000595,-10.209737778
1747311379.672210,22.536000000,0.000000000,58337.632812500,0.000000000,0.000000000,14.996625900,-62.620880127,0.000000000,-15.051000595,-10.209737778
1747311379.675426,22.540000000,0.000000000,58337.632812500,0.000000000,0.000000000,14.996625900,-62.620880127,0.000000000,-15.051000595,-10.209737778
1747311379.677942,22.542000000,0.000000000,58337.632812500,0.000000000,0.000000000,14.996625900,-62.620880127,0.000000000,-15.051000595,-10.209737778
1747311379.680402,22.545000000,0.000000000,58337.632812500,0.000000000,0.000000000,14.996625900,-62.620880127,0.000000000,-15.051000595,-10.209737778
1747311379.682821,22.547000000,0.000000000,58337.632812500,0.000000000,0.000000000,14.996625900,-62.620880127,0.000000000,-15.051000595,-10.209737778
1747311379.685242,22.549000000,0.000000000,58337.632812500,0.000000000,0.000000000,14.996625900,-62.620880127,0.000000000,-15.051000595,-10.209737778
1747311379.687652,22.552000000,0.000000000,58337.632812500,0.000000000,0.000000000,14.996625900,-62.620880127,0.000000000,-15.051000595,-10.209737778
1747311379.690027,22.554000000,0.000000000,58337.632812500,0.000000000,0.000000000,14.996625900,-62.620880127,0.000000000,-15.051000595,-10.209737778
1747311379.692408,22.557000000,0.000000000,58337.632812500,0.000000000,0.000000000,14.996625900,-62.620880127,0.000000000,-15.051000595,-10.209737778
1747311379.694782,22.559000000,0.000000000,58337.632812500,0.000000000,0.000000000,14.996625900,-62.620880127,0.000000000,-15.051000595,-10.209737778
1747311379.697225,22.561000000,0.000000000,58337.632812500,0.000000000,0.000000000,14.996625900,-62.620880127,0.000000000,-15.051000595,-10.209737778
1747311379.699589,22.564000000,0.000000000,58337.632812500,0.000000000,0.000000000,14.996625900,-62.620880127,0.000000000,-15.051000595,-10.209737778
1747311379.701917,22.566000000,0.000000000,58337.632812500,0.000000000,0.000000000,14.996625900,-62.620880127,0.000000000,-15.051000595,-10.209737778
1747311379.704354,22.568000000,0.000000000,58337.632812500,0.000000000,0.000000000,14.996625900,-62.620880127,0.000000000,-15.051000595,-10.209737778
1747311379.706700,22.571000000,0.000000000,58337.632812500,0.000000000,0.000000000,14.996625900,-62.620880127,0.000000000,-15.051000595,-10.209737778
1747311379.709072,22.573000000,0.000000000,58337.632812500,0.000000000,0.000000000,14.996625900,-62.620880127,0.000000000,-15.051000595,-10.209737778
1747311379.711456,22.576000000,0.000000000,58337.632812500,0.000000000,0.000000000,14.996625900,-62.620880127,0.000000000,-15.051000595,-10.209737778
1747311379.713892,22.578000000,0.000000000,58337.632812500,0.000000000,0.000000000,14.996625900,-62.620880127,0.000000000,-15.051000595,-10.209737778
1747311379.716268,22.580000000,0.000000000,58337.632812500,0.000000000,0.000000000,14.996625900,-62.620880127,0.000000000,-15.051000595,-10.209737778
1747311379.718627,22.583000000,0.000000000,58337.632812500,0.000000000,0.000000000,14.996625900,-62.620880127,0.000000000,-15.051000595,-10.209737778
1747311379.721029,22.585000000,0.000000000,58337.632812500,0.000000000,0.000000000,14.996625900,-62.620880127,0.000000000,-15.051000595,-10.209737778
1747311379.723412,22.588000000,0.000000000,58337.632812500,0.000000000,0.000000000,14.996625900,-62.620880127,0.000000000,-15.051000595,-10.209737778
1747311379.725802,22.590000000,0.000000000,58337.632812500,0.000000000,0.000000000,14.996625900,-62.620880127,0.000000000,-15.051000595,-10.209737778
1747311379.728194,22.592000000,0.000000000,58337.632812500,0.000000000,0.000000000,14.996625900,-62.620880127,0.000000000,-15.051000595,-10.209737778
1747311379.730582,22.595000000,0.000000000,58337.632812500,0.000000000,0.000000000,14.996625900,-62.620880127,0.000000000,-15.051000595,-10.209737778
1747311379.732977,22.597000000,0.000000000,58337.632812500,0.000000000,0.000000000,14.996625900,-62.620880127,0.000000000,-15.051000595,-10.209737778
1747311379.735351,22.600000000,0.000000000,58337.632812500,0.000000000,0.000000000,14.996625900,-62.620880127,0.000000000,-15.051000595,-10.209737778
1747311379.737731,22.602000000,0.000000000,58337.632812500,0.000000000,0.000000000,14.996625900,-62.620880127,0.000000000,-15.051000595,-10.209737778
1747311379.740119,22.604000000,0.000000000,58337.632812500,0.000000000,0.000000000,14.996625900,-62.620880127,0.000000000,-15.051000595,-10.209737778
1747311379.742527,22.607000000,0.000000000,58337.632812500,0.000000000,0.000000000,14.996625900,-62.620880127,0.000000000,-15.051000595,-10.209737778
1747311379.744899,22.609000000,0.000000000,58337.632812500,0.000000000,0.000000000,14.996625900,-62.620880127,0.000000000,-15.051000595,-10.209737778
1747311379.747319,22.611000000,0.000000000,58337.632812500,0.000000000,0.000000000,14.996625900,-62.620880127,0.000000000,-15.051000595,-10.209737778
1747311379.749654,22.614000000,0.000000000,58337.632812500,0.000000000,0.000000000,14.996625900,-62.620880127,0.000000000,-15.051000595,-10.209737778
1747311379.752040,22.616000000,0.000000000,58337.632812500,0.000000000,0.000000000,14.996625900,-62.620880127,0.000000000,-15.051000595,-10.209737778
1747311379.754429,22.619000000,0.000000000,58337.632812500,0.000000000,0.000000000,14.996625900,-62.620880127,0.000000000,-15.051000595,-10.209737778
1747311379.756803,22.621000000,0.000000000,58337.632812500,0.000000000,0.000000000,14.996625900,-62.620880127,0.000000000,-15.051000595,-10.209737778
1747311379.759205,22.623000000,0.000000000,58337.632812500,0.000000000,0.000000000,14.996625900,-62.620880127,0.000000000,-15.051000595,-10.209737778
1747311379.761549,22.626000000,0.000000000,58337.632812500,0.000000000,0.000000000,14.996625900,-62.620880127,0.000000000,-15.051000595,-10.209737778
1747311379.763953,22.628000000,0.000000000,58337.632812500,0.000000000,0.000000000,14.996625900,-62.620880127,0.000000000,-15.051000595,-10.209737778
1747311379.766326,22.630000000,0.000000000,58337.632812500,0.000000000,0.000000000,14.996625900,-62.620880127,0.000000000,-15.051000595,-10.209737778
1747311379.768713,22.633000000,0.000000000,58337.632812500,0.000000000,0.000000000,14.996625900,-62.620880127,0.000000000,-15.051000595,-10.209737778
1747311379.771176,22.635000000,0.000000000,58337.632812500,0.000000000,0.000000000,14.996625900,-62.620880127,0.000000000,-15.051000595,-10.209737778
1747311379.773513,22.638000000,0.000000000,58337.632812500,0.000000000,0.000000000,14.996625900,-62.620880127,0.000000000,-15.051000595,-10.209737778
1747311379.775901,22.640000000,0.000000000,58337.632812500,0.000000000,0.000000000,14.996625900,-62.620880127,0.000000000,-15.051000595,-10.209737778
1747311379.778320,22.642000000,0.000000000,58337.632812500,0.000000000,0.000000000,14.996625900,-62.620880127,0.000000000,-15.051000595,-10.209737778
1747311379.780682,22.645000000,0.000000000,58337.632812500,0.000000000,0.000000000,14.996625900,-62.620880127,0.000000000,-15.051000595,-10.209737778
1747311379.783063,22.647000000,0.000000000,58337.632812500,0.000000000,0.000000000,14.996625900,-62.620880127,0.000000000,-15.051000595,-10.209737778
1747311379.785470,22.650000000,0.000000000,58337.632812500,0.000000000,0.000000000,14.996625900,-62.620880127,0.000000000,-15.051000595,-10.209737778
1747311379.787856,22.652000000,0.000000000,58337.632812500,0.000000000,0.000000000,14.996625900,-62.620880127,0.000000000,-15.051000595,-10.209737778
1747311379.790243,22.654000000,0.000000000,58337.632812500,0.000000000,0.000000000,14.996625900,-62.620880127,0.000000000,-15.051000595,-10.209737778
1747311379.792617,22.657000000,0.000000000,58337.632812500,0.000000000,0.000000000,14.996625900,-62.620880127,0.000000000,-15.051000595,-10.209737778
1747311379.795004,22.659000000,0.000000000,58337.632812500,0.000000000,0.000000000,14.996625900,-62.620880127,0.000000000,-15.051000595,-10.209737778
1747311379.797452,22.662000000,0.000000000,58337.632812500,0.000000000,0.000000000,14.996625900,-62.620880127,0.000000000,-15.051000595,-10.209737778
1747311379.799917,22.664000000,0.000000000,58337.632812500,0.000000000,0.000000000,14.996625900,-62.620880127,0.000000000,-15.051000595,-10.209737778
1747311379.802294,22.666000000,0.000000000,58337.632812500,0.000000000,0.000000000,14.996625900,-62.620880127,0.000000000,-15.051000595,-10.209737778
1747311379.804728,22.669000000,0.000000000,58337.632812500,0.000000000,0.000000000,14.996625900,-62.620880127,0.000000000,-15.051000595,-10.209737778
1747311379.807120,22.671000000,0.000000000,58337.632812500,0.000000000,0.000000000,14.996625900,-62.620880127,0.000000000,-15.051000595,-10.209737778
1747311379.809478,22.674000000,0.000000000,58337.632812500,0.000000000,0.000000000,14.996625900,-62.620880127,0.000000000,-15.051000595,-10.209737778
1747311379.811840,22.676000000,0.000000000,58337.632812500,0.000000000,0.000000000,14.996625900,-62.620880127,0.000000000,-15.051000595,-10.209737778
1747311379.814249,22.678000000,0.000000000,58337.632812500,0.000000000,0.000000000,14.996625900,-62.620880127,0.000000000,-15.051000595,-10.209737778
1747311379.816616,22.681000000,0.000000000,58337.632812500,0.000000000,0.000000000,14.996625900,-62.620880127,0.000000000,-15.051000595,-10.209737778
1747311379.819003,22.683000000,0.000000000,58337.632812500,0.000000000,0.000000000,14.996625900,-62.620880127,0.000000000,-15.051000595,-10.209737778
1747311379.821421,22.686000000,0.000000000,58337.632812500,0.000000000,0.000000000,14.996625900,-62.620880127,0.000000000,-15.051000595,-10.209737778
1747311379.823798,22.688000000,0.000000000,58337.632812500,0.000000000,0.000000000,14.996625900,-62.620880127,0.000000000,-15.051000595,-10.209737778
1747311379.826293,22.690000000,0.000000000,58337.632812500,0.000000000,0.000000000,14.996625900,-62.620880127,0.000000000,-15.051000595,-10.209737778
1747311379.828696,22.693000000,0.000000000,58337.632812500,0.000000000,0.000000000,14.996625900,-62.620880127,0.000000000,-15.051000595,-10.209737778
1747311379.831160,22.695000000,0.000000000,58337.632812500,0.000000000,0.000000000,14.996625900,-62.620880127,0.000000000,-15.051000595,-10.209737778
1747311379.833759,22.698000000,0.000000000,58337.632812500,0.000000000,0.000000000,14.996625900,-62.620880127,0.000000000,-15.051000595,-10.209737778
1747311379.836147,22.700000000,0.000000000,58337.632812500,0.000000000,0.000000000,14.996625900,-62.620880127,0.000000000,-15.051000595,-10.209737778
1747311379.838574,22.703000000,0.000000000,58337.632812500,0.000000000,0.000000000,14.996625900,-62.620880127,0.000000000,-15.051000595,-10.209737778
1747311379.841056,22.705000000,0.000000000,58337.632812500,0.000000000,0.000000000,14.996625900,-62.620880127,0.000000000,-15.051000595,-10.209737778
1747311379.843571,22.708000000,0.000000000,58337.632812500,0.000000000,0.000000000,14.996625900,-62.620880127,0.000000000,-15.051000595,-10.209737778
1747311379.845979,22.710000000,0.000000000,58337.632812500,0.000000000,0.000000000,14.996625900,-62.620880127,0.000000000,-15.051000595,-10.209737778
1747311379.848431,22.713000000,0.000000000,58337.632812500,0.000000000,0.000000000,14.996625900,-62.620880127,0.000000000,-15.051000595,-10.209737778
1747311379.850877,22.715000000,0.000000000,58337.632812500,0.000000000,0.000000000,14.996625900,-62.620880127,0.000000000,-15.051000595,-10.209737778
1747311379.853238,22.717000000,0.000000000,58337.632812500,0.000000000,0.000000000,14.996625900,-62.620880127,0.000000000,-15.051000595,-10.209737778
1747311379.855629,22.720000000,0.000000000,58337.632812500,0.000000000,0.000000000,14.996625900,-62.620880127,0.000000000,-15.051000595,-10.209737778
1747311379.857999,22.722000000,0.000000000,58337.632812500,0.000000000,0.000000000,14.996625900,-62.620880127,0.000000000,-15.051000595,-10.209737778
1747311379.860510,22.725000000,0.000000000,58337.632812500,0.000000000,0.000000000,14.996625900,-62.620880127,0.000000000,-15.051000595,-10.209737778
1747311379.863055,22.727000000,0.000000000,58337.632812500,0.000000000,0.000000000,14.996625900,-62.620880127,0.000000000,-15.051000595,-10.209737778
1747311379.865560,22.730000000,0.000000000,58337.632812500,0.000000000,0.000000000,14.996625900,-62.620880127,0.000000000,-15.051000595,-10.209737778
1747311379.868080,22.732000000,0.000000000,58337.632812500,0.000000000,0.000000000,14.996625900,-62.620880127,0.000000000,-15.051000595,-10.209737778
1747311379.870513,22.735000000,0.000000000,58337.632812500,0.000000000,0.000000000,14.996625900,-62.620880127,0.000000000,-15.051000595,-10.209737778
1747311379.872914,22.737000000,0.000000000,58337.632812500,0.000000000,0.000000000,14.996625900,-62.620880127,0.000000000,-15.051000595,-10.209737778
1747311379.875313,22.739000000,0.000000000,58337.632812500,0.000000000,0.000000000,14.996625900,-62.620880127,0.000000000,-15.051000595,-10.209737778
1747311379.877677,22.742000000,0.000000000,58337.632812500,0.000000000,0.000000000,14.996625900,-62.620880127,0.000000000,-15.051000595,-10.209737778
1747311379.880075,22.744000000,0.000000000,58337.632812500,0.000000000,0.000000000,14.996625900,-62.620880127,0.000000000,-15.051000595,-10.209737778
1747311379.882443,22.747000000,0.000000000,58337.632812500,0.000000000,0.000000000,14.996625900,-62.620880127,0.000000000,-15.051000595,-10.209737778
1747311379.884833,22.749000000,0.000000000,58337.632812500,0.000000000,0.000000000,14.996625900,-62.620880127,0.000000000,-15.051000595,-10.209737778
1747311379.887234,22.751000000,0.000000000,58337.632812500,0.000000000,0.000000000,14.996625900,-62.620880127,0.000000000,-15.051000595,-10.209737778
1747311379.889633,22.754000000,0.000000000,58337.632812500,0.000000000,0.000000000,14.996625900,-62.620880127,0.000000000,-15.051000595,-10.209737778
1747311379.892000,22.756000000,0.000000000,58337.632812500,0.000000000,0.000000000,14.996625900,-62.620880127,0.000000000,-15.051000595,-10.209737778
1747311379.894430,22.759000000,0.000000000,58337.632812500,0.000000000,0.000000000,14.996625900,-62.620880127,0.000000000,-15.051000595,-10.209737778
1747311379.896853,22.761000000,0.000000000,58337.632812500,0.000000000,0.000000000,14.996625900,-62.620880127,0.000000000,-15.051000595,-10.209737778
1747311379.899291,22.763000000,0.000000000,58337.632812500,0.000000000,0.000000000,14.996625900,-62.620880127,0.000000000,-15.051000595,-10.209737778
1747311379.901697,22.766000000,0.000000000,58337.632812500,0.000000000,0.000000000,14.996625900,-62.620880127,0.000000000,-15.051000595,-10.209737778
1747311379.904111,22.768000000,0.000000000,58337.632812500,0.000000000,0.000000000,14.996625900,-62.620880127,0.000000000,-15.051000595,-10.209737778
1747311379.906492,22.771000000,0.000000000,58337.632812500,0.000000000,0.000000000,14.996625900,-62.620880127,0.000000000,-15.051000595,-10.209737778
1747311379.908898,22.773000000,0.000000000,58337.632812500,0.000000000,0.000000000,14.996625900,-62.620880127,0.000000000,-15.051000595,-10.209737778
1747311379.911284,22.775000000,0.000000000,58337.632812500,0.000000000,0.000000000,14.996625900,-62.620880127,0.000000000,-15.051000595,-10.209737778
1747311379.913738,22.778000000,0.000000000,58337.632812500,0.000000000,0.000000000,14.996625900,-62.620880127,0.000000000,-15.051000595,-10.209737778
1747311379.916174,22.780000000,0.000000000,58337.632812500,0.000000000,0.000000000,14.996625900,-62.620880127,0.000000000,-15.051000595,-10.209737778
1747311379.918575,22.783000000,0.000000000,58337.632812500,0.000000000,0.000000000,14.996625900,-62.620880127,0.000000000,-15.051000595,-10.209737778
1747311379.920984,22.785000000,0.000000000,58337.632812500,0.000000000,0.000000000,14.996625900,-62.620880127,0.000000000,-15.051000595,-10.209737778
1747311379.923398,22.788000000,0.000000000,58337.632812500,0.000000000,0.000000000,14.996625900,-62.620880127,0.000000000,-15.051000595,-10.209737778
1747311379.925823,22.790000000,0.000000000,58337.632812500,0.000000000,0.000000000,14.996625900,-62.620880127,0.000000000,-15.051000595,-10.209737778
1747311379.928214,22.792000000,0.000000000,58337.632812500,0.000000000,0.000000000,14.996625900,-62.620880127,0.000000000,-15.051000595,-10.209737778
1747311379.930596,22.795000000,0.000000000,58337.632812500,0.000000000,0.000000000,14.996625900,-62.620880127,0.000000000,-15.051000595,-10.209737778
1747311379.933056,22.797000000,0.000000000,58337.632812500,0.000000000,0.000000000,14.996625900,-62.620880127,0.000000000,-15.051000595,-10.209737778
1747311379.935443,22.800000000,0.000000000,58337.632812500,0.000000000,0.000000000,14.996625900,-62.620880127,0.000000000,-15.051000595,-10.209737778
1747311379.937846,22.802000000,0.000000000,58337.632812500,0.000000000,0.000000000,14.996625900,-62.620880127,0.000000000,-15.051000595,-10.209737778
1747311379.940322,22.804000000,0.000000000,58337.632812500,0.000000000,0.000000000,14.996625900,-62.620880127,0.000000000,-15.051000595,-10.209737778
1747311379.942761,22.807000000,0.000000000,58337.632812500,0.000000000,0.000000000,14.996625900,-62.620880127,0.000000000,-15.051000595,-10.209737778
1747311379.945176,22.809000000,0.000000000,58337.632812500,0.000000000,0.000000000,14.996625900,-62.620880127,0.000000000,-15.051000595,-10.209737778
1747311379.947618,22.812000000,0.000000000,58337.632812500,0.000000000,0.000000000,14.996625900,-62.620880127,0.000000000,-15.051000595,-10.209737778
1747311379.950014,22.814000000,0.000000000,58337.632812500,0.000000000,0.000000000,14.996625900,-62.620880127,0.000000000,-15.051000595,-10.209737778
1747311379.952415,22.817000000,0.000000000,58337.632812500,0.000000000,0.000000000,14.996625900,-62.620880127,0.000000000,-15.051000595,-10.209737778
1747311379.954806,22.819000000,0.000000000,58337.632812500,0.000000000,0.000000000,14.996625900,-62.620880127,0.000000000,-15.051000595,-10.209737778
1747311379.957171,22.821000000,0.000000000,58337.632812500,0.000000000,0.000000000,14.996625900,-62.620880127,0.000000000,-15.051000595,-10.209737778
1747311379.959525,22.824000000,0.000000000,58337.632812500,0.000000000,0.000000000,14.996625900,-62.620880127,0.000000000,-15.051000595,-10.209737778
1747311379.961923,22.826000000,0.000000000,58337.632812500,0.000000000,0.000000000,14.996625900,-62.620880127,0.000000000,-15.051000595,-10.209737778
1747311379.964293,22.828000000,0.000000000,58337.632812500,0.000000000,0.000000000,14.996625900,-62.620880127,0.000000000,-15.051000595,-10.209737778
1747311379.966702,22.831000000,0.000000000,58337.632812500,0.000000000,0.000000000,14.996625900,-62.620880127,0.000000000,-15.051000595,-10.209737778
1747311379.969038,22.833000000,0.000000000,58337.632812500,0.000000000,0.000000000,14.996625900,-62.620880127,0.000000000,-15.051000595,-10.209737778
1747311379.971468,22.836000000,0.000000000,58337.632812500,0.000000000,0.000000000,14.996625900,-62.620880127,0.000000000,-15.051000595,-10.209737778
1747311379.973814,22.838000000,0.000000000,58337.632812500,0.000000000,0.000000000,14.996625900,-62.620880127,0.000000000,-15.051000595,-10.209737778
1747311379.976238,22.840000000,0.000000000,58337.632812500,0.000000000,0.000000000,14.996625900,-62.620880127,0.000000000,-15.051000595,-10.209737778
1747311379.978615,22.843000000,0.000000000,58337.632812500,0.000000000,0.000000000,14.996625900,-62.620880127,0.000000000,-15.051000595,-10.209737778
1747311379.980945,22.845000000,0.000000000,58337.632812500,0.000000000,0.000000000,14.996625900,-62.620880127,0.000000000,-15.051000595,-10.209737778
1747311379.983331,22.848000000,0.000000000,58337.632812500,0.000000000,0.000000000,14.996625900,-62.620880127,0.000000000,-15.051000595,-10.209737778
1747311379.985655,22.850000000,0.000000000,58337.632812500,0.000000000,0.000000000,14.996625900,-62.620880127,0.000000000,-15.051000595,-10.209737778
1747311379.988007,22.852000000,0.000000000,58337.632812500,0.000000000,0.000000000,14.996625900,-62.620880127,0.000000000,-15.051000595,-10.209737778
1747311379.990357,22.855000000,0.000000000,58337.632812500,0.000000000,0.000000000,14.996625900,-62.620880127,0.000000000,-15.051000595,-10.209737778
1747311379.992714,22.857000000,0.000000000,58337.632812500,0.000000000,0.000000000,14.996625900,-62.620880127,0.000000000,-15.051000595,-10.209737778
1747311379.995059,22.859000000,0.000000000,58337.632812500,0.000000000,0.000000000,14.996625900,-62.620880127,0.000000000,-15.051000595,-10.209737778
1747311379.997410,22.862000000,0.000000000,58337.632812500,0.000000000,0.000000000,14.996625900,-62.620880127,0.000000000,-15.051000595,-10.209737778
1747311379.999792,22.864000000,0.000000000,58337.632812500,0.000000000,0.000000000,14.996625900,-62.620880127,0.000000000,-15.051000595,-10.209737778
1747311380.002192,22.866000000,0.000000000,58337.632812500,0.000000000,0.000000000,14.996625900,-62.620880127,0.000000000,-15.051000595,-10.209737778
1747311380.004509,22.869000000,0.000000000,58337.632812500,0.000000000,0.000000000,14.996625900,-62.620880127,0.000000000,-15.051000595,-10.209737778
1747311380.006893,22.871000000,0.000000000,58337.632812500,0.000000000,0.000000000,14.996625900,-62.620880127,0.000000000,-15.051000595,-10.209737778
1747311380.009223,22.873000000,0.000000000,58337.632812500,0.000000000,0.000000000,14.996625900,-62.620880127,0.000000000,-15.051000595,-10.209737778
1747311380.011560,22.876000000,0.000000000,58337.632812500,0.000000000,0.000000000,14.996625900,-62.620880127,0.000000000,-15.051000595,-10.209737778
1747311380.013936,22.878000000,0.000000000,58337.632812500,0.000000000,0.000000000,14.996625900,-62.620880127,0.000000000,-15.051000595,-10.209737778
1747311380.016278,22.880000000,0.000000000,58337.632812500,0.000000000,0.000000000,14.996625900,-62.620880127,0.000000000,-15.051000595,-10.209737778
1747311380.018643,22.883000000,0.000000000,58337.632812500,0.000000000,0.000000000,14.996625900,-62.620880127,0.000000000,-15.051000595,-10.209737778
1747311380.021032,22.885000000,0.000000000,58337.632812500,0.000000000,0.000000000,14.996625900,-62.620880127,0.000000000,-15.051000595,-10.209737778
1747311380.023404,22.888000000,0.000000000,58337.632812500,0.000000000,0.000000000,14.996625900,-62.620880127,0.000000000,-15.051000595,-10.209737778
1747311380.025765,22.890000000,0.000000000,58337.632812500,0.000000000,0.000000000,14.996625900,-62.620880127,0.000000000,-15.051000595,-10.209737778
1747311380.028231,22.892000000,0.000000000,58337.632812500,0.000000000,0.000000000,14.996625900,-62.620880127,0.000000000,-15.051000595,-10.209737778
1747311380.030586,22.895000000,0.000000000,58337.632812500,0.000000000,0.000000000,14.996625900,-62.620880127,0.000000000,-15.051000595,-10.209737778
1747311380.033048,22.897000000,0.000000000,58337.632812500,0.000000000,0.000000000,14.996625900,-62.620880127,0.000000000,-15.051000595,-10.209737778
1747311380.035440,22.900000000,0.000000000,58337.632812500,0.000000000,0.000000000,14.996625900,-62.620880127,0.000000000,-15.051000595,-10.209737778
1747311380.037833,22.902000000,0.000000000,58337.632812500,0.000000000,0.000000000,14.996625900,-62.620880127,0.000000000,-15.051000595,-10.209737778
1747311380.040259,22.904000000,0.000000000,58337.632812500,0.000000000,0.000000000,14.996625900,-62.620880127,0.000000000,-15.051000595,-10.209737778
1747311380.042650,22.907000000,0.000000000,58337.632812500,0.000000000,0.000000000,14.996625900,-62.620880127,0.000000000,-15.051000595,-10.209737778
1747311380.045046,22.909000000,0.000000000,58337.632812500,0.000000000,0.000000000,14.996625900,-62.620880127,0.000000000,-15.051000595,-10.209737778
1747311380.047524,22.912000000,0.000000000,58337.632812500,0.000000000,0.000000000,14.996625900,-62.620880127,0.000000000,-15.051000595,-10.209737778
1747311380.049984,22.914000000,0.000000000,58337.632812500,0.000000000,0.000000000,14.996625900,-62.620880127,0.000000000,-15.051000595,-10.209737778
1747311380.052507,22.917000000,0.000000000,58337.632812500,0.000000000,0.000000000,14.996625900,-62.620880127,0.000000000,-15.051000595,-10.209737778
1747311380.054928,22.919000000,0.000000000,58337.632812500,0.000000000,0.000000000,14.996625900,-62.620880127,0.000000000,-15.051000595,-10.209737778
1747311380.057341,22.921000000,0.000000000,58337.632812500,0.000000000,0.000000000,14.996625900,-62.620880127,0.000000000,-15.051000595,-10.209737778
1747311380.059737,22.924000000,0.000000000,58337.632812500,0.000000000,0.000000000,14.996625900,-62.620880127,0.000000000,-15.051000595,-10.209737778
1747311380.062179,22.926000000,0.000000000,58337.632812500,0.000000000,0.000000000,14.996625900,-62.620880127,0.000000000,-15.051000595,-10.209737778
1747311380.064696,22.929000000,0.000000000,58337.632812500,0.000000000,0.000000000,14.996625900,-62.620880127,0.000000000,-15.051000595,-10.209737778
1747311380.067260,22.931000000,0.000000000,58337.632812500,0.000000000,0.000000000,14.996625900,-62.620880127,0.000000000,-15.051000595,-10.209737778
1747311380.069731,22.934000000,0.000000000,58337.632812500,0.000000000,0.000000000,14.996625900,-62.620880127,0.000000000,-15.051000595,-10.209737778
1747311380.072236,22.936000000,0.000000000,58337.632812500,0.000000000,0.000000000,14.996625900,-62.620880127,0.000000000,-15.051000595,-10.209737778
1747311380.074720,22.939000000,0.000000000,58337.632812500,0.000000000,0.000000000,14.996625900,-62.620880127,0.000000000,-15.051000595,-10.209737778
1747311380.077254,22.941000000,0.000000000,58337.632812500,0.000000000,0.000000000,14.996625900,-62.620880127,0.000000000,-15.051000595,-10.209737778
1747311380.079767,22.944000000,0.000000000,58337.632812500,0.000000000,0.000000000,14.996625900,-62.620880127,0.000000000,-15.051000595,-10.209737778
1747311380.082264,22.946000000,0.000000000,58337.632812500,0.000000000,0.000000000,14.996625900,-62.620880127,0.000000000,-15.051000595,-10.209737778
1747311380.084736,22.949000000,0.000000000,58337.632812500,0.000000000,0.000000000,14.996625900,-62.620880127,0.000000000,-15.051000595,-10.209737778
1747311380.087241,22.951000000,0.000000000,58337.632812500,0.000000000,0.000000000,14.996625900,-62.620880127,0.000000000,-15.051000595,-10.209737778
1747311380.089630,22.954000000,0.000000000,58337.632812500,0.000000000,0.000000000,14.996625900,-62.620880127,0.000000000,-15.051000595,-10.209737778
1747311380.091995,22.956000000,0.000000000,58337.632812500,0.000000000,0.000000000,14.996625900,-62.620880127,0.000000000,-15.051000595,-10.209737778
1747311380.094391,22.959000000,0.000000000,58337.632812500,0.000000000,0.000000000,14.996625900,-62.620880127,0.000000000,-15.051000595,-10.209737778
1747311380.096773,22.961000000,0.000000000,58337.632812500,0.000000000,0.000000000,14.996625900,-62.620880127,0.000000000,-15.051000595,-10.209737778
1747311380.099162,22.963000000,0.000000000,58337.632812500,0.000000000,0.000000000,14.996625900,-62.620880127,0.000000000,-15.051000595,-10.209737778
1747311380.101579,22.966000000,0.000000000,58337.632812500,0.000000000,0.000000000,14.996625900,-62.620880127,0.000000000,-15.051000595,-10.209737778
1747311380.103966,22.968000000,0.000000000,58337.632812500,0.000000000,0.000000000,14.996625900,-62.620880127,0.000000000,-15.051000595,-10.209737778
1747311380.106344,22.971000000,0.000000000,58337.632812500,0.000000000,0.000000000,14.996625900,-62.620880127,0.000000000,-15.051000595,-10.209737778
1747311380.108749,22.973000000,0.000000000,58337.632812500,0.000000000,0.000000000,14.996625900,-62.620880127,0.000000000,-15.051000595,-10.209737778
1747311380.111142,22.975000000,0.000000000,58337.632812500,0.000000000,0.000000000,14.996625900,-62.620880127,0.000000000,-15.051000595,-10.209737778
1747311380.113528,22.978000000,0.000000000,58337.632812500,0.000000000,0.000000000,14.996625900,-62.620880127,0.000000000,-15.051000595,-10.209737778
1747311380.115929,22.980000000,0.000000000,58337.632812500,0.000000000,0.000000000,14.996625900,-62.620880127,0.000000000,-15.051000595,-10.209737778
1747311380.118385,22.983000000,0.000000000,58337.632812500,0.000000000,0.000000000,14.996625900,-62.620880127,0.000000000,-15.051000595,-10.209737778
1747311380.120765,22.985000000,0.000000000,58337.632812500,0.000000000,0.000000000,14.996625900,-62.620880127,0.000000000,-15.051000595,-10.209737778
1747311380.123162,22.987000000,0.000000000,58337.632812500,0.000000000,0.000000000,14.996625900,-62.620880127,0.000000000,-15.051000595,-10.209737778
1747311380.125618,22.990000000,0.000000000,58337.632812500,0.000000000,0.000000000,14.996625900,-62.620880127,0.000000000,-15.051000595,-10.209737778
1747311380.128025,22.992000000,0.000000000,58337.632812500,0.000000000,0.000000000,14.996625900,-62.620880127,0.000000000,-15.051000595,-10.209737778
1747311380.130423,22.995000000,0.000000000,58337.632812500,0.000000000,0.000000000,14.996625900,-62.620880127,0.000000000,-15.051000595,-10.209737778
1747311380.132826,22.997000000,0.000000000,58337.632812500,0.000000000,0.000000000,14.996625900,-62.620880127,0.000000000,-15.051000595,-10.209737778
1747311380.135213,22.999000000,0.000000000,58337.632812500,0.000000000,0.000000000,14.996625900,-62.620880127,0.000000000,-15.051000595,-10.209737778
1747311380.137642,23.002000000,0.000000000,58337.632812500,0.000000000,0.000000000,14.996625900,-62.620880127,0.000000000,-15.051000595,-10.209737778
