liamjosephnolan/thesis_matlab/roll_step_response/roll_step_response_roll_0_pitch_-15.csv
__time,/psm_joint_telemetry/header/stamp,/psm_joint_telemetry/insertion/effort,/psm_joint_telemetry/insertion/position,/psm_joint_telemetry/insertion/velocity,/psm_joint_telemetry/pitch/effort,/psm_joint_telemetry/pitch/position,/psm_joint_telemetry/pitch/velocity,/psm_joint_telemetry/roll/effort,/psm_joint_telemetry/roll/position,/psm_joint_telemetry/roll/velocity
1747312815.736461,18.467000000,0.000000000,58004.273437500,0.000000000,0.000000000,-15.541137695,-105.466300964,0.000000000,-0.084000528,-16.815948486
1747312815.738860,18.469000000,0.000000000,58004.273437500,0.000000000,0.000000000,-15.541137695,-105.466499329,0.000000000,-0.084000528,-16.815948486
1747312815.741260,18.472000000,0.000000000,58004.273437500,0.000000000,0.000000000,-15.541137695,-105.466682434,0.000000000,-0.084000528,-16.815948486
1747312815.743773,18.474000000,0.000000000,58004.273437500,0.000000000,0.000000000,-15.541137695,-105.466865540,0.000000000,-0.084000528,-16.815948486
1747312815.746246,18.477000000,0.000000000,58004.273437500,0.000000000,0.000000000,-15.541137695,-105.467063904,0.000000000,-0.084000528,-16.815948486
1747312815.748603,18.479000000,0.000000000,58004.273437500,0.000000000,0.000000000,-15.541137695,-105.467247009,0.000000000,-0.084000528,-16.815948486
1747312815.751113,18.481000000,0.000000000,58004.273437500,0.000000000,0.000000000,-15.541137695,-105.467430115,0.000000000,-0.084000528,-16.815948486
1747312815.753569,18.484000000,0.000000000,58004.273437500,0.000000000,0.000000000,-15.541137695,-105.467613220,0.000000000,-0.084000528,-16.815948486
1747312815.755903,18.486000000,0.000000000,58004.273437500,0.000000000,0.000000000,-15.541137695,-105.467811584,0.000000000,-0.084000528,-16.815948486
1747312815.758238,18.489000000,0.000000000,58004.273437500,0.000000000,0.000000000,-15.541137695,-105.467979431,0.000000000,-0.084000528,-16.815948486
1747312815.760575,18.491000000,0.000000000,58004.273437500,0.000000000,0.000000000,-15.541137695,-105.468162537,0.000000000,-0.084000528,-16.815948486
1747312815.762933,18.493000000,0.000000000,58004.273437500,0.000000000,0.000000000,-15.541137695,-105.468345642,0.000000000,-0.084000528,-16.815948486
1747312815.765262,18.496000000,0.000000000,58004.273437500,0.000000000,0.000000000,-15.541137695,-105.468528748,0.000000000,-0.084000528,-16.815948486
1747312815.767649,18.498000000,0.000000000,58004.273437500,0.000000000,0.000000000,-15.541137695,-105.468711853,0.000000000,-0.084000528,-16.815948486
1747312815.770059,18.500000000,0.000000000,58004.273437500,0.000000000,0.000000000,-15.541137695,-105.468894958,0.000000000,-0.084000528,-16.815948486
1747312815.772445,18.503000000,0.000000000,58004.273437500,0.000000000,0.000000000,-15.541137695,-105.469062805,0.000000000,-0.084000528,-16.815948486
1747312815.774820,18.505000000,0.000000000,58004.273437500,0.000000000,0.000000000,-15.541137695,-105.469245911,0.000000000,-0.084000528,-16.815948486
1747312815.777260,18.508000000,0.000000000,58004.273437500,0.000000000,0.000000000,-15.541137695,-105.469429016,0.000000000,-0.084000528,-16.815948486
1747312815.779656,18.510000000,0.000000000,58004.273437500,0.000000000,0.000000000,-15.541137695,-105.469612122,0.000000000,-0.084000528,-16.815948486
1747312815.782082,18.512000000,0.000000000,58004.273437500,0.000000000,0.000000000,-15.541137695,-105.469795227,0.000000000,-0.084000528,-16.815948486
1747312815.784481,18.515000000,0.000000000,58004.273437500,0.000000000,0.000000000,-15.541137695,-105.469993591,0.000000000,-0.084000528,-16.815948486
1747312815.786916,18.517000000,0.000000000,58004.273437500,0.000000000,0.000000000,-15.541137695,-105.470176697,0.000000000,-0.084000528,-16.815948486
1747312815.789334,18.520000000,0.000000000,58004.273437500,0.000000000,0.000000000,-15.541137695,-105.470359802,0.000000000,-0.084000528,-16.815948486
1747312815.791690,18.522000000,0.000000000,58004.273437500,0.000000000,0.000000000,-15.541137695,-105.470542908,0.000000000,-0.084000528,-16.815948486
1747312815.794016,18.524000000,0.000000000,58004.273437500,0.000000000,0.000000000,-15.541137695,-105.470726013,0.000000000,-0.084000528,-16.815948486
1747312815.796397,18.527000000,0.000000000,58004.273437500,0.000000000,0.000000000,-15.541137695,-105.470909119,0.000000000,-0.084000528,-16.815948486
1747312815.798721,18.529000000,0.000000000,58004.273437500,0.000000000,0.000000000,-15.541137695,-105.471092224,0.000000000,-0.084000528,-16.815948486
1747312815.801107,18.531000000,0.000000000,58004.273437500,0.000000000,0.000000000,-15.541137695,-105.471260071,0.000000000,-0.084000528,-16.815948486
1747312815.803485,18.534000000,0.000000000,58004.273437500,0.000000000,0.000000000,-15.541137695,-105.471443176,0.000000000,-0.084000528,-16.815948486
1747312815.805865,18.536000000,0.000000000,58004.273437500,0.000000000,0.000000000,-15.541137695,-105.471626282,0.000000000,-0.084000528,-16.815948486
1747312815.808264,18.539000000,0.000000000,58004.273437500,0.000000000,0.000000000,-15.541137695,-105.471809387,0.000000000,-0.084000528,-16.815948486
1747312815.810627,18.541000000,0.000000000,58004.273437500,0.000000000,0.000000000,-15.541137695,-105.471992493,0.000000000,-0.084000528,-16.815948486
1747312815.813002,18.543000000,0.000000000,58004.273437500,0.000000000,0.000000000,-15.541137695,-105.472175598,0.000000000,-0.084000528,-16.815948486
1747312815.815388,18.546000000,0.000000000,58004.273437500,0.000000000,0.000000000,-15.541137695,-105.472358704,0.000000000,-0.084000528,-16.815948486
1747312815.817753,18.548000000,0.000000000,58004.273437500,0.000000000,0.000000000,-15.541137695,-105.472541809,0.000000000,-0.084000528,-16.815948486
1747312815.820135,18.550000000,0.000000000,58004.273437500,0.000000000,0.000000000,-15.541137695,-105.472724915,0.000000000,-0.084000528,-16.815948486
1747312815.822512,18.553000000,0.000000000,58004.273437500,0.000000000,0.000000000,-15.541137695,-105.472908020,0.000000000,-0.084000528,-16.815948486
1747312815.824907,18.555000000,0.000000000,58004.273437500,0.000000000,0.000000000,-15.541137695,-105.473075867,0.000000000,-0.084000528,-16.815948486
1747312815.827286,18.558000000,0.000000000,58004.273437500,0.000000000,0.000000000,-15.541137695,-105.473274231,0.000000000,-0.084000528,-16.815948486
1747312815.829702,18.560000000,0.000000000,58004.273437500,0.000000000,0.000000000,-15.541137695,-105.473442078,0.000000000,-0.084000528,-16.815948486
1747312815.832135,18.562000000,0.000000000,58004.273437500,0.000000000,0.000000000,-15.541137695,-105.473640442,0.000000000,-0.084000528,-16.815948486
1747312815.834519,18.565000000,0.000000000,58004.273437500,0.000000000,0.000000000,-15.541137695,-105.473823547,0.000000000,-0.084000528,-16.815948486
1747312815.836914,18.567000000,0.000000000,58004.273437500,0.000000000,0.000000000,-15.541137695,-105.474006653,0.000000000,-0.084000528,-16.815948486
1747312815.839323,18.570000000,0.000000000,58004.273437500,0.000000000,0.000000000,-15.541137695,-105.474189758,0.000000000,-0.084000528,-16.815948486
1747312815.841820,18.572000000,0.000000000,58004.273437500,0.000000000,0.000000000,-15.541137695,-105.474372864,0.000000000,-0.084000528,-16.815948486
1747312815.844175,18.574000000,0.000000000,58004.273437500,0.000000000,0.000000000,-15.541137695,-105.474555969,0.000000000,-0.084000528,-16.815948486
1747312815.846531,18.577000000,0.000000000,58004.273437500,0.000000000,0.000000000,-15.541137695,-105.474739075,0.000000000,-0.084000528,-16.815948486
1747312815.848886,18.579000000,0.000000000,58004.273437500,0.000000000,0.000000000,-15.541137695,-105.474922180,0.000000000,-0.084000528,-16.815948486
1747312815.851265,18.582000000,0.000000000,58004.273437500,0.000000000,0.000000000,-15.541137695,-105.475105286,0.000000000,-0.084000528,-16.815948486
1747312815.853643,18.584000000,0.000000000,58004.273437500,0.000000000,0.000000000,-15.541137695,-105.475288391,0.000000000,-0.084000528,-16.815948486
1747312815.856074,18.586000000,0.000000000,58004.273437500,0.000000000,0.000000000,-15.541137695,-105.475471497,0.000000000,-0.084000528,-16.815948486
1747312815.858409,18.589000000,0.000000000,58004.273437500,0.000000000,0.000000000,-15.541137695,-105.475654602,0.000000000,-0.084000528,-16.815948486
1747312815.860828,18.591000000,0.000000000,58004.273437500,0.000000000,0.000000000,-15.541137695,-105.475822449,0.000000000,-0.084000528,-16.815948486
1747312815.863251,18.594000000,0.000000000,58004.273437500,0.000000000,0.000000000,-15.541137695,-105.476020813,0.000000000,-0.084000528,-16.815948486
1747312815.865649,18.596000000,0.000000000,58004.273437500,0.000000000,0.000000000,-15.541137695,-105.476203918,0.000000000,-0.084000528,-16.815948486
1747312815.868060,18.598000000,0.000000000,58004.273437500,0.000000000,0.000000000,-15.541137695,-105.476387024,0.000000000,-0.084000528,-16.815948486
1747312815.870467,18.601000000,0.000000000,58004.273437500,0.000000000,0.000000000,-15.541137695,-105.476570129,0.000000000,-0.084000528,-16.815948486
1747312815.872904,18.603000000,0.000000000,58004.273437500,0.000000000,0.000000000,-15.541137695,-105.476753235,0.000000000,-0.084000528,-16.815948486
1747312815.875312,18.606000000,0.000000000,58004.273437500,0.000000000,0.000000000,-15.541137695,-105.476936340,0.000000000,-0.084000528,-16.815948486
1747312815.877744,18.608000000,0.000000000,58004.273437500,0.000000000,0.000000000,-15.541137695,-105.477119446,0.000000000,-0.084000528,-16.815948486
1747312815.880259,18.611000000,0.000000000,58004.273437500,0.000000000,0.000000000,-15.541137695,-105.477302551,0.000000000,-0.084000528,-16.815948486
1747312815.882638,18.613000000,0.000000000,58004.273437500,0.000000000,0.000000000,-15.541137695,-105.477500916,0.000000000,-0.084000528,-16.815948486
1747312815.885058,18.615000000,0.000000000,58004.273437500,0.000000000,0.000000000,-15.541137695,-105.477684021,0.000000000,-0.084000528,-16.815948486
1747312815.887482,18.618000000,0.000000000,58004.273437500,0.000000000,0.000000000,-15.541137695,-105.477867126,0.000000000,-0.084000528,-16.815948486
1747312815.890028,18.620000000,0.000000000,58004.273437500,0.000000000,0.000000000,-15.541137695,-105.478050232,0.000000000,-0.084000528,-16.815948486
1747312815.892492,18.623000000,0.000000000,58004.273437500,0.000000000,0.000000000,-15.541137695,-105.478248596,0.000000000,-0.084000528,-16.815948486
1747312815.894864,18.625000000,0.000000000,58004.273437500,0.000000000,0.000000000,-15.541137695,-105.478431702,0.000000000,-0.084000528,-16.815948486
1747312815.897296,18.628000000,0.000000000,58004.273437500,0.000000000,0.000000000,-15.541137695,-105.478614807,0.000000000,-0.084000528,-16.815948486
1747312815.899668,18.630000000,0.000000000,58004.273437500,0.000000000,0.000000000,-15.541137695,-105.478797913,0.000000000,-0.084000528,-16.815948486
1747312815.902008,18.632000000,0.000000000,58004.273437500,0.000000000,0.000000000,-15.541137695,-105.478981018,0.000000000,-0.084000528,-16.815948486
1747312815.904385,18.635000000,0.000000000,58004.273437500,0.000000000,0.000000000,-15.541137695,-105.479164124,0.000000000,-0.084000528,-16.815948486
1747312815.906868,18.637000000,0.000000000,58004.273437500,0.000000000,0.000000000,-15.541137695,-105.479347229,0.000000000,-0.084000528,-16.815948486
1747312815.909332,18.640000000,0.000000000,58004.273437500,0.000000000,0.000000000,-15.541137695,-105.479530334,0.000000000,-0.084000528,-16.815948486
1747312815.911740,18.642000000,0.000000000,58004.273437500,0.000000000,0.000000000,-15.541137695,-105.479728699,0.000000000,-0.084000528,-16.815948486
1747312815.914279,18.645000000,0.000000000,58004.273437500,0.000000000,0.000000000,-15.541137695,-105.479911804,0.000000000,-0.084000528,-16.815948486
1747312815.916737,18.647000000,0.000000000,58004.273437500,0.000000000,0.000000000,-15.541137695,-105.480110168,0.000000000,-0.084000528,-16.815948486
1747312815.919248,18.649000000,0.000000000,58004.273437500,0.000000000,0.000000000,-15.541137695,-105.480293274,0.000000000,-0.084000528,-16.815948486
1747312815.921786,18.652000000,0.000000000,58004.273437500,0.000000000,0.000000000,-15.541137695,-105.480491638,0.000000000,-0.084000528,-16.815948486
1747312815.924313,18.654000000,0.000000000,58004.273437500,0.000000000,0.000000000,-15.541137695,-105.480674744,0.000000000,-0.084000528,-16.815948486
1747312815.926777,18.657000000,0.000000000,58004.273437500,0.000000000,0.000000000,-15.541137695,-105.480873108,0.000000000,-0.084000528,-16.815948486
1747312815.929287,18.659000000,0.000000000,58004.273437500,0.000000000,0.000000000,-15.541137695,-105.481056213,0.000000000,-0.084000528,-16.815948486
1747312815.931777,18.662000000,0.000000000,58004.273437500,0.000000000,0.000000000,-15.541137695,-105.481254578,0.000000000,-0.084000528,-16.815948486
1747312815.934258,18.664000000,0.000000000,58004.273437500,0.000000000,0.000000000,-15.541137695,-105.481437683,0.000000000,-0.084000528,-16.815948486
1747312815.936733,18.667000000,0.000000000,58004.273437500,0.000000000,0.000000000,-15.541137695,-105.481636047,0.000000000,-0.084000528,-16.815948486
1747312815.939120,18.669000000,0.000000000,58004.273437500,0.000000000,0.000000000,-15.541137695,-105.481819153,0.000000000,-0.084000528,-16.815948486
1747312815.941526,18.672000000,0.000000000,58004.273437500,0.000000000,0.000000000,-15.541137695,-105.482002258,0.000000000,-0.084000528,-16.815948486
1747312815.943942,18.674000000,0.000000000,58004.273437500,0.000000000,0.000000000,-15.541137695,-105.482185364,0.000000000,-0.084000528,-16.815948486
1747312815.946301,18.677000000,0.000000000,58004.273437500,0.000000000,0.000000000,-15.541137695,-105.482368469,0.000000000,-0.084000528,-16.815948486
1747312815.948651,18.679000000,0.000000000,58004.273437500,0.000000000,0.000000000,-15.541137695,-105.482551575,0.000000000,-0.084000528,-16.815948486
1747312815.950984,18.681000000,0.000000000,58004.273437500,0.000000000,0.000000000,-15.541137695,-105.482734680,0.000000000,-0.084000528,-16.815948486
1747312815.953367,18.684000000,0.000000000,58004.273437500,0.000000000,0.000000000,-15.541137695,-105.482917786,0.000000000,-0.084000528,-16.815948486
1747312815.955728,18.686000000,0.000000000,58004.273437500,0.000000000,0.000000000,-15.541137695,-105.483100891,0.000000000,-0.084000528,-16.815948486
1747312815.958090,18.688000000,0.000000000,58004.273437500,0.000000000,0.000000000,-15.541137695,-105.483268738,0.000000000,-0.084000528,-16.815948486
1747312815.960468,18.691000000,0.000000000,58004.273437500,0.000000000,0.000000000,-15.541137695,-105.483451843,0.000000000,-0.084000528,-16.815948486
1747312815.962805,18.693000000,0.000000000,58004.273437500,0.000000000,0.000000000,-15.541137695,-105.483634949,0.000000000,-0.084000528,-16.815948486
1747312815.965127,18.695000000,0.000000000,58004.273437500,0.000000000,0.000000000,-15.541137695,-105.483818054,0.000000000,-0.084000528,-16.815948486
1747312815.967485,18.698000000,0.000000000,58004.273437500,0.000000000,0.000000000,-15.541137695,-105.484001160,0.000000000,-0.084000528,-16.815948486
1747312815.969819,18.700000000,0.000000000,58004.273437500,0.000000000,0.000000000,-15.541137695,-105.484169006,0.000000000,-0.084000528,-16.815948486
1747312815.972204,18.703000000,0.000000000,58004.273437500,0.000000000,0.000000000,-15.541137695,-105.484352112,0.000000000,-0.084000528,-16.815948486
1747312815.974561,18.705000000,0.000000000,58004.273437500,0.000000000,0.000000000,-15.541137695,-105.484535217,0.000000000,-0.084000528,-16.815948486
1747312815.976892,18.707000000,0.000000000,58004.273437500,0.000000000,0.000000000,-15.541137695,-105.484718323,0.000000000,-0.084000528,-16.815948486
1747312815.979255,18.710000000,0.000000000,58004.273437500,0.000000000,0.000000000,-15.541137695,-105.484901428,0.000000000,-0.084000528,-16.815948486
1747312815.981572,18.712000000,0.000000000,58004.273437500,0.000000000,0.000000000,-15.541137695,-105.485069275,0.000000000,-0.084000528,-16.815948486
1747312815.983921,18.714000000,0.000000000,58004.273437500,0.000000000,0.000000000,-15.541137695,-105.485252380,0.000000000,-0.084000528,-16.815948486
1747312815.986261,18.717000000,0.000000000,58004.273437500,0.000000000,0.000000000,-15.541137695,-105.485435486,0.000000000,-0.084000528,-16.815948486
1747312815.988640,18.719000000,0.000000000,58004.273437500,0.000000000,0.000000000,-15.541137695,-105.485618591,0.000000000,-0.084000528,-16.815948486
1747312815.990973,18.721000000,0.000000000,58004.273437500,0.000000000,0.000000000,-15.541137695,-105.485786438,0.000000000,-0.084000528,-16.815948486
1747312815.993309,18.724000000,0.000000000,58004.273437500,0.000000000,0.000000000,-15.541137695,-105.485969543,0.000000000,-0.084000528,-16.815948486
1747312815.995664,18.726000000,0.000000000,58004.273437500,0.000000000,0.000000000,-15.541137695,-105.486152649,0.000000000,-0.084000528,-16.815948486
1747312815.998015,18.728000000,0.000000000,58004.273437500,0.000000000,0.000000000,-15.541137695,-105.486335754,0.000000000,-0.084000528,-16.815948486
1747312816.000409,18.731000000,0.000000000,58004.273437500,0.000000000,0.000000000,-15.541137695,-105.486518860,0.000000000,-0.084000528,-16.815948486
1747312816.002772,18.733000000,0.000000000,58004.273437500,0.000000000,0.000000000,-15.541137695,-105.486701965,0.000000000,-0.084000528,-16.815948486
1747312816.005152,18.735000000,0.000000000,58004.273437500,0.000000000,0.000000000,-15.541137695,-105.486869812,0.000000000,-0.084000528,-16.815948486
1747312816.007496,18.738000000,0.000000000,58004.273437500,0.000000000,0.000000000,-15.541137695,-105.487052917,0.000000000,-0.084000528,-16.815948486
1747312816.009832,18.740000000,0.000000000,58004.273437500,0.000000000,0.000000000,-15.541137695,-105.487236023,0.000000000,-0.084000528,-16.815948486
1747312816.012177,18.743000000,0.000000000,58004.273437500,0.000000000,0.000000000,-15.541137695,-105.487419128,0.000000000,-0.084000528,-16.815948486
1747312816.014517,18.745000000,0.000000000,58004.273437500,0.000000000,0.000000000,-15.541137695,-105.487602234,0.000000000,-0.084000528,-16.815948486
1747312816.016838,18.747000000,0.000000000,58004.273437500,0.000000000,0.000000000,-15.541137695,-105.487770081,0.000000000,-0.084000528,-16.815948486
1747312816.019168,18.750000000,0.000000000,58004.273437500,0.000000000,0.000000000,-15.541137695,-105.487953186,0.000000000,-0.084000528,-16.815948486
1747312816.021497,18.752000000,0.000000000,58004.273437500,0.000000000,0.000000000,-15.541137695,-105.488136292,0.000000000,-0.084000528,-16.815948486
1747312816.023857,18.754000000,0.000000000,58004.273437500,0.000000000,0.000000000,-15.541137695,-105.488304138,0.000000000,-0.084000528,-16.815948486
1747312816.026208,18.757000000,0.000000000,58004.273437500,0.000000000,0.000000000,-15.541137695,-105.488487244,0.000000000,-0.084000528,-16.815948486
1747312816.028551,18.759000000,0.000000000,58004.273437500,0.000000000,0.000000000,-15.541137695,-105.488670349,0.000000000,-0.084000528,-16.815948486
1747312816.030914,18.761000000,0.000000000,58004.273437500,0.000000000,0.000000000,-15.541137695,-105.488853455,0.000000000,-0.084000528,-16.815948486
1747312816.033284,18.764000000,0.000000000,58004.273437500,0.000000000,0.000000000,-15.541137695,-105.489021301,0.000000000,-0.084000528,-16.815948486
1747312816.035619,18.766000000,0.000000000,58004.273437500,0.000000000,0.000000000,-15.541137695,-105.489204407,0.000000000,-0.084000528,-16.815948486
1747312816.038021,18.768000000,0.000000000,58004.273437500,0.000000000,0.000000000,-15.541137695,-105.489387512,0.000000000,-0.084000528,-16.815948486
1747312816.040329,18.771000000,0.000000000,58004.273437500,0.000000000,0.000000000,-15.541137695,-105.489570618,0.000000000,-0.084000528,-16.815948486
1747312816.042655,18.773000000,0.000000000,58004.273437500,0.000000000,0.000000000,-15.541137695,-105.489753723,0.000000000,-0.084000528,-16.815948486
1747312816.045017,18.775000000,0.000000000,58004.273437500,0.000000000,0.000000000,-15.541137695,-105.489921570,0.000000000,-0.084000528,-16.815948486
1747312816.047442,18.778000000,0.000000000,58004.273437500,0.000000000,0.000000000,-15.541137695,-105.490104675,0.000000000,-0.084000528,-16.815948486
1747312816.049793,18.780000000,0.000000000,58004.273437500,0.000000000,0.000000000,-15.541137695,-105.490287781,0.000000000,-0.084000528,-16.815948486
1747312816.052165,18.782000000,0.000000000,58004.273437500,0.000000000,0.000000000,-15.541137695,-105.490470886,0.000000000,-0.084000528,-16.815948486
1747312816.054549,18.785000000,0.000000000,58004.273437500,0.000000000,0.000000000,-15.541137695,-105.490653992,0.000000000,-0.084000528,-16.815948486
1747312816.056933,18.787000000,0.000000000,58004.273437500,0.000000000,0.000000000,-15.541137695,-105.490837097,0.000000000,-0.084000528,-16.815948486
1747312816.059272,18.790000000,0.000000000,58004.273437500,0.000000000,0.000000000,-15.541137695,-105.491020203,0.000000000,-0.084000528,-16.815948486
1747312816.061662,18.792000000,0.000000000,58004.273437500,0.000000000,0.000000000,-15.541137695,-105.491203308,0.000000000,-0.084000528,-16.815948486
1747312816.064029,18.794000000,0.000000000,58004.273437500,0.000000000,0.000000000,-15.541137695,-105.491386414,0.000000000,-0.084000528,-16.815948486
1747312816.066400,18.797000000,0.000000000,58004.273437500,0.000000000,0.000000000,-15.541137695,-105.491554260,0.000000000,-0.084000528,-16.815948486
1747312816.068787,18.799000000,0.000000000,58004.273437500,0.000000000,0.000000000,-15.541137695,-105.491737366,0.000000000,-0.084000528,-16.815948486
1747312816.071217,18.801000000,0.000000000,58004.273437500,0.000000000,0.000000000,-15.541137695,-105.491920471,0.000000000,-0.084000528,-16.815948486
1747312816.073578,18.804000000,0.000000000,58004.273437500,0.000000000,0.000000000,-15.541137695,-105.492103577,0.000000000,-0.084000528,-16.815948486
1747312816.075979,18.806000000,0.000000000,58004.273437500,0.000000000,0.000000000,-15.541137695,-105.492286682,0.000000000,-0.084000528,-16.815948486
1747312816.078333,18.809000000,0.000000000,58004.273437500,0.000000000,0.000000000,-15.541137695,-105.492469788,0.000000000,-0.084000528,-16.815948486
1747312816.080681,18.811000000,0.000000000,58004.273437500,0.000000000,0.000000000,-15.541137695,-105.492652893,0.000000000,-0.084000528,-16.815948486
1747312816.083072,18.813000000,0.000000000,58004.273437500,0.000000000,0.000000000,-15.541137695,-105.492835999,0.000000000,-0.084000528,-16.815948486
1747312816.085457,18.816000000,0.000000000,58004.273437500,0.000000000,0.000000000,-15.541137695,-105.493019104,0.000000000,-0.084000528,-16.815948486
1747312816.087828,18.818000000,0.000000000,58004.273437500,0.000000000,0.000000000,-15.541137695,-105.493202209,0.000000000,-0.084000528,-16.815948486
1747312816.090232,18.821000000,0.000000000,58004.273437500,0.000000000,0.000000000,-15.541137695,-105.493385315,0.000000000,-0.084000528,-16.815948486
1747312816.092634,18.823000000,0.000000000,58004.273437500,0.000000000,0.000000000,-15.541137695,-105.493568420,0.000000000,-0.084000528,-16.815948486
1747312816.095001,18.825000000,0.000000000,58004.273437500,0.000000000,0.000000000,-15.541137695,-105.493751526,0.000000000,-0.084000528,-16.815948486
1747312816.097397,18.828000000,0.000000000,58004.273437500,0.000000000,0.000000000,-15.541137695,-105.493934631,0.000000000,-0.084000528,-16.815948486
1747312816.099763,18.830000000,0.000000000,58004.273437500,0.000000000,0.000000000,-15.541137695,-105.494117737,0.000000000,-0.084000528,-16.815948486
1747312816.102136,18.832000000,0.000000000,58004.273437500,0.000000000,0.000000000,-15.541137695,-105.494300842,0.000000000,-0.084000528,-16.815948486
1747312816.104524,18.835000000,0.000000000,58004.273437500,0.000000000,0.000000000,-15.541137695,-105.494483948,0.000000000,-0.084000528,-16.815948486
1747312816.106904,18.837000000,0.000000000,58004.273437500,0.000000000,0.000000000,-15.541137695,-105.494667053,0.000000000,-0.084000528,-16.815948486
1747312816.109273,18.840000000,0.000000000,58004.273437500,0.000000000,0.000000000,-15.541137695,-105.494834900,0.000000000,-0.084000528,-16.815948486
1747312816.111662,18.842000000,0.000000000,58004.273437500,0.000000000,0.000000000,-15.541137695,-105.495018005,0.000000000,-0.084000528,-16.815948486
1747312816.114039,18.844000000,0.000000000,58004.273437500,0.000000000,0.000000000,-15.541137695,-105.495201111,0.000000000,-0.084000528,-16.815948486
1747312816.116428,18.847000000,0.000000000,58004.273437500,0.000000000,0.000000000,-15.541137695,-105.495384216,0.000000000,-0.084000528,-16.815948486
1747312816.118833,18.849000000,0.000000000,58004.273437500,0.000000000,0.000000000,-15.541137695,-105.495567322,0.000000000,-0.084000528,-16.815948486
1747312816.121292,18.852000000,0.000000000,58004.273437500,0.000000000,0.000000000,-15.541137695,-105.495750427,0.000000000,-0.084000528,-16.815948486
1747312816.123605,18.854000000,0.000000000,58004.273437500,0.000000000,0.000000000,-15.541137695,-105.495933533,0.000000000,-0.084000528,-16.815948486
1747312816.125999,18.856000000,0.000000000,58004.273437500,0.000000000,0.000000000,-15.541137695,-105.496116638,0.000000000,-0.084000528,-16.815948486
1747312816.128434,18.859000000,0.000000000,58004.273437500,0.000000000,0.000000000,-15.541137695,-105.496299744,0.000000000,-0.084000528,-16.815948486
1747312816.130866,18.861000000,0.000000000,58004.273437500,0.000000000,0.000000000,-15.541137695,-105.496498108,0.000000000,-0.084000528,-16.815948486
1747312816.133297,18.864000000,0.000000000,58004.273437500,0.000000000,0.000000000,-15.541137695,-105.496681213,0.000000000,-0.084000528,-16.815948486
1747312816.135763,18.866000000,0.000000000,58004.273437500,0.000000000,0.000000000,-15.541137695,-105.496864319,0.000000000,-0.084000528,-16.815948486
1747312816.138282,18.869000000,0.000000000,58004.273437500,0.000000000,0.000000000,-15.541137695,-105.497047424,0.000000000,-0.084000528,-16.815948486
1747312816.140761,18.871000000,0.000000000,58004.273437500,0.000000000,0.000000000,-15.541137695,-105.497245789,0.000000000,-0.084000528,-16.815948486
1747312816.143230,18.873000000,0.000000000,58004.273437500,0.000000000,0.000000000,-15.541137695,-105.497428894,0.000000000,-0.084000528,-16.815948486
1747312816.145705,18.876000000,0.000000000,58004.273437500,0.000000000,0.000000000,-15.541137695,-105.497627258,0.000000000,-0.084000528,-16.815948486
1747312816.148240,18.878000000,0.000000000,58004.273437500,0.000000000,0.000000000,-15.541137695,-105.497810364,0.000000000,-0.084000528,-16.815948486
1747312816.150648,18.881000000,0.000000000,58004.273437500,0.000000000,0.000000000,-15.541137695,-105.498008728,0.000000000,-0.084000528,-16.815948486
1747312816.153023,18.883000000,0.000000000,58004.273437500,0.000000000,0.000000000,-15.541137695,-105.498191833,0.000000000,-0.084000528,-16.815948486
1747312816.155398,18.886000000,0.000000000,58004.273437500,0.000000000,0.000000000,-15.541137695,-105.498374939,0.000000000,-0.084000528,-16.815948486
1747312816.157772,18.888000000,0.000000000,58004.273437500,0.000000000,0.000000000,-15.541137695,-105.498558044,0.000000000,-0.084000528,-16.815948486
1747312816.160143,18.890000000,0.000000000,58004.273437500,0.000000000,0.000000000,-15.541137695,-105.498725891,0.000000000,-0.084000528,-16.815948486
1747312816.162578,18.893000000,0.000000000,58004.273437500,0.000000000,0.000000000,-15.541137695,-105.498908997,0.000000000,-0.084000528,-16.815948486
1747312816.164957,18.895000000,0.000000000,58004.273437500,0.000000000,0.000000000,-15.541137695,-105.499092102,0.000000000,-0.084000528,-16.815948486
1747312816.167379,18.898000000,0.000000000,58004.273437500,0.000000000,0.000000000,-15.541137695,-105.499275208,0.000000000,-0.084000528,-16.815948486
1747312816.169790,18.900000000,0.000000000,58004.273437500,0.000000000,0.000000000,-15.541137695,-105.499473572,0.000000000,-0.084000528,-16.815948486
1747312816.172184,18.902000000,0.000000000,58004.273437500,0.000000000,0.000000000,-15.541137695,-105.499656677,0.000000000,-0.084000528,-16.815948486
1747312816.174551,18.905000000,0.000000000,58004.273437500,0.000000000,0.000000000,-15.541137695,-105.499839783,0.000000000,-0.084000528,-16.815948486
1747312816.176941,18.907000000,0.000000000,58004.273437500,0.000000000,0.000000000,-15.541137695,-105.500022888,0.000000000,-0.084000528,-16.815948486
1747312816.179322,18.910000000,0.000000000,58004.273437500,0.000000000,0.000000000,-15.541137695,-105.500190735,0.000000000,-0.084000528,-16.815948486
1747312816.181716,18.912000000,0.000000000,58004.273437500,0.000000000,0.000000000,-15.541137695,-105.500373840,0.000000000,-0.084000528,-16.815948486
1747312816.184102,18.914000000,0.000000000,58004.273437500,0.000000000,0.000000000,-15.541137695,-105.500556946,0.000000000,-0.084000528,-16.815948486
1747312816.186487,18.917000000,0.000000000,58004.273437500,0.000000000,0.000000000,-15.541137695,-105.500740051,0.000000000,-0.084000528,-16.815948486
1747312816.188837,18.919000000,0.000000000,58004.273437500,0.000000000,0.000000000,-15.541137695,-105.500923157,0.000000000,-0.084000528,-16.815948486
1747312816.191236,18.921000000,0.000000000,58004.273437500,0.000000000,0.000000000,-15.541137695,-105.501106262,0.000000000,-0.084000528,-16.815948486
1747312816.193641,18.924000000,0.000000000,58004.273437500,0.000000000,0.000000000,-15.541137695,-105.501289368,0.000000000,-0.084000528,-16.815948486
1747312816.196059,18.926000000,0.000000000,58004.273437500,0.000000000,0.000000000,-15.541137695,-105.501472473,0.000000000,-0.084000528,-16.815948486
1747312816.198434,18.929000000,0.000000000,58004.273437500,0.000000000,0.000000000,-15.541137695,-105.501655579,0.000000000,-0.084000528,-16.815948486
1747312816.200798,18.931000000,0.000000000,58004.273437500,0.000000000,0.000000000,-15.541137695,-105.501838684,0.000000000,-0.084000528,-16.815948486
1747312816.203188,18.933000000,0.000000000,58004.273437500,0.000000000,0.000000000,-15.541137695,-105.502021790,0.000000000,-0.084000528,-16.815948486
1747312816.205562,18.936000000,0.000000000,58004.273437500,0.000000000,0.000000000,-15.541137695,-105.502204895,0.000000000,-0.084000528,-16.815948486
1747312816.207958,18.938000000,0.000000000,58004.273437500,0.000000000,0.000000000,-15.541137695,-105.502388000,0.000000000,-0.084000528,-16.815948486
1747312816.210341,18.941000000,0.000000000,58004.273437500,0.000000000,0.000000000,-15.541137695,-105.502571106,0.000000000,-0.084000528,-16.815948486
1747312816.212711,18.943000000,0.000000000,58004.273437500,0.000000000,0.000000000,-15.541137695,-105.502754211,0.000000000,-0.084000528,-16.815948486
1747312816.215194,18.945000000,0.000000000,58004.273437500,0.000000000,0.000000000,-15.541137695,-105.502937317,0.000000000,-0.084000528,-16.815948486
1747312816.217667,18.948000000,0.000000000,58004.273437500,0.000000000,0.000000000,-15.541137695,-105.503120422,0.000000000,-0.084000528,-16.815948486
1747312816.220102,18.950000000,0.000000000,58004.273437500,0.000000000,0.000000000,-15.541137695,-105.503318787,0.000000000,-0.084000528,-16.815948486
1747312816.222433,18.953000000,0.000000000,58004.273437500,0.000000000,0.000000000,-15.541137695,-105.503501892,0.000000000,-0.084000528,-16.815948486
1747312816.224829,18.955000000,0.000000000,58004.273437500,0.000000000,0.000000000,-15.541137695,-105.503684998,0.000000000,-0.084000528,-16.815948486
1747312816.227189,18.958000000,0.000000000,58004.273437500,0.000000000,0.000000000,-15.541137695,-105.503868103,0.000000000,-0.084000528,-16.815948486
1747312816.229527,18.960000000,0.000000000,58004.273437500,0.000000000,0.000000000,-15.541137695,-105.504051208,0.000000000,-0.084000528,-16.815948486
1747312816.231869,18.962000000,0.000000000,58004.273437500,0.000000000,0.000000000,-15.541137695,-105.504234314,0.000000000,-0.084000528,-16.815948486
1747312816.234216,18.965000000,0.000000000,58004.273437500,0.000000000,0.000000000,-15.541137695,-105.504402161,0.000000000,-0.084000528,-16.815948486
1747312816.236552,18.967000000,0.000000000,58004.273437500,0.000000000,0.000000000,-15.541137695,-105.504585266,0.000000000,-0.084000528,-16.815948486
1747312816.238915,18.969000000,0.000000000,58004.273437500,0.000000000,0.000000000,-15.541137695,-105.504768372,0.000000000,-0.084000528,-16.815948486
1747312816.241239,18.972000000,0.000000000,58004.273437500,0.000000000,0.000000000,-15.541137695,-105.504951477,0.000000000,-0.084000528,-16.815948486
1747312816.243562,18.974000000,0.000000000,58004.273437500,0.000000000,0.000000000,-15.541137695,-105.505119324,0.000000000,-0.084000528,-16.815948486
1747312816.245892,18.976000000,0.000000000,58004.273437500,0.000000000,0.000000000,-15.541137695,-105.505302429,0.000000000,-0.084000528,-16.815948486
1747312816.248217,18.979000000,0.000000000,58004.273437500,0.000000000,0.000000000,-15.541137695,-105.505485535,0.000000000,-0.084000528,-16.815948486
1747312816.250554,18.981000000,0.000000000,58004.273437500,0.000000000,0.000000000,-15.541137695,-105.505653381,0.000000000,-0.084000528,-16.815948486
1747312816.252885,18.983000000,0.000000000,58004.273437500,0.000000000,0.000000000,-15.541137695,-105.505836487,0.000000000,-0.084000528,-16.815948486
1747312816.255250,18.986000000,0.000000000,58004.273437500,0.000000000,0.000000000,-15.541137695,-105.506019592,0.000000000,-0.084000528,-16.815948486
1747312816.257605,18.988000000,0.000000000,58004.273437500,0.000000000,0.000000000,-15.541137695,-105.506202698,0.000000000,-0.084000528,-16.815948486
1747312816.259995,18.990000000,0.000000000,58004.273437500,0.000000000,0.000000000,-15.541137695,-105.506385803,0.000000000,-0.084000528,-16.815948486
1747312816.262398,18.993000000,0.000000000,58004.273437500,0.000000000,0.000000000,-15.541137695,-105.506568909,0.000000000,-0.084000528,-16.815948486
1747312816.264799,18.995000000,0.000000000,58004.273437500,0.000000000,0.000000000,-15.541137695,-105.506736755,0.000000000,-0.084000528,-16.815948486
1747312816.267186,18.997000000,0.000000000,58004.273437500,0.000000000,0.000000000,-15.541137695,-105.506919861,0.000000000,-0.084000528,-16.815948486
1747312816.269541,19.000000000,0.000000000,58004.273437500,0.000000000,0.000000000,-15.541137695,-105.507102966,0.000000000,-0.084000528,-16.815948486
1747312816.271883,19.002000000,0.000000000,58004.273437500,0.000000000,0.000000000,-15.541137695,-105.507286072,0.000000000,-0.084000528,-16.815948486
1747312816.274246,19.005000000,0.000000000,58004.273437500,0.000000000,0.000000000,-15.541137695,-105.507469177,0.000000000,-0.084000528,-16.815948486
1747312816.276622,19.007000000,0.000000000,58004.273437500,0.000000000,0.000000000,-15.541137695,-105.507652283,0.000000000,-0.084000528,-16.815948486
1747312816.278983,19.009000000,0.000000000,58004.273437500,0.000000000,0.000000000,-15.541137695,-105.507835388,0.000000000,-0.084000528,-16.815948486
1747312816.281333,19.012000000,0.000000000,58004.273437500,0.000000000,0.000000000,-15.541137695,-105.508018494,0.000000000,-0.084000528,-16.815948486
1747312816.283708,19.014000000,0.000000000,58004.273437500,0.000000000,0.000000000,-15.541137695,-105.508186340,0.000000000,-0.084000528,-16.815948486
1747312816.286089,19.016000000,0.000000000,58004.273437500,0.000000000,0.000000000,-15.541137695,-105.508369446,0.000000000,-0.084000528,-16.815948486
1747312816.288473,19.019000000,0.000000000,58004.273437500,0.000000000,0.000000000,-15.541137695,-105.508552551,0.000000000,-0.084000528,-16.815948486
1747312816.290856,19.021000000,0.000000000,58004.273437500,0.000000000,0.000000000,-15.541137695,-105.508735657,0.000000000,-0.084000528,-16.815948486
1747312816.293212,19.024000000,0.000000000,58004.273437500,0.000000000,0.000000000,-15.541137695,-105.508918762,0.000000000,-0.084000528,-16.815948486
1747312816.295545,19.026000000,0.000000000,58004.273437500,0.000000000,0.000000000,-15.541137695,-105.509101868,0.000000000,-0.084000528,-16.815948486
1747312816.297892,19.028000000,0.000000000,58004.273437500,0.000000000,0.000000000,-15.541137695,-105.509284973,0.000000000,-0.084000528,-16.815948486
1747312816.300249,19.031000000,0.000000000,58004.273437500,0.000000000,0.000000000,-15.541137695,-105.509468079,0.000000000,-0.084000528,-16.815948486
1747312816.302624,19.033000000,0.000000000,58004.273437500,0.000000000,0.000000000,-15.541137695,-105.509651184,0.000000000,-0.084000528,-16.815948486
1747312816.305015,19.035000000,0.000000000,58004.273437500,0.000000000,0.000000000,-15.541137695,-105.509819031,0.000000000,-0.084000528,-16.815948486
1747312816.307378,19.038000000,0.000000000,58004.273437500,0.000000000,0.000000000,-15.541137695,-105.510002136,0.000000000,-0.084000528,-16.815948486
1747312816.309702,19.040000000,0.000000000,58004.273437500,0.000000000,0.000000000,-15.541137695,-105.510185242,0.000000000,-0.084000528,-16.815948486
1747312816.312096,19.042000000,0.000000000,58004.273437500,0.000000000,0.000000000,-15.541137695,-105.510368347,0.000000000,-0.084000528,-16.815948486
1747312816.314460,19.045000000,0.000000000,58004.273437500,0.000000000,0.000000000,-15.541137695,-105.510551453,0.000000000,-0.084000528,-16.815948486
1747312816.316845,19.047000000,0.000000000,58004.273437500,0.000000000,0.000000000,-15.541137695,-105.510734558,0.000000000,-0.084000528,-16.815948486
1747312816.319224,19.050000000,0.000000000,58004.273437500,0.000000000,0.000000000,-15.541137695,-105.510917664,0.000000000,-0.084000528,-16.815948486
1747312816.321600,19.052000000,0.000000000,58004.273437500,0.000000000,0.000000000,-15.541137695,-105.511100769,0.000000000,-0.084000528,-16.815948486
1747312816.324029,19.054000000,0.000000000,58004.273437500,0.000000000,0.000000000,-15.541137695,-105.511283875,0.000000000,-0.084000528,-16.815948486
1747312816.326348,19.057000000,0.000000000,58004.273437500,0.000000000,0.000000000,-15.541137695,-105.511466980,0.000000000,-0.084000528,-16.815948486
1747312816.328730,19.059000000,0.000000000,58004.273437500,0.000000000,0.000000000,-15.541137695,-105.511634827,0.000000000,-0.084000528,-16.815948486
1747312816.331149,19.061000000,0.000000000,58004.273437500,0.000000000,0.000000000,-15.541137695,-105.511817932,0.000000000,-0.084000528,-16.815948486
1747312816.333523,19.064000000,0.000000000,58004.273437500,0.000000000,0.000000000,-15.541137695,-105.512001038,0.000000000,-0.084000528,-16.815948486
1747312816.335892,19.066000000,0.000000000,58004.273437500,0.000000000,0.000000000,-15.541137695,-105.512184143,0.000000000,-0.084000528,-16.815948486
1747312816.338263,19.069000000,0.000000000,58004.273437500,0.000000000,0.000000000,-15.541137695,-105.512367249,0.000000000,-0.084000528,-16.815948486
1747312816.340652,19.071000000,0.000000000,58004.273437500,0.000000000,0.000000000,-15.541137695,-105.512550354,0.000000000,-0.084000528,-16.815948486
1747312816.343039,19.073000000,0.000000000,58004.273437500,0.000000000,0.000000000,-15.541137695,-105.512733459,0.000000000,-0.084000528,-16.815948486
1747312816.345407,19.076000000,0.000000000,58004.273437500,0.000000000,0.000000000,-15.541137695,-105.512916565,0.000000000,-0.084000528,-16.815948486
1747312816.347800,19.078000000,0.000000000,58004.273437500,0.000000000,0.000000000,-15.541137695,-105.513099670,0.000000000,-0.084000528,-16.815948486
1747312816.350212,19.081000000,0.000000000,58004.273437500,0.000000000,0.000000000,-15.541137695,-105.513282776,0.000000000,-0.084000528,-16.815948486
1747312816.352634,19.083000000,0.000000000,58004.273437500,0.000000000,0.000000000,-15.541137695,-105.513465881,0.000000000,-0.084000528,-16.815948486
1747312816.355047,19.085000000,0.000000000,58004.273437500,0.000000000,0.000000000,-15.541137695,-105.513648987,0.000000000,-0.084000528,-16.815948486
1747312816.357531,19.088000000,0.000000000,58004.273437500,0.000000000,0.000000000,-15.541137695,-105.513847351,0.000000000,-0.084000528,-16.815948486
1747312816.359963,19.090000000,0.000000000,58004.273437500,0.000000000,0.000000000,-15.541137695,-105.514030457,0.000000000,-0.084000528,-16.815948486
1747312816.362409,19.093000000,0.000000000,58004.273437500,0.000000000,0.000000000,-15.541137695,-105.514213562,0.000000000,-0.084000528,-16.815948486
1747312816.364890,19.095000000,0.000000000,58004.273437500,0.000000000,0.000000000,-15.541137695,-105.514396667,0.000000000,-0.084000528,-16.815948486
1747312816.367311,19.098000000,0.000000000,58004.273437500,0.000000000,0.000000000,-15.541137695,-105.514595032,0.000000000,-0.084000528,-16.815948486
1747312816.369709,19.100000000,0.000000000,58004.273437500,0.000000000,0.000000000,-15.541137695,-105.514778137,0.000000000,-0.084000528,-16.815948486
1747312816.372252,19.102000000,0.000000000,58004.273437500,0.000000000,0.000000000,-15.541137695,-105.514961243,0.000000000,-0.084000528,-16.815948486
1747312816.374719,19.105000000,0.000000000,58004.273437500,0.000000000,0.000000000,-15.541137695,-105.515159607,0.000000000,-0.084000528,-16.815948486
1747312816.377087,19.107000000,0.000000000,58004.273437500,0.000000000,0.000000000,-15.541137695,-105.515342712,0.000000000,-0.084000528,-16.815948486
1747312816.379556,19.110000000,0.000000000,58004.273437500,0.000000000,0.000000000,-15.541137695,-105.515525818,0.000000000,-0.084000528,-16.815948486
1747312816.381994,19.112000000,0.000000000,58004.273437500,0.000000000,0.000000000,-15.541137695,-105.515708923,0.000000000,-0.084000528,-16.815948486
1747312816.384416,19.115000000,0.000000000,58004.273437500,0.000000000,0.000000000,-15.541137695,-105.515892029,0.000000000,-0.084000528,-16.815948486
1747312816.386790,19.117000000,0.000000000,58004.273437500,0.000000000,0.000000000,-15.541137695,-105.516090393,0.000000000,-0.084000528,-16.815948486
1747312816.389167,19.119000000,0.000000000,58004.273437500,0.000000000,0.000000000,-15.541137695,-105.516258240,0.000000000,-0.084000528,-16.815948486
1747312816.391548,19.122000000,0.000000000,58004.273437500,0.000000000,0.000000000,-15.541137695,-105.516441345,0.000000000,-0.084000528,-16.815948486
1747312816.393925,19.124000000,0.000000000,58004.273437500,0.000000000,0.000000000,-15.541137695,-105.516624451,0.000000000,-0.084000528,-16.815948486
1747312816.396311,19.127000000,0.000000000,58004.273437500,0.000000000,0.000000000,-15.541137695,-105.516807556,0.000000000,-0.084000528,-16.815948486
1747312816.398713,19.129000000,0.000000000,58004.273437500,0.000000000,0.000000000,-15.541137695,-105.516990662,0.000000000,-0.084000528,-16.815948486
1747312816.401092,19.131000000,0.000000000,58004.273437500,0.000000000,0.000000000,-15.541137695,-105.517173767,0.000000000,-0.084000528,-16.815948486
1747312816.403557,19.134000000,0.000000000,58004.273437500,0.000000000,0.000000000,-15.541137695,-105.517356873,0.000000000,-0.084000528,-16.815948486
1747312816.405993,19.136000000,0.000000000,58004.273437500,0.000000000,0.000000000,-15.541137695,-105.517555237,0.000000000,-0.084000528,-16.815948486
1747312816.408408,19.139000000,0.000000000,58004.273437500,0.000000000,0.000000000,-15.541137695,-105.517738342,0.000000000,-0.084000528,-16.815948486
1747312816.410791,19.141000000,0.000000000,58004.273437500,0.000000000,0.000000000,-15.541137695,-105.517921448,0.000000000,-0.084000528,-16.815948486
1747312816.413208,19.143000000,0.000000000,58004.273437500,0.000000000,0.000000000,-15.541137695,-105.518104553,0.000000000,-0.084000528,-16.815948486
1747312816.415633,19.146000000,0.000000000,58004.273437500,0.000000000,0.000000000,-15.541137695,-105.518287659,0.000000000,-0.084000528,-16.815948486
1747312816.418016,19.148000000,0.000000000,58004.273437500,0.000000000,0.000000000,-15.541137695,-105.518470764,0.000000000,-0.084000528,-16.815948486
1747312816.420433,19.151000000,0.000000000,58004.273437500,0.000000000,0.000000000,-15.541137695,-105.518653870,0.000000000,-0.084000528,-16.815948486
1747312816.422823,19.153000000,0.000000000,58004.273437500,0.000000000,0.000000000,-15.541137695,-105.518836975,0.000000000,-0.084000528,-16.815948486
1747312816.425379,19.156000000,0.000000000,58004.273437500,0.000000000,0.000000000,-15.541137695,-105.519020081,0.000000000,-0.084000528,-16.815948486
1747312816.427710,19.158000000,0.000000000,58004.273437500,0.000000000,0.000000000,-15.541137695,-105.519218445,0.000000000,-0.084000528,-16.815948486
1747312816.430094,19.160000000,0.000000000,58004.273437500,0.000000000,0.000000000,-15.541137695,-105.519401550,0.000000000,-0.084000528,-16.815948486
1747312816.432462,19.163000000,0.000000000,58004.273437500,0.000000000,0.000000000,-15.541137695,-105.519584656,0.000000000,-0.084000528,-16.815948486
1747312816.434832,19.165000000,0.000000000,58004.273437500,0.000000000,0.000000000,-15.541137695,-105.519767761,0.000000000,-0.084000528,-16.815948486
1747312816.437211,19.168000000,0.000000000,58004.273437500,0.000000000,0.000000000,-15.541137695,-105.519935608,0.000000000,-0.084000528,-16.815948486
1747312816.439613,19.170000000,0.000000000,58004.273437500,0.000000000,0.000000000,-15.541137695,-105.520118713,0.000000000,-0.084000528,-16.815948486
1747312816.442035,19.172000000,0.000000000,58004.273437500,0.000000000,0.000000000,-15.541137695,-105.520317078,0.000000000,-0.084000528,-16.815948486
1747312816.444459,19.175000000,0.000000000,58004.273437500,0.000000000,0.000000000,-15.541137695,-105.520500183,0.000000000,-0.084000528,-16.815948486
1747312816.446987,19.177000000,0.000000000,58004.273437500,0.000000000,0.000000000,-15.541137695,-105.520683289,0.000000000,-0.084000528,-16.815948486
1747312816.449465,19.180000000,0.000000000,58004.273437500,0.000000000,0.000000000,-15.541137695,-105.520866394,0.000000000,-0.084000528,-16.815948486
1747312816.451936,19.182000000,0.000000000,58004.273437500,0.000000000,0.000000000,-15.541137695,-105.521064758,0.000000000,-0.084000528,-16.815948486
1747312816.454438,19.185000000,0.000000000,58004.273437500,0.000000000,0.000000000,-15.541137695,-105.521247864,0.000000000,-0.084000528,-16.815948486
1747312816.456819,19.187000000,0.000000000,58004.273437500,0.000000000,0.000000000,-15.541137695,-105.521446228,0.000000000,-0.084000528,-16.815948486
1747312816.459182,19.189000000,0.000000000,58004.273437500,0.000000000,0.000000000,-15.541137695,-105.521629333,0.000000000,-0.084000528,-16.815948486
1747312816.461520,19.192000000,0.000000000,58004.273437500,0.000000000,0.000000000,-15.541137695,-105.521812439,0.000000000,-0.084000528,-16.815948486
1747312816.463875,19.194000000,0.000000000,58004.273437500,0.000000000,0.000000000,-15.541137695,-105.521980286,0.000000000,-0.084000528,-16.815948486
1747312816.466213,19.197000000,0.000000000,58004.273437500,0.000000000,0.000000000,-15.541137695,-105.522163391,0.000000000,-0.084000528,-16.815948486
1747312816.468583,19.199000000,0.000000000,58004.273437500,0.000000000,0.000000000,-15.541137695,-105.522346497,0.000000000,-0.084000528,-16.815948486
1747312816.470976,19.201000000,0.000000000,58004.273437500,0.000000000,0.000000000,-15.541137695,-105.522529602,0.000000000,-0.084000528,-16.815948486
1747312816.473469,19.204000000,0.000000000,58004.273437500,0.000000000,0.000000000,-15.541137695,-105.522712708,0.000000000,-0.084000528,-16.815948486
1747312816.475831,19.206000000,0.000000000,58004.273437500,0.000000000,0.000000000,-15.541137695,-105.522895813,0.000000000,-0.084000528,-16.815948486
1747312816.478249,19.209000000,0.000000000,58004.273437500,0.000000000,0.000000000,-15.541137695,-105.523078918,0.000000000,-0.084000528,-16.815948486
1747312816.480646,19.211000000,0.000000000,58004.273437500,0.000000000,0.000000000,-15.541137695,-105.523262024,0.000000000,-0.084000528,-16.815948486
1747312816.482989,19.213000000,0.000000000,58004.273437500,0.000000000,0.000000000,-15.541137695,-105.523445129,0.000000000,-0.084000528,-16.815948486
1747312816.485333,19.216000000,0.000000000,58004.273437500,0.000000000,0.000000000,-15.541137695,-105.523628235,0.000000000,-0.084000528,-16.815948486
1747312816.487685,19.218000000,0.000000000,58004.273437500,0.000000000,0.000000000,-15.541137695,-105.523811340,0.000000000,-0.084000528,-16.815948486
1747312816.490029,19.220000000,0.000000000,58004.273437500,0.000000000,0.000000000,-15.541137695,-105.523994446,0.000000000,-0.084000528,-16.815948486
1747312816.492382,19.223000000,0.000000000,58004.273437500,0.000000000,0.000000000,-15.541137695,-105.524162292,0.000000000,-0.084000528,-16.815948486
1747312816.494742,19.225000000,0.000000000,58004.273437500,0.000000000,0.000000000,-15.541137695,-105.524345398,0.000000000,-0.084000528,-16.815948486
1747312816.497087,19.227000000,0.000000000,58004.273437500,0.000000000,0.000000000,-15.541137695,-105.524528503,0.000000000,-0.084000528,-16.815948486
1747312816.499424,19.230000000,0.000000000,58004.273437500,0.000000000,0.000000000,-15.541137695,-105.524711609,0.000000000,-0.084000528,-16.815948486
1747312816.501769,19.232000000,0.000000000,58004.273437500,0.000000000,0.000000000,-15.541137695,-105.524879456,0.000000000,-0.084000528,-16.815948486
1747312816.504112,19.234000000,0.000000000,58004.273437500,0.000000000,0.000000000,-15.541137695,-105.525062561,0.000000000,-0.084000528,-16.815948486
1747312816.506480,19.237000000,0.000000000,58004.273437500,0.000000000,0.000000000,-15.541137695,-105.525245667,0.000000000,-0.084000528,-16.815948486
1747312816.508838,19.239000000,0.000000000,58004.273437500,0.000000000,0.000000000,-15.541137695,-105.525428772,0.000000000,-0.084000528,-16.815948486
1747312816.511223,19.242000000,0.000000000,58004.273437500,0.000000000,0.000000000,-15.541137695,-105.525611877,0.000000000,-0.084000528,-16.815948486
1747312816.513587,19.244000000,0.000000000,58004.273437500,0.000000000,0.000000000,-15.541137695,-105.525794983,0.000000000,-0.084000528,-16.815948486
1747312816.515993,19.246000000,0.000000000,58004.273437500,0.000000000,0.000000000,-15.541137695,-105.525978088,0.000000000,-0.084000528,-16.815948486
1747312816.518392,19.249000000,0.000000000,58004.273437500,0.000000000,0.000000000,-15.541137695,-105.526161194,0.000000000,-0.084000528,-16.815948486
1747312816.520791,19.251000000,0.000000000,58004.273437500,0.000000000,0.000000000,-15.541137695,-105.526344299,0.000000000,-0.084000528,-16.815948486
1747312816.523203,19.253000000,0.000000000,58004.273437500,0.000000000,0.000000000,-15.541137695,-105.526527405,0.000000000,-0.084000528,-16.815948486
1747312816.525784,19.256000000,0.000000000,58004.273437500,0.000000000,0.000000000,-15.541137695,-105.526710510,0.000000000,-0.084000528,-16.815948486
1747312816.528172,19.258000000,0.000000000,58004.273437500,0.000000000,0.000000000,-15.541137695,-105.526893616,0.000000000,-0.084000528,-16.815948486
1747312816.530519,19.261000000,0.000000000,58004.273437500,0.000000000,0.000000000,-15.541137695,-105.527076721,0.000000000,-0.084000528,-16.815948486
1747312816.532875,19.263000000,0.000000000,58004.273437500,0.000000000,0.000000000,-15.541137695,-105.527259827,0.000000000,-0.084000528,-16.815948486
1747312816.535215,19.266000000,0.000000000,58004.273437500,0.000000000,0.000000000,-15.541137695,-105.527442932,0.000000000,-0.084000528,-16.815948486
1747312816.537544,19.268000000,0.000000000,58004.273437500,0.000000000,0.000000000,-15.541137695,-105.527626038,0.000000000,-0.084000528,-16.815948486
1747312816.539893,19.270000000,0.000000000,58004.273437500,0.000000000,0.000000000,-15.541137695,-105.527809143,0.000000000,-0.084000528,-16.815948486
1747312816.542264,19.273000000,0.000000000,58004.273437500,0.000000000,0.000000000,-15.541137695,-105.527976990,0.000000000,-0.084000528,-16.815948486
1747312816.544592,19.275000000,0.000000000,58004.273437500,0.000000000,0.000000000,-15.541137695,-105.528160095,0.000000000,-0.084000528,-16.815948486
1747312816.546966,19.277000000,0.000000000,58004.273437500,0.000000000,0.000000000,-15.541137695,-105.528343201,0.000000000,-0.084000528,-16.815948486
1747312816.549312,19.280000000,0.000000000,58004.273437500,0.000000000,0.000000000,-15.541137695,-105.528526306,0.000000000,-0.084000528,-16.815948486
1747312816.551680,19.282000000,0.000000000,58004.273437500,0.000000000,0.000000000,-15.541137695,-105.528709412,0.000000000,-0.084000528,-16.815948486
1747312816.554068,19.284000000,0.000000000,58004.273437500,0.000000000,0.000000000,-15.541137695,-105.528892517,0.000000000,-0.084000528,-16.815948486
1747312816.556446,19.287000000,0.000000000,58004.273437500,0.000000000,0.000000000,-15.541137695,-105.529075623,0.000000000,-0.084000528,-16.815948486
1747312816.558791,19.289000000,0.000000000,58004.273437500,0.000000000,0.000000000,-15.541137695,-105.529243469,0.000000000,-0.084000528,-16.815948486
1747312816.561163,19.291000000,0.000000000,58004.273437500,0.000000000,0.000000000,-15.541137695,-105.529426575,0.000000000,-0.084000528,-16.815948486
1747312816.563539,19.294000000,0.000000000,58004.273437500,0.000000000,0.000000000,-15.541137695,-105.529609680,0.000000000,-0.084000528,-16.815948486
1747312816.565893,19.296000000,0.000000000,58004.273437500,0.000000000,0.000000000,-15.541137695,-105.529792786,0.000000000,-0.084000528,-16.815948486
1747312816.568284,19.299000000,0.000000000,58004.273437500,0.000000000,0.000000000,-15.541137695,-105.529975891,0.000000000,-0.084000528,-16.815948486
1747312816.570651,19.301000000,0.000000000,58004.273437500,0.000000000,0.000000000,-15.541137695,-105.530158997,0.000000000,-0.084000528,-16.815948486
1747312816.573021,19.303000000,0.000000000,58004.273437500,0.000000000,0.000000000,-15.541137695,-105.530342102,0.000000000,-0.084000528,-16.815948486
1747312816.575399,19.306000000,0.000000000,58004.273437500,0.000000000,0.000000000,-15.541137695,-105.530525208,0.000000000,-0.084000528,-16.815948486
1747312816.577905,19.308000000,0.000000000,58004.273437500,0.000000000,0.000000000,-15.541137695,-105.530708313,0.000000000,-0.084000528,-16.815948486
1747312816.580249,19.311000000,0.000000000,58004.273437500,0.000000000,0.000000000,-15.541137695,-105.530891418,0.000000000,-0.084000528,-16.815948486
1747312816.582613,19.313000000,0.000000000,58004.273437500,0.000000000,0.000000000,-15.541137695,-105.531074524,0.000000000,-0.084000528,-16.815948486
1747312816.584994,19.315000000,0.000000000,58004.273437500,0.000000000,0.000000000,-15.541137695,-105.531257629,0.000000000,-0.084000528,-16.815948486
1747312816.587384,19.318000000,0.000000000,58004.273437500,0.000000000,0.000000000,-15.541137695,-105.531440735,0.000000000,-0.084000528,-16.815948486
1747312816.589755,19.320000000,0.000000000,58004.273437500,0.000000000,0.000000000,-15.541137695,-105.531623840,0.000000000,-0.084000528,-16.815948486
1747312816.592188,19.322000000,0.000000000,58004.273437500,0.000000000,0.000000000,-15.541137695,-105.531791687,0.000000000,-0.084000528,-16.815948486
1747312816.594558,19.325000000,0.000000000,58004.273437500,0.000000000,0.000000000,-15.541137695,-105.531990051,0.000000000,-0.084000528,-16.815948486
1747312816.596902,19.327000000,0.000000000,58004.273437500,0.000000000,0.000000000,-15.541137695,-105.532173157,0.000000000,-0.084000528,-16.815948486
1747312816.599287,19.330000000,0.000000000,58004.273437500,0.000000000,0.000000000,-15.541137695,-105.532341003,0.000000000,-0.084000528,-16.815948486
1747312816.601678,19.332000000,0.000000000,58004.273437500,0.000000000,0.000000000,-15.541137695,-105.532524109,0.000000000,-0.084000528,-16.815948486
1747312816.604077,19.334000000,0.000000000,58004.273437500,0.000000000,0.000000000,-15.541137695,-105.532707214,0.000000000,-0.084000528,-16.815948486
1747312816.606451,19.337000000,0.000000000,58004.273437500,0.000000000,0.000000000,-15.541137695,-105.532890320,0.000000000,-0.084000528,-16.815948486
1747312816.608835,19.339000000,0.000000000,58004.273437500,0.000000000,0.000000000,-15.541137695,-105.533073425,0.000000000,-0.084000528,-16.815948486
1747312816.611237,19.342000000,0.000000000,58004.273437500,0.000000000,0.000000000,-15.541137695,-105.533256531,0.000000000,-0.084000528,-16.815948486
1747312816.613692,19.344000000,0.000000000,58004.273437500,0.000000000,0.000000000,-15.541137695,-105.533439636,0.000000000,-0.084000528,-16.815948486
1747312816.616091,19.346000000,0.000000000,58004.273437500,0.000000000,0.000000000,-15.541137695,-105.533622742,0.000000000,-0.084000528,-16.815948486
1747312816.618463,19.349000000,0.000000000,58004.273437500,0.000000000,0.000000000,-15.541137695,-105.533805847,0.000000000,-0.084000528,-16.815948486
1747312816.620834,19.351000000,0.000000000,58004.273437500,0.000000000,0.000000000,-15.541137695,-105.533988953,0.000000000,-0.084000528,-16.815948486
1747312816.623227,19.354000000,0.000000000,58004.273437500,0.000000000,0.000000000,-15.541137695,-105.534172058,0.000000000,-0.084000528,-16.815948486
1747312816.625611,19.356000000,0.000000000,58004.273437500,0.000000000,0.000000000,-15.541137695,-105.534355164,0.000000000,-0.084000528,-16.815948486
1747312816.627984,19.358000000,0.000000000,58004.273437500,0.000000000,0.000000000,-15.541137695,-105.534538269,0.000000000,-0.084000528,-16.815948486
1747312816.630369,19.361000000,0.000000000,58004.273437500,0.000000000,0.000000000,-15.541137695,-105.534721375,0.000000000,-0.084000528,-16.815948486
1747312816.632730,19.363000000,0.000000000,58004.273437500,0.000000000,0.000000000,-15.541137695,-105.534904480,0.000000000,-0.084000528,-16.815948486
1747312816.635109,19.365000000,0.000000000,58004.273437500,0.000000000,0.000000000,-15.541137695,-105.535087585,0.000000000,-0.084000528,-16.815948486
1747312816.637479,19.368000000,0.000000000,58004.273437500,0.000000000,0.000000000,-15.541137695,-105.535270691,0.000000000,-0.084000528,-16.815948486
1747312816.639868,19.370000000,0.000000000,58004.273437500,0.000000000,0.000000000,-15.541137695,-105.535453796,0.000000000,-0.084000528,-16.815948486
1747312816.642240,19.373000000,0.000000000,58004.273437500,0.000000000,0.000000000,-15.541137695,-105.535636902,0.000000000,-0.084000528,-16.815948486
1747312816.644598,19.375000000,0.000000000,58004.273437500,0.000000000,0.000000000,-15.541137695,-105.535820007,0.000000000,-0.084000528,-16.815948486
1747312816.646985,19.377000000,0.000000000,58004.273437500,0.000000000,0.000000000,-15.541137695,-105.536003113,0.000000000,-0.084000528,-16.815948486
1747312816.649366,19.380000000,0.000000000,58004.273437500,0.000000000,0.000000000,-15.541137695,-105.536186218,0.000000000,-0.084000528,-16.815948486
1747312816.651725,19.382000000,0.000000000,58004.273437500,0.000000000,0.000000000,-15.541137695,-105.536354065,0.000000000,-0.084000528,-16.815948486
1747312816.654090,19.384000000,0.000000000,58004.273437500,0.000000000,0.000000000,-15.541137695,-105.536537170,0.000000000,-0.084000528,-16.815948486
1747312816.656473,19.387000000,0.000000000,58004.273437500,0.000000000,0.000000000,-15.541137695,-105.536720276,0.000000000,-0.084000528,-16.815948486
1747312816.658858,19.389000000,0.000000000,58004.273437500,0.000000000,0.000000000,-15.541137695,-105.536903381,0.000000000,-0.084000528,-16.815948486
1747312816.661235,19.392000000,0.000000000,58004.273437500,0.000000000,0.000000000,-15.541137695,-105.537086487,0.000000000,-0.084000528,-16.815948486
1747312816.663622,19.394000000,0.000000000,58004.273437500,0.000000000,0.000000000,-15.541137695,-105.537269592,0.000000000,-0.084000528,-16.815948486
1747312816.666013,19.396000000,0.000000000,58004.273437500,0.000000000,0.000000000,-15.541137695,-105.537452698,0.000000000,-0.084000528,-16.815948486
1747312816.668425,19.399000000,0.000000000,58004.273437500,0.000000000,0.000000000,-15.541137695,-105.537635803,0.000000000,-0.084000528,-16.815948486
1747312816.670802,19.401000000,0.000000000,58004.273437500,0.000000000,0.000000000,-15.541137695,-105.537818909,0.000000000,-0.084000528,-16.815948486
1747312816.673179,19.403000000,0.000000000,58004.273437500,0.000000000,0.000000000,-15.541137695,-105.538002014,0.000000000,-0.084000528,-16.815948486
1747312816.675576,19.406000000,0.000000000,58004.273437500,0.000000000,0.000000000,-15.541137695,-105.538185120,0.000000000,-0.084000528,-16.815948486
1747312816.677957,19.408000000,0.000000000,58004.273437500,0.000000000,0.000000000,-15.541137695,-105.538368225,0.000000000,-0.084000528,-16.815948486
1747312816.680344,19.411000000,0.000000000,58004.273437500,0.000000000,0.000000000,-15.541137695,-105.538551331,0.000000000,-0.084000528,-16.815948486
1747312816.682711,19.413000000,0.000000000,58004.273437500,0.000000000,0.000000000,-15.541137695,-105.538734436,0.000000000,-0.084000528,-16.815948486
1747312816.685073,19.415000000,0.000000000,58004.273437500,0.000000000,0.000000000,-15.541137695,-105.538917542,0.000000000,-0.084000528,-16.815948486
1747312816.687454,19.418000000,0.000000000,58004.273437500,0.000000000,0.000000000,-15.541137695,-105.539085388,0.000000000,-0.084000528,-16.815948486
1747312816.689839,19.420000000,0.000000000,58004.273437500,0.000000000,0.000000000,-15.541137695,-105.539268494,0.000000000,-0.084000528,-16.815948486
1747312816.692257,19.423000000,0.000000000,58004.273437500,0.000000000,0.000000000,-15.541137695,-105.539451599,0.000000000,-0.084000528,-16.815948486
1747312816.694627,19.425000000,0.000000000,58004.273437500,0.000000000,0.000000000,-15.541137695,-105.539634705,0.000000000,-0.084000528,-16.815948486
1747312816.697025,19.427000000,0.000000000,58004.273437500,0.000000000,0.000000000,-15.541137695,-105.539817810,0.000000000,-0.084000528,-16.815948486
1747312816.699393,19.430000000,0.000000000,58004.273437500,0.000000000,0.000000000,-15.541137695,-105.540000916,0.000000000,-0.084000528,-16.815948486
1747312816.701769,19.432000000,0.000000000,58004.273437500,0.000000000,0.000000000,-15.541137695,-105.540184021,0.000000000,-0.084000528,-16.815948486
1747312816.704217,19.434000000,0.000000000,58004.273437500,0.000000000,0.000000000,-15.541137695,-105.540367126,0.000000000,-0.084000528,-16.815948486
1747312816.706659,19.437000000,0.000000000,58004.273437500,0.000000000,0.000000000,-15.541137695,-105.540550232,0.000000000,-0.084000528,-16.815948486
1747312816.709038,19.439000000,0.000000000,58004.273437500,0.000000000,0.000000000,-15.541137695,-105.540733337,0.000000000,-0.084000528,-16.815948486
1747312816.711431,19.442000000,0.000000000,58004.273437500,0.000000000,0.000000000,-15.541137695,-105.540916443,0.000000000,-0.084000528,-16.815948486
1747312816.713930,19.444000000,0.000000000,58004.273437500,0.000000000,0.000000000,-15.541137695,-105.541099548,0.000000000,-0.084000528,-16.815948486
1747312816.716350,19.447000000,0.000000000,58004.273437500,0.000000000,0.000000000,-15.541137695,-105.541297913,0.000000000,-0.084000528,-16.815948486
1747312816.718807,19.449000000,0.000000000,58004.273437500,0.000000000,0.000000000,-15.541137695,-105.541481018,0.000000000,-0.084000528,-16.815948486
1747312816.721230,19.452000000,0.000000000,58004.273437500,0.000000000,0.000000000,-15.541137695,-105.541664124,0.000000000,-0.084000528,-16.815948486
1747312816.723618,19.454000000,0.000000000,58004.273437500,0.000000000,0.000000000,-15.541137695,-105.541847229,0.000000000,-0.084000528,-16.815948486
1747312816.726012,19.456000000,0.000000000,58004.273437500,0.000000000,0.000000000,-15.541137695,-105.542030334,0.000000000,-0.084000528,-16.815948486
1747312816.728455,19.459000000,0.000000000,58004.273437500,0.000000000,0.000000000,-15.541137695,-105.542228699,0.000000000,-0.084000528,-16.815948486
1747312816.730917,19.461000000,0.000000000,58004.273437500,0.000000000,0.000000000,-15.541137695,-105.542411804,0.000000000,-0.084000528,-16.815948486
1747312816.733360,19.464000000,0.000000000,58004.273437500,0.000000000,0.000000000,-15.541137695,-105.542594910,0.000000000,-0.084000528,-16.815948486
1747312816.735751,19.466000000,0.000000000,58004.273437500,0.000000000,0.000000000,-15.541137695,-105.542778015,0.000000000,-0.084000528,-16.815948486
1747312816.738140,19.468000000,0.000000000,58004.273437500,0.000000000,0.000000000,-15.541137695,-105.542961121,0.000000000,-0.084000528,-16.815948486
1747312816.740520,19.471000000,0.000000000,58004.273437500,0.000000000,0.000000000,-15.541137695,-105.543144226,0.000000000,-0.084000528,-16.815948486
1747312816.742952,19.473000000,0.000000000,58004.273437500,0.000000000,0.000000000,-15.541137695,-105.543327332,0.000000000,-0.084000528,-16.815948486
1747312816.745335,19.476000000,0.000000000,58004.273437500,0.000000000,0.000000000,-15.541137695,-105.543510437,0.000000000,-0.084000528,-16.815948486
1747312816.747715,19.478000000,0.000000000,58004.273437500,0.000000000,0.000000000,-15.541137695,-105.543693542,0.000000000,-0.084000528,-16.815948486
1747312816.750101,19.480000000,0.000000000,58004.273437500,0.000000000,0.000000000,-15.541137695,-105.543876648,0.000000000,-0.084000528,-16.815948486
1747312816.752496,19.483000000,0.000000000,58004.273437500,0.000000000,0.000000000,-15.541137695,-105.544059753,0.000000000,-0.084000528,-16.815948486
1747312816.754886,19.485000000,0.000000000,58004.273437500,0.000000000,0.000000000,-15.541137695,-105.544242859,0.000000000,-0.084000528,-16.815948486
1747312816.757280,19.488000000,0.000000000,58004.273437500,0.000000000,0.000000000,-15.541137695,-105.544425964,0.000000000,-0.084000528,-16.815948486
1747312816.759656,19.490000000,0.000000000,58004.273437500,0.000000000,0.000000000,-15.541137695,-105.544609070,0.000000000,-0.084000528,-16.815948486
1747312816.762033,19.492000000,0.000000000,58004.273437500,0.000000000,0.000000000,-15.541137695,-105.544792175,0.000000000,-0.084000528,-16.815948486
1747312816.764450,19.495000000,0.000000000,58004.273437500,0.000000000,0.000000000,-15.541137695,-105.544975281,0.000000000,-0.084000528,-16.815948486
1747312816.766821,19.497000000,0.000000000,58004.273437500,0.000000000,0.000000000,-15.541137695,-105.545158386,0.000000000,-0.084000528,-16.815948486
1747312816.769311,19.500000000,0.000000000,58004.273437500,0.000000000,0.000000000,-15.541137695,-105.545341492,0.000000000,-0.084000528,-16.815948486
1747312816.771743,19.502000000,0.000000000,58004.273437500,0.000000000,0.000000000,-15.541137695,-105.545539856,0.000000000,-0.084000528,-16.815948486
1747312816.774234,19.505000000,0.000000000,58004.273437500,0.000000000,0.000000000,-15.541137695,-105.545722961,0.000000000,-0.084000528,-16.815948486
1747312816.776660,19.507000000,0.000000000,58004.273437500,0.000000000,0.000000000,-15.541137695,-105.545906067,0.000000000,-0.084000528,-16.815948486
1747312816.779088,19.509000000,0.000000000,58004.273437500,0.000000000,0.000000000,-15.541137695,-105.546104431,0.000000000,-0.084000528,-16.815948486
1747312816.781479,19.512000000,0.000000000,58004.273437500,0.000000000,0.000000000,-15.541137695,-105.546287537,0.000000000,-0.084000528,-16.815948486
1747312816.783841,19.514000000,0.000000000,58004.273437500,0.000000000,0.000000000,-15.541137695,-105.546470642,0.000000000,-0.084000528,-16.815948486
1747312816.786221,19.517000000,0.000000000,58004.273437500,0.000000000,0.000000000,-15.541137695,-105.546653748,0.000000000,-0.084000528,-16.815948486
1747312816.788615,19.519000000,0.000000000,58004.273437500,0.000000000,0.000000000,-15.541137695,-105.546821594,0.000000000,-0.084000528,-16.815948486
1747312816.791100,19.521000000,0.000000000,58004.273437500,0.000000000,0.000000000,-15.541137695,-105.547004700,0.000000000,-0.084000528,-16.815948486
1747312816.793522,19.524000000,0.000000000,58004.273437500,0.000000000,0.000000000,-15.541137695,-105.547203064,0.000000000,-0.084000528,-16.815948486
1747312816.795997,19.526000000,0.000000000,58004.273437500,0.000000000,0.000000000,-15.541137695,-105.547386169,0.000000000,-0.084000528,-16.815948486
1747312816.798551,19.529000000,0.000000000,58004.273437500,0.000000000,0.000000000,-15.541137695,-105.547569275,0.000000000,-0.084000528,-16.815948486
1747312816.801096,19.531000000,0.000000000,58004.273437500,0.000000000,0.000000000,-15.541137695,-105.547767639,0.000000000,-0.084000528,-16.815948486
1747312816.803545,19.534000000,0.000000000,58004.273437500,0.000000000,0.000000000,-15.541137695,-105.547966003,0.000000000,-0.084000528,-16.815948486
1747312816.806018,19.536000000,0.000000000,58004.273437500,0.000000000,0.000000000,-15.541137695,-105.548149109,0.000000000,-0.084000528,-16.815948486
1747312816.808475,19.539000000,0.000000000,58004.273437500,0.000000000,0.000000000,-15.541137695,-105.548332214,0.000000000,-0.084000528,-16.815948486
1747312816.810922,19.541000000,0.000000000,58004.273437500,0.000000000,0.000000000,-15.541137695,-105.548530579,0.000000000,-0.084000528,-16.815948486
1747312816.813452,19.544000000,0.000000000,58004.273437500,0.000000000,0.000000000,-15.541137695,-105.548713684,0.000000000,-0.084000528,-16.815948486
1747312816.815907,19.546000000,0.000000000,58004.273437500,0.000000000,0.000000000,-15.541137695,-105.548896790,0.000000000,-0.084000528,-16.815948486
1747312816.818268,19.549000000,0.000000000,58004.273437500,0.000000000,0.000000000,-15.541137695,-105.549095154,0.000000000,-0.084000528,-16.815948486
1747312816.820645,19.551000000,0.000000000,58004.273437500,0.000000000,0.000000000,-15.541137695,-105.549278259,0.000000000,-0.084000528,-16.815948486
1747312816.823030,19.553000000,0.000000000,58004.273437500,0.000000000,0.000000000,-15.541137695,-105.549461365,0.000000000,-0.084000528,-16.815948486
1747312816.825459,19.556000000,0.000000000,58004.273437500,0.000000000,0.000000000,-15.541137695,-105.549644470,0.000000000,-0.084000528,-16.815948486
1747312816.827859,19.558000000,0.000000000,58004.273437500,0.000000000,0.000000000,-15.541137695,-105.549827576,0.000000000,-0.084000528,-16.815948486
1747312816.830303,19.561000000,0.000000000,58004.273437500,0.000000000,0.000000000,-15.541137695,-105.550010681,0.000000000,-0.084000528,-16.815948486
1747312816.832716,19.563000000,0.000000000,58004.273437500,0.000000000,0.000000000,-15.541137695,-105.550193787,0.000000000,-0.084000528,-16.815948486
1747312816.835102,19.565000000,0.000000000,58004.273437500,0.000000000,0.000000000,-15.541137695,-105.550376892,0.000000000,-0.084000528,-16.815948486
1747312816.837468,19.568000000,0.000000000,58004.273437500,0.000000000,0.000000000,-15.541137695,-105.550559998,0.000000000,-0.084000528,-16.815948486
1747312816.839892,19.570000000,0.000000000,58004.273437500,0.000000000,0.000000000,-15.541137695,-105.550743103,0.000000000,-0.084000528,-16.815948486
1747312816.842238,19.573000000,0.000000000,58004.273437500,0.000000000,0.000000000,-15.541137695,-105.550926208,0.000000000,-0.084000528,-16.815948486
1747312816.844639,19.575000000,0.000000000,58004.273437500,0.000000000,0.000000000,-15.541137695,-105.551109314,0.000000000,-0.084000528,-16.815948486
1747312816.846986,19.577000000,0.000000000,58004.273437500,0.000000000,0.000000000,-15.541137695,-105.551292419,0.000000000,-0.084000528,-16.815948486
1747312816.849348,19.580000000,0.000000000,58004.273437500,0.000000000,0.000000000,-15.541137695,-105.551475525,0.000000000,-0.084000528,-16.815948486
1747312816.851769,19.582000000,0.000000000,58004.273437500,0.000000000,0.000000000,-15.541137695,-105.551658630,0.000000000,-0.084000528,-16.815948486
1747312816.854120,19.584000000,0.000000000,58004.273437500,0.000000000,0.000000000,-15.541137695,-105.551841736,0.000000000,-0.084000528,-16.815948486
1747312816.856513,19.587000000,0.000000000,58004.273437500,0.000000000,0.000000000,-15.541137695,-105.552024841,0.000000000,-0.084000528,-16.815948486
1747312816.858889,19.589000000,0.000000000,58004.273437500,0.000000000,0.000000000,-15.541137695,-105.552192688,0.000000000,-0.084000528,-16.815948486
1747312816.861263,19.592000000,0.000000000,58004.273437500,0.000000000,0.000000000,-15.541137695,-105.552375793,0.000000000,-0.084000528,-16.815948486
1747312816.863651,19.594000000,0.000000000,58004.273437500,0.000000000,0.000000000,-15.541137695,-105.552558899,0.000000000,-0.084000528,-16.815948486
1747312816.866034,19.596000000,0.000000000,58004.273437500,0.000000000,0.000000000,-15.541137695,-105.552742004,0.000000000,-0.084000528,-16.815948486
1747312816.868420,19.599000000,0.000000000,58004.273437500,0.000000000,0.000000000,-15.541137695,-105.552925110,0.000000000,-0.084000528,-16.815948486
1747312816.870818,19.601000000,0.000000000,58004.273437500,0.000000000,0.000000000,-15.541137695,-105.553108215,0.000000000,-0.084000528,-16.815948486
1747312816.873213,19.603000000,0.000000000,58004.273437500,0.000000000,0.000000000,-15.541137695,-105.553291321,0.000000000,-0.084000528,-16.815948486
1747312816.875647,19.606000000,0.000000000,58004.273437500,0.000000000,0.000000000,-15.541137695,-105.553474426,0.000000000,-0.084000528,-16.815948486
1747312816.878003,19.608000000,0.000000000,58004.273437500,0.000000000,0.000000000,-15.541137695,-105.553657532,0.000000000,-0.084000528,-16.815948486
1747312816.880397,19.611000000,0.000000000,58004.273437500,0.000000000,0.000000000,-15.541137695,-105.553840637,0.000000000,-0.084000528,-16.815948486
1747312816.882771,19.613000000,0.000000000,58004.273437500,0.000000000,0.000000000,-15.541137695,-105.554023743,0.000000000,-0.084000528,-16.815948486
1747312816.885154,19.615000000,0.000000000,58004.273437500,0.000000000,0.000000000,-15.541137695,-105.554206848,0.000000000,-0.084000528,-16.815948486
1747312816.887526,19.618000000,0.000000000,58004.273437500,0.000000000,0.000000000,-15.541137695,-105.554389954,0.000000000,-0.084000528,-16.815948486
1747312816.889969,19.620000000,0.000000000,58004.273437500,0.000000000,0.000000000,-15.541137695,-105.554573059,0.000000000,-0.084000528,-16.815948486
1747312816.892378,19.623000000,0.000000000,58004.273437500,0.000000000,0.000000000,-15.541137695,-105.554756165,0.000000000,-0.084000528,-16.815948486
1747312816.894736,19.625000000,0.000000000,58004.273437500,0.000000000,0.000000000,-15.541137695,-105.554939270,0.000000000,-0.084000528,-16.815948486
1747312816.897119,19.627000000,0.000000000,58004.273437500,0.000000000,0.000000000,-15.541137695,-105.555122375,0.000000000,-0.084000528,-16.815948486
1747312816.899486,19.630000000,0.000000000,58004.273437500,0.000000000,0.000000000,-15.541137695,-105.555305481,0.000000000,-0.084000528,-16.815948486
1747312816.901918,19.632000000,0.000000000,58004.273437500,0.000000000,0.000000000,-15.541137695,-105.555488586,0.000000000,-0.084000528,-16.815948486
1747312816.904308,19.635000000,0.000000000,58004.273437500,0.000000000,0.000000000,-15.541137695,-105.555671692,0.000000000,-0.084000528,-16.815948486
1747312816.906702,19.637000000,0.000000000,58004.273437500,0.000000000,0.000000000,-15.541137695,-105.555854797,0.000000000,-0.084000528,-16.815948486
1747312816.909082,19.639000000,0.000000000,58004.273437500,0.000000000,0.000000000,-15.541137695,-105.556037903,0.000000000,-0.084000528,-16.815948486
1747312816.911471,19.642000000,0.000000000,58004.273437500,0.000000000,0.000000000,-15.541137695,-105.556221008,0.000000000,-0.084000528,-16.815948486
1747312816.913890,19.644000000,0.000000000,58004.273437500,0.000000000,0.000000000,-15.541137695,-105.556404114,0.000000000,-0.084000528,-16.815948486
1747312816.916265,19.647000000,0.000000000,58004.273437500,0.000000000,0.000000000,-15.541137695,-105.556587219,0.000000000,-0.084000528,-16.815948486
1747312816.918643,19.649000000,0.000000000,58004.273437500,0.000000000,0.000000000,-15.541137695,-105.556770325,0.000000000,-0.084000528,-16.815948486
1747312816.921084,19.651000000,0.000000000,58004.273437500,0.000000000,0.000000000,-15.541137695,-105.556953430,0.000000000,-0.084000528,-16.815948486
1747312816.923475,19.654000000,0.000000000,58004.273437500,0.000000000,0.000000000,-15.541137695,-105.557136536,0.000000000,-0.084000528,-16.815948486
1747312816.925873,19.656000000,0.000000000,58004.273437500,0.000000000,0.000000000,-15.541137695,-105.557319641,0.000000000,-0.084000528,-16.815948486
1747312816.928257,19.659000000,0.000000000,58004.273437500,0.000000000,0.000000000,-15.541137695,-105.557502747,0.000000000,-0.084000528,-16.815948486
1747312816.930631,19.661000000,0.000000000,58004.273437500,0.000000000,0.000000000,-15.541137695,-105.557685852,0.000000000,-0.084000528,-16.815948486
1747312816.933003,19.663000000,0.000000000,58004.273437500,0.000000000,0.000000000,-15.541137695,-105.557868958,0.000000000,-0.084000528,-16.815948486
1747312816.935375,19.666000000,0.000000000,58004.273437500,0.000000000,0.000000000,-15.541137695,-105.558052063,0.000000000,-0.084000528,-16.815948486
1747312816.937754,19.668000000,0.000000000,58004.273437500,0.000000000,0.000000000,-15.541137695,-105.558235168,0.000000000,-0.084000528,-16.815948486
1747312816.940144,19.670000000,0.000000000,58004.273437500,0.000000000,0.000000000,-15.541137695,-105.558418274,0.000000000,-0.084000528,-16.815948486
1747312816.942532,19.673000000,0.000000000,58004.273437500,0.000000000,0.000000000,-15.541137695,-105.558601379,0.000000000,-0.084000528,-16.815948486
1747312816.945066,19.675000000,0.000000000,58004.273437500,0.000000000,0.000000000,-15.541137695,-105.558784485,0.000000000,-0.084000528,-16.815948486
1747312816.947510,19.678000000,0.000000000,58004.273437500,0.000000000,0.000000000,-15.541137695,-105.558967590,0.000000000,-0.084000528,-16.815948486
1747312816.949975,19.680000000,0.000000000,58004.273437500,0.000000000,0.000000000,-15.541137695,-105.559165955,0.000000000,-0.084000528,-16.815948486
1747312816.952446,19.683000000,0.000000000,58004.273437500,0.000000000,0.000000000,-15.541137695,-105.559349060,0.000000000,-0.084000528,-16.815948486
1747312816.954924,19.685000000,0.000000000,58004.273437500,0.000000000,0.000000000,-15.541137695,-105.559547424,0.000000000,-0.084000528,-16.815948486
1747312816.957374,19.688000000,0.000000000,58004.273437500,0.000000000,0.000000000,-15.541137695,-105.559730530,0.000000000,-0.084000528,-16.815948486
1747312816.959851,19.690000000,0.000000000,58004.273437500,0.000000000,0.000000000,-15.541137695,-105.559913635,0.000000000,-0.084000528,-16.815948486
1747312816.962337,19.693000000,0.000000000,58004.273437500,0.000000000,0.000000000,-15.541137695,-105.560112000,0.000000000,-0.084000528,-16.815948486
1747312816.964760,19.695000000,0.000000000,58004.273437500,0.000000000,0.000000000,-15.541137695,-105.560295105,0.000000000,-0.084000528,-16.815948486
1747312816.967255,19.698000000,0.000000000,58004.273437500,0.000000000,0.000000000,-15.541137695,-105.560478210,0.000000000,-0.084000528,-16.815948486
1747312816.969708,19.700000000,0.000000000,58004.273437500,0.000000000,0.000000000,-15.541137695,-105.560676575,0.000000000,-0.084000528,-16.815948486
1747312816.972189,19.702000000,0.000000000,58004.273437500,0.000000000,0.000000000,-15.541137695,-105.560859680,0.000000000,-0.084000528,-16.815948486
1747312816.974625,19.705000000,0.000000000,58004.273437500,0.000000000,0.000000000,-15.541137695,-105.561058044,0.000000000,-0.084000528,-16.815948486
1747312816.977057,19.707000000,0.000000000,58004.273437500,0.000000000,0.000000000,-15.541137695,-105.561241150,0.000000000,-0.084000528,-16.815948486
1747312816.979470,19.710000000,0.000000000,58004.273437500,0.000000000,0.000000000,-15.541137695,-105.561424255,0.000000000,-0.084000528,-16.815948486
1747312816.981829,19.712000000,0.000000000,58004.273437500,0.000000000,0.000000000,-15.541137695,-105.561607361,0.000000000,-0.084000528,-16.815948486
1747312816.984213,19.715000000,0.000000000,58004.273437500,0.000000000,0.000000000,-15.541137695,-105.561790466,0.000000000,-0.084000528,-16.815948486
1747312816.986580,19.717000000,0.000000000,58004.273437500,0.000000000,0.000000000,-15.541137695,-105.561973572,0.000000000,-0.084000528,-16.815948486
1747312816.988944,19.719000000,0.000000000,58004.273437500,0.000000000,0.000000000,-15.541137695,-105.562156677,0.000000000,-0.084000528,-16.815948486
1747312816.991327,19.722000000,0.000000000,58004.273437500,0.000000000,0.000000000,-15.541137695,-105.562339783,0.000000000,-0.084000528,-16.815948486
1747312816.993702,19.724000000,0.000000000,58004.273437500,0.000000000,0.000000000,-15.541137695,-105.562522888,0.000000000,-0.084000528,-16.815948486
1747312816.996075,19.726000000,0.000000000,58004.273437500,0.000000000,0.000000000,-15.541137695,-105.562705994,0.000000000,-0.084000528,-16.815948486
1747312816.998452,19.729000000,0.000000000,58004.273437500,0.000000000,0.000000000,-15.541137695,-105.562873840,0.000000000,-0.084000528,-16.815948486
1747312817.000833,19.731000000,0.000000000,58004.273437500,0.000000000,0.000000000,-15.541137695,-105.563056946,0.000000000,-0.084000528,-16.815948486
1747312817.003218,19.734000000,0.000000000,58004.273437500,0.000000000,0.000000000,-15.541137695,-105.563240051,0.000000000,-0.084000528,-16.815948486
1747312817.005590,19.736000000,0.000000000,58004.273437500,0.000000000,0.000000000,-15.541137695,-105.563423157,0.000000000,-0.084000528,-16.815948486
1747312817.007966,19.738000000,0.000000000,58004.273437500,0.000000000,0.000000000,-15.541137695,-105.563606262,0.000000000,-0.084000528,-16.815948486
1747312817.010421,19.741000000,0.000000000,58004.273437500,0.000000000,0.000000000,-15.541137695,-105.563789368,0.000000000,-0.084000528,-16.815948486
1747312817.012834,19.743000000,0.000000000,58004.273437500,0.000000000,0.000000000,-15.541137695,-105.563972473,0.000000000,-0.084000528,-16.815948486
1747312817.015255,19.746000000,0.000000000,58004.273437500,0.000000000,0.000000000,-15.541137695,-105.564155579,0.000000000,-0.084000528,-16.815948486
1747312817.017678,19.748000000,0.000000000,58004.273437500,0.000000000,0.000000000,-15.541137695,-105.564353943,0.000000000,-0.084000528,-16.815948486
1747312817.020082,19.750000000,0.000000000,58004.273437500,0.000000000,0.000000000,-15.541137695,-105.564537048,0.000000000,-0.084000528,-16.815948486
1747312817.022457,19.753000000,0.000000000,58004.273437500,0.000000000,0.000000000,-15.541137695,-105.564720154,0.000000000,-0.084000528,-16.815948486
1747312817.024832,19.755000000,0.000000000,58004.273437500,0.000000000,0.000000000,-15.541137695,-105.564903259,0.000000000,-0.084000528,-16.815948486
1747312817.027213,19.758000000,0.000000000,58004.273437500,0.000000000,0.000000000,-15.541137695,-105.565086365,0.000000000,-0.084000528,-16.815948486
1747312817.029585,19.760000000,0.000000000,58004.273437500,0.000000000,0.000000000,-15.541137695,-105.565269470,0.000000000,-0.084000528,-16.815948486
1747312817.031960,19.762000000,0.000000000,58004.273437500,0.000000000,0.000000000,-15.541137695,-105.565452576,0.000000000,-0.084000528,-16.815948486
1747312817.034328,19.765000000,0.000000000,58004.273437500,0.000000000,0.000000000,-15.541137695,-105.565620422,0.000000000,-0.084000528,-16.815948486
1747312817.036711,19.767000000,0.000000000,58004.273437500,0.000000000,0.000000000,-15.541137695,-105.565803528,0.000000000,-0.084000528,-16.815948486
1747312817.039096,19.769000000,0.000000000,58004.273437500,0.000000000,0.000000000,-15.541137695,-105.565986633,0.000000000,-0.084000528,-16.815948486
1747312817.041476,19.772000000,0.000000000,58004.273437500,0.000000000,0.000000000,-15.541137695,-105.566169739,0.000000000,-0.084000528,-16.815948486
1747312817.043849,19.774000000,0.000000000,58004.273437500,0.000000000,0.000000000,-15.541137695,-105.566352844,0.000000000,-0.084000528,-16.815948486
1747312817.046259,19.777000000,0.000000000,58004.273437500,0.000000000,0.000000000,-15.541137695,-105.566535950,0.000000000,-0.084000528,-16.815948486
1747312817.048717,19.779000000,0.000000000,58004.273437500,0.000000000,0.000000000,-15.541137695,-105.566719055,0.000000000,-0.084000528,-16.815948486
1747312817.051255,19.781000000,0.000000000,58004.273437500,0.000000000,0.000000000,-15.541137695,-105.566902161,0.000000000,-0.084000528,-16.815948486
1747312817.053662,19.784000000,0.000000000,58004.273437500,0.000000000,0.000000000,-15.541137695,-105.567100525,0.000000000,-0.084000528,-16.815948486
1747312817.056067,19.786000000,0.000000000,58004.273437500,0.000000000,0.000000000,-15.541137695,-105.567283630,0.000000000,-0.084000528,-16.815948486
1747312817.058434,19.789000000,0.000000000,58004.273437500,0.000000000,0.000000000,-15.541137695,-105.567466736,0.000000000,-0.084000528,-16.815948486
1747312817.060799,19.791000000,0.000000000,58004.273437500,0.000000000,0.000000000,-15.541137695,-105.567649841,0.000000000,-0.084000528,-16.815948486
1747312817.063200,19.793000000,0.000000000,58004.273437500,0.000000000,0.000000000,-15.541137695,-105.567832947,0.000000000,-0.084000528,-16.815948486
1747312817.065574,19.796000000,0.000000000,58004.273437500,0.000000000,0.000000000,-15.541137695,-105.568016052,0.000000000,-0.084000528,-16.815948486
1747312817.067945,19.798000000,0.000000000,58004.273437500,0.000000000,0.000000000,-15.541137695,-105.568199158,0.000000000,-0.084000528,-16.815948486
1747312817.070349,19.801000000,0.000000000,58004.273437500,0.000000000,0.000000000,-15.541137695,-105.568382263,0.000000000,-0.084000528,-16.815948486
1747312817.072764,19.803000000,0.000000000,58004.273437500,0.000000000,0.000000000,-15.541137695,-105.568565369,0.000000000,-0.084000528,-16.815948486
1747312817.075166,19.805000000,0.000000000,58004.273437500,0.000000000,0.000000000,-15.541137695,-105.568748474,0.000000000,-0.084000528,-16.815948486
1747312817.077521,19.808000000,0.000000000,58004.273437500,0.000000000,0.000000000,-15.541137695,-105.568931580,0.000000000,-0.084000528,-16.815948486
1747312817.079896,19.810000000,0.000000000,58004.273437500,0.000000000,0.000000000,-15.541137695,-105.569114685,0.000000000,-0.084000528,-16.815948486
1747312817.082272,19.813000000,0.000000000,58004.273437500,0.000000000,0.000000000,-15.541137695,-105.569297791,0.000000000,-0.084000528,-16.815948486
1747312817.084675,19.815000000,0.000000000,58004.273437500,0.000000000,0.000000000,-15.541137695,-105.569480896,0.000000000,-0.084000528,-16.815948486
1747312817.087058,19.817000000,0.000000000,58004.273437500,0.000000000,0.000000000,-15.541137695,-105.569648743,0.000000000,-0.084000528,-16.815948486
1747312817.089444,19.820000000,0.000000000,58004.273437500,0.000000000,0.000000000,-15.541137695,-105.569831848,0.000000000,-0.084000528,-16.815948486
1747312817.091825,19.822000000,0.000000000,58004.273437500,0.000000000,0.000000000,-15.541137695,-105.570014954,0.000000000,-0.084000528,-16.815948486
1747312817.094249,19.824000000,0.000000000,58004.273437500,0.000000000,0.000000000,-15.541137695,-105.570198059,0.000000000,-0.084000528,-16.815948486
1747312817.096636,19.827000000,0.000000000,58004.273437500,0.000000000,0.000000000,-15.541137695,-105.570381165,0.000000000,-0.084000528,-16.815948486
1747312817.099045,19.829000000,0.000000000,58004.273437500,0.000000000,0.000000000,-15.541137695,-105.570564270,0.000000000,-0.084000528,-16.815948486
1747312817.101444,19.832000000,0.000000000,58004.273437500,0.000000000,0.000000000,-15.541137695,-105.570747375,0.000000000,-0.084000528,-16.815948486
1747312817.103836,19.834000000,0.000000000,58004.273437500,0.000000000,0.000000000,-15.541137695,-105.570930481,0.000000000,-0.084000528,-16.815948486
1747312817.106205,19.836000000,0.000000000,58004.273437500,0.000000000,0.000000000,-15.541137695,-105.571113586,0.000000000,-0.084000528,-16.815948486
1747312817.108622,19.839000000,0.000000000,58004.273437500,0.000000000,0.000000000,-15.541137695,-105.571296692,0.000000000,-0.084000528,-16.815948486
1747312817.110992,19.841000000,0.000000000,58004.273437500,0.000000000,0.000000000,-15.541137695,-105.571479797,0.000000000,-0.084000528,-16.815948486
1747312817.113369,19.844000000,0.000000000,58004.273437500,0.000000000,0.000000000,-15.541137695,-105.571662903,0.000000000,-0.084000528,-16.815948486
1747312817.115756,19.846000000,0.000000000,58004.273437500,0.000000000,0.000000000,-15.541137695,-105.571846008,0.000000000,-0.084000528,-16.815948486
1747312817.118131,19.848000000,0.000000000,58004.273437500,0.000000000,0.000000000,-15.541137695,-105.572029114,0.000000000,-0.084000528,-16.815948486
1747312817.120502,19.851000000,0.000000000,58004.273437500,0.000000000,0.000000000,-15.541137695,-105.572212219,0.000000000,-0.084000528,-16.815948486
1747312817.122948,19.853000000,0.000000000,58004.273437500,0.000000000,0.000000000,-15.541137695,-105.572395325,0.000000000,-0.084000528,-16.815948486
1747312817.125356,19.856000000,0.000000000,58004.273437500,0.000000000,0.000000000,-15.541137695,-105.572578430,0.000000000,-0.084000528,-16.815948486
1747312817.127857,19.858000000,0.000000000,58004.273437500,0.000000000,0.000000000,-15.541137695,-105.572776794,0.000000000,-0.084000528,-16.815948486
1747312817.130244,19.861000000,0.000000000,58004.273437500,0.000000000,0.000000000,-15.541137695,-105.572959900,0.000000000,-0.084000528,-16.815948486
1747312817.132646,19.863000000,0.000000000,58004.273437500,0.000000000,0.000000000,-15.541137695,-105.573143005,0.000000000,-0.084000528,-16.815948486
1747312817.135062,19.865000000,0.000000000,58004.273437500,0.000000000,0.000000000,-15.541137695,-105.573326111,0.000000000,-0.084000528,-16.815948486
1747312817.137423,19.868000000,0.000000000,58004.273437500,0.000000000,0.000000000,-15.541137695,-105.573509216,0.000000000,-0.084000528,-16.815948486
1747312817.139757,19.870000000,0.000000000,58004.273437500,0.000000000,0.000000000,-15.541137695,-105.573692322,0.000000000,-0.084000528,-16.815948486
1747312817.142160,19.872000000,0.000000000,58004.273437500,0.000000000,0.000000000,-15.541137695,-105.573875427,0.000000000,-0.084000528,-16.815948486
1747312817.144521,19.875000000,0.000000000,58004.273437500,0.000000000,0.000000000,-15.541137695,-105.574058533,0.000000000,-0.084000528,-16.815948486
1747312817.146955,19.877000000,0.000000000,58004.273437500,0.000000000,0.000000000,-15.541137695,-105.574241638,0.000000000,-0.084000528,-16.815948486
1747312817.149312,19.880000000,0.000000000,58004.273437500,0.000000000,0.000000000,-15.541137695,-105.574424744,0.000000000,-0.084000528,-16.815948486
1747312817.151624,19.882000000,0.000000000,58004.273437500,0.000000000,0.000000000,-15.541137695,-105.574607849,0.000000000,-0.084000528,-16.815948486
1747312817.153962,19.884000000,0.000000000,58004.273437500,0.000000000,0.000000000,-15.541137695,-105.574775696,0.000000000,-0.084000528,-16.815948486
1747312817.156318,19.887000000,0.000000000,58004.273437500,0.000000000,0.000000000,-15.541137695,-105.574958801,0.000000000,-0.084000528,-16.815948486
1747312817.158655,19.889000000,0.000000000,58004.273437500,0.000000000,0.000000000,-15.541137695,-105.575141907,0.000000000,-0.084000528,-16.815948486
1747312817.161021,19.891000000,0.000000000,58004.273437500,0.000000000,0.000000000,-15.541137695,-105.575325012,0.000000000,-0.084000528,-16.815948486
1747312817.163370,19.894000000,0.000000000,58004.273437500,0.000000000,0.000000000,-15.541137695,-105.575508118,0.000000000,-0.084000528,-16.815948486
1747312817.165708,19.896000000,0.000000000,58004.273437500,0.000000000,0.000000000,-15.541137695,-105.575675964,0.000000000,-0.084000528,-16.815948486
1747312817.168063,19.898000000,0.000000000,58004.273437500,0.000000000,0.000000000,-15.541137695,-105.575859070,0.000000000,-0.084000528,-16.815948486
1747312817.170422,19.901000000,0.000000000,58004.273437500,0.000000000,0.000000000,-15.541137695,-105.576042175,0.000000000,-0.084000528,-16.815948486
1747312817.172784,19.903000000,0.000000000,58004.273437500,0.000000000,0.000000000,-15.541137695,-105.576225281,0.000000000,-0.084000528,-16.815948486
1747312817.175110,19.905000000,0.000000000,58004.273437500,0.000000000,0.000000000,-15.541137695,-105.576408386,0.000000000,-0.084000528,-16.815948486
1747312817.177467,19.908000000,0.000000000,58004.273437500,0.000000000,0.000000000,-15.541137695,-105.576576233,0.000000000,-0.084000528,-16.815948486
1747312817.179834,19.910000000,0.000000000,58004.273437500,0.000000000,0.000000000,-15.541137695,-105.576759338,0.000000000,-0.084000528,-16.815948486
1747312817.182190,19.913000000,0.000000000,58004.273437500,0.000000000,0.000000000,-15.541137695,-105.576942444,0.000000000,-0.084000528,-16.815948486
1747312817.184554,19.915000000,0.000000000,58004.273437500,0.000000000,0.000000000,-15.541137695,-105.577125549,0.000000000,-0.084000528,-16.815948486
1747312817.186922,19.917000000,0.000000000,58004.273437500,0.000000000,0.000000000,-15.541137695,-105.577308655,0.000000000,-0.084000528,-16.815948486
1747312817.189301,19.920000000,0.000000000,58004.273437500,0.000000000,0.000000000,-15.541137695,-105.577476501,0.000000000,-0.084000528,-16.815948486
1747312817.191798,19.922000000,0.000000000,58004.273437500,0.000000000,0.000000000,-15.541137695,-105.577659607,0.000000000,-0.084000528,-16.815948486
1747312817.194170,19.924000000,0.000000000,58004.273437500,0.000000000,0.000000000,-15.541137695,-105.577842712,0.000000000,-0.084000528,-16.815948486
1747312817.196506,19.927000000,0.000000000,58004.273437500,0.000000000,0.000000000,-15.541137695,-105.578025818,0.000000000,-0.084000528,-16.815948486
1747312817.198995,19.929000000,0.000000000,58004.273437500,0.000000000,0.000000000,-15.541137695,-105.578224182,0.000000000,-0.084000528,-16.815948486
1747312817.201345,19.932000000,0.000000000,58004.273437500,0.000000000,0.000000000,-15.541137695,-105.578407288,0.000000000,-0.084000528,-16.815948486
1747312817.203695,19.934000000,0.000000000,58004.273437500,0.000000000,0.000000000,-15.541137695,-105.578590393,0.000000000,-0.084000528,-16.815948486
1747312817.206074,19.936000000,0.000000000,58004.273437500,0.000000000,0.000000000,-15.541137695,-105.578773499,0.000000000,-0.084000528,-16.815948486
1747312817.208405,19.939000000,0.000000000,58004.273437500,0.000000000,0.000000000,-15.541137695,-105.578956604,0.000000000,-0.084000528,-16.815948486
1747312817.210761,19.941000000,0.000000000,58004.273437500,0.000000000,0.000000000,-15.541137695,-105.579124451,0.000000000,-0.084000528,-16.815948486
1747312817.213128,19.943000000,0.000000000,58004.273437500,0.000000000,0.000000000,-15.541137695,-105.579307556,0.000000000,-0.084000528,-16.815948486
1747312817.215490,19.946000000,0.000000000,58004.273437500,0.000000000,0.000000000,-15.541137695,-105.579490662,0.000000000,-0.084000528,-16.815948486
1747312817.217837,19.948000000,0.000000000,58004.273437500,0.000000000,0.000000000,-15.541137695,-105.579673767,0.000000000,-0.084000528,-16.815948486
1747312817.220190,19.951000000,0.000000000,58004.273437500,0.000000000,0.000000000,-15.541137695,-105.579856873,0.000000000,-0.084000528,-16.815948486
1747312817.222533,19.953000000,0.000000000,58004.273437500,0.000000000,0.000000000,-15.541137695,-105.580024719,0.000000000,-0.084000528,-16.815948486
1747312817.224882,19.955000000,0.000000000,58004.273437500,0.000000000,0.000000000,-15.541137695,-105.580207825,0.000000000,-0.084000528,-16.815948486
1747312817.227283,19.958000000,0.000000000,58004.273437500,0.000000000,0.000000000,-15.541137695,-105.580390930,0.000000000,-0.084000528,-16.815948486
1747312817.229657,19.960000000,0.000000000,58004.273437500,0.000000000,0.000000000,-15.541137695,-105.580574036,0.000000000,-0.084000528,-16.815948486
1747312817.232013,19.962000000,0.000000000,58004.273437500,0.000000000,0.000000000,-15.541137695,-105.580757141,0.000000000,-0.084000528,-16.815948486
1747312817.234401,19.965000000,0.000000000,58004.273437500,0.000000000,0.000000000,-15.541137695,-105.580940247,0.000000000,-0.084000528,-16.815948486
1747312817.236823,19.967000000,0.000000000,58004.273437500,0.000000000,0.000000000,-15.541137695,-105.581123352,0.000000000,-0.084000528,-16.815948486
1747312817.239144,19.969000000,0.000000000,58004.273437500,0.000000000,0.000000000,-15.541137695,-105.581306458,0.000000000,-0.084000528,-16.815948486
1747312817.241512,19.972000000,0.000000000,58004.273437500,0.000000000,0.000000000,-15.541137695,-105.581474304,0.000000000,-0.084000528,-16.815948486
1747312817.243880,19.974000000,0.000000000,58004.273437500,0.000000000,0.000000000,-15.541137695,-105.581657410,0.000000000,-0.084000528,-16.815948486
1747312817.246260,19.977000000,0.000000000,58004.273437500,0.000000000,0.000000000,-15.541137695,-105.581840515,0.000000000,-0.084000528,-16.815948486
1747312817.248612,19.979000000,0.000000000,58004.273437500,0.000000000,0.000000000,-15.541137695,-105.582023621,0.000000000,-0.084000528,-16.815948486
1747312817.250985,19.981000000,0.000000000,58004.273437500,0.000000000,0.000000000,-15.541137695,-105.582206726,0.000000000,-0.084000528,-16.815948486
1747312817.253390,19.984000000,0.000000000,58004.273437500,0.000000000,0.000000000,-15.541137695,-105.582389832,0.000000000,-0.084000528,-16.815948486
1747312817.255749,19.986000000,0.000000000,58004.273437500,0.000000000,0.000000000,-15.541137695,-105.582572937,0.000000000,-0.084000528,-16.815948486
1747312817.258135,19.988000000,0.000000000,58004.273437500,0.000000000,0.000000000,-15.541137695,-105.582740784,0.000000000,-0.084000528,-16.815948486
1747312817.260528,19.991000000,0.000000000,58004.273437500,0.000000000,0.000000000,-15.541137695,-105.582923889,0.000000000,-0.084000528,-16.815948486
1747312817.262916,19.993000000,0.000000000,58004.273437500,0.000000000,0.000000000,-15.541137695,-105.583106995,0.000000000,-0.084000528,-16.815948486
1747312817.265307,19.996000000,0.000000000,58004.273437500,0.000000000,0.000000000,-15.541137695,-105.583290100,0.000000000,-0.084000528,-16.815948486
1747312817.267698,19.998000000,0.000000000,58004.273437500,0.000000000,0.000000000,-15.541137695,-105.583473206,0.000000000,-0.084000528,-16.815948486
1747312817.270070,20.000000000,0.000000000,58004.273437500,0.000000000,0.000000000,-15.541137695,-105.583656311,0.000000000,-0.084000528,-16.815948486
1747312817.272484,20.003000000,0.000000000,58004.273437500,0.000000000,0.000000000,-15.541137695,-105.583839417,0.000000000,-0.084000528,-16.815948486
1747312817.274904,20.005000000,0.000000000,58004.273437500,0.000000000,0.000000000,-15.541137695,-105.584022522,0.000000000,-0.084000528,-16.815948486
1747312817.277318,20.008000000,0.000000000,58004.273437500,0.000000000,0.000000000,-15.541137695,-105.584220886,0.000000000,-0.084000528,-16.815948486
1747312817.279750,20.010000000,0.000000000,58004.273437500,0.000000000,0.000000000,-15.541137695,-105.584403992,0.000000000,-0.084000528,-16.815948486
1747312817.282135,20.012000000,0.000000000,58004.273437500,0.000000000,0.000000000,-15.541137695,-105.584587097,0.000000000,-0.084000528,-16.815948486
1747312817.284514,20.015000000,0.000000000,58004.273437500,0.000000000,0.000000000,-15.541137695,-105.584770203,0.000000000,-0.084000528,-16.815948486
1747312817.286915,20.017000000,0.000000000,58004.273437500,0.000000000,0.000000000,-15.541137695,-105.584953308,0.000000000,-0.084000528,-16.815948486
1747312817.289320,20.020000000,0.000000000,58004.273437500,0.000000000,0.000000000,-15.541137695,-105.585136414,0.000000000,-0.084000528,-16.815948486
1747312817.291777,20.022000000,0.000000000,58004.273437500,0.000000000,0.000000000,-15.541137695,-105.585319519,0.000000000,-0.084000528,-16.815948486
1747312817.294178,20.024000000,0.000000000,58004.273437500,0.000000000,0.000000000,-15.541137695,-105.585502625,0.000000000,-0.084000528,-16.815948486
1747312817.296653,20.027000000,0.000000000,58004.273437500,0.000000000,0.000000000,-15.541137695,-105.585685730,0.000000000,-0.084000528,-16.815948486
1747312817.299012,20.029000000,0.000000000,58004.273437500,0.000000000,0.000000000,-15.541137695,-105.585868835,0.000000000,-0.084000528,-16.815948486
1747312817.301398,20.032000000,0.000000000,58004.273437500,0.000000000,0.000000000,-15.541137695,-105.586051941,0.000000000,-0.084000528,-16.815948486
1747312817.303771,20.034000000,0.000000000,58004.273437500,0.000000000,0.000000000,-15.541137695,-105.586235046,0.000000000,-0.084000528,-16.815948486
1747312817.306142,20.036000000,0.000000000,58004.273437500,0.000000000,0.000000000,-15.541137695,-105.586418152,0.000000000,-0.084000528,-16.815948486
1747312817.308494,20.039000000,0.000000000,58004.273437500,0.000000000,0.000000000,-15.541137695,-105.586601257,0.000000000,-0.084000528,-16.815948486
1747312817.310829,20.041000000,0.000000000,58004.273437500,0.000000000,0.000000000,-15.541137695,-105.586784363,0.000000000,-0.084000528,-16.815948486
