liamjosephnolan/thesis_matlab/roll_step_response/roll_step_response_roll_-15_pitch_0.csv
__time,/psm_joint_telemetry/header/stamp,/psm_joint_telemetry/insertion/effort,/psm_joint_telemetry/insertion/position,/psm_joint_telemetry/insertion/velocity,/psm_joint_telemetry/pitch/effort,/psm_joint_telemetry/pitch/position,/psm_joint_telemetry/pitch/velocity,/psm_joint_telemetry/roll/effort,/psm_joint_telemetry/roll/position,/psm_joint_telemetry/roll/velocity
1747314566.657322,16.145000000,0.000000000,58004.273437500,0.000000000,0.000000000,-0.312758088,-78.751045227,0.000000000,-15.060000420,-12.011400223
1747314566.659771,16.147000000,0.000000000,58004.273437500,0.000000000,0.000000000,-0.312758088,-78.751152039,0.000000000,-15.060000420,-12.011400223
1747314566.662243,16.149000000,0.000000000,58004.273437500,0.000000000,0.000000000,-0.312758088,-78.751258850,0.000000000,-15.060000420,-12.011400223
1747314566.664640,16.152000000,0.000000000,58004.273437500,0.000000000,0.000000000,-0.312758088,-78.751373291,0.000000000,-15.060000420,-12.011400223
1747314566.667031,16.154000000,0.000000000,58004.273437500,0.000000000,0.000000000,-0.312758088,-78.751480103,0.000000000,-15.060000420,-12.011400223
1747314566.669400,16.157000000,0.000000000,58004.273437500,0.000000000,0.000000000,-0.312758088,-78.751586914,0.000000000,-15.060000420,-12.011400223
1747314566.671875,16.159000000,0.000000000,58004.273437500,0.000000000,0.000000000,-0.312758088,-78.751686096,0.000000000,-15.060000420,-12.011400223
1747314566.674293,16.162000000,0.000000000,58004.273437500,0.000000000,0.000000000,-0.312758088,-78.751800537,0.000000000,-15.060000420,-12.011400223
1747314566.676708,16.164000000,0.000000000,58004.273437500,0.000000000,0.000000000,-0.312758088,-78.751907349,0.000000000,-15.060000420,-12.011400223
1747314566.679199,16.166000000,0.000000000,58004.273437500,0.000000000,0.000000000,-0.312758088,-78.752014160,0.000000000,-15.060000420,-12.011400223
1747314566.681593,16.169000000,0.000000000,58004.273437500,0.000000000,0.000000000,-0.312758088,-78.752120972,0.000000000,-15.060000420,-12.011400223
1747314566.684000,16.171000000,0.000000000,58004.273437500,0.000000000,0.000000000,-0.312758088,-78.752227783,0.000000000,-15.060000420,-12.011400223
1747314566.686419,16.174000000,0.000000000,58004.273437500,0.000000000,0.000000000,-0.312758088,-78.752334595,0.000000000,-15.060000420,-12.011400223
1747314566.688849,16.176000000,0.000000000,58004.273437500,0.000000000,0.000000000,-0.312758088,-78.752441406,0.000000000,-15.060000420,-12.011400223
1747314566.691254,16.179000000,0.000000000,58004.273437500,0.000000000,0.000000000,-0.312758088,-78.752548218,0.000000000,-15.060000420,-12.011400223
1747314566.693666,16.181000000,0.000000000,58004.273437500,0.000000000,0.000000000,-0.312758088,-78.752655029,0.000000000,-15.060000420,-12.011400223
1747314566.696029,16.183000000,0.000000000,58004.273437500,0.000000000,0.000000000,-0.312758088,-78.752761841,0.000000000,-15.060000420,-12.011400223
1747314566.698383,16.186000000,0.000000000,58004.273437500,0.000000000,0.000000000,-0.312758088,-78.752868652,0.000000000,-15.060000420,-12.011400223
1747314566.700756,16.188000000,0.000000000,58004.273437500,0.000000000,0.000000000,-0.312758088,-78.752967834,0.000000000,-15.060000420,-12.011400223
1747314566.703122,16.190000000,0.000000000,58004.273437500,0.000000000,0.000000000,-0.312758088,-78.753074646,0.000000000,-15.060000420,-12.011400223
1747314566.705509,16.193000000,0.000000000,58004.273437500,0.000000000,0.000000000,-0.312758088,-78.753181458,0.000000000,-15.060000420,-12.011400223
1747314566.707887,16.195000000,0.000000000,58004.273437500,0.000000000,0.000000000,-0.312758088,-78.753288269,0.000000000,-15.060000420,-12.011400223
1747314566.710286,16.198000000,0.000000000,58004.273437500,0.000000000,0.000000000,-0.312758088,-78.753387451,0.000000000,-15.060000420,-12.011400223
1747314566.712630,16.200000000,0.000000000,58004.273437500,0.000000000,0.000000000,-0.312758088,-78.753494263,0.000000000,-15.060000420,-12.011400223
1747314566.715013,16.202000000,0.000000000,58004.273437500,0.000000000,0.000000000,-0.312758088,-78.753601074,0.000000000,-15.060000420,-12.011400223
1747314566.717439,16.205000000,0.000000000,58004.273437500,0.000000000,0.000000000,-0.312758088,-78.753707886,0.000000000,-15.060000420,-12.011400223
1747314566.719824,16.207000000,0.000000000,58004.273437500,0.000000000,0.000000000,-0.312758088,-78.753814697,0.000000000,-15.060000420,-12.011400223
1747314566.722213,16.209000000,0.000000000,58004.273437500,0.000000000,0.000000000,-0.312758088,-78.753921509,0.000000000,-15.060000420,-12.011400223
1747314566.724598,16.212000000,0.000000000,58004.273437500,0.000000000,0.000000000,-0.312758088,-78.754020691,0.000000000,-15.060000420,-12.011400223
1747314566.727015,16.214000000,0.000000000,58004.273437500,0.000000000,0.000000000,-0.312758088,-78.754127502,0.000000000,-15.060000420,-12.011400223
1747314566.729413,16.217000000,0.000000000,58004.273437500,0.000000000,0.000000000,-0.312758088,-78.754234314,0.000000000,-15.060000420,-12.011400223
1747314566.731804,16.219000000,0.000000000,58004.273437500,0.000000000,0.000000000,-0.312758088,-78.754341125,0.000000000,-15.060000420,-12.011400223
1747314566.734207,16.221000000,0.000000000,58004.273437500,0.000000000,0.000000000,-0.312758088,-78.754447937,0.000000000,-15.060000420,-12.011400223
1747314566.736608,16.224000000,0.000000000,58004.273437500,0.000000000,0.000000000,-0.312758088,-78.754554749,0.000000000,-15.060000420,-12.011400223
1747314566.739002,16.226000000,0.000000000,58004.273437500,0.000000000,0.000000000,-0.312758088,-78.754661560,0.000000000,-15.060000420,-12.011400223
1747314566.741395,16.229000000,0.000000000,58004.273437500,0.000000000,0.000000000,-0.312758088,-78.754768372,0.000000000,-15.060000420,-12.011400223
1747314566.743789,16.231000000,0.000000000,58004.273437500,0.000000000,0.000000000,-0.312758088,-78.754875183,0.000000000,-15.060000420,-12.011400223
1747314566.746202,16.233000000,0.000000000,58004.273437500,0.000000000,0.000000000,-0.312758088,-78.754981995,0.000000000,-15.060000420,-12.011400223
1747314566.748605,16.236000000,0.000000000,58004.273437500,0.000000000,0.000000000,-0.312758088,-78.755088806,0.000000000,-15.060000420,-12.011400223
1747314566.750994,16.238000000,0.000000000,58004.273437500,0.000000000,0.000000000,-0.312758088,-78.755195618,0.000000000,-15.060000420,-12.011400223
1747314566.753510,16.241000000,0.000000000,58004.273437500,0.000000000,0.000000000,-0.312758088,-78.755294800,0.000000000,-15.060000420,-12.011400223
1747314566.756027,16.243000000,0.000000000,58004.273437500,0.000000000,0.000000000,-0.312758088,-78.755409241,0.000000000,-15.060000420,-12.011400223
1747314566.758562,16.246000000,0.000000000,58004.273437500,0.000000000,0.000000000,-0.312758088,-78.755523682,0.000000000,-15.060000420,-12.011400223
1747314566.761069,16.248000000,0.000000000,58004.273437500,0.000000000,0.000000000,-0.312758088,-78.755630493,0.000000000,-15.060000420,-12.011400223
1747314566.763601,16.251000000,0.000000000,58004.273437500,0.000000000,0.000000000,-0.312758088,-78.755744934,0.000000000,-15.060000420,-12.011400223
1747314566.766093,16.253000000,0.000000000,58004.273437500,0.000000000,0.000000000,-0.312758088,-78.755851746,0.000000000,-15.060000420,-12.011400223
1747314566.768478,16.256000000,0.000000000,58004.273437500,0.000000000,0.000000000,-0.312758088,-78.755966187,0.000000000,-15.060000420,-12.011400223
1747314566.770855,16.258000000,0.000000000,58004.273437500,0.000000000,0.000000000,-0.312758088,-78.756072998,0.000000000,-15.060000420,-12.011400223
1747314566.773233,16.261000000,0.000000000,58004.273437500,0.000000000,0.000000000,-0.312758088,-78.756179810,0.000000000,-15.060000420,-12.011400223
1747314566.775646,16.263000000,0.000000000,58004.273437500,0.000000000,0.000000000,-0.312758088,-78.756278992,0.000000000,-15.060000420,-12.011400223
1747314566.778060,16.265000000,0.000000000,58004.273437500,0.000000000,0.000000000,-0.312758088,-78.756385803,0.000000000,-15.060000420,-12.011400223
1747314566.780427,16.268000000,0.000000000,58004.273437500,0.000000000,0.000000000,-0.312758088,-78.756492615,0.000000000,-15.060000420,-12.011400223
1747314566.782801,16.270000000,0.000000000,58004.273437500,0.000000000,0.000000000,-0.312758088,-78.756599426,0.000000000,-15.060000420,-12.011400223
1747314566.785249,16.272000000,0.000000000,58004.273437500,0.000000000,0.000000000,-0.312758088,-78.756706238,0.000000000,-15.060000420,-12.011400223
1747314566.787665,16.275000000,0.000000000,58004.273437500,0.000000000,0.000000000,-0.312758088,-78.756813049,0.000000000,-15.060000420,-12.011400223
1747314566.789992,16.277000000,0.000000000,58004.273437500,0.000000000,0.000000000,-0.312758088,-78.756919861,0.000000000,-15.060000420,-12.011400223
1747314566.792361,16.280000000,0.000000000,58004.273437500,0.000000000,0.000000000,-0.312758088,-78.757019043,0.000000000,-15.060000420,-12.011400223
1747314566.794755,16.282000000,0.000000000,58004.273437500,0.000000000,0.000000000,-0.312758088,-78.757125854,0.000000000,-15.060000420,-12.011400223
1747314566.797136,16.284000000,0.000000000,58004.273437500,0.000000000,0.000000000,-0.312758088,-78.757232666,0.000000000,-15.060000420,-12.011400223
1747314566.799526,16.287000000,0.000000000,58004.273437500,0.000000000,0.000000000,-0.312758088,-78.757339478,0.000000000,-15.060000420,-12.011400223
1747314566.801891,16.289000000,0.000000000,58004.273437500,0.000000000,0.000000000,-0.312758088,-78.757446289,0.000000000,-15.060000420,-12.011400223
1747314566.804274,16.292000000,0.000000000,58004.273437500,0.000000000,0.000000000,-0.312758088,-78.757545471,0.000000000,-15.060000420,-12.011400223
1747314566.806638,16.294000000,0.000000000,58004.273437500,0.000000000,0.000000000,-0.312758088,-78.757652283,0.000000000,-15.060000420,-12.011400223
1747314566.809008,16.296000000,0.000000000,58004.273437500,0.000000000,0.000000000,-0.312758088,-78.757759094,0.000000000,-15.060000420,-12.011400223
1747314566.811426,16.299000000,0.000000000,58004.273437500,0.000000000,0.000000000,-0.312758088,-78.757858276,0.000000000,-15.060000420,-12.011400223
1747314566.813773,16.301000000,0.000000000,58004.273437500,0.000000000,0.000000000,-0.312758088,-78.757965088,0.000000000,-15.060000420,-12.011400223
1747314566.816145,16.303000000,0.000000000,58004.273437500,0.000000000,0.000000000,-0.312758088,-78.758071899,0.000000000,-15.060000420,-12.011400223
1747314566.818505,16.306000000,0.000000000,58004.273437500,0.000000000,0.000000000,-0.312758088,-78.758178711,0.000000000,-15.060000420,-12.011400223
1747314566.820874,16.308000000,0.000000000,58004.273437500,0.000000000,0.000000000,-0.312758088,-78.758277893,0.000000000,-15.060000420,-12.011400223
1747314566.823249,16.311000000,0.000000000,58004.273437500,0.000000000,0.000000000,-0.312758088,-78.758384705,0.000000000,-15.060000420,-12.011400223
1747314566.825617,16.313000000,0.000000000,58004.273437500,0.000000000,0.000000000,-0.312758088,-78.758491516,0.000000000,-15.060000420,-12.011400223
1747314566.828025,16.315000000,0.000000000,58004.273437500,0.000000000,0.000000000,-0.312758088,-78.758598328,0.000000000,-15.060000420,-12.011400223
1747314566.830401,16.318000000,0.000000000,58004.273437500,0.000000000,0.000000000,-0.312758088,-78.758697510,0.000000000,-15.060000420,-12.011400223
1747314566.832767,16.320000000,0.000000000,58004.273437500,0.000000000,0.000000000,-0.312758088,-78.758804321,0.000000000,-15.060000420,-12.011400223
1747314566.835158,16.322000000,0.000000000,58004.273437500,0.000000000,0.000000000,-0.312758088,-78.758911133,0.000000000,-15.060000420,-12.011400223
1747314566.837519,16.325000000,0.000000000,58004.273437500,0.000000000,0.000000000,-0.312758088,-78.759017944,0.000000000,-15.060000420,-12.011400223
1747314566.839874,16.327000000,0.000000000,58004.273437500,0.000000000,0.000000000,-0.312758088,-78.759117126,0.000000000,-15.060000420,-12.011400223
1747314566.842259,16.330000000,0.000000000,58004.273437500,0.000000000,0.000000000,-0.312758088,-78.759223938,0.000000000,-15.060000420,-12.011400223
1747314566.844655,16.332000000,0.000000000,58004.273437500,0.000000000,0.000000000,-0.312758088,-78.759330750,0.000000000,-15.060000420,-12.011400223
1747314566.847028,16.334000000,0.000000000,58004.273437500,0.000000000,0.000000000,-0.312758088,-78.759437561,0.000000000,-15.060000420,-12.011400223
1747314566.849474,16.337000000,0.000000000,58004.273437500,0.000000000,0.000000000,-0.312758088,-78.759544373,0.000000000,-15.060000420,-12.011400223
1747314566.851837,16.339000000,0.000000000,58004.273437500,0.000000000,0.000000000,-0.312758088,-78.759651184,0.000000000,-15.060000420,-12.011400223
1747314566.854207,16.341000000,0.000000000,58004.273437500,0.000000000,0.000000000,-0.312758088,-78.759750366,0.000000000,-15.060000420,-12.011400223
1747314566.856604,16.344000000,0.000000000,58004.273437500,0.000000000,0.000000000,-0.312758088,-78.759857178,0.000000000,-15.060000420,-12.011400223
1747314566.858973,16.346000000,0.000000000,58004.273437500,0.000000000,0.000000000,-0.312758088,-78.759963989,0.000000000,-15.060000420,-12.011400223
1747314566.861362,16.349000000,0.000000000,58004.273437500,0.000000000,0.000000000,-0.312758088,-78.760070801,0.000000000,-15.060000420,-12.011400223
1747314566.863800,16.351000000,0.000000000,58004.273437500,0.000000000,0.000000000,-0.312758088,-78.760177612,0.000000000,-15.060000420,-12.011400223
1747314566.866196,16.353000000,0.000000000,58004.273437500,0.000000000,0.000000000,-0.312758088,-78.760284424,0.000000000,-15.060000420,-12.011400223
1747314566.868575,16.356000000,0.000000000,58004.273437500,0.000000000,0.000000000,-0.312758088,-78.760391235,0.000000000,-15.060000420,-12.011400223
1747314566.870945,16.358000000,0.000000000,58004.273437500,0.000000000,0.000000000,-0.312758088,-78.760490417,0.000000000,-15.060000420,-12.011400223
1747314566.873318,16.361000000,0.000000000,58004.273437500,0.000000000,0.000000000,-0.312758088,-78.760597229,0.000000000,-15.060000420,-12.011400223
1747314566.875688,16.363000000,0.000000000,58004.273437500,0.000000000,0.000000000,-0.312758088,-78.760704041,0.000000000,-15.060000420,-12.011400223
1747314566.878200,16.365000000,0.000000000,58004.273437500,0.000000000,0.000000000,-0.312758088,-78.760810852,0.000000000,-15.060000420,-12.011400223
1747314566.880640,16.368000000,0.000000000,58004.273437500,0.000000000,0.000000000,-0.312758088,-78.760917664,0.000000000,-15.060000420,-12.011400223
1747314566.882990,16.370000000,0.000000000,58004.273437500,0.000000000,0.000000000,-0.312758088,-78.761024475,0.000000000,-15.060000420,-12.011400223
1747314566.885380,16.373000000,0.000000000,58004.273437500,0.000000000,0.000000000,-0.312758088,-78.761131287,0.000000000,-15.060000420,-12.011400223
1747314566.887745,16.375000000,0.000000000,58004.273437500,0.000000000,0.000000000,-0.312758088,-78.761238098,0.000000000,-15.060000420,-12.011400223
1747314566.890115,16.377000000,0.000000000,58004.273437500,0.000000000,0.000000000,-0.312758088,-78.761344910,0.000000000,-15.060000420,-12.011400223
1747314566.892599,16.380000000,0.000000000,58004.273437500,0.000000000,0.000000000,-0.312758088,-78.761444092,0.000000000,-15.060000420,-12.011400223
1747314566.895038,16.382000000,0.000000000,58004.273437500,0.000000000,0.000000000,-0.312758088,-78.761558533,0.000000000,-15.060000420,-12.011400223
1747314566.897419,16.385000000,0.000000000,58004.273437500,0.000000000,0.000000000,-0.312758088,-78.761665344,0.000000000,-15.060000420,-12.011400223
1747314566.899856,16.387000000,0.000000000,58004.273437500,0.000000000,0.000000000,-0.312758088,-78.761772156,0.000000000,-15.060000420,-12.011400223
1747314566.902323,16.390000000,0.000000000,58004.273437500,0.000000000,0.000000000,-0.312758088,-78.761878967,0.000000000,-15.060000420,-12.011400223
1747314566.904732,16.392000000,0.000000000,58004.273437500,0.000000000,0.000000000,-0.312758088,-78.761985779,0.000000000,-15.060000420,-12.011400223
1747314566.907077,16.394000000,0.000000000,58004.273437500,0.000000000,0.000000000,-0.312758088,-78.762092590,0.000000000,-15.060000420,-12.011400223
1747314566.909405,16.397000000,0.000000000,58004.273437500,0.000000000,0.000000000,-0.312758088,-78.762199402,0.000000000,-15.060000420,-12.011400223
1747314566.911822,16.399000000,0.000000000,58004.273437500,0.000000000,0.000000000,-0.312758088,-78.762298584,0.000000000,-15.060000420,-12.011400223
1747314566.914212,16.401000000,0.000000000,58004.273437500,0.000000000,0.000000000,-0.312758088,-78.762405396,0.000000000,-15.060000420,-12.011400223
1747314566.916559,16.404000000,0.000000000,58004.273437500,0.000000000,0.000000000,-0.312758088,-78.762512207,0.000000000,-15.060000420,-12.011400223
1747314566.918890,16.406000000,0.000000000,58004.273437500,0.000000000,0.000000000,-0.312758088,-78.762619019,0.000000000,-15.060000420,-12.011400223
1747314566.921221,16.409000000,0.000000000,58004.273437500,0.000000000,0.000000000,-0.312758088,-78.762718201,0.000000000,-15.060000420,-12.011400223
1747314566.923570,16.411000000,0.000000000,58004.273437500,0.000000000,0.000000000,-0.312758088,-78.762825012,0.000000000,-15.060000420,-12.011400223
1747314566.925920,16.413000000,0.000000000,58004.273437500,0.000000000,0.000000000,-0.312758088,-78.762924194,0.000000000,-15.060000420,-12.011400223
1747314566.928353,16.416000000,0.000000000,58004.273437500,0.000000000,0.000000000,-0.312758088,-78.763031006,0.000000000,-15.060000420,-12.011400223
1747314566.930681,16.418000000,0.000000000,58004.273437500,0.000000000,0.000000000,-0.312758088,-78.763137817,0.000000000,-15.060000420,-12.011400223
1747314566.933016,16.420000000,0.000000000,58004.273437500,0.000000000,0.000000000,-0.312758088,-78.763244629,0.000000000,-15.060000420,-12.011400223
1747314566.935355,16.423000000,0.000000000,58004.273437500,0.000000000,0.000000000,-0.312758088,-78.763343811,0.000000000,-15.060000420,-12.011400223
1747314566.937703,16.425000000,0.000000000,58004.273437500,0.000000000,0.000000000,-0.312758088,-78.763450623,0.000000000,-15.060000420,-12.011400223
1747314566.940041,16.427000000,0.000000000,58004.273437500,0.000000000,0.000000000,-0.312758088,-78.763549805,0.000000000,-15.060000420,-12.011400223
1747314566.942404,16.430000000,0.000000000,58004.273437500,0.000000000,0.000000000,-0.312758088,-78.763656616,0.000000000,-15.060000420,-12.011400223
1747314566.944770,16.432000000,0.000000000,58004.273437500,0.000000000,0.000000000,-0.312758088,-78.763763428,0.000000000,-15.060000420,-12.011400223
1747314566.947138,16.434000000,0.000000000,58004.273437500,0.000000000,0.000000000,-0.312758088,-78.763862610,0.000000000,-15.060000420,-12.011400223
1747314566.949471,16.437000000,0.000000000,58004.273437500,0.000000000,0.000000000,-0.312758088,-78.763969421,0.000000000,-15.060000420,-12.011400223
1747314566.951838,16.439000000,0.000000000,58004.273437500,0.000000000,0.000000000,-0.312758088,-78.764076233,0.000000000,-15.060000420,-12.011400223
1747314566.954192,16.441000000,0.000000000,58004.273437500,0.000000000,0.000000000,-0.312758088,-78.764175415,0.000000000,-15.060000420,-12.011400223
1747314566.956574,16.444000000,0.000000000,58004.273437500,0.000000000,0.000000000,-0.312758088,-78.764282227,0.000000000,-15.060000420,-12.011400223
1747314566.958940,16.446000000,0.000000000,58004.273437500,0.000000000,0.000000000,-0.312758088,-78.764389038,0.000000000,-15.060000420,-12.011400223
1747314566.961311,16.449000000,0.000000000,58004.273437500,0.000000000,0.000000000,-0.312758088,-78.764488220,0.000000000,-15.060000420,-12.011400223
1747314566.963689,16.451000000,0.000000000,58004.273437500,0.000000000,0.000000000,-0.312758088,-78.764595032,0.000000000,-15.060000420,-12.011400223
1747314566.966048,16.453000000,0.000000000,58004.273437500,0.000000000,0.000000000,-0.312758088,-78.764701843,0.000000000,-15.060000420,-12.011400223
1747314566.968367,16.456000000,0.000000000,58004.273437500,0.000000000,0.000000000,-0.312758088,-78.764808655,0.000000000,-15.060000420,-12.011400223
1747314566.970702,16.458000000,0.000000000,58004.273437500,0.000000000,0.000000000,-0.312758088,-78.764907837,0.000000000,-15.060000420,-12.011400223
1747314566.973078,16.460000000,0.000000000,58004.273437500,0.000000000,0.000000000,-0.312758088,-78.765014648,0.000000000,-15.060000420,-12.011400223
1747314566.975491,16.463000000,0.000000000,58004.273437500,0.000000000,0.000000000,-0.312758088,-78.765113831,0.000000000,-15.060000420,-12.011400223
1747314566.977913,16.465000000,0.000000000,58004.273437500,0.000000000,0.000000000,-0.312758088,-78.765220642,0.000000000,-15.060000420,-12.011400223
1747314566.980319,16.468000000,0.000000000,58004.273437500,0.000000000,0.000000000,-0.312758088,-78.765327454,0.000000000,-15.060000420,-12.011400223
1747314566.982682,16.470000000,0.000000000,58004.273437500,0.000000000,0.000000000,-0.312758088,-78.765434265,0.000000000,-15.060000420,-12.011400223
1747314566.985079,16.472000000,0.000000000,58004.273437500,0.000000000,0.000000000,-0.312758088,-78.765541077,0.000000000,-15.060000420,-12.011400223
1747314566.987466,16.475000000,0.000000000,58004.273437500,0.000000000,0.000000000,-0.312758088,-78.765647888,0.000000000,-15.060000420,-12.011400223
1747314566.989869,16.477000000,0.000000000,58004.273437500,0.000000000,0.000000000,-0.312758088,-78.765754700,0.000000000,-15.060000420,-12.011400223
1747314566.992287,16.480000000,0.000000000,58004.273437500,0.000000000,0.000000000,-0.312758088,-78.765861511,0.000000000,-15.060000420,-12.011400223
1747314566.994627,16.482000000,0.000000000,58004.273437500,0.000000000,0.000000000,-0.312758088,-78.765968323,0.000000000,-15.060000420,-12.011400223
1747314566.996998,16.484000000,0.000000000,58004.273437500,0.000000000,0.000000000,-0.312758088,-78.766075134,0.000000000,-15.060000420,-12.011400223
1747314566.999392,16.487000000,0.000000000,58004.273437500,0.000000000,0.000000000,-0.312758088,-78.766174316,0.000000000,-15.060000420,-12.011400223
1747314567.001771,16.489000000,0.000000000,58004.273437500,0.000000000,0.000000000,-0.312758088,-78.766281128,0.000000000,-15.060000420,-12.011400223
1747314567.004145,16.491000000,0.000000000,58004.273437500,0.000000000,0.000000000,-0.312758088,-78.766387939,0.000000000,-15.060000420,-12.011400223
1747314567.006536,16.494000000,0.000000000,58004.273437500,0.000000000,0.000000000,-0.312758088,-78.766494751,0.000000000,-15.060000420,-12.011400223
1747314567.008953,16.496000000,0.000000000,58004.273437500,0.000000000,0.000000000,-0.312758088,-78.766601563,0.000000000,-15.060000420,-12.011400223
1747314567.011337,16.499000000,0.000000000,58004.273437500,0.000000000,0.000000000,-0.312758088,-78.766700745,0.000000000,-15.060000420,-12.011400223
1747314567.013705,16.501000000,0.000000000,58004.273437500,0.000000000,0.000000000,-0.312758088,-78.766807556,0.000000000,-15.060000420,-12.011400223
1747314567.016088,16.503000000,0.000000000,58004.273437500,0.000000000,0.000000000,-0.312758088,-78.766914368,0.000000000,-15.060000420,-12.011400223
1747314567.018600,16.506000000,0.000000000,58004.273437500,0.000000000,0.000000000,-0.312758088,-78.767021179,0.000000000,-15.060000420,-12.011400223
1747314567.021019,16.508000000,0.000000000,58004.273437500,0.000000000,0.000000000,-0.312758088,-78.767127991,0.000000000,-15.060000420,-12.011400223
1747314567.023479,16.511000000,0.000000000,58004.273437500,0.000000000,0.000000000,-0.312758088,-78.767234802,0.000000000,-15.060000420,-12.011400223
1747314567.025851,16.513000000,0.000000000,58004.273437500,0.000000000,0.000000000,-0.312758088,-78.767341614,0.000000000,-15.060000420,-12.011400223
1747314567.028254,16.516000000,0.000000000,58004.273437500,0.000000000,0.000000000,-0.312758088,-78.767448425,0.000000000,-15.060000420,-12.011400223
1747314567.030618,16.518000000,0.000000000,58004.273437500,0.000000000,0.000000000,-0.312758088,-78.767555237,0.000000000,-15.060000420,-12.011400223
1747314567.033002,16.520000000,0.000000000,58004.273437500,0.000000000,0.000000000,-0.312758088,-78.767662048,0.000000000,-15.060000420,-12.011400223
1747314567.035372,16.523000000,0.000000000,58004.273437500,0.000000000,0.000000000,-0.312758088,-78.767768860,0.000000000,-15.060000420,-12.011400223
1747314567.037742,16.525000000,0.000000000,58004.273437500,0.000000000,0.000000000,-0.312758088,-78.767868042,0.000000000,-15.060000420,-12.011400223
1747314567.040120,16.527000000,0.000000000,58004.273437500,0.000000000,0.000000000,-0.312758088,-78.767974854,0.000000000,-15.060000420,-12.011400223
1747314567.042470,16.530000000,0.000000000,58004.273437500,0.000000000,0.000000000,-0.312758088,-78.768081665,0.000000000,-15.060000420,-12.011400223
1747314567.044832,16.532000000,0.000000000,58004.273437500,0.000000000,0.000000000,-0.312758088,-78.768188477,0.000000000,-15.060000420,-12.011400223
1747314567.047169,16.534000000,0.000000000,58004.273437500,0.000000000,0.000000000,-0.312758088,-78.768287659,0.000000000,-15.060000420,-12.011400223
1747314567.049513,16.537000000,0.000000000,58004.273437500,0.000000000,0.000000000,-0.312758088,-78.768394470,0.000000000,-15.060000420,-12.011400223
1747314567.051854,16.539000000,0.000000000,58004.273437500,0.000000000,0.000000000,-0.312758088,-78.768493652,0.000000000,-15.060000420,-12.011400223
1747314567.054205,16.541000000,0.000000000,58004.273437500,0.000000000,0.000000000,-0.312758088,-78.768600464,0.000000000,-15.060000420,-12.011400223
1747314567.056615,16.544000000,0.000000000,58004.273437500,0.000000000,0.000000000,-0.312758088,-78.768699646,0.000000000,-15.060000420,-12.011400223
1747314567.058988,16.546000000,0.000000000,58004.273437500,0.000000000,0.000000000,-0.312758088,-78.768806458,0.000000000,-15.060000420,-12.011400223
1747314567.061404,16.549000000,0.000000000,58004.273437500,0.000000000,0.000000000,-0.312758088,-78.768913269,0.000000000,-15.060000420,-12.011400223
1747314567.063914,16.551000000,0.000000000,58004.273437500,0.000000000,0.000000000,-0.312758088,-78.769020081,0.000000000,-15.060000420,-12.011400223
1747314567.066308,16.554000000,0.000000000,58004.273437500,0.000000000,0.000000000,-0.312758088,-78.769134521,0.000000000,-15.060000420,-12.011400223
1747314567.068668,16.556000000,0.000000000,58004.273437500,0.000000000,0.000000000,-0.312758088,-78.769241333,0.000000000,-15.060000420,-12.011400223
1747314567.071108,16.558000000,0.000000000,58004.273437500,0.000000000,0.000000000,-0.312758088,-78.769340515,0.000000000,-15.060000420,-12.011400223
1747314567.073467,16.561000000,0.000000000,58004.273437500,0.000000000,0.000000000,-0.312758088,-78.769454956,0.000000000,-15.060000420,-12.011400223
1747314567.075878,16.563000000,0.000000000,58004.273437500,0.000000000,0.000000000,-0.312758088,-78.769554138,0.000000000,-15.060000420,-12.011400223
1747314567.078263,16.566000000,0.000000000,58004.273437500,0.000000000,0.000000000,-0.312758088,-78.769660950,0.000000000,-15.060000420,-12.011400223
1747314567.080606,16.568000000,0.000000000,58004.273437500,0.000000000,0.000000000,-0.312758088,-78.769767761,0.000000000,-15.060000420,-12.011400223
1747314567.082966,16.570000000,0.000000000,58004.273437500,0.000000000,0.000000000,-0.312758088,-78.769874573,0.000000000,-15.060000420,-12.011400223
1747314567.085374,16.573000000,0.000000000,58004.273437500,0.000000000,0.000000000,-0.312758088,-78.769973755,0.000000000,-15.060000420,-12.011400223
1747314567.087737,16.575000000,0.000000000,58004.273437500,0.000000000,0.000000000,-0.312758088,-78.770080566,0.000000000,-15.060000420,-12.011400223
1747314567.090136,16.577000000,0.000000000,58004.273437500,0.000000000,0.000000000,-0.312758088,-78.770187378,0.000000000,-15.060000420,-12.011400223
1747314567.092472,16.580000000,0.000000000,58004.273437500,0.000000000,0.000000000,-0.312758088,-78.770294189,0.000000000,-15.060000420,-12.011400223
1747314567.094819,16.582000000,0.000000000,58004.273437500,0.000000000,0.000000000,-0.312758088,-78.770393372,0.000000000,-15.060000420,-12.011400223
1747314567.097173,16.584000000,0.000000000,58004.273437500,0.000000000,0.000000000,-0.312758088,-78.770500183,0.000000000,-15.060000420,-12.011400223
1747314567.099505,16.587000000,0.000000000,58004.273437500,0.000000000,0.000000000,-0.312758088,-78.770606995,0.000000000,-15.060000420,-12.011400223
1747314567.101841,16.589000000,0.000000000,58004.273437500,0.000000000,0.000000000,-0.312758088,-78.770706177,0.000000000,-15.060000420,-12.011400223
1747314567.104185,16.591000000,0.000000000,58004.273437500,0.000000000,0.000000000,-0.312758088,-78.770812988,0.000000000,-15.060000420,-12.011400223
1747314567.106533,16.594000000,0.000000000,58004.273437500,0.000000000,0.000000000,-0.312758088,-78.770912170,0.000000000,-15.060000420,-12.011400223
1747314567.108909,16.596000000,0.000000000,58004.273437500,0.000000000,0.000000000,-0.312758088,-78.771018982,0.000000000,-15.060000420,-12.011400223
1747314567.111364,16.599000000,0.000000000,58004.273437500,0.000000000,0.000000000,-0.312758088,-78.771125793,0.000000000,-15.060000420,-12.011400223
1747314567.113815,16.601000000,0.000000000,58004.273437500,0.000000000,0.000000000,-0.312758088,-78.771232605,0.000000000,-15.060000420,-12.011400223
1747314567.116143,16.603000000,0.000000000,58004.273437500,0.000000000,0.000000000,-0.312758088,-78.771339417,0.000000000,-15.060000420,-12.011400223
1747314567.118483,16.606000000,0.000000000,58004.273437500,0.000000000,0.000000000,-0.312758088,-78.771446228,0.000000000,-15.060000420,-12.011400223
1747314567.120906,16.608000000,0.000000000,58004.273437500,0.000000000,0.000000000,-0.312758088,-78.771545410,0.000000000,-15.060000420,-12.011400223
1747314567.123332,16.611000000,0.000000000,58004.273437500,0.000000000,0.000000000,-0.312758088,-78.771652222,0.000000000,-15.060000420,-12.011400223
1747314567.125661,16.613000000,0.000000000,58004.273437500,0.000000000,0.000000000,-0.312758088,-78.771759033,0.000000000,-15.060000420,-12.011400223
1747314567.128009,16.615000000,0.000000000,58004.273437500,0.000000000,0.000000000,-0.312758088,-78.771865845,0.000000000,-15.060000420,-12.011400223
1747314567.130431,16.618000000,0.000000000,58004.273437500,0.000000000,0.000000000,-0.312758088,-78.771972656,0.000000000,-15.060000420,-12.011400223
1747314567.132836,16.620000000,0.000000000,58004.273437500,0.000000000,0.000000000,-0.312758088,-78.772079468,0.000000000,-15.060000420,-12.011400223
1747314567.135258,16.623000000,0.000000000,58004.273437500,0.000000000,0.000000000,-0.312758088,-78.772186279,0.000000000,-15.060000420,-12.011400223
1747314567.137738,16.625000000,0.000000000,58004.273437500,0.000000000,0.000000000,-0.312758088,-78.772293091,0.000000000,-15.060000420,-12.011400223
1747314567.140218,16.627000000,0.000000000,58004.273437500,0.000000000,0.000000000,-0.312758088,-78.772399902,0.000000000,-15.060000420,-12.011400223
1747314567.142702,16.630000000,0.000000000,58004.273437500,0.000000000,0.000000000,-0.312758088,-78.772514343,0.000000000,-15.060000420,-12.011400223
1747314567.145230,16.632000000,0.000000000,58004.273437500,0.000000000,0.000000000,-0.312758088,-78.772621155,0.000000000,-15.060000420,-12.011400223
1747314567.147706,16.635000000,0.000000000,58004.273437500,0.000000000,0.000000000,-0.312758088,-78.772727966,0.000000000,-15.060000420,-12.011400223
1747314567.150350,16.638000000,0.000000000,58004.273437500,0.000000000,0.000000000,-0.312758088,-78.772842407,0.000000000,-15.060000420,-12.011400223
1747314567.152942,16.640000000,0.000000000,58004.273437500,0.000000000,0.000000000,-0.312758088,-78.772956848,0.000000000,-15.060000420,-12.011400223
1747314567.155515,16.643000000,0.000000000,58004.273437500,0.000000000,0.000000000,-0.312758088,-78.773071289,0.000000000,-15.060000420,-12.011400223
1747314567.158065,16.645000000,0.000000000,58004.273437500,0.000000000,0.000000000,-0.312758088,-78.773185730,0.000000000,-15.060000420,-12.011400223
1747314567.160667,16.648000000,0.000000000,58004.273437500,0.000000000,0.000000000,-0.312758088,-78.773300171,0.000000000,-15.060000420,-12.011400223
1747314567.163186,16.650000000,0.000000000,58004.273437500,0.000000000,0.000000000,-0.312758088,-78.773414612,0.000000000,-15.060000420,-12.011400223
1747314567.165642,16.653000000,0.000000000,58004.273437500,0.000000000,0.000000000,-0.312758088,-78.773529053,0.000000000,-15.060000420,-12.011400223
1747314567.168069,16.655000000,0.000000000,58004.273437500,0.000000000,0.000000000,-0.312758088,-78.773635864,0.000000000,-15.060000420,-12.011400223
1747314567.170529,16.658000000,0.000000000,58004.273437500,0.000000000,0.000000000,-0.312758088,-78.773742676,0.000000000,-15.060000420,-12.011400223
1747314567.173019,16.660000000,0.000000000,58004.273437500,0.000000000,0.000000000,-0.312758088,-78.773849487,0.000000000,-15.060000420,-12.011400223
1747314567.175489,16.663000000,0.000000000,58004.273437500,0.000000000,0.000000000,-0.312758088,-78.773963928,0.000000000,-15.060000420,-12.011400223
1747314567.177995,16.665000000,0.000000000,58004.273437500,0.000000000,0.000000000,-0.312758088,-78.774070740,0.000000000,-15.060000420,-12.011400223
1747314567.180407,16.668000000,0.000000000,58004.273437500,0.000000000,0.000000000,-0.312758088,-78.774177551,0.000000000,-15.060000420,-12.011400223
1747314567.182846,16.670000000,0.000000000,58004.273437500,0.000000000,0.000000000,-0.312758088,-78.774291992,0.000000000,-15.060000420,-12.011400223
1747314567.185333,16.673000000,0.000000000,58004.273437500,0.000000000,0.000000000,-0.312758088,-78.774398804,0.000000000,-15.060000420,-12.011400223
1747314567.187771,16.675000000,0.000000000,58004.273437500,0.000000000,0.000000000,-0.312758088,-78.774505615,0.000000000,-15.060000420,-12.011400223
1747314567.190195,16.677000000,0.000000000,58004.273437500,0.000000000,0.000000000,-0.312758088,-78.774612427,0.000000000,-15.060000420,-12.011400223
1747314567.192624,16.680000000,0.000000000,58004.273437500,0.000000000,0.000000000,-0.312758088,-78.774719238,0.000000000,-15.060000420,-12.011400223
1747314567.195001,16.682000000,0.000000000,58004.273437500,0.000000000,0.000000000,-0.312758088,-78.774826050,0.000000000,-15.060000420,-12.011400223
1747314567.197389,16.685000000,0.000000000,58004.273437500,0.000000000,0.000000000,-0.312758088,-78.774932861,0.000000000,-15.060000420,-12.011400223
1747314567.199740,16.687000000,0.000000000,58004.273437500,0.000000000,0.000000000,-0.312758088,-78.775039673,0.000000000,-15.060000420,-12.011400223
1747314567.202114,16.689000000,0.000000000,58004.273437500,0.000000000,0.000000000,-0.312758088,-78.775138855,0.000000000,-15.060000420,-12.011400223
1747314567.204563,16.692000000,0.000000000,58004.273437500,0.000000000,0.000000000,-0.312758088,-78.775245667,0.000000000,-15.060000420,-12.011400223
1747314567.206947,16.694000000,0.000000000,58004.273437500,0.000000000,0.000000000,-0.312758088,-78.775352478,0.000000000,-15.060000420,-12.011400223
1747314567.209383,16.697000000,0.000000000,58004.273437500,0.000000000,0.000000000,-0.312758088,-78.775459290,0.000000000,-15.060000420,-12.011400223
1747314567.211799,16.699000000,0.000000000,58004.273437500,0.000000000,0.000000000,-0.312758088,-78.775566101,0.000000000,-15.060000420,-12.011400223
1747314567.214245,16.701000000,0.000000000,58004.273437500,0.000000000,0.000000000,-0.312758088,-78.775672913,0.000000000,-15.060000420,-12.011400223
1747314567.216651,16.704000000,0.000000000,58004.273437500,0.000000000,0.000000000,-0.312758088,-78.775779724,0.000000000,-15.060000420,-12.011400223
1747314567.219087,16.706000000,0.000000000,58004.273437500,0.000000000,0.000000000,-0.312758088,-78.775886536,0.000000000,-15.060000420,-12.011400223
1747314567.221531,16.709000000,0.000000000,58004.273437500,0.000000000,0.000000000,-0.312758088,-78.775993347,0.000000000,-15.060000420,-12.011400223
1747314567.224000,16.711000000,0.000000000,58004.273437500,0.000000000,0.000000000,-0.312758088,-78.776107788,0.000000000,-15.060000420,-12.011400223
1747314567.226442,16.714000000,0.000000000,58004.273437500,0.000000000,0.000000000,-0.312758088,-78.776214600,0.000000000,-15.060000420,-12.011400223
1747314567.228947,16.716000000,0.000000000,58004.273437500,0.000000000,0.000000000,-0.312758088,-78.776321411,0.000000000,-15.060000420,-12.011400223
1747314567.231409,16.719000000,0.000000000,58004.273437500,0.000000000,0.000000000,-0.312758088,-78.776435852,0.000000000,-15.060000420,-12.011400223
1747314567.233862,16.721000000,0.000000000,58004.273437500,0.000000000,0.000000000,-0.312758088,-78.776542664,0.000000000,-15.060000420,-12.011400223
1747314567.236447,16.724000000,0.000000000,58004.273437500,0.000000000,0.000000000,-0.312758088,-78.776649475,0.000000000,-15.060000420,-12.011400223
1747314567.238951,16.726000000,0.000000000,58004.273437500,0.000000000,0.000000000,-0.312758088,-78.776763916,0.000000000,-15.060000420,-12.011400223
1747314567.241364,16.729000000,0.000000000,58004.273437500,0.000000000,0.000000000,-0.312758088,-78.776870728,0.000000000,-15.060000420,-12.011400223
1747314567.243753,16.731000000,0.000000000,58004.273437500,0.000000000,0.000000000,-0.312758088,-78.776977539,0.000000000,-15.060000420,-12.011400223
1747314567.246169,16.733000000,0.000000000,58004.273437500,0.000000000,0.000000000,-0.312758088,-78.777084351,0.000000000,-15.060000420,-12.011400223
1747314567.248558,16.736000000,0.000000000,58004.273437500,0.000000000,0.000000000,-0.312758088,-78.777191162,0.000000000,-15.060000420,-12.011400223
1747314567.250917,16.738000000,0.000000000,58004.273437500,0.000000000,0.000000000,-0.312758088,-78.777297974,0.000000000,-15.060000420,-12.011400223
1747314567.253295,16.741000000,0.000000000,58004.273437500,0.000000000,0.000000000,-0.312758088,-78.777404785,0.000000000,-15.060000420,-12.011400223
1747314567.255685,16.743000000,0.000000000,58004.273437500,0.000000000,0.000000000,-0.312758088,-78.777511597,0.000000000,-15.060000420,-12.011400223
1747314567.258070,16.745000000,0.000000000,58004.273437500,0.000000000,0.000000000,-0.312758088,-78.777618408,0.000000000,-15.060000420,-12.011400223
1747314567.260466,16.748000000,0.000000000,58004.273437500,0.000000000,0.000000000,-0.312758088,-78.777717590,0.000000000,-15.060000420,-12.011400223
1747314567.262850,16.750000000,0.000000000,58004.273437500,0.000000000,0.000000000,-0.312758088,-78.777824402,0.000000000,-15.060000420,-12.011400223
1747314567.265244,16.753000000,0.000000000,58004.273437500,0.000000000,0.000000000,-0.312758088,-78.777931213,0.000000000,-15.060000420,-12.011400223
1747314567.267667,16.755000000,0.000000000,58004.273437500,0.000000000,0.000000000,-0.312758088,-78.778038025,0.000000000,-15.060000420,-12.011400223
1747314567.270113,16.757000000,0.000000000,58004.273437500,0.000000000,0.000000000,-0.312758088,-78.778144836,0.000000000,-15.060000420,-12.011400223
1747314567.272578,16.760000000,0.000000000,58004.273437500,0.000000000,0.000000000,-0.312758088,-78.778251648,0.000000000,-15.060000420,-12.011400223
1747314567.274998,16.762000000,0.000000000,58004.273437500,0.000000000,0.000000000,-0.312758088,-78.778358459,0.000000000,-15.060000420,-12.011400223
1747314567.277406,16.765000000,0.000000000,58004.273437500,0.000000000,0.000000000,-0.312758088,-78.778465271,0.000000000,-15.060000420,-12.011400223
1747314567.279802,16.767000000,0.000000000,58004.273437500,0.000000000,0.000000000,-0.312758088,-78.778572083,0.000000000,-15.060000420,-12.011400223
1747314567.282196,16.769000000,0.000000000,58004.273437500,0.000000000,0.000000000,-0.312758088,-78.778678894,0.000000000,-15.060000420,-12.011400223
1747314567.284575,16.772000000,0.000000000,58004.273437500,0.000000000,0.000000000,-0.312758088,-78.778785706,0.000000000,-15.060000420,-12.011400223
1747314567.286956,16.774000000,0.000000000,58004.273437500,0.000000000,0.000000000,-0.312758088,-78.778892517,0.000000000,-15.060000420,-12.011400223
1747314567.289502,16.777000000,0.000000000,58004.273437500,0.000000000,0.000000000,-0.312758088,-78.778999329,0.000000000,-15.060000420,-12.011400223
1747314567.291930,16.779000000,0.000000000,58004.273437500,0.000000000,0.000000000,-0.312758088,-78.779106140,0.000000000,-15.060000420,-12.011400223
1747314567.294345,16.782000000,0.000000000,58004.273437500,0.000000000,0.000000000,-0.312758088,-78.779212952,0.000000000,-15.060000420,-12.011400223
1747314567.296720,16.784000000,0.000000000,58004.273437500,0.000000000,0.000000000,-0.312758088,-78.779319763,0.000000000,-15.060000420,-12.011400223
1747314567.299103,16.786000000,0.000000000,58004.273437500,0.000000000,0.000000000,-0.312758088,-78.779426575,0.000000000,-15.060000420,-12.011400223
1747314567.301482,16.789000000,0.000000000,58004.273437500,0.000000000,0.000000000,-0.312758088,-78.779533386,0.000000000,-15.060000420,-12.011400223
1747314567.303864,16.791000000,0.000000000,58004.273437500,0.000000000,0.000000000,-0.312758088,-78.779640198,0.000000000,-15.060000420,-12.011400223
1747314567.306236,16.793000000,0.000000000,58004.273437500,0.000000000,0.000000000,-0.312758088,-78.779747009,0.000000000,-15.060000420,-12.011400223
1747314567.308606,16.796000000,0.000000000,58004.273437500,0.000000000,0.000000000,-0.312758088,-78.779853821,0.000000000,-15.060000420,-12.011400223
1747314567.311012,16.798000000,0.000000000,58004.273437500,0.000000000,0.000000000,-0.312758088,-78.779953003,0.000000000,-15.060000420,-12.011400223
1747314567.313433,16.801000000,0.000000000,58004.273437500,0.000000000,0.000000000,-0.312758088,-78.780059814,0.000000000,-15.060000420,-12.011400223
1747314567.315871,16.803000000,0.000000000,58004.273437500,0.000000000,0.000000000,-0.312758088,-78.780166626,0.000000000,-15.060000420,-12.011400223
1747314567.318325,16.806000000,0.000000000,58004.273437500,0.000000000,0.000000000,-0.312758088,-78.780273438,0.000000000,-15.060000420,-12.011400223
1747314567.320760,16.808000000,0.000000000,58004.273437500,0.000000000,0.000000000,-0.312758088,-78.780387878,0.000000000,-15.060000420,-12.011400223
1747314567.323226,16.810000000,0.000000000,58004.273437500,0.000000000,0.000000000,-0.312758088,-78.780494690,0.000000000,-15.060000420,-12.011400223
1747314567.325721,16.813000000,0.000000000,58004.273437500,0.000000000,0.000000000,-0.312758088,-78.780601501,0.000000000,-15.060000420,-12.011400223
1747314567.328176,16.815000000,0.000000000,58004.273437500,0.000000000,0.000000000,-0.312758088,-78.780708313,0.000000000,-15.060000420,-12.011400223
1747314567.330616,16.818000000,0.000000000,58004.273437500,0.000000000,0.000000000,-0.312758088,-78.780822754,0.000000000,-15.060000420,-12.011400223
1747314567.333036,16.820000000,0.000000000,58004.273437500,0.000000000,0.000000000,-0.312758088,-78.780929565,0.000000000,-15.060000420,-12.011400223
1747314567.335398,16.823000000,0.000000000,58004.273437500,0.000000000,0.000000000,-0.312758088,-78.781036377,0.000000000,-15.060000420,-12.011400223
1747314567.337784,16.825000000,0.000000000,58004.273437500,0.000000000,0.000000000,-0.312758088,-78.781135559,0.000000000,-15.060000420,-12.011400223
1747314567.340163,16.827000000,0.000000000,58004.273437500,0.000000000,0.000000000,-0.312758088,-78.781242371,0.000000000,-15.060000420,-12.011400223
1747314567.342524,16.830000000,0.000000000,58004.273437500,0.000000000,0.000000000,-0.312758088,-78.781349182,0.000000000,-15.060000420,-12.011400223
1747314567.344919,16.832000000,0.000000000,58004.273437500,0.000000000,0.000000000,-0.312758088,-78.781455994,0.000000000,-15.060000420,-12.011400223
1747314567.347268,16.835000000,0.000000000,58004.273437500,0.000000000,0.000000000,-0.312758088,-78.781562805,0.000000000,-15.060000420,-12.011400223
1747314567.349664,16.837000000,0.000000000,58004.273437500,0.000000000,0.000000000,-0.312758088,-78.781661987,0.000000000,-15.060000420,-12.011400223
1747314567.352030,16.839000000,0.000000000,58004.273437500,0.000000000,0.000000000,-0.312758088,-78.781768799,0.000000000,-15.060000420,-12.011400223
1747314567.354427,16.842000000,0.000000000,58004.273437500,0.000000000,0.000000000,-0.312758088,-78.781875610,0.000000000,-15.060000420,-12.011400223
1747314567.356802,16.844000000,0.000000000,58004.273437500,0.000000000,0.000000000,-0.312758088,-78.781982422,0.000000000,-15.060000420,-12.011400223
1747314567.359226,16.846000000,0.000000000,58004.273437500,0.000000000,0.000000000,-0.312758088,-78.782081604,0.000000000,-15.060000420,-12.011400223
1747314567.361531,16.849000000,0.000000000,58004.273437500,0.000000000,0.000000000,-0.312758088,-78.782188416,0.000000000,-15.060000420,-12.011400223
1747314567.363978,16.851000000,0.000000000,58004.273437500,0.000000000,0.000000000,-0.312758088,-78.782295227,0.000000000,-15.060000420,-12.011400223
1747314567.366435,16.854000000,0.000000000,58004.273437500,0.000000000,0.000000000,-0.312758088,-78.782402039,0.000000000,-15.060000420,-12.011400223
1747314567.368872,16.856000000,0.000000000,58004.273437500,0.000000000,0.000000000,-0.312758088,-78.782516479,0.000000000,-15.060000420,-12.011400223
1747314567.371323,16.859000000,0.000000000,58004.273437500,0.000000000,0.000000000,-0.312758088,-78.782623291,0.000000000,-15.060000420,-12.011400223
1747314567.373754,16.861000000,0.000000000,58004.273437500,0.000000000,0.000000000,-0.312758088,-78.782730103,0.000000000,-15.060000420,-12.011400223
1747314567.376246,16.863000000,0.000000000,58004.273437500,0.000000000,0.000000000,-0.312758088,-78.782836914,0.000000000,-15.060000420,-12.011400223
1747314567.378711,16.866000000,0.000000000,58004.273437500,0.000000000,0.000000000,-0.312758088,-78.782951355,0.000000000,-15.060000420,-12.011400223
1747314567.381147,16.868000000,0.000000000,58004.273437500,0.000000000,0.000000000,-0.312758088,-78.783058167,0.000000000,-15.060000420,-12.011400223
1747314567.383616,16.871000000,0.000000000,58004.273437500,0.000000000,0.000000000,-0.312758088,-78.783164978,0.000000000,-15.060000420,-12.011400223
1747314567.386048,16.873000000,0.000000000,58004.273437500,0.000000000,0.000000000,-0.312758088,-78.783271790,0.000000000,-15.060000420,-12.011400223
1747314567.388486,16.876000000,0.000000000,58004.273437500,0.000000000,0.000000000,-0.312758088,-78.783386230,0.000000000,-15.060000420,-12.011400223
1747314567.390932,16.878000000,0.000000000,58004.273437500,0.000000000,0.000000000,-0.312758088,-78.783493042,0.000000000,-15.060000420,-12.011400223
1747314567.393430,16.881000000,0.000000000,58004.273437500,0.000000000,0.000000000,-0.312758088,-78.783599854,0.000000000,-15.060000420,-12.011400223
1747314567.395842,16.883000000,0.000000000,58004.273437500,0.000000000,0.000000000,-0.312758088,-78.783706665,0.000000000,-15.060000420,-12.011400223
1747314567.398352,16.886000000,0.000000000,58004.273437500,0.000000000,0.000000000,-0.312758088,-78.783813477,0.000000000,-15.060000420,-12.011400223
1747314567.400793,16.888000000,0.000000000,58004.273437500,0.000000000,0.000000000,-0.312758088,-78.783927917,0.000000000,-15.060000420,-12.011400223
1747314567.403214,16.890000000,0.000000000,58004.273437500,0.000000000,0.000000000,-0.312758088,-78.784034729,0.000000000,-15.060000420,-12.011400223
1747314567.405658,16.893000000,0.000000000,58004.273437500,0.000000000,0.000000000,-0.312758088,-78.784141541,0.000000000,-15.060000420,-12.011400223
1747314567.408140,16.895000000,0.000000000,58004.273437500,0.000000000,0.000000000,-0.312758088,-78.784248352,0.000000000,-15.060000420,-12.011400223
1747314567.410570,16.898000000,0.000000000,58004.273437500,0.000000000,0.000000000,-0.312758088,-78.784355164,0.000000000,-15.060000420,-12.011400223
1747314567.412999,16.900000000,0.000000000,58004.273437500,0.000000000,0.000000000,-0.312758088,-78.784461975,0.000000000,-15.060000420,-12.011400223
1747314567.415452,16.903000000,0.000000000,58004.273437500,0.000000000,0.000000000,-0.312758088,-78.784568787,0.000000000,-15.060000420,-12.011400223
1747314567.417881,16.905000000,0.000000000,58004.273437500,0.000000000,0.000000000,-0.312758088,-78.784683228,0.000000000,-15.060000420,-12.011400223
1747314567.420316,16.908000000,0.000000000,58004.273437500,0.000000000,0.000000000,-0.312758088,-78.784790039,0.000000000,-15.060000420,-12.011400223
1747314567.422758,16.910000000,0.000000000,58004.273437500,0.000000000,0.000000000,-0.312758088,-78.784896851,0.000000000,-15.060000420,-12.011400223
1747314567.425323,16.912000000,0.000000000,58004.273437500,0.000000000,0.000000000,-0.312758088,-78.785003662,0.000000000,-15.060000420,-12.011400223
1747314567.427787,16.915000000,0.000000000,58004.273437500,0.000000000,0.000000000,-0.312758088,-78.785118103,0.000000000,-15.060000420,-12.011400223
1747314567.430256,16.917000000,0.000000000,58004.273437500,0.000000000,0.000000000,-0.312758088,-78.785224915,0.000000000,-15.060000420,-12.011400223
1747314567.432686,16.920000000,0.000000000,58004.273437500,0.000000000,0.000000000,-0.312758088,-78.785331726,0.000000000,-15.060000420,-12.011400223
1747314567.435078,16.922000000,0.000000000,58004.273437500,0.000000000,0.000000000,-0.312758088,-78.785446167,0.000000000,-15.060000420,-12.011400223
1747314567.437505,16.925000000,0.000000000,58004.273437500,0.000000000,0.000000000,-0.312758088,-78.785545349,0.000000000,-15.060000420,-12.011400223
1747314567.439873,16.927000000,0.000000000,58004.273437500,0.000000000,0.000000000,-0.312758088,-78.785652161,0.000000000,-15.060000420,-12.011400223
1747314567.442250,16.929000000,0.000000000,58004.273437500,0.000000000,0.000000000,-0.312758088,-78.785758972,0.000000000,-15.060000420,-12.011400223
1747314567.444674,16.932000000,0.000000000,58004.273437500,0.000000000,0.000000000,-0.312758088,-78.785865784,0.000000000,-15.060000420,-12.011400223
1747314567.447069,16.934000000,0.000000000,58004.273437500,0.000000000,0.000000000,-0.312758088,-78.785972595,0.000000000,-15.060000420,-12.011400223
1747314567.449456,16.937000000,0.000000000,58004.273437500,0.000000000,0.000000000,-0.312758088,-78.786079407,0.000000000,-15.060000420,-12.011400223
1747314567.451783,16.939000000,0.000000000,58004.273437500,0.000000000,0.000000000,-0.312758088,-78.786178589,0.000000000,-15.060000420,-12.011400223
1747314567.454153,16.941000000,0.000000000,58004.273437500,0.000000000,0.000000000,-0.312758088,-78.786285400,0.000000000,-15.060000420,-12.011400223
1747314567.456564,16.944000000,0.000000000,58004.273437500,0.000000000,0.000000000,-0.312758088,-78.786392212,0.000000000,-15.060000420,-12.011400223
1747314567.458930,16.946000000,0.000000000,58004.273437500,0.000000000,0.000000000,-0.312758088,-78.786499023,0.000000000,-15.060000420,-12.011400223
1747314567.461335,16.949000000,0.000000000,58004.273437500,0.000000000,0.000000000,-0.312758088,-78.786605835,0.000000000,-15.060000420,-12.011400223
1747314567.463803,16.951000000,0.000000000,58004.273437500,0.000000000,0.000000000,-0.312758088,-78.786705017,0.000000000,-15.060000420,-12.011400223
1747314567.466178,16.953000000,0.000000000,58004.273437500,0.000000000,0.000000000,-0.312758088,-78.786811829,0.000000000,-15.060000420,-12.011400223
1747314567.468578,16.956000000,0.000000000,58004.273437500,0.000000000,0.000000000,-0.312758088,-78.786918640,0.000000000,-15.060000420,-12.011400223
1747314567.470952,16.958000000,0.000000000,58004.273437500,0.000000000,0.000000000,-0.312758088,-78.787025452,0.000000000,-15.060000420,-12.011400223
1747314567.473348,16.961000000,0.000000000,58004.273437500,0.000000000,0.000000000,-0.312758088,-78.787132263,0.000000000,-15.060000420,-12.011400223
1747314567.475713,16.963000000,0.000000000,58004.273437500,0.000000000,0.000000000,-0.312758088,-78.787239075,0.000000000,-15.060000420,-12.011400223
1747314567.478133,16.965000000,0.000000000,58004.273437500,0.000000000,0.000000000,-0.312758088,-78.787345886,0.000000000,-15.060000420,-12.011400223
1747314567.480508,16.968000000,0.000000000,58004.273437500,0.000000000,0.000000000,-0.312758088,-78.787452698,0.000000000,-15.060000420,-12.011400223
1747314567.482882,16.970000000,0.000000000,58004.273437500,0.000000000,0.000000000,-0.312758088,-78.787559509,0.000000000,-15.060000420,-12.011400223
1747314567.485249,16.973000000,0.000000000,58004.273437500,0.000000000,0.000000000,-0.312758088,-78.787658691,0.000000000,-15.060000420,-12.011400223
1747314567.487619,16.975000000,0.000000000,58004.273437500,0.000000000,0.000000000,-0.312758088,-78.787765503,0.000000000,-15.060000420,-12.011400223
1747314567.490001,16.977000000,0.000000000,58004.273437500,0.000000000,0.000000000,-0.312758088,-78.787872314,0.000000000,-15.060000420,-12.011400223
1747314567.492389,16.980000000,0.000000000,58004.273437500,0.000000000,0.000000000,-0.312758088,-78.787979126,0.000000000,-15.060000420,-12.011400223
1747314567.494776,16.982000000,0.000000000,58004.273437500,0.000000000,0.000000000,-0.312758088,-78.788085938,0.000000000,-15.060000420,-12.011400223
1747314567.497270,16.984000000,0.000000000,58004.273437500,0.000000000,0.000000000,-0.312758088,-78.788185120,0.000000000,-15.060000420,-12.011400223
1747314567.499640,16.987000000,0.000000000,58004.273437500,0.000000000,0.000000000,-0.312758088,-78.788299561,0.000000000,-15.060000420,-12.011400223
1747314567.502009,16.989000000,0.000000000,58004.273437500,0.000000000,0.000000000,-0.312758088,-78.788406372,0.000000000,-15.060000420,-12.011400223
1747314567.504398,16.992000000,0.000000000,58004.273437500,0.000000000,0.000000000,-0.312758088,-78.788505554,0.000000000,-15.060000420,-12.011400223
1747314567.506747,16.994000000,0.000000000,58004.273437500,0.000000000,0.000000000,-0.312758088,-78.788612366,0.000000000,-15.060000420,-12.011400223
1747314567.509121,16.996000000,0.000000000,58004.273437500,0.000000000,0.000000000,-0.312758088,-78.788719177,0.000000000,-15.060000420,-12.011400223
1747314567.511526,16.999000000,0.000000000,58004.273437500,0.000000000,0.000000000,-0.312758088,-78.788825989,0.000000000,-15.060000420,-12.011400223
1747314567.513917,17.001000000,0.000000000,58004.273437500,0.000000000,0.000000000,-0.312758088,-78.788932800,0.000000000,-15.060000420,-12.011400223
1747314567.516325,17.004000000,0.000000000,58004.273437500,0.000000000,0.000000000,-0.312758088,-78.789031982,0.000000000,-15.060000420,-12.011400223
1747314567.518702,17.006000000,0.000000000,58004.273437500,0.000000000,0.000000000,-0.312758088,-78.789138794,0.000000000,-15.060000420,-12.011400223
1747314567.521136,17.008000000,0.000000000,58004.273437500,0.000000000,0.000000000,-0.312758088,-78.789245605,0.000000000,-15.060000420,-12.011400223
1747314567.523531,17.011000000,0.000000000,58004.273437500,0.000000000,0.000000000,-0.312758088,-78.789352417,0.000000000,-15.060000420,-12.011400223
1747314567.525865,17.013000000,0.000000000,58004.273437500,0.000000000,0.000000000,-0.312758088,-78.789459229,0.000000000,-15.060000420,-12.011400223
1747314567.528259,17.016000000,0.000000000,58004.273437500,0.000000000,0.000000000,-0.312758088,-78.789566040,0.000000000,-15.060000420,-12.011400223
1747314567.530640,17.018000000,0.000000000,58004.273437500,0.000000000,0.000000000,-0.312758088,-78.789665222,0.000000000,-15.060000420,-12.011400223
1747314567.533096,17.020000000,0.000000000,58004.273437500,0.000000000,0.000000000,-0.312758088,-78.789772034,0.000000000,-15.060000420,-12.011400223
1747314567.535454,17.023000000,0.000000000,58004.273437500,0.000000000,0.000000000,-0.312758088,-78.789878845,0.000000000,-15.060000420,-12.011400223
1747314567.537818,17.025000000,0.000000000,58004.273437500,0.000000000,0.000000000,-0.312758088,-78.789985657,0.000000000,-15.060000420,-12.011400223
1747314567.540211,17.027000000,0.000000000,58004.273437500,0.000000000,0.000000000,-0.312758088,-78.790092468,0.000000000,-15.060000420,-12.011400223
1747314567.542623,17.030000000,0.000000000,58004.273437500,0.000000000,0.000000000,-0.312758088,-78.790199280,0.000000000,-15.060000420,-12.011400223
1747314567.545052,17.032000000,0.000000000,58004.273437500,0.000000000,0.000000000,-0.312758088,-78.790306091,0.000000000,-15.060000420,-12.011400223
1747314567.547422,17.035000000,0.000000000,58004.273437500,0.000000000,0.000000000,-0.312758088,-78.790412903,0.000000000,-15.060000420,-12.011400223
1747314567.549792,17.037000000,0.000000000,58004.273437500,0.000000000,0.000000000,-0.312758088,-78.790519714,0.000000000,-15.060000420,-12.011400223
1747314567.552204,17.039000000,0.000000000,58004.273437500,0.000000000,0.000000000,-0.312758088,-78.790618896,0.000000000,-15.060000420,-12.011400223
1747314567.554539,17.042000000,0.000000000,58004.273437500,0.000000000,0.000000000,-0.312758088,-78.790725708,0.000000000,-15.060000420,-12.011400223
1747314567.556911,17.044000000,0.000000000,58004.273437500,0.000000000,0.000000000,-0.312758088,-78.790832520,0.000000000,-15.060000420,-12.011400223
1747314567.559276,17.047000000,0.000000000,58004.273437500,0.000000000,0.000000000,-0.312758088,-78.790939331,0.000000000,-15.060000420,-12.011400223
1747314567.561672,17.049000000,0.000000000,58004.273437500,0.000000000,0.000000000,-0.312758088,-78.791038513,0.000000000,-15.060000420,-12.011400223
1747314567.564091,17.051000000,0.000000000,58004.273437500,0.000000000,0.000000000,-0.312758088,-78.791145325,0.000000000,-15.060000420,-12.011400223
1747314567.566523,17.054000000,0.000000000,58004.273437500,0.000000000,0.000000000,-0.312758088,-78.791252136,0.000000000,-15.060000420,-12.011400223
1747314567.568904,17.056000000,0.000000000,58004.273437500,0.000000000,0.000000000,-0.312758088,-78.791358948,0.000000000,-15.060000420,-12.011400223
1747314567.571311,17.059000000,0.000000000,58004.273437500,0.000000000,0.000000000,-0.312758088,-78.791465759,0.000000000,-15.060000420,-12.011400223
1747314567.573705,17.061000000,0.000000000,58004.273437500,0.000000000,0.000000000,-0.312758088,-78.791572571,0.000000000,-15.060000420,-12.011400223
1747314567.576068,17.063000000,0.000000000,58004.273437500,0.000000000,0.000000000,-0.312758088,-78.791679382,0.000000000,-15.060000420,-12.011400223
1747314567.578593,17.066000000,0.000000000,58004.273437500,0.000000000,0.000000000,-0.312758088,-78.791778564,0.000000000,-15.060000420,-12.011400223
1747314567.580879,17.068000000,0.000000000,58004.273437500,0.000000000,0.000000000,-0.312758088,-78.791893005,0.000000000,-15.060000420,-12.011400223
1747314567.583297,17.071000000,0.000000000,58004.273437500,0.000000000,0.000000000,-0.312758088,-78.791999817,0.000000000,-15.060000420,-12.011400223
1747314567.585682,17.073000000,0.000000000,58004.273437500,0.000000000,0.000000000,-0.312758088,-78.792106628,0.000000000,-15.060000420,-12.011400223
1747314567.588134,17.075000000,0.000000000,58004.273437500,0.000000000,0.000000000,-0.312758088,-78.792205811,0.000000000,-15.060000420,-12.011400223
1747314567.590470,17.078000000,0.000000000,58004.273437500,0.000000000,0.000000000,-0.312758088,-78.792320251,0.000000000,-15.060000420,-12.011400223
1747314567.592863,17.080000000,0.000000000,58004.273437500,0.000000000,0.000000000,-0.312758088,-78.792419434,0.000000000,-15.060000420,-12.011400223
1747314567.595274,17.083000000,0.000000000,58004.273437500,0.000000000,0.000000000,-0.312758088,-78.792526245,0.000000000,-15.060000420,-12.011400223
1747314567.597729,17.085000000,0.000000000,58004.273437500,0.000000000,0.000000000,-0.312758088,-78.792633057,0.000000000,-15.060000420,-12.011400223
1747314567.600132,17.087000000,0.000000000,58004.273437500,0.000000000,0.000000000,-0.312758088,-78.792739868,0.000000000,-15.060000420,-12.011400223
1747314567.602615,17.090000000,0.000000000,58004.273437500,0.000000000,0.000000000,-0.312758088,-78.792846680,0.000000000,-15.060000420,-12.011400223
1747314567.605046,17.092000000,0.000000000,58004.273437500,0.000000000,0.000000000,-0.312758088,-78.792953491,0.000000000,-15.060000420,-12.011400223
1747314567.607394,17.095000000,0.000000000,58004.273437500,0.000000000,0.000000000,-0.312758088,-78.793060303,0.000000000,-15.060000420,-12.011400223
1747314567.609776,17.097000000,0.000000000,58004.273437500,0.000000000,0.000000000,-0.312758088,-78.793167114,0.000000000,-15.060000420,-12.011400223
1747314567.612162,17.099000000,0.000000000,58004.273437500,0.000000000,0.000000000,-0.312758088,-78.793273926,0.000000000,-15.060000420,-12.011400223
1747314567.614487,17.102000000,0.000000000,58004.273437500,0.000000000,0.000000000,-0.312758088,-78.793380737,0.000000000,-15.060000420,-12.011400223
1747314567.616853,17.104000000,0.000000000,58004.273437500,0.000000000,0.000000000,-0.312758088,-78.793479919,0.000000000,-15.060000420,-12.011400223
1747314567.619248,17.106000000,0.000000000,58004.273437500,0.000000000,0.000000000,-0.312758088,-78.793586731,0.000000000,-15.060000420,-12.011400223
1747314567.621740,17.109000000,0.000000000,58004.273437500,0.000000000,0.000000000,-0.312758088,-78.793693542,0.000000000,-15.060000420,-12.011400223
1747314567.624109,17.111000000,0.000000000,58004.273437500,0.000000000,0.000000000,-0.312758088,-78.793800354,0.000000000,-15.060000420,-12.011400223
1747314567.626552,17.114000000,0.000000000,58004.273437500,0.000000000,0.000000000,-0.312758088,-78.793907166,0.000000000,-15.060000420,-12.011400223
1747314567.628883,17.116000000,0.000000000,58004.273437500,0.000000000,0.000000000,-0.312758088,-78.794013977,0.000000000,-15.060000420,-12.011400223
1747314567.631238,17.119000000,0.000000000,58004.273437500,0.000000000,0.000000000,-0.312758088,-78.794120789,0.000000000,-15.060000420,-12.011400223
1747314567.633620,17.121000000,0.000000000,58004.273437500,0.000000000,0.000000000,-0.312758088,-78.794219971,0.000000000,-15.060000420,-12.011400223
1747314567.635952,17.123000000,0.000000000,58004.273437500,0.000000000,0.000000000,-0.312758088,-78.794326782,0.000000000,-15.060000420,-12.011400223
1747314567.638289,17.126000000,0.000000000,58004.273437500,0.000000000,0.000000000,-0.312758088,-78.794433594,0.000000000,-15.060000420,-12.011400223
1747314567.640615,17.128000000,0.000000000,58004.273437500,0.000000000,0.000000000,-0.312758088,-78.794532776,0.000000000,-15.060000420,-12.011400223
1747314567.642960,17.130000000,0.000000000,58004.273437500,0.000000000,0.000000000,-0.312758088,-78.794639587,0.000000000,-15.060000420,-12.011400223
1747314567.645320,17.133000000,0.000000000,58004.273437500,0.000000000,0.000000000,-0.312758088,-78.794738770,0.000000000,-15.060000420,-12.011400223
1747314567.647661,17.135000000,0.000000000,58004.273437500,0.000000000,0.000000000,-0.312758088,-78.794845581,0.000000000,-15.060000420,-12.011400223
1747314567.650002,17.137000000,0.000000000,58004.273437500,0.000000000,0.000000000,-0.312758088,-78.794952393,0.000000000,-15.060000420,-12.011400223
1747314567.652345,17.140000000,0.000000000,58004.273437500,0.000000000,0.000000000,-0.312758088,-78.795051575,0.000000000,-15.060000420,-12.011400223
1747314567.654674,17.142000000,0.000000000,58004.273437500,0.000000000,0.000000000,-0.312758088,-78.795158386,0.000000000,-15.060000420,-12.011400223
1747314567.657050,17.144000000,0.000000000,58004.273437500,0.000000000,0.000000000,-0.312758088,-78.795257568,0.000000000,-15.060000420,-12.011400223
1747314567.659446,17.147000000,0.000000000,58004.273437500,0.000000000,0.000000000,-0.312758088,-78.795364380,0.000000000,-15.060000420,-12.011400223
1747314567.661893,17.149000000,0.000000000,58004.273437500,0.000000000,0.000000000,-0.312758088,-78.795471191,0.000000000,-15.060000420,-12.011400223
1747314567.664400,17.152000000,0.000000000,58004.273437500,0.000000000,0.000000000,-0.312758088,-78.795578003,0.000000000,-15.060000420,-12.011400223
1747314567.666757,17.154000000,0.000000000,58004.273437500,0.000000000,0.000000000,-0.312758088,-78.795684814,0.000000000,-15.060000420,-12.011400223
1747314567.669173,17.156000000,0.000000000,58004.273437500,0.000000000,0.000000000,-0.312758088,-78.795791626,0.000000000,-15.060000420,-12.011400223
1747314567.671520,17.159000000,0.000000000,58004.273437500,0.000000000,0.000000000,-0.312758088,-78.795898438,0.000000000,-15.060000420,-12.011400223
1747314567.673852,17.161000000,0.000000000,58004.273437500,0.000000000,0.000000000,-0.312758088,-78.796005249,0.000000000,-15.060000420,-12.011400223
1747314567.676196,17.163000000,0.000000000,58004.273437500,0.000000000,0.000000000,-0.312758088,-78.796104431,0.000000000,-15.060000420,-12.011400223
1747314567.678581,17.166000000,0.000000000,58004.273437500,0.000000000,0.000000000,-0.312758088,-78.796211243,0.000000000,-15.060000420,-12.011400223
1747314567.680937,17.168000000,0.000000000,58004.273437500,0.000000000,0.000000000,-0.312758088,-78.796318054,0.000000000,-15.060000420,-12.011400223
1747314567.683299,17.171000000,0.000000000,58004.273437500,0.000000000,0.000000000,-0.312758088,-78.796417236,0.000000000,-15.060000420,-12.011400223
1747314567.685659,17.173000000,0.000000000,58004.273437500,0.000000000,0.000000000,-0.312758088,-78.796524048,0.000000000,-15.060000420,-12.011400223
1747314567.688000,17.175000000,0.000000000,58004.273437500,0.000000000,0.000000000,-0.312758088,-78.796630859,0.000000000,-15.060000420,-12.011400223
1747314567.690371,17.178000000,0.000000000,58004.273437500,0.000000000,0.000000000,-0.312758088,-78.796730042,0.000000000,-15.060000420,-12.011400223
1747314567.692762,17.180000000,0.000000000,58004.273437500,0.000000000,0.000000000,-0.312758088,-78.796836853,0.000000000,-15.060000420,-12.011400223
1747314567.695134,17.182000000,0.000000000,58004.273437500,0.000000000,0.000000000,-0.312758088,-78.796943665,0.000000000,-15.060000420,-12.011400223
1747314567.697466,17.185000000,0.000000000,58004.273437500,0.000000000,0.000000000,-0.312758088,-78.797050476,0.000000000,-15.060000420,-12.011400223
1747314567.699837,17.187000000,0.000000000,58004.273437500,0.000000000,0.000000000,-0.312758088,-78.797149658,0.000000000,-15.060000420,-12.011400223
1747314567.702236,17.189000000,0.000000000,58004.273437500,0.000000000,0.000000000,-0.312758088,-78.797256470,0.000000000,-15.060000420,-12.011400223
1747314567.704584,17.192000000,0.000000000,58004.273437500,0.000000000,0.000000000,-0.312758088,-78.797363281,0.000000000,-15.060000420,-12.011400223
1747314567.706960,17.194000000,0.000000000,58004.273437500,0.000000000,0.000000000,-0.312758088,-78.797462463,0.000000000,-15.060000420,-12.011400223
1747314567.709299,17.197000000,0.000000000,58004.273437500,0.000000000,0.000000000,-0.312758088,-78.797569275,0.000000000,-15.060000420,-12.011400223
1747314567.711660,17.199000000,0.000000000,58004.273437500,0.000000000,0.000000000,-0.312758088,-78.797676086,0.000000000,-15.060000420,-12.011400223
1747314567.714013,17.201000000,0.000000000,58004.273437500,0.000000000,0.000000000,-0.312758088,-78.797775269,0.000000000,-15.060000420,-12.011400223
1747314567.716443,17.204000000,0.000000000,58004.273437500,0.000000000,0.000000000,-0.312758088,-78.797882080,0.000000000,-15.060000420,-12.011400223
1747314567.718833,17.206000000,0.000000000,58004.273437500,0.000000000,0.000000000,-0.312758088,-78.797988892,0.000000000,-15.060000420,-12.011400223
1747314567.721203,17.208000000,0.000000000,58004.273437500,0.000000000,0.000000000,-0.312758088,-78.798095703,0.000000000,-15.060000420,-12.011400223
1747314567.723567,17.211000000,0.000000000,58004.273437500,0.000000000,0.000000000,-0.312758088,-78.798202515,0.000000000,-15.060000420,-12.011400223
1747314567.725964,17.213000000,0.000000000,58004.273437500,0.000000000,0.000000000,-0.312758088,-78.798301697,0.000000000,-15.060000420,-12.011400223
1747314567.728364,17.216000000,0.000000000,58004.273437500,0.000000000,0.000000000,-0.312758088,-78.798408508,0.000000000,-15.060000420,-12.011400223
1747314567.730730,17.218000000,0.000000000,58004.273437500,0.000000000,0.000000000,-0.312758088,-78.798515320,0.000000000,-15.060000420,-12.011400223
1747314567.733136,17.220000000,0.000000000,58004.273437500,0.000000000,0.000000000,-0.312758088,-78.798622131,0.000000000,-15.060000420,-12.011400223
1747314567.735549,17.223000000,0.000000000,58004.273437500,0.000000000,0.000000000,-0.312758088,-78.798728943,0.000000000,-15.060000420,-12.011400223
1747314567.737949,17.225000000,0.000000000,58004.273437500,0.000000000,0.000000000,-0.312758088,-78.798835754,0.000000000,-15.060000420,-12.011400223
1747314567.740385,17.228000000,0.000000000,58004.273437500,0.000000000,0.000000000,-0.312758088,-78.798942566,0.000000000,-15.060000420,-12.011400223
1747314567.742812,17.230000000,0.000000000,58004.273437500,0.000000000,0.000000000,-0.312758088,-78.799049377,0.000000000,-15.060000420,-12.011400223
1747314567.745257,17.232000000,0.000000000,58004.273437500,0.000000000,0.000000000,-0.312758088,-78.799156189,0.000000000,-15.060000420,-12.011400223
1747314567.747683,17.235000000,0.000000000,58004.273437500,0.000000000,0.000000000,-0.312758088,-78.799263000,0.000000000,-15.060000420,-12.011400223
1747314567.750044,17.237000000,0.000000000,58004.273437500,0.000000000,0.000000000,-0.312758088,-78.799369812,0.000000000,-15.060000420,-12.011400223
1747314567.752525,17.240000000,0.000000000,58004.273437500,0.000000000,0.000000000,-0.312758088,-78.799476624,0.000000000,-15.060000420,-12.011400223
1747314567.754930,17.242000000,0.000000000,58004.273437500,0.000000000,0.000000000,-0.312758088,-78.799583435,0.000000000,-15.060000420,-12.011400223
1747314567.757370,17.245000000,0.000000000,58004.273437500,0.000000000,0.000000000,-0.312758088,-78.799690247,0.000000000,-15.060000420,-12.011400223
1747314567.759824,17.247000000,0.000000000,58004.273437500,0.000000000,0.000000000,-0.312758088,-78.799797058,0.000000000,-15.060000420,-12.011400223
1747314567.762278,17.249000000,0.000000000,58004.273437500,0.000000000,0.000000000,-0.312758088,-78.799911499,0.000000000,-15.060000420,-12.011400223
1747314567.764714,17.252000000,0.000000000,58004.273437500,0.000000000,0.000000000,-0.312758088,-78.800018311,0.000000000,-15.060000420,-12.011400223
1747314567.767086,17.254000000,0.000000000,58004.273437500,0.000000000,0.000000000,-0.312758088,-78.800125122,0.000000000,-15.060000420,-12.011400223
1747314567.769457,17.257000000,0.000000000,58004.273437500,0.000000000,0.000000000,-0.312758088,-78.800231934,0.000000000,-15.060000420,-12.011400223
1747314567.771828,17.259000000,0.000000000,58004.273437500,0.000000000,0.000000000,-0.312758088,-78.800338745,0.000000000,-15.060000420,-12.011400223
1747314567.774203,17.261000000,0.000000000,58004.273437500,0.000000000,0.000000000,-0.312758088,-78.800437927,0.000000000,-15.060000420,-12.011400223
1747314567.776584,17.264000000,0.000000000,58004.273437500,0.000000000,0.000000000,-0.312758088,-78.800544739,0.000000000,-15.060000420,-12.011400223
1747314567.778969,17.266000000,0.000000000,58004.273437500,0.000000000,0.000000000,-0.312758088,-78.800651550,0.000000000,-15.060000420,-12.011400223
1747314567.781329,17.269000000,0.000000000,58004.273437500,0.000000000,0.000000000,-0.312758088,-78.800758362,0.000000000,-15.060000420,-12.011400223
1747314567.783704,17.271000000,0.000000000,58004.273437500,0.000000000,0.000000000,-0.312758088,-78.800857544,0.000000000,-15.060000420,-12.011400223
1747314567.786077,17.273000000,0.000000000,58004.273437500,0.000000000,0.000000000,-0.312758088,-78.800964355,0.000000000,-15.060000420,-12.011400223
1747314567.788446,17.276000000,0.000000000,58004.273437500,0.000000000,0.000000000,-0.312758088,-78.801071167,0.000000000,-15.060000420,-12.011400223
1747314567.790815,17.278000000,0.000000000,58004.273437500,0.000000000,0.000000000,-0.312758088,-78.801177979,0.000000000,-15.060000420,-12.011400223
1747314567.793225,17.280000000,0.000000000,58004.273437500,0.000000000,0.000000000,-0.312758088,-78.801277161,0.000000000,-15.060000420,-12.011400223
1747314567.795590,17.283000000,0.000000000,58004.273437500,0.000000000,0.000000000,-0.312758088,-78.801383972,0.000000000,-15.060000420,-12.011400223
1747314567.797941,17.285000000,0.000000000,58004.273437500,0.000000000,0.000000000,-0.312758088,-78.801490784,0.000000000,-15.060000420,-12.011400223
1747314567.800337,17.288000000,0.000000000,58004.273437500,0.000000000,0.000000000,-0.312758088,-78.801597595,0.000000000,-15.060000420,-12.011400223
1747314567.802700,17.290000000,0.000000000,58004.273437500,0.000000000,0.000000000,-0.312758088,-78.801696777,0.000000000,-15.060000420,-12.011400223
1747314567.805069,17.292000000,0.000000000,58004.273437500,0.000000000,0.000000000,-0.312758088,-78.801803589,0.000000000,-15.060000420,-12.011400223
1747314567.807439,17.295000000,0.000000000,58004.273437500,0.000000000,0.000000000,-0.312758088,-78.801910400,0.000000000,-15.060000420,-12.011400223
1747314567.809810,17.297000000,0.000000000,58004.273437500,0.000000000,0.000000000,-0.312758088,-78.802017212,0.000000000,-15.060000420,-12.011400223
1747314567.812206,17.299000000,0.000000000,58004.273437500,0.000000000,0.000000000,-0.312758088,-78.802116394,0.000000000,-15.060000420,-12.011400223
1747314567.814689,17.302000000,0.000000000,58004.273437500,0.000000000,0.000000000,-0.312758088,-78.802223206,0.000000000,-15.060000420,-12.011400223
1747314567.817076,17.304000000,0.000000000,58004.273437500,0.000000000,0.000000000,-0.312758088,-78.802337646,0.000000000,-15.060000420,-12.011400223
1747314567.819443,17.307000000,0.000000000,58004.273437500,0.000000000,0.000000000,-0.312758088,-78.802436829,0.000000000,-15.060000420,-12.011400223
1747314567.821831,17.309000000,0.000000000,58004.273437500,0.000000000,0.000000000,-0.312758088,-78.802543640,0.000000000,-15.060000420,-12.011400223
1747314567.824213,17.311000000,0.000000000,58004.273437500,0.000000000,0.000000000,-0.312758088,-78.802650452,0.000000000,-15.060000420,-12.011400223
1747314567.826629,17.314000000,0.000000000,58004.273437500,0.000000000,0.000000000,-0.312758088,-78.802757263,0.000000000,-15.060000420,-12.011400223
1747314567.829015,17.316000000,0.000000000,58004.273437500,0.000000000,0.000000000,-0.312758088,-78.802864075,0.000000000,-15.060000420,-12.011400223
1747314567.831483,17.319000000,0.000000000,58004.273437500,0.000000000,0.000000000,-0.312758088,-78.802970886,0.000000000,-15.060000420,-12.011400223
1747314567.833910,17.321000000,0.000000000,58004.273437500,0.000000000,0.000000000,-0.312758088,-78.803077698,0.000000000,-15.060000420,-12.011400223
1747314567.836385,17.324000000,0.000000000,58004.273437500,0.000000000,0.000000000,-0.312758088,-78.803184509,0.000000000,-15.060000420,-12.011400223
1747314567.838913,17.326000000,0.000000000,58004.273437500,0.000000000,0.000000000,-0.312758088,-78.803291321,0.000000000,-15.060000420,-12.011400223
1747314567.841450,17.329000000,0.000000000,58004.273437500,0.000000000,0.000000000,-0.312758088,-78.803405762,0.000000000,-15.060000420,-12.011400223
1747314567.843947,17.331000000,0.000000000,58004.273437500,0.000000000,0.000000000,-0.312758088,-78.803520203,0.000000000,-15.060000420,-12.011400223
1747314567.846476,17.334000000,0.000000000,58004.273437500,0.000000000,0.000000000,-0.312758088,-78.803627014,0.000000000,-15.060000420,-12.011400223
1747314567.848938,17.336000000,0.000000000,58004.273437500,0.000000000,0.000000000,-0.312758088,-78.803741455,0.000000000,-15.060000420,-12.011400223
1747314567.851386,17.339000000,0.000000000,58004.273437500,0.000000000,0.000000000,-0.312758088,-78.803848267,0.000000000,-15.060000420,-12.011400223
1747314567.853837,17.341000000,0.000000000,58004.273437500,0.000000000,0.000000000,-0.312758088,-78.803955078,0.000000000,-15.060000420,-12.011400223
1747314567.856287,17.344000000,0.000000000,58004.273437500,0.000000000,0.000000000,-0.312758088,-78.804069519,0.000000000,-15.060000420,-12.011400223
1747314567.858739,17.346000000,0.000000000,58004.273437500,0.000000000,0.000000000,-0.312758088,-78.804176331,0.000000000,-15.060000420,-12.011400223
1747314567.861221,17.348000000,0.000000000,58004.273437500,0.000000000,0.000000000,-0.312758088,-78.804283142,0.000000000,-15.060000420,-12.011400223
1747314567.863653,17.351000000,0.000000000,58004.273437500,0.000000000,0.000000000,-0.312758088,-78.804389954,0.000000000,-15.060000420,-12.011400223
1747314567.866174,17.353000000,0.000000000,58004.273437500,0.000000000,0.000000000,-0.312758088,-78.804504395,0.000000000,-15.060000420,-12.011400223
1747314567.868583,17.356000000,0.000000000,58004.273437500,0.000000000,0.000000000,-0.312758088,-78.804611206,0.000000000,-15.060000420,-12.011400223
1747314567.870971,17.358000000,0.000000000,58004.273437500,0.000000000,0.000000000,-0.312758088,-78.804718018,0.000000000,-15.060000420,-12.011400223
1747314567.873384,17.361000000,0.000000000,58004.273437500,0.000000000,0.000000000,-0.312758088,-78.804824829,0.000000000,-15.060000420,-12.011400223
1747314567.875787,17.363000000,0.000000000,58004.273437500,0.000000000,0.000000000,-0.312758088,-78.804931641,0.000000000,-15.060000420,-12.011400223
1747314567.878224,17.365000000,0.000000000,58004.273437500,0.000000000,0.000000000,-0.312758088,-78.805038452,0.000000000,-15.060000420,-12.011400223
1747314567.880665,17.368000000,0.000000000,58004.273437500,0.000000000,0.000000000,-0.312758088,-78.805145264,0.000000000,-15.060000420,-12.011400223
1747314567.883116,17.370000000,0.000000000,58004.273437500,0.000000000,0.000000000,-0.312758088,-78.805252075,0.000000000,-15.060000420,-12.011400223
1747314567.885582,17.373000000,0.000000000,58004.273437500,0.000000000,0.000000000,-0.312758088,-78.805358887,0.000000000,-15.060000420,-12.011400223
1747314567.888041,17.375000000,0.000000000,58004.273437500,0.000000000,0.000000000,-0.312758088,-78.805473328,0.000000000,-15.060000420,-12.011400223
1747314567.890491,17.378000000,0.000000000,58004.273437500,0.000000000,0.000000000,-0.312758088,-78.805580139,0.000000000,-15.060000420,-12.011400223
1747314567.892936,17.380000000,0.000000000,58004.273437500,0.000000000,0.000000000,-0.312758088,-78.805686951,0.000000000,-15.060000420,-12.011400223
1747314567.895560,17.383000000,0.000000000,58004.273437500,0.000000000,0.000000000,-0.312758088,-78.805793762,0.000000000,-15.060000420,-12.011400223
1747314567.898052,17.385000000,0.000000000,58004.273437500,0.000000000,0.000000000,-0.312758088,-78.805908203,0.000000000,-15.060000420,-12.011400223
1747314567.900457,17.388000000,0.000000000,58004.273437500,0.000000000,0.000000000,-0.312758088,-78.806022644,0.000000000,-15.060000420,-12.011400223
1747314567.902830,17.390000000,0.000000000,58004.273437500,0.000000000,0.000000000,-0.312758088,-78.806129456,0.000000000,-15.060000420,-12.011400223
1747314567.905222,17.392000000,0.000000000,58004.273437500,0.000000000,0.000000000,-0.312758088,-78.806236267,0.000000000,-15.060000420,-12.011400223
1747314567.907618,17.395000000,0.000000000,58004.273437500,0.000000000,0.000000000,-0.312758088,-78.806343079,0.000000000,-15.060000420,-12.011400223
1747314567.910031,17.397000000,0.000000000,58004.273437500,0.000000000,0.000000000,-0.312758088,-78.806442261,0.000000000,-15.060000420,-12.011400223
1747314567.912480,17.400000000,0.000000000,58004.273437500,0.000000000,0.000000000,-0.312758088,-78.806549072,0.000000000,-15.060000420,-12.011400223
1747314567.914953,17.402000000,0.000000000,58004.273437500,0.000000000,0.000000000,-0.312758088,-78.806655884,0.000000000,-15.060000420,-12.011400223
1747314567.917311,17.405000000,0.000000000,58004.273437500,0.000000000,0.000000000,-0.312758088,-78.806762695,0.000000000,-15.060000420,-12.011400223
1747314567.919671,17.407000000,0.000000000,58004.273437500,0.000000000,0.000000000,-0.312758088,-78.806869507,0.000000000,-15.060000420,-12.011400223
1747314567.922134,17.409000000,0.000000000,58004.273437500,0.000000000,0.000000000,-0.312758088,-78.806976318,0.000000000,-15.060000420,-12.011400223
1747314567.924545,17.412000000,0.000000000,58004.273437500,0.000000000,0.000000000,-0.312758088,-78.807083130,0.000000000,-15.060000420,-12.011400223
1747314567.927016,17.414000000,0.000000000,58004.273437500,0.000000000,0.000000000,-0.312758088,-78.807189941,0.000000000,-15.060000420,-12.011400223
1747314567.929433,17.417000000,0.000000000,58004.273437500,0.000000000,0.000000000,-0.312758088,-78.807304382,0.000000000,-15.060000420,-12.011400223
1747314567.931869,17.419000000,0.000000000,58004.273437500,0.000000000,0.000000000,-0.312758088,-78.807403564,0.000000000,-15.060000420,-12.011400223
1747314567.934260,17.422000000,0.000000000,58004.273437500,0.000000000,0.000000000,-0.312758088,-78.807518005,0.000000000,-15.060000420,-12.011400223
1747314567.936682,17.424000000,0.000000000,58004.273437500,0.000000000,0.000000000,-0.312758088,-78.807624817,0.000000000,-15.060000420,-12.011400223
1747314567.939072,17.426000000,0.000000000,58004.273437500,0.000000000,0.000000000,-0.312758088,-78.807731628,0.000000000,-15.060000420,-12.011400223
1747314567.941446,17.429000000,0.000000000,58004.273437500,0.000000000,0.000000000,-0.312758088,-78.807838440,0.000000000,-15.060000420,-12.011400223
1747314567.943836,17.431000000,0.000000000,58004.273437500,0.000000000,0.000000000,-0.312758088,-78.807937622,0.000000000,-15.060000420,-12.011400223
1747314567.946206,17.433000000,0.000000000,58004.273437500,0.000000000,0.000000000,-0.312758088,-78.808044434,0.000000000,-15.060000420,-12.011400223
1747314567.948566,17.436000000,0.000000000,58004.273437500,0.000000000,0.000000000,-0.312758088,-78.808151245,0.000000000,-15.060000420,-12.011400223
1747314567.950941,17.438000000,0.000000000,58004.273437500,0.000000000,0.000000000,-0.312758088,-78.808258057,0.000000000,-15.060000420,-12.011400223
1747314567.953318,17.441000000,0.000000000,58004.273437500,0.000000000,0.000000000,-0.312758088,-78.808357239,0.000000000,-15.060000420,-12.011400223
1747314567.955692,17.443000000,0.000000000,58004.273437500,0.000000000,0.000000000,-0.312758088,-78.808464050,0.000000000,-15.060000420,-12.011400223
1747314567.958068,17.445000000,0.000000000,58004.273437500,0.000000000,0.000000000,-0.312758088,-78.808570862,0.000000000,-15.060000420,-12.011400223
1747314567.960463,17.448000000,0.000000000,58004.273437500,0.000000000,0.000000000,-0.312758088,-78.808677673,0.000000000,-15.060000420,-12.011400223
1747314567.962866,17.450000000,0.000000000,58004.273437500,0.000000000,0.000000000,-0.312758088,-78.808776855,0.000000000,-15.060000420,-12.011400223
1747314567.965243,17.452000000,0.000000000,58004.273437500,0.000000000,0.000000000,-0.312758088,-78.808883667,0.000000000,-15.060000420,-12.011400223
1747314567.967617,17.455000000,0.000000000,58004.273437500,0.000000000,0.000000000,-0.312758088,-78.808990479,0.000000000,-15.060000420,-12.011400223
1747314567.970000,17.457000000,0.000000000,58004.273437500,0.000000000,0.000000000,-0.312758088,-78.809097290,0.000000000,-15.060000420,-12.011400223
1747314567.972376,17.460000000,0.000000000,58004.273437500,0.000000000,0.000000000,-0.312758088,-78.809204102,0.000000000,-15.060000420,-12.011400223
1747314567.974752,17.462000000,0.000000000,58004.273437500,0.000000000,0.000000000,-0.312758088,-78.809303284,0.000000000,-15.060000420,-12.011400223
1747314567.977179,17.464000000,0.000000000,58004.273437500,0.000000000,0.000000000,-0.312758088,-78.809410095,0.000000000,-15.060000420,-12.011400223
1747314567.979573,17.467000000,0.000000000,58004.273437500,0.000000000,0.000000000,-0.312758088,-78.809516907,0.000000000,-15.060000420,-12.011400223
1747314567.981977,17.469000000,0.000000000,58004.273437500,0.000000000,0.000000000,-0.312758088,-78.809623718,0.000000000,-15.060000420,-12.011400223
1747314567.984350,17.472000000,0.000000000,58004.273437500,0.000000000,0.000000000,-0.312758088,-78.809730530,0.000000000,-15.060000420,-12.011400223
1747314567.986729,17.474000000,0.000000000,58004.273437500,0.000000000,0.000000000,-0.312758088,-78.809837341,0.000000000,-15.060000420,-12.011400223
1747314567.989094,17.476000000,0.000000000,58004.273437500,0.000000000,0.000000000,-0.312758088,-78.809936523,0.000000000,-15.060000420,-12.011400223
1747314567.991481,17.479000000,0.000000000,58004.273437500,0.000000000,0.000000000,-0.312758088,-78.810043335,0.000000000,-15.060000420,-12.011400223
1747314567.993857,17.481000000,0.000000000,58004.273437500,0.000000000,0.000000000,-0.312758088,-78.810150146,0.000000000,-15.060000420,-12.011400223
1747314567.996255,17.483000000,0.000000000,58004.273437500,0.000000000,0.000000000,-0.312758088,-78.810256958,0.000000000,-15.060000420,-12.011400223
1747314567.998662,17.486000000,0.000000000,58004.273437500,0.000000000,0.000000000,-0.312758088,-78.810363770,0.000000000,-15.060000420,-12.011400223
1747314568.001040,17.488000000,0.000000000,58004.273437500,0.000000000,0.000000000,-0.312758088,-78.810462952,0.000000000,-15.060000420,-12.011400223
1747314568.003469,17.491000000,0.000000000,58004.273437500,0.000000000,0.000000000,-0.312758088,-78.810569763,0.000000000,-15.060000420,-12.011400223
1747314568.005865,17.493000000,0.000000000,58004.273437500,0.000000000,0.000000000,-0.312758088,-78.810676575,0.000000000,-15.060000420,-12.011400223
1747314568.008242,17.495000000,0.000000000,58004.273437500,0.000000000,0.000000000,-0.312758088,-78.810783386,0.000000000,-15.060000420,-12.011400223
1747314568.010714,17.498000000,0.000000000,58004.273437500,0.000000000,0.000000000,-0.312758088,-78.810890198,0.000000000,-15.060000420,-12.011400223
1747314568.013158,17.500000000,0.000000000,58004.273437500,0.000000000,0.000000000,-0.312758088,-78.810997009,0.000000000,-15.060000420,-12.011400223
1747314568.015539,17.503000000,0.000000000,58004.273437500,0.000000000,0.000000000,-0.312758088,-78.811103821,0.000000000,-15.060000420,-12.011400223
1747314568.017867,17.505000000,0.000000000,58004.273437500,0.000000000,0.000000000,-0.312758088,-78.811210632,0.000000000,-15.060000420,-12.011400223
1747314568.020260,17.507000000,0.000000000,58004.273437500,0.000000000,0.000000000,-0.312758088,-78.811317444,0.000000000,-15.060000420,-12.011400223
1747314568.022619,17.510000000,0.000000000,58004.273437500,0.000000000,0.000000000,-0.312758088,-78.811416626,0.000000000,-15.060000420,-12.011400223
1747314568.024998,17.512000000,0.000000000,58004.273437500,0.000000000,0.000000000,-0.312758088,-78.811523438,0.000000000,-15.060000420,-12.011400223
1747314568.027397,17.515000000,0.000000000,58004.273437500,0.000000000,0.000000000,-0.312758088,-78.811630249,0.000000000,-15.060000420,-12.011400223
1747314568.029774,17.517000000,0.000000000,58004.273437500,0.000000000,0.000000000,-0.312758088,-78.811737061,0.000000000,-15.060000420,-12.011400223
1747314568.032151,17.519000000,0.000000000,58004.273437500,0.000000000,0.000000000,-0.312758088,-78.811843872,0.000000000,-15.060000420,-12.011400223
1747314568.034572,17.522000000,0.000000000,58004.273437500,0.000000000,0.000000000,-0.312758088,-78.811943054,0.000000000,-15.060000420,-12.011400223
1747314568.036999,17.524000000,0.000000000,58004.273437500,0.000000000,0.000000000,-0.312758088,-78.812057495,0.000000000,-15.060000420,-12.011400223
1747314568.039440,17.527000000,0.000000000,58004.273437500,0.000000000,0.000000000,-0.312758088,-78.812164307,0.000000000,-15.060000420,-12.011400223
1747314568.041877,17.529000000,0.000000000,58004.273437500,0.000000000,0.000000000,-0.312758088,-78.812271118,0.000000000,-15.060000420,-12.011400223
1747314568.044304,17.532000000,0.000000000,58004.273437500,0.000000000,0.000000000,-0.312758088,-78.812377930,0.000000000,-15.060000420,-12.011400223
1747314568.046737,17.534000000,0.000000000,58004.273437500,0.000000000,0.000000000,-0.312758088,-78.812484741,0.000000000,-15.060000420,-12.011400223
1747314568.049185,17.536000000,0.000000000,58004.273437500,0.000000000,0.000000000,-0.312758088,-78.812591553,0.000000000,-15.060000420,-12.011400223
1747314568.051625,17.539000000,0.000000000,58004.273437500,0.000000000,0.000000000,-0.312758088,-78.812698364,0.000000000,-15.060000420,-12.011400223
1747314568.054078,17.541000000,0.000000000,58004.273437500,0.000000000,0.000000000,-0.312758088,-78.812805176,0.000000000,-15.060000420,-12.011400223
1747314568.056512,17.544000000,0.000000000,58004.273437500,0.000000000,0.000000000,-0.312758088,-78.812911987,0.000000000,-15.060000420,-12.011400223
1747314568.059084,17.546000000,0.000000000,58004.273437500,0.000000000,0.000000000,-0.312758088,-78.813026428,0.000000000,-15.060000420,-12.011400223
1747314568.061518,17.549000000,0.000000000,58004.273437500,0.000000000,0.000000000,-0.312758088,-78.813133240,0.000000000,-15.060000420,-12.011400223
1747314568.063987,17.551000000,0.000000000,58004.273437500,0.000000000,0.000000000,-0.312758088,-78.813247681,0.000000000,-15.060000420,-12.011400223
1747314568.066567,17.554000000,0.000000000,58004.273437500,0.000000000,0.000000000,-0.312758088,-78.813354492,0.000000000,-15.060000420,-12.011400223
1747314568.069242,17.556000000,0.000000000,58004.273437500,0.000000000,0.000000000,-0.312758088,-78.813468933,0.000000000,-15.060000420,-12.011400223
1747314568.071660,17.559000000,0.000000000,58004.273437500,0.000000000,0.000000000,-0.312758088,-78.813583374,0.000000000,-15.060000420,-12.011400223
1747314568.073998,17.561000000,0.000000000,58004.273437500,0.000000000,0.000000000,-0.312758088,-78.813690186,0.000000000,-15.060000420,-12.011400223
1747314568.076388,17.564000000,0.000000000,58004.273437500,0.000000000,0.000000000,-0.312758088,-78.813796997,0.000000000,-15.060000420,-12.011400223
1747314568.078849,17.566000000,0.000000000,58004.273437500,0.000000000,0.000000000,-0.312758088,-78.813903809,0.000000000,-15.060000420,-12.011400223
1747314568.081203,17.568000000,0.000000000,58004.273437500,0.000000000,0.000000000,-0.312758088,-78.814010620,0.000000000,-15.060000420,-12.011400223
1747314568.083612,17.571000000,0.000000000,58004.273437500,0.000000000,0.000000000,-0.312758088,-78.814117432,0.000000000,-15.060000420,-12.011400223
1747314568.086025,17.573000000,0.000000000,58004.273437500,0.000000000,0.000000000,-0.312758088,-78.814224243,0.000000000,-15.060000420,-12.011400223
1747314568.088380,17.576000000,0.000000000,58004.273437500,0.000000000,0.000000000,-0.312758088,-78.814331055,0.000000000,-15.060000420,-12.011400223
1747314568.090726,17.578000000,0.000000000,58004.273437500,0.000000000,0.000000000,-0.312758088,-78.814430237,0.000000000,-15.060000420,-12.011400223
1747314568.093063,17.580000000,0.000000000,58004.273437500,0.000000000,0.000000000,-0.312758088,-78.814537048,0.000000000,-15.060000420,-12.011400223
1747314568.095430,17.583000000,0.000000000,58004.273437500,0.000000000,0.000000000,-0.312758088,-78.814643860,0.000000000,-15.060000420,-12.011400223
1747314568.097754,17.585000000,0.000000000,58004.273437500,0.000000000,0.000000000,-0.312758088,-78.814743042,0.000000000,-15.060000420,-12.011400223
1747314568.100101,17.587000000,0.000000000,58004.273437500,0.000000000,0.000000000,-0.312758088,-78.814849854,0.000000000,-15.060000420,-12.011400223
1747314568.102443,17.590000000,0.000000000,58004.273437500,0.000000000,0.000000000,-0.312758088,-78.814949036,0.000000000,-15.060000420,-12.011400223
1747314568.104821,17.592000000,0.000000000,58004.273437500,0.000000000,0.000000000,-0.312758088,-78.815055847,0.000000000,-15.060000420,-12.011400223
1747314568.107210,17.594000000,0.000000000,58004.273437500,0.000000000,0.000000000,-0.312758088,-78.815162659,0.000000000,-15.060000420,-12.011400223
1747314568.109560,17.597000000,0.000000000,58004.273437500,0.000000000,0.000000000,-0.312758088,-78.815269470,0.000000000,-15.060000420,-12.011400223
1747314568.111987,17.599000000,0.000000000,58004.273437500,0.000000000,0.000000000,-0.312758088,-78.815368652,0.000000000,-15.060000420,-12.011400223
1747314568.114331,17.602000000,0.000000000,58004.273437500,0.000000000,0.000000000,-0.312758088,-78.815475464,0.000000000,-15.060000420,-12.011400223
1747314568.116696,17.604000000,0.000000000,58004.273437500,0.000000000,0.000000000,-0.312758088,-78.815582275,0.000000000,-15.060000420,-12.011400223
1747314568.119048,17.606000000,0.000000000,58004.273437500,0.000000000,0.000000000,-0.312758088,-78.815689087,0.000000000,-15.060000420,-12.011400223
1747314568.121379,17.609000000,0.000000000,58004.273437500,0.000000000,0.000000000,-0.312758088,-78.815788269,0.000000000,-15.060000420,-12.011400223
1747314568.123724,17.611000000,0.000000000,58004.273437500,0.000000000,0.000000000,-0.312758088,-78.815895081,0.000000000,-15.060000420,-12.011400223
1747314568.126089,17.613000000,0.000000000,58004.273437500,0.000000000,0.000000000,-0.312758088,-78.815994263,0.000000000,-15.060000420,-12.011400223
1747314568.128488,17.616000000,0.000000000,58004.273437500,0.000000000,0.000000000,-0.312758088,-78.816101074,0.000000000,-15.060000420,-12.011400223
1747314568.130862,17.618000000,0.000000000,58004.273437500,0.000000000,0.000000000,-0.312758088,-78.816207886,0.000000000,-15.060000420,-12.011400223
1747314568.133296,17.621000000,0.000000000,58004.273437500,0.000000000,0.000000000,-0.312758088,-78.816314697,0.000000000,-15.060000420,-12.011400223
1747314568.135634,17.623000000,0.000000000,58004.273437500,0.000000000,0.000000000,-0.312758088,-78.816421509,0.000000000,-15.060000420,-12.011400223
1747314568.137976,17.625000000,0.000000000,58004.273437500,0.000000000,0.000000000,-0.312758088,-78.816520691,0.000000000,-15.060000420,-12.011400223
1747314568.140304,17.628000000,0.000000000,58004.273437500,0.000000000,0.000000000,-0.312758088,-78.816627502,0.000000000,-15.060000420,-12.011400223
1747314568.142641,17.630000000,0.000000000,58004.273437500,0.000000000,0.000000000,-0.312758088,-78.816726685,0.000000000,-15.060000420,-12.011400223
1747314568.144981,17.632000000,0.000000000,58004.273437500,0.000000000,0.000000000,-0.312758088,-78.816833496,0.000000000,-15.060000420,-12.011400223
1747314568.147331,17.635000000,0.000000000,58004.273437500,0.000000000,0.000000000,-0.312758088,-78.816940308,0.000000000,-15.060000420,-12.011400223
1747314568.149693,17.637000000,0.000000000,58004.273437500,0.000000000,0.000000000,-0.312758088,-78.817039490,0.000000000,-15.060000420,-12.011400223
1747314568.152031,17.639000000,0.000000000,58004.273437500,0.000000000,0.000000000,-0.312758088,-78.817146301,0.000000000,-15.060000420,-12.011400223
1747314568.154387,17.642000000,0.000000000,58004.273437500,0.000000000,0.000000000,-0.312758088,-78.817253113,0.000000000,-15.060000420,-12.011400223
1747314568.156799,17.644000000,0.000000000,58004.273437500,0.000000000,0.000000000,-0.312758088,-78.817352295,0.000000000,-15.060000420,-12.011400223
1747314568.159111,17.646000000,0.000000000,58004.273437500,0.000000000,0.000000000,-0.312758088,-78.817459106,0.000000000,-15.060000420,-12.011400223
1747314568.161491,17.649000000,0.000000000,58004.273437500,0.000000000,0.000000000,-0.312758088,-78.817565918,0.000000000,-15.060000420,-12.011400223
1747314568.163834,17.651000000,0.000000000,58004.273437500,0.000000000,0.000000000,-0.312758088,-78.817665100,0.000000000,-15.060000420,-12.011400223
1747314568.166189,17.653000000,0.000000000,58004.273437500,0.000000000,0.000000000,-0.312758088,-78.817771912,0.000000000,-15.060000420,-12.011400223
1747314568.168612,17.656000000,0.000000000,58004.273437500,0.000000000,0.000000000,-0.312758088,-78.817878723,0.000000000,-15.060000420,-12.011400223
1747314568.170994,17.658000000,0.000000000,58004.273437500,0.000000000,0.000000000,-0.312758088,-78.817985535,0.000000000,-15.060000420,-12.011400223
1747314568.173382,17.661000000,0.000000000,58004.273437500,0.000000000,0.000000000,-0.312758088,-78.818092346,0.000000000,-15.060000420,-12.011400223
1747314568.175762,17.663000000,0.000000000,58004.273437500,0.000000000,0.000000000,-0.312758088,-78.818191528,0.000000000,-15.060000420,-12.011400223
1747314568.178178,17.665000000,0.000000000,58004.273437500,0.000000000,0.000000000,-0.312758088,-78.818298340,0.000000000,-15.060000420,-12.011400223
1747314568.180582,17.668000000,0.000000000,58004.273437500,0.000000000,0.000000000,-0.312758088,-78.818405151,0.000000000,-15.060000420,-12.011400223
1747314568.183043,17.670000000,0.000000000,58004.273437500,0.000000000,0.000000000,-0.312758088,-78.818511963,0.000000000,-15.060000420,-12.011400223
1747314568.185461,17.673000000,0.000000000,58004.273437500,0.000000000,0.000000000,-0.312758088,-78.818626404,0.000000000,-15.060000420,-12.011400223
1747314568.187840,17.675000000,0.000000000,58004.273437500,0.000000000,0.000000000,-0.312758088,-78.818733215,0.000000000,-15.060000420,-12.011400223
1747314568.190198,17.677000000,0.000000000,58004.273437500,0.000000000,0.000000000,-0.312758088,-78.818832397,0.000000000,-15.060000420,-12.011400223
1747314568.192561,17.680000000,0.000000000,58004.273437500,0.000000000,0.000000000,-0.312758088,-78.818939209,0.000000000,-15.060000420,-12.011400223
1747314568.194921,17.682000000,0.000000000,58004.273437500,0.000000000,0.000000000,-0.312758088,-78.819046021,0.000000000,-15.060000420,-12.011400223
1747314568.197247,17.685000000,0.000000000,58004.273437500,0.000000000,0.000000000,-0.312758088,-78.819145203,0.000000000,-15.060000420,-12.011400223
1747314568.199623,17.687000000,0.000000000,58004.273437500,0.000000000,0.000000000,-0.312758088,-78.819252014,0.000000000,-15.060000420,-12.011400223
1747314568.202043,17.689000000,0.000000000,58004.273437500,0.000000000,0.000000000,-0.312758088,-78.819358826,0.000000000,-15.060000420,-12.011400223
1747314568.204414,17.692000000,0.000000000,58004.273437500,0.000000000,0.000000000,-0.312758088,-78.819465637,0.000000000,-15.060000420,-12.011400223
1747314568.206747,17.694000000,0.000000000,58004.273437500,0.000000000,0.000000000,-0.312758088,-78.819564819,0.000000000,-15.060000420,-12.011400223
1747314568.209089,17.696000000,0.000000000,58004.273437500,0.000000000,0.000000000,-0.312758088,-78.819671631,0.000000000,-15.060000420,-12.011400223
1747314568.211426,17.699000000,0.000000000,58004.273437500,0.000000000,0.000000000,-0.312758088,-78.819778442,0.000000000,-15.060000420,-12.011400223
1747314568.213837,17.701000000,0.000000000,58004.273437500,0.000000000,0.000000000,-0.312758088,-78.819877625,0.000000000,-15.060000420,-12.011400223
1747314568.216238,17.703000000,0.000000000,58004.273437500,0.000000000,0.000000000,-0.312758088,-78.819984436,0.000000000,-15.060000420,-12.011400223
1747314568.218624,17.706000000,0.000000000,58004.273437500,0.000000000,0.000000000,-0.312758088,-78.820091248,0.000000000,-15.060000420,-12.011400223
1747314568.220995,17.708000000,0.000000000,58004.273437500,0.000000000,0.000000000,-0.312758088,-78.820198059,0.000000000,-15.060000420,-12.011400223
1747314568.223390,17.711000000,0.000000000,58004.273437500,0.000000000,0.000000000,-0.312758088,-78.820304871,0.000000000,-15.060000420,-12.011400223
1747314568.225754,17.713000000,0.000000000,58004.273437500,0.000000000,0.000000000,-0.312758088,-78.820404053,0.000000000,-15.060000420,-12.011400223
1747314568.228184,17.715000000,0.000000000,58004.273437500,0.000000000,0.000000000,-0.312758088,-78.820510864,0.000000000,-15.060000420,-12.011400223
1747314568.230554,17.718000000,0.000000000,58004.273437500,0.000000000,0.000000000,-0.312758088,-78.820617676,0.000000000,-15.060000420,-12.011400223
1747314568.232953,17.720000000,0.000000000,58004.273437500,0.000000000,0.000000000,-0.312758088,-78.820724487,0.000000000,-15.060000420,-12.011400223
1747314568.235349,17.723000000,0.000000000,58004.273437500,0.000000000,0.000000000,-0.312758088,-78.820831299,0.000000000,-15.060000420,-12.011400223
1747314568.237706,17.725000000,0.000000000,58004.273437500,0.000000000,0.000000000,-0.312758088,-78.820938110,0.000000000,-15.060000420,-12.011400223
1747314568.240079,17.727000000,0.000000000,58004.273437500,0.000000000,0.000000000,-0.312758088,-78.821044922,0.000000000,-15.060000420,-12.011400223
1747314568.242457,17.730000000,0.000000000,58004.273437500,0.000000000,0.000000000,-0.312758088,-78.821144104,0.000000000,-15.060000420,-12.011400223
1747314568.244839,17.732000000,0.000000000,58004.273437500,0.000000000,0.000000000,-0.312758088,-78.821250916,0.000000000,-15.060000420,-12.011400223
1747314568.247224,17.734000000,0.000000000,58004.273437500,0.000000000,0.000000000,-0.312758088,-78.821357727,0.000000000,-15.060000420,-12.011400223
1747314568.249600,17.737000000,0.000000000,58004.273437500,0.000000000,0.000000000,-0.312758088,-78.821464539,0.000000000,-15.060000420,-12.011400223
