liamjosephnolan/thesis_matlab/roll_step_response/roll_step_response_roll_-15_pitch_-15.csv
__time,/psm_joint_telemetry/header/stamp,/psm_joint_telemetry/insertion/effort,/psm_joint_telemetry/insertion/position,/psm_joint_telemetry/insertion/velocity,/psm_joint_telemetry/pitch/effort,/psm_joint_telemetry/pitch/position,/psm_joint_telemetry/pitch/velocity,/psm_joint_telemetry/roll/effort,/psm_joint_telemetry/roll/position,/psm_joint_telemetry/roll/velocity
1747396097.185341,24.445000000,0.000000000,0.000000000,0.000000000,0.000000000,-15.392634392,-87.918754578,0.000000000,-15.024000168,-4.804560184
1747396097.188421,24.448000000,0.000000000,0.000000000,0.000000000,0.000000000,-15.392634392,-87.918914795,0.000000000,-15.024000168,-4.804560184
1747396097.191462,24.451000000,0.000000000,0.000000000,0.000000000,0.000000000,-15.392634392,-87.919082642,0.000000000,-15.024000168,-4.804560184
1747396097.194360,24.454000000,0.000000000,0.000000000,0.000000000,0.000000000,-15.392634392,-87.919250488,0.000000000,-15.024000168,-4.804560184
1747396097.197220,24.457000000,0.000000000,0.000000000,0.000000000,0.000000000,-15.392634392,-87.919418335,0.000000000,-15.024000168,-4.804560184
1747396097.200623,24.460000000,0.000000000,0.000000000,0.000000000,0.000000000,-15.392634392,-87.919578552,0.000000000,-15.024000168,-4.804560184
1747396097.203784,24.463000000,0.000000000,0.000000000,0.000000000,0.000000000,-15.392634392,-87.919754028,0.000000000,-15.024000168,-4.804560184
1747396097.206668,24.466000000,0.000000000,0.000000000,0.000000000,0.000000000,-15.392634392,-87.919937134,0.000000000,-15.024000168,-4.804560184
1747396097.209697,24.469000000,0.000000000,0.000000000,0.000000000,0.000000000,-15.392634392,-87.920097351,0.000000000,-15.024000168,-4.804560184
1747396097.212648,24.472000000,0.000000000,0.000000000,0.000000000,0.000000000,-15.392634392,-87.920265198,0.000000000,-15.024000168,-4.804560184
1747396097.215654,24.475000000,0.000000000,0.000000000,0.000000000,0.000000000,-15.392634392,-87.920433044,0.000000000,-15.024000168,-4.804560184
1747396097.218708,24.478000000,0.000000000,0.000000000,0.000000000,0.000000000,-15.392634392,-87.920600891,0.000000000,-15.024000168,-4.804560184
1747396097.221606,24.481000000,0.000000000,0.000000000,0.000000000,0.000000000,-15.392634392,-87.920768738,0.000000000,-15.024000168,-4.804560184
1747396097.224753,24.484000000,0.000000000,0.000000000,0.000000000,0.000000000,-15.392634392,-87.920936584,0.000000000,-15.024000168,-4.804560184
1747396097.227686,24.487000000,0.000000000,0.000000000,0.000000000,0.000000000,-15.392634392,-87.921096802,0.000000000,-15.024000168,-4.804560184
1747396097.230475,24.490000000,0.000000000,0.000000000,0.000000000,0.000000000,-15.392634392,-87.921272278,0.000000000,-15.024000168,-4.804560184
1747396097.233286,24.493000000,0.000000000,0.000000000,0.000000000,0.000000000,-15.392634392,-87.921424866,0.000000000,-15.024000168,-4.804560184
1747396097.236090,24.496000000,0.000000000,0.000000000,0.000000000,0.000000000,-15.392634392,-87.921577454,0.000000000,-15.024000168,-4.804560184
1747396097.238948,24.498000000,0.000000000,0.000000000,0.000000000,0.000000000,-15.392634392,-87.921737671,0.000000000,-15.024000168,-4.804560184
1747396097.242021,24.502000000,0.000000000,0.000000000,0.000000000,0.000000000,-15.392634392,-87.921890259,0.000000000,-15.024000168,-4.804560184
1747396097.244977,24.505000000,0.000000000,0.000000000,0.000000000,0.000000000,-15.392634392,-87.922065735,0.000000000,-15.024000168,-4.804560184
1747396097.247780,24.507000000,0.000000000,0.000000000,0.000000000,0.000000000,-15.392634392,-87.922225952,0.000000000,-15.024000168,-4.804560184
1747396097.250799,24.510000000,0.000000000,0.000000000,0.000000000,0.000000000,-15.392634392,-87.922386169,0.000000000,-15.024000168,-4.804560184
1747396097.253865,24.513000000,0.000000000,0.000000000,0.000000000,0.000000000,-15.392634392,-87.922554016,0.000000000,-15.024000168,-4.804560184
1747396097.256793,24.516000000,0.000000000,0.000000000,0.000000000,0.000000000,-15.392634392,-87.922721863,0.000000000,-15.024000168,-4.804560184
1747396097.259693,24.519000000,0.000000000,0.000000000,0.000000000,0.000000000,-15.392634392,-87.922882080,0.000000000,-15.024000168,-4.804560184
1747396097.262605,24.522000000,0.000000000,0.000000000,0.000000000,0.000000000,-15.392634392,-87.923042297,0.000000000,-15.024000168,-4.804560184
1747396097.265539,24.525000000,0.000000000,0.000000000,0.000000000,0.000000000,-15.392634392,-87.923202515,0.000000000,-15.024000168,-4.804560184
1747396097.268418,24.528000000,0.000000000,0.000000000,0.000000000,0.000000000,-15.392634392,-87.923370361,0.000000000,-15.024000168,-4.804560184
1747396097.271323,24.531000000,0.000000000,0.000000000,0.000000000,0.000000000,-15.392634392,-87.923530579,0.000000000,-15.024000168,-4.804560184
1747396097.274278,24.534000000,0.000000000,0.000000000,0.000000000,0.000000000,-15.392634392,-87.923690796,0.000000000,-15.024000168,-4.804560184
1747396097.277213,24.537000000,0.000000000,0.000000000,0.000000000,0.000000000,-15.392634392,-87.923851013,0.000000000,-15.024000168,-4.804560184
1747396097.280109,24.540000000,0.000000000,0.000000000,0.000000000,0.000000000,-15.392634392,-87.924011230,0.000000000,-15.024000168,-4.804560184
1747396097.282985,24.543000000,0.000000000,0.000000000,0.000000000,0.000000000,-15.392634392,-87.924179077,0.000000000,-15.024000168,-4.804560184
1747396097.285948,24.545000000,0.000000000,0.000000000,0.000000000,0.000000000,-15.392634392,-87.924339294,0.000000000,-15.024000168,-4.804560184
1747396097.288906,24.548000000,0.000000000,0.000000000,0.000000000,0.000000000,-15.392634392,-87.924507141,0.000000000,-15.024000168,-4.804560184
1747396097.291873,24.551000000,0.000000000,0.000000000,0.000000000,0.000000000,-15.392634392,-87.924667358,0.000000000,-15.024000168,-4.804560184
1747396097.294772,24.554000000,0.000000000,0.000000000,0.000000000,0.000000000,-15.392634392,-87.924835205,0.000000000,-15.024000168,-4.804560184
1747396097.298169,24.558000000,0.000000000,0.000000000,0.000000000,0.000000000,-15.392634392,-87.924995422,0.000000000,-15.024000168,-4.804560184
1747396097.301262,24.561000000,0.000000000,0.000000000,0.000000000,0.000000000,-15.392634392,-87.925178528,0.000000000,-15.024000168,-4.804560184
1747396097.304214,24.564000000,0.000000000,0.000000000,0.000000000,0.000000000,-15.392634392,-87.925354004,0.000000000,-15.024000168,-4.804560184
1747396097.307187,24.567000000,0.000000000,0.000000000,0.000000000,0.000000000,-15.392634392,-87.925521851,0.000000000,-15.024000168,-4.804560184
1747396097.310130,24.570000000,0.000000000,0.000000000,0.000000000,0.000000000,-15.392634392,-87.925682068,0.000000000,-15.024000168,-4.804560184
1747396097.313043,24.573000000,0.000000000,0.000000000,0.000000000,0.000000000,-15.392634392,-87.925849915,0.000000000,-15.024000168,-4.804560184
1747396097.316003,24.576000000,0.000000000,0.000000000,0.000000000,0.000000000,-15.392634392,-87.926010132,0.000000000,-15.024000168,-4.804560184
1747396097.318873,24.579000000,0.000000000,0.000000000,0.000000000,0.000000000,-15.392634392,-87.926177979,0.000000000,-15.024000168,-4.804560184
1747396097.321835,24.581000000,0.000000000,0.000000000,0.000000000,0.000000000,-15.392634392,-87.926338196,0.000000000,-15.024000168,-4.804560184
1747396097.324984,24.585000000,0.000000000,0.000000000,0.000000000,0.000000000,-15.392634392,-87.926498413,0.000000000,-15.024000168,-4.804560184
1747396097.327903,24.587000000,0.000000000,0.000000000,0.000000000,0.000000000,-15.392634392,-87.926673889,0.000000000,-15.024000168,-4.804560184
1747396097.330828,24.590000000,0.000000000,0.000000000,0.000000000,0.000000000,-15.392634392,-87.926834106,0.000000000,-15.024000168,-4.804560184
1747396097.333822,24.593000000,0.000000000,0.000000000,0.000000000,0.000000000,-15.392634392,-87.926994324,0.000000000,-15.024000168,-4.804560184
1747396097.336792,24.596000000,0.000000000,0.000000000,0.000000000,0.000000000,-15.392634392,-87.927162170,0.000000000,-15.024000168,-4.804560184
1747396097.339768,24.599000000,0.000000000,0.000000000,0.000000000,0.000000000,-15.392634392,-87.927330017,0.000000000,-15.024000168,-4.804560184
1747396097.342692,24.602000000,0.000000000,0.000000000,0.000000000,0.000000000,-15.392634392,-87.927497864,0.000000000,-15.024000168,-4.804560184
1747396097.345628,24.605000000,0.000000000,0.000000000,0.000000000,0.000000000,-15.392634392,-87.927658081,0.000000000,-15.024000168,-4.804560184
1747396097.348570,24.608000000,0.000000000,0.000000000,0.000000000,0.000000000,-15.392634392,-87.927825928,0.000000000,-15.024000168,-4.804560184
1747396097.351542,24.611000000,0.000000000,0.000000000,0.000000000,0.000000000,-15.392634392,-87.927986145,0.000000000,-15.024000168,-4.804560184
1747396097.354586,24.614000000,0.000000000,0.000000000,0.000000000,0.000000000,-15.392634392,-87.928153992,0.000000000,-15.024000168,-4.804560184
1747396097.357493,24.617000000,0.000000000,0.000000000,0.000000000,0.000000000,-15.392634392,-87.928321838,0.000000000,-15.024000168,-4.804560184
1747396097.360401,24.620000000,0.000000000,0.000000000,0.000000000,0.000000000,-15.392634392,-87.928482056,0.000000000,-15.024000168,-4.804560184
1747396097.363472,24.623000000,0.000000000,0.000000000,0.000000000,0.000000000,-15.392634392,-87.928642273,0.000000000,-15.024000168,-4.804560184
1747396097.366423,24.626000000,0.000000000,0.000000000,0.000000000,0.000000000,-15.392634392,-87.928817749,0.000000000,-15.024000168,-4.804560184
1747396097.369336,24.629000000,0.000000000,0.000000000,0.000000000,0.000000000,-15.392634392,-87.928977966,0.000000000,-15.024000168,-4.804560184
1747396097.372289,24.632000000,0.000000000,0.000000000,0.000000000,0.000000000,-15.392634392,-87.929138184,0.000000000,-15.024000168,-4.804560184
1747396097.375192,24.635000000,0.000000000,0.000000000,0.000000000,0.000000000,-15.392634392,-87.929306030,0.000000000,-15.024000168,-4.804560184
1747396097.378113,24.638000000,0.000000000,0.000000000,0.000000000,0.000000000,-15.392634392,-87.929466248,0.000000000,-15.024000168,-4.804560184
1747396097.381078,24.641000000,0.000000000,0.000000000,0.000000000,0.000000000,-15.392634392,-87.929626465,0.000000000,-15.024000168,-4.804560184
1747396097.383934,24.644000000,0.000000000,0.000000000,0.000000000,0.000000000,-15.392634392,-87.929794312,0.000000000,-15.024000168,-4.804560184
1747396097.386857,24.646000000,0.000000000,0.000000000,0.000000000,0.000000000,-15.392634392,-87.929954529,0.000000000,-15.024000168,-4.804560184
1747396097.389832,24.649000000,0.000000000,0.000000000,0.000000000,0.000000000,-15.392634392,-87.930114746,0.000000000,-15.024000168,-4.804560184
1747396097.392906,24.653000000,0.000000000,0.000000000,0.000000000,0.000000000,-15.392634392,-87.930282593,0.000000000,-15.024000168,-4.804560184
1747396097.395867,24.655000000,0.000000000,0.000000000,0.000000000,0.000000000,-15.392634392,-87.930450439,0.000000000,-15.024000168,-4.804560184
1747396097.399401,24.659000000,0.000000000,0.000000000,0.000000000,0.000000000,-15.392634392,-87.930618286,0.000000000,-15.024000168,-4.804560184
1747396097.402369,24.662000000,0.000000000,0.000000000,0.000000000,0.000000000,-15.392634392,-87.930809021,0.000000000,-15.024000168,-4.804560184
1747396097.405299,24.665000000,0.000000000,0.000000000,0.000000000,0.000000000,-15.392634392,-87.930969238,0.000000000,-15.024000168,-4.804560184
1747396097.408548,24.668000000,0.000000000,0.000000000,0.000000000,0.000000000,-15.392634392,-87.931137085,0.000000000,-15.024000168,-4.804560184
1747396097.411469,24.671000000,0.000000000,0.000000000,0.000000000,0.000000000,-15.392634392,-87.931312561,0.000000000,-15.024000168,-4.804560184
1747396097.414476,24.674000000,0.000000000,0.000000000,0.000000000,0.000000000,-15.392634392,-87.931480408,0.000000000,-15.024000168,-4.804560184
1747396097.417499,24.677000000,0.000000000,0.000000000,0.000000000,0.000000000,-15.392634392,-87.931640625,0.000000000,-15.024000168,-4.804560184
1747396097.420522,24.680000000,0.000000000,0.000000000,0.000000000,0.000000000,-15.392634392,-87.931816101,0.000000000,-15.024000168,-4.804560184
1747396097.423467,24.683000000,0.000000000,0.000000000,0.000000000,0.000000000,-15.392634392,-87.931983948,0.000000000,-15.024000168,-4.804560184
1747396097.426426,24.686000000,0.000000000,0.000000000,0.000000000,0.000000000,-15.392634392,-87.932144165,0.000000000,-15.024000168,-4.804560184
1747396097.429420,24.689000000,0.000000000,0.000000000,0.000000000,0.000000000,-15.392634392,-87.932312012,0.000000000,-15.024000168,-4.804560184
1747396097.432419,24.692000000,0.000000000,0.000000000,0.000000000,0.000000000,-15.392634392,-87.932472229,0.000000000,-15.024000168,-4.804560184
1747396097.435390,24.695000000,0.000000000,0.000000000,0.000000000,0.000000000,-15.392634392,-87.932640076,0.000000000,-15.024000168,-4.804560184
1747396097.438452,24.698000000,0.000000000,0.000000000,0.000000000,0.000000000,-15.392634392,-87.932807922,0.000000000,-15.024000168,-4.804560184
1747396097.441504,24.701000000,0.000000000,0.000000000,0.000000000,0.000000000,-15.392634392,-87.932975769,0.000000000,-15.024000168,-4.804560184
1747396097.444358,24.704000000,0.000000000,0.000000000,0.000000000,0.000000000,-15.392634392,-87.933151245,0.000000000,-15.024000168,-4.804560184
1747396097.447361,24.707000000,0.000000000,0.000000000,0.000000000,0.000000000,-15.392634392,-87.933303833,0.000000000,-15.024000168,-4.804560184
1747396097.450409,24.710000000,0.000000000,0.000000000,0.000000000,0.000000000,-15.392634392,-87.933471680,0.000000000,-15.024000168,-4.804560184
1747396097.453492,24.713000000,0.000000000,0.000000000,0.000000000,0.000000000,-15.392634392,-87.933639526,0.000000000,-15.024000168,-4.804560184
1747396097.456475,24.716000000,0.000000000,0.000000000,0.000000000,0.000000000,-15.392634392,-87.933815002,0.000000000,-15.024000168,-4.804560184
1747396097.459472,24.719000000,0.000000000,0.000000000,0.000000000,0.000000000,-15.392634392,-87.933975220,0.000000000,-15.024000168,-4.804560184
1747396097.462528,24.722000000,0.000000000,0.000000000,0.000000000,0.000000000,-15.392634392,-87.934143066,0.000000000,-15.024000168,-4.804560184
1747396097.465552,24.725000000,0.000000000,0.000000000,0.000000000,0.000000000,-15.392634392,-87.934310913,0.000000000,-15.024000168,-4.804560184
1747396097.468663,24.728000000,0.000000000,0.000000000,0.000000000,0.000000000,-15.392634392,-87.934478760,0.000000000,-15.024000168,-4.804560184
1747396097.471877,24.731000000,0.000000000,0.000000000,0.000000000,0.000000000,-15.392634392,-87.934646606,0.000000000,-15.024000168,-4.804560184
1747396097.474691,24.734000000,0.000000000,0.000000000,0.000000000,0.000000000,-15.392634392,-87.934822083,0.000000000,-15.024000168,-4.804560184
1747396097.477646,24.737000000,0.000000000,0.000000000,0.000000000,0.000000000,-15.392634392,-87.934982300,0.000000000,-15.024000168,-4.804560184
1747396097.480600,24.740000000,0.000000000,0.000000000,0.000000000,0.000000000,-15.392634392,-87.935150146,0.000000000,-15.024000168,-4.804560184
1747396097.483583,24.743000000,0.000000000,0.000000000,0.000000000,0.000000000,-15.392634392,-87.935310364,0.000000000,-15.024000168,-4.804560184
1747396097.486477,24.746000000,0.000000000,0.000000000,0.000000000,0.000000000,-15.392634392,-87.935478210,0.000000000,-15.024000168,-4.804560184
1747396097.489513,24.749000000,0.000000000,0.000000000,0.000000000,0.000000000,-15.392634392,-87.935638428,0.000000000,-15.024000168,-4.804560184
1747396097.492517,24.752000000,0.000000000,0.000000000,0.000000000,0.000000000,-15.406135559,-89.484931946,0.000000000,-15.024000168,-4.804560184
1747396097.495593,24.755000000,0.000000000,0.000000000,0.000000000,0.000000000,-15.392634392,-89.345146179,0.000000000,-15.024000168,-4.804560184
1747396097.498675,24.758000000,0.000000000,0.000000000,0.000000000,0.000000000,-15.392634392,-87.936149597,0.000000000,-15.024000168,-4.804560184
1747396097.501626,24.761000000,0.000000000,0.000000000,0.000000000,0.000000000,-15.406135559,-89.532089233,0.000000000,-15.024000168,-4.804560184
1747396097.504933,24.764000000,0.000000000,0.000000000,0.000000000,0.000000000,-15.392634392,-89.356864929,0.000000000,-15.024000168,-4.804560184
1747396097.507669,24.767000000,0.000000000,0.000000000,0.000000000,0.000000000,-15.392634392,-87.936668396,0.000000000,-15.024000168,-4.804560184
1747396097.510678,24.770000000,0.000000000,0.000000000,0.000000000,0.000000000,-15.392634392,-87.936836243,0.000000000,-15.024000168,-4.804560184
1747396097.513638,24.773000000,0.000000000,0.000000000,0.000000000,0.000000000,-15.392634392,-87.936996460,0.000000000,-15.024000168,-4.804560184
1747396097.516470,24.776000000,0.000000000,0.000000000,0.000000000,0.000000000,-15.392634392,-87.937164307,0.000000000,-15.024000168,-4.804560184
1747396097.519435,24.779000000,0.000000000,0.000000000,0.000000000,0.000000000,-15.392634392,-87.937316895,0.000000000,-15.024000168,-4.804560184
1747396097.522435,24.782000000,0.000000000,0.000000000,0.000000000,0.000000000,-15.392634392,-87.937484741,0.000000000,-15.024000168,-4.804560184
1747396097.525319,24.785000000,0.000000000,0.000000000,0.000000000,0.000000000,-15.392634392,-87.937644958,0.000000000,-15.024000168,-4.804560184
1747396097.528367,24.788000000,0.000000000,0.000000000,0.000000000,0.000000000,-15.392634392,-87.937812805,0.000000000,-15.024000168,-4.804560184
1747396097.531282,24.791000000,0.000000000,0.000000000,0.000000000,0.000000000,-15.392634392,-87.937973022,0.000000000,-15.024000168,-4.804560184
1747396097.534510,24.794000000,0.000000000,0.000000000,0.000000000,0.000000000,-15.392634392,-87.938133240,0.000000000,-15.024000168,-4.804560184
1747396097.537445,24.797000000,0.000000000,0.000000000,0.000000000,0.000000000,-15.392634392,-87.938316345,0.000000000,-15.024000168,-4.804560184
1747396097.540461,24.800000000,0.000000000,0.000000000,0.000000000,0.000000000,-15.392634392,-87.938476563,0.000000000,-15.024000168,-4.804560184
1747396097.543468,24.803000000,0.000000000,0.000000000,0.000000000,0.000000000,-15.392634392,-87.938644409,0.000000000,-15.024000168,-4.804560184
1747396097.546490,24.806000000,0.000000000,0.000000000,0.000000000,0.000000000,-15.392634392,-87.938812256,0.000000000,-15.024000168,-4.804560184
1747396097.549587,24.809000000,0.000000000,0.000000000,0.000000000,0.000000000,-15.392634392,-87.938987732,0.000000000,-15.024000168,-4.804560184
1747396097.552569,24.812000000,0.000000000,0.000000000,0.000000000,0.000000000,-15.392634392,-87.939155579,0.000000000,-15.024000168,-4.804560184
1747396097.555796,24.815000000,0.000000000,0.000000000,0.000000000,0.000000000,-15.392634392,-87.939323425,0.000000000,-15.024000168,-4.804560184
1747396097.558660,24.818000000,0.000000000,0.000000000,0.000000000,0.000000000,-15.392634392,-87.939491272,0.000000000,-15.024000168,-4.804560184
1747396097.562169,24.822000000,0.000000000,0.000000000,0.000000000,0.000000000,-15.392634392,-87.939659119,0.000000000,-15.024000168,-4.804560184
1747396097.565307,24.825000000,0.000000000,0.000000000,0.000000000,0.000000000,-15.392634392,-87.939842224,0.000000000,-15.024000168,-4.804560184
1747396097.568444,24.828000000,0.000000000,0.000000000,0.000000000,0.000000000,-15.392634392,-87.940017700,0.000000000,-15.024000168,-4.804560184
1747396097.571367,24.831000000,0.000000000,0.000000000,0.000000000,0.000000000,-15.392634392,-87.940193176,0.000000000,-15.024000168,-4.804560184
1747396097.574667,24.834000000,0.000000000,0.000000000,0.000000000,0.000000000,-15.392634392,-87.940368652,0.000000000,-15.024000168,-4.804560184
1747396097.577559,24.837000000,0.000000000,0.000000000,0.000000000,0.000000000,-15.392634392,-87.940544128,0.000000000,-15.024000168,-4.804560184
1747396097.580450,24.840000000,0.000000000,0.000000000,0.000000000,0.000000000,-15.392634392,-87.940704346,0.000000000,-15.024000168,-4.804560184
1747396097.583501,24.843000000,0.000000000,0.000000000,0.000000000,0.000000000,-15.392634392,-87.940872192,0.000000000,-15.024000168,-4.804560184
1747396097.586749,24.846000000,0.000000000,0.000000000,0.000000000,0.000000000,-15.392634392,-87.941040039,0.000000000,-15.024000168,-4.804560184
1747396097.589637,24.849000000,0.000000000,0.000000000,0.000000000,0.000000000,-15.392634392,-87.941215515,0.000000000,-15.024000168,-4.804560184
1747396097.592591,24.852000000,0.000000000,0.000000000,0.000000000,0.000000000,-15.392634392,-87.941375732,0.000000000,-15.024000168,-4.804560184
1747396097.595568,24.855000000,0.000000000,0.000000000,0.000000000,0.000000000,-15.392634392,-87.941543579,0.000000000,-15.024000168,-4.804560184
1747396097.598581,24.858000000,0.000000000,0.000000000,0.000000000,0.000000000,-15.392634392,-87.941711426,0.000000000,-15.024000168,-4.804560184
1747396097.601564,24.861000000,0.000000000,0.000000000,0.000000000,0.000000000,-15.392634392,-87.941879272,0.000000000,-15.024000168,-4.804560184
1747396097.604603,24.864000000,0.000000000,0.000000000,0.000000000,0.000000000,-15.392634392,-87.942047119,0.000000000,-15.024000168,-4.804560184
1747396097.607847,24.867000000,0.000000000,0.000000000,0.000000000,0.000000000,-15.392634392,-87.942207336,0.000000000,-15.024000168,-4.804560184
1747396097.610744,24.870000000,0.000000000,0.000000000,0.000000000,0.000000000,-15.392634392,-87.942390442,0.000000000,-15.024000168,-4.804560184
1747396097.613782,24.873000000,0.000000000,0.000000000,0.000000000,0.000000000,-15.392634392,-87.942550659,0.000000000,-15.024000168,-4.804560184
1747396097.616834,24.876000000,0.000000000,0.000000000,0.000000000,0.000000000,-15.392634392,-87.942726135,0.000000000,-15.024000168,-4.804560184
1747396097.619730,24.879000000,0.000000000,0.000000000,0.000000000,0.000000000,-15.392634392,-87.942893982,0.000000000,-15.024000168,-4.804560184
1747396097.622614,24.882000000,0.000000000,0.000000000,0.000000000,0.000000000,-15.392634392,-87.943054199,0.000000000,-15.024000168,-4.804560184
1747396097.625583,24.885000000,0.000000000,0.000000000,0.000000000,0.000000000,-15.392634392,-87.943214417,0.000000000,-15.024000168,-4.804560184
1747396097.628543,24.888000000,0.000000000,0.000000000,0.000000000,0.000000000,-15.392634392,-87.943374634,0.000000000,-15.024000168,-4.804560184
1747396097.631553,24.891000000,0.000000000,0.000000000,0.000000000,0.000000000,-15.392634392,-87.943542480,0.000000000,-15.024000168,-4.804560184
1747396097.635069,24.894000000,0.000000000,0.000000000,0.000000000,0.000000000,-15.392634392,-87.943710327,0.000000000,-15.024000168,-4.804560184
1747396097.638321,24.898000000,0.000000000,0.000000000,0.000000000,0.000000000,-15.392634392,-87.943893433,0.000000000,-15.024000168,-4.804560184
1747396097.641309,24.901000000,0.000000000,0.000000000,0.000000000,0.000000000,-15.392634392,-87.944076538,0.000000000,-15.024000168,-4.804560184
1747396097.644248,24.904000000,0.000000000,0.000000000,0.000000000,0.000000000,-15.392634392,-87.944252014,0.000000000,-15.024000168,-4.804560184
1747396097.647176,24.907000000,0.000000000,0.000000000,0.000000000,0.000000000,-15.392634392,-87.944412231,0.000000000,-15.024000168,-4.804560184
1747396097.650382,24.910000000,0.000000000,0.000000000,0.000000000,0.000000000,-15.392634392,-87.944580078,0.000000000,-15.024000168,-4.804560184
1747396097.653254,24.913000000,0.000000000,0.000000000,0.000000000,0.000000000,-15.392634392,-87.944755554,0.000000000,-15.024000168,-4.804560184
1747396097.656116,24.916000000,0.000000000,0.000000000,0.000000000,0.000000000,-15.392634392,-87.944908142,0.000000000,-15.024000168,-4.804560184
1747396097.659136,24.919000000,0.000000000,0.000000000,0.000000000,0.000000000,-15.392634392,-87.945075989,0.000000000,-15.024000168,-4.804560184
1747396097.661976,24.922000000,0.000000000,0.000000000,0.000000000,0.000000000,-15.392634392,-87.945236206,0.000000000,-15.024000168,-4.804560184
1747396097.664907,24.924000000,0.000000000,0.000000000,0.000000000,0.000000000,-15.392634392,-87.945396423,0.000000000,-15.024000168,-4.804560184
1747396097.667889,24.927000000,0.000000000,0.000000000,0.000000000,0.000000000,-15.392634392,-87.945556641,0.000000000,-15.024000168,-4.804560184
1747396097.671024,24.930000000,0.000000000,0.000000000,0.000000000,0.000000000,-15.392634392,-87.945724487,0.000000000,-15.024000168,-4.804560184
1747396097.674083,24.934000000,0.000000000,0.000000000,0.000000000,0.000000000,-15.392634392,-87.945899963,0.000000000,-15.024000168,-4.804560184
1747396097.677046,24.937000000,0.000000000,0.000000000,0.000000000,0.000000000,-15.392634392,-87.946075439,0.000000000,-15.024000168,-4.804560184
1747396097.679997,24.940000000,0.000000000,0.000000000,0.000000000,0.000000000,-15.392634392,-87.946235657,0.000000000,-15.024000168,-4.804560184
1747396097.683025,24.943000000,0.000000000,0.000000000,0.000000000,0.000000000,-15.392634392,-87.946403503,0.000000000,-15.024000168,-4.804560184
1747396097.686045,24.946000000,0.000000000,0.000000000,0.000000000,0.000000000,-15.392634392,-87.946563721,0.000000000,-15.024000168,-4.804560184
1747396097.689030,24.949000000,0.000000000,0.000000000,0.000000000,0.000000000,-15.392634392,-87.946731567,0.000000000,-15.024000168,-4.804560184
1747396097.692023,24.952000000,0.000000000,0.000000000,0.000000000,0.000000000,-15.392634392,-87.946899414,0.000000000,-15.024000168,-4.804560184
1747396097.695019,24.955000000,0.000000000,0.000000000,0.000000000,0.000000000,-15.392634392,-87.947067261,0.000000000,-15.024000168,-4.804560184
1747396097.698012,24.958000000,0.000000000,0.000000000,0.000000000,0.000000000,-15.392634392,-87.947235107,0.000000000,-15.024000168,-4.804560184
1747396097.701022,24.961000000,0.000000000,0.000000000,0.000000000,0.000000000,-15.392634392,-87.947402954,0.000000000,-15.024000168,-4.804560184
1747396097.704015,24.964000000,0.000000000,0.000000000,0.000000000,0.000000000,-15.392634392,-87.947570801,0.000000000,-15.024000168,-4.804560184
1747396097.706972,24.967000000,0.000000000,0.000000000,0.000000000,0.000000000,-15.392634392,-87.947731018,0.000000000,-15.024000168,-4.804560184
1747396097.709951,24.969000000,0.000000000,0.000000000,0.000000000,0.000000000,-15.392634392,-87.947898865,0.000000000,-15.024000168,-4.804560184
1747396097.712942,24.972000000,0.000000000,0.000000000,0.000000000,0.000000000,-15.392634392,-87.948059082,0.000000000,-15.024000168,-4.804560184
1747396097.715969,24.975000000,0.000000000,0.000000000,0.000000000,0.000000000,-15.392634392,-87.948226929,0.000000000,-15.024000168,-4.804560184
1747396097.718973,24.978000000,0.000000000,0.000000000,0.000000000,0.000000000,-15.392634392,-87.948394775,0.000000000,-15.024000168,-4.804560184
1747396097.721978,24.981000000,0.000000000,0.000000000,0.000000000,0.000000000,-15.392634392,-87.948562622,0.000000000,-15.024000168,-4.804560184
1747396097.724997,24.984000000,0.000000000,0.000000000,0.000000000,0.000000000,-15.392634392,-87.948730469,0.000000000,-15.024000168,-4.804560184
1747396097.727958,24.987000000,0.000000000,0.000000000,0.000000000,0.000000000,-15.392634392,-87.948898315,0.000000000,-15.024000168,-4.804560184
1747396097.730929,24.990000000,0.000000000,0.000000000,0.000000000,0.000000000,-15.392634392,-87.949058533,0.000000000,-15.024000168,-4.804560184
1747396097.733917,24.993000000,0.000000000,0.000000000,0.000000000,0.000000000,-15.392634392,-87.949226379,0.000000000,-15.024000168,-4.804560184
1747396097.736886,24.996000000,0.000000000,0.000000000,0.000000000,0.000000000,-15.392634392,-87.949394226,0.000000000,-15.024000168,-4.804560184
1747396097.739866,24.999000000,0.000000000,0.000000000,0.000000000,0.000000000,-15.392634392,-87.949554443,0.000000000,-15.024000168,-4.804560184
1747396097.742831,25.002000000,0.000000000,0.000000000,0.000000000,0.000000000,-15.392634392,-87.949722290,0.000000000,-15.024000168,-4.804560184
1747396097.745831,25.005000000,0.000000000,0.000000000,0.000000000,0.000000000,-15.392634392,-87.949890137,0.000000000,-15.024000168,-4.804560184
1747396097.748828,25.008000000,0.000000000,0.000000000,0.000000000,0.000000000,-15.392634392,-87.950057983,0.000000000,-15.024000168,-4.804560184
1747396097.751832,25.011000000,0.000000000,0.000000000,0.000000000,0.000000000,-15.392634392,-87.950218201,0.000000000,-15.024000168,-4.804560184
1747396097.755389,25.015000000,0.000000000,0.000000000,0.000000000,0.000000000,-15.392634392,-87.950386047,0.000000000,-15.024000168,-4.804560184
1747396097.758315,25.018000000,0.000000000,0.000000000,0.000000000,0.000000000,-15.392634392,-87.950584412,0.000000000,-15.024000168,-4.804560184
1747396097.761610,25.021000000,0.000000000,0.000000000,0.000000000,0.000000000,-15.392634392,-87.950744629,0.000000000,-15.024000168,-4.804560184
1747396097.764567,25.024000000,0.000000000,0.000000000,0.000000000,0.000000000,-15.392634392,-87.950927734,0.000000000,-15.024000168,-4.804560184
1747396097.767503,25.027000000,0.000000000,0.000000000,0.000000000,0.000000000,-15.392634392,-87.951095581,0.000000000,-15.024000168,-4.804560184
1747396097.770533,25.030000000,0.000000000,0.000000000,0.000000000,0.000000000,-15.392634392,-87.951255798,0.000000000,-15.024000168,-4.804560184
1747396097.773492,25.033000000,0.000000000,0.000000000,0.000000000,0.000000000,-15.392634392,-87.951423645,0.000000000,-15.024000168,-4.804560184
1747396097.776379,25.036000000,0.000000000,0.000000000,0.000000000,0.000000000,-15.392634392,-87.951591492,0.000000000,-15.024000168,-4.804560184
1747396097.780033,25.039000000,0.000000000,0.000000000,0.000000000,0.000000000,-15.392634392,-87.951751709,0.000000000,-15.024000168,-4.804560184
1747396097.782948,25.042000000,0.000000000,0.000000000,0.000000000,0.000000000,-15.392634392,-87.951942444,0.000000000,-15.024000168,-4.804560184
1747396097.786186,25.046000000,0.000000000,0.000000000,0.000000000,0.000000000,-15.392634392,-87.952110291,0.000000000,-15.024000168,-4.804560184
1747396097.789411,25.049000000,0.000000000,0.000000000,0.000000000,0.000000000,-15.392634392,-87.952293396,0.000000000,-15.024000168,-4.804560184
1747396097.792359,25.052000000,0.000000000,0.000000000,0.000000000,0.000000000,-15.392634392,-87.952468872,0.000000000,-15.024000168,-4.804560184
1747396097.795226,25.055000000,0.000000000,0.000000000,0.000000000,0.000000000,-15.392634392,-87.952636719,0.000000000,-15.024000168,-4.804560184
1747396097.798233,25.058000000,0.000000000,0.000000000,0.000000000,0.000000000,-15.392634392,-87.952796936,0.000000000,-15.024000168,-4.804560184
1747396097.801112,25.061000000,0.000000000,0.000000000,0.000000000,0.000000000,-15.392634392,-87.952964783,0.000000000,-15.024000168,-4.804560184
1747396097.803986,25.064000000,0.000000000,0.000000000,0.000000000,0.000000000,-15.392634392,-87.953117371,0.000000000,-15.024000168,-4.804560184
1747396097.807002,25.067000000,0.000000000,0.000000000,0.000000000,0.000000000,-15.392634392,-87.953285217,0.000000000,-15.024000168,-4.804560184
1747396097.810607,25.070000000,0.000000000,0.000000000,0.000000000,0.000000000,-15.392634392,-87.953445435,0.000000000,-15.024000168,-4.804560184
1747396097.813482,25.073000000,0.000000000,0.000000000,0.000000000,0.000000000,-15.392634392,-87.953643799,0.000000000,-15.024000168,-4.804560184
1747396097.816548,25.076000000,0.000000000,0.000000000,0.000000000,0.000000000,-15.392634392,-87.953811646,0.000000000,-15.024000168,-4.804560184
1747396097.819455,25.079000000,0.000000000,0.000000000,0.000000000,0.000000000,-15.392634392,-87.953979492,0.000000000,-15.024000168,-4.804560184
1747396097.822445,25.082000000,0.000000000,0.000000000,0.000000000,0.000000000,-15.392634392,-87.954139709,0.000000000,-15.024000168,-4.804560184
1747396097.825483,25.085000000,0.000000000,0.000000000,0.000000000,0.000000000,-15.392634392,-87.954307556,0.000000000,-15.024000168,-4.804560184
1747396097.828512,25.088000000,0.000000000,0.000000000,0.000000000,0.000000000,-15.392634392,-87.954467773,0.000000000,-15.024000168,-4.804560184
1747396097.831620,25.091000000,0.000000000,0.000000000,0.000000000,0.000000000,-15.392634392,-87.954643250,0.000000000,-15.024000168,-4.804560184
1747396097.834533,25.094000000,0.000000000,0.000000000,0.000000000,0.000000000,-15.392634392,-87.954811096,0.000000000,-15.024000168,-4.804560184
1747396097.837517,25.097000000,0.000000000,0.000000000,0.000000000,0.000000000,-15.392634392,-87.954978943,0.000000000,-15.024000168,-4.804560184
1747396097.840217,25.100000000,0.000000000,0.000000000,0.000000000,0.000000000,-15.392634392,-87.955139160,0.000000000,-15.024000168,-4.804560184
1747396097.843177,25.103000000,0.000000000,0.000000000,0.000000000,0.000000000,-15.392634392,-87.955291748,0.000000000,-15.024000168,-4.804560184
1747396097.846009,25.106000000,0.000000000,0.000000000,0.000000000,0.000000000,-15.392634392,-87.955451965,0.000000000,-15.024000168,-4.804560184
1747396097.848828,25.108000000,0.000000000,0.000000000,0.000000000,0.000000000,-15.392634392,-87.955612183,0.000000000,-15.024000168,-4.804560184
1747396097.852270,25.112000000,0.000000000,0.000000000,0.000000000,0.000000000,-15.392634392,-87.955772400,0.000000000,-15.024000168,-4.804560184
1747396097.855224,25.115000000,0.000000000,0.000000000,0.000000000,0.000000000,-15.392634392,-87.955963135,0.000000000,-15.024000168,-4.804560184
1747396097.858098,25.118000000,0.000000000,0.000000000,0.000000000,0.000000000,-15.392634392,-87.956123352,0.000000000,-15.024000168,-4.804560184
1747396097.860977,25.121000000,0.000000000,0.000000000,0.000000000,0.000000000,-15.392634392,-87.956283569,0.000000000,-15.024000168,-4.804560184
1747396097.863922,25.123000000,0.000000000,0.000000000,0.000000000,0.000000000,-15.392634392,-87.956443787,0.000000000,-15.024000168,-4.804560184
1747396097.866887,25.126000000,0.000000000,0.000000000,0.000000000,0.000000000,-15.392634392,-87.956611633,0.000000000,-15.024000168,-4.804560184
1747396097.869793,25.129000000,0.000000000,0.000000000,0.000000000,0.000000000,-15.392634392,-87.956771851,0.000000000,-15.024000168,-4.804560184
1747396097.872670,25.132000000,0.000000000,0.000000000,0.000000000,0.000000000,-15.392634392,-87.956939697,0.000000000,-15.024000168,-4.804560184
1747396097.875729,25.135000000,0.000000000,0.000000000,0.000000000,0.000000000,-15.392634392,-87.957099915,0.000000000,-15.024000168,-4.804560184
1747396097.878691,25.138000000,0.000000000,0.000000000,0.000000000,0.000000000,-15.392634392,-87.957267761,0.000000000,-15.024000168,-4.804560184
1747396097.881642,25.141000000,0.000000000,0.000000000,0.000000000,0.000000000,-15.392634392,-87.957427979,0.000000000,-15.024000168,-4.804560184
1747396097.884606,25.144000000,0.000000000,0.000000000,0.000000000,0.000000000,-15.392634392,-87.957595825,0.000000000,-15.024000168,-4.804560184
1747396097.887636,25.147000000,0.000000000,0.000000000,0.000000000,0.000000000,-15.392634392,-87.957756042,0.000000000,-15.024000168,-4.804560184
1747396097.891018,25.151000000,0.000000000,0.000000000,0.000000000,0.000000000,-15.392634392,-87.957931519,0.000000000,-15.024000168,-4.804560184
1747396097.893795,25.154000000,0.000000000,0.000000000,0.000000000,0.000000000,-15.392634392,-87.958114624,0.000000000,-15.024000168,-4.804560184
1747396097.897168,25.157000000,0.000000000,0.000000000,0.000000000,0.000000000,-15.392634392,-87.958274841,0.000000000,-15.024000168,-4.804560184
1747396097.900414,25.160000000,0.000000000,0.000000000,0.000000000,0.000000000,-15.392634392,-87.958450317,0.000000000,-15.024000168,-4.804560184
1747396097.903616,25.163000000,0.000000000,0.000000000,0.000000000,0.000000000,-15.392634392,-87.958633423,0.000000000,-15.024000168,-4.804560184
1747396097.906347,25.166000000,0.000000000,0.000000000,0.000000000,0.000000000,-15.392634392,-87.958808899,0.000000000,-15.024000168,-4.804560184
1747396097.909609,25.169000000,0.000000000,0.000000000,0.000000000,0.000000000,-15.392634392,-87.958969116,0.000000000,-15.024000168,-4.804560184
1747396097.913107,25.173000000,0.000000000,0.000000000,0.000000000,0.000000000,-15.392634392,-87.959152222,0.000000000,-15.024000168,-4.804560184
1747396097.916589,25.176000000,0.000000000,0.000000000,0.000000000,0.000000000,-15.392634392,-87.959335327,0.000000000,-15.024000168,-4.804560184
1747396097.920091,25.179000000,0.000000000,0.000000000,0.000000000,0.000000000,-15.392634392,-87.959533691,0.000000000,-15.024000168,-4.804560184
1747396097.922835,25.182000000,0.000000000,0.000000000,0.000000000,0.000000000,-15.392634392,-87.959724426,0.000000000,-15.024000168,-4.804560184
1747396097.925812,25.185000000,0.000000000,0.000000000,0.000000000,0.000000000,-15.392634392,-87.959884644,0.000000000,-15.024000168,-4.804560184
1747396097.928852,25.188000000,0.000000000,0.000000000,0.000000000,0.000000000,-15.392634392,-87.960052490,0.000000000,-15.024000168,-4.804560184
1747396097.931894,25.191000000,0.000000000,0.000000000,0.000000000,0.000000000,-15.392634392,-87.960220337,0.000000000,-15.024000168,-4.804560184
1747396097.934912,25.194000000,0.000000000,0.000000000,0.000000000,0.000000000,-15.392634392,-87.960388184,0.000000000,-15.024000168,-4.804560184
1747396097.937818,25.197000000,0.000000000,0.000000000,0.000000000,0.000000000,-15.392634392,-87.960556030,0.000000000,-15.024000168,-4.804560184
1747396097.940843,25.200000000,0.000000000,0.000000000,0.000000000,0.000000000,-15.392634392,-87.960716248,0.000000000,-15.024000168,-4.804560184
1747396097.944411,25.204000000,0.000000000,0.000000000,0.000000000,0.000000000,-15.392634392,-87.960884094,0.000000000,-15.024000168,-4.804560184
1747396097.947497,25.207000000,0.000000000,0.000000000,0.000000000,0.000000000,-15.392634392,-87.961082458,0.000000000,-15.024000168,-4.804560184
1747396097.950580,25.210000000,0.000000000,0.000000000,0.000000000,0.000000000,-15.392634392,-87.961250305,0.000000000,-15.024000168,-4.804560184
1747396097.953530,25.213000000,0.000000000,0.000000000,0.000000000,0.000000000,-15.392634392,-87.961418152,0.000000000,-15.024000168,-4.804560184
1747396097.956537,25.216000000,0.000000000,0.000000000,0.000000000,0.000000000,-15.392634392,-87.961585999,0.000000000,-15.024000168,-4.804560184
1747396097.959315,25.219000000,0.000000000,0.000000000,0.000000000,0.000000000,-15.392634392,-87.961746216,0.000000000,-15.024000168,-4.804560184
1747396097.962227,25.222000000,0.000000000,0.000000000,0.000000000,0.000000000,-15.392634392,-87.961914063,0.000000000,-15.024000168,-4.804560184
1747396097.965106,25.225000000,0.000000000,0.000000000,0.000000000,0.000000000,-15.392634392,-87.962066650,0.000000000,-15.024000168,-4.804560184
1747396097.968030,25.228000000,0.000000000,0.000000000,0.000000000,0.000000000,-15.392634392,-87.962234497,0.000000000,-15.024000168,-4.804560184
1747396097.970980,25.231000000,0.000000000,0.000000000,0.000000000,0.000000000,-15.392634392,-87.962394714,0.000000000,-15.024000168,-4.804560184
1747396097.973980,25.234000000,0.000000000,0.000000000,0.000000000,0.000000000,-15.392634392,-87.962562561,0.000000000,-15.024000168,-4.804560184
1747396097.976906,25.236000000,0.000000000,0.000000000,0.000000000,0.000000000,-15.392634392,-87.962722778,0.000000000,-15.024000168,-4.804560184
1747396097.979822,25.239000000,0.000000000,0.000000000,0.000000000,0.000000000,-15.392634392,-87.962890625,0.000000000,-15.024000168,-4.804560184
1747396097.982719,25.242000000,0.000000000,0.000000000,0.000000000,0.000000000,-15.392634392,-87.963050842,0.000000000,-15.024000168,-4.804560184
1747396097.985717,25.245000000,0.000000000,0.000000000,0.000000000,0.000000000,-15.392634392,-87.963211060,0.000000000,-15.024000168,-4.804560184
1747396097.988665,25.248000000,0.000000000,0.000000000,0.000000000,0.000000000,-15.392634392,-87.963378906,0.000000000,-15.024000168,-4.804560184
1747396097.991720,25.251000000,0.000000000,0.000000000,0.000000000,0.000000000,-15.392634392,-87.963539124,0.000000000,-15.024000168,-4.804560184
1747396097.994615,25.254000000,0.000000000,0.000000000,0.000000000,0.000000000,-15.392634392,-87.963706970,0.000000000,-15.024000168,-4.804560184
1747396097.997586,25.257000000,0.000000000,0.000000000,0.000000000,0.000000000,-15.392634392,-87.963867188,0.000000000,-15.024000168,-4.804560184
1747396098.000490,25.260000000,0.000000000,0.000000000,0.000000000,0.000000000,-15.392634392,-87.964035034,0.000000000,-15.024000168,-4.804560184
1747396098.003381,25.263000000,0.000000000,0.000000000,0.000000000,0.000000000,-15.392634392,-87.964195251,0.000000000,-15.024000168,-4.804560184
1747396098.006266,25.266000000,0.000000000,0.000000000,0.000000000,0.000000000,-15.392634392,-87.964355469,0.000000000,-15.024000168,-4.804560184
1747396098.009282,25.269000000,0.000000000,0.000000000,0.000000000,0.000000000,-15.392634392,-87.964515686,0.000000000,-15.024000168,-4.804560184
1747396098.012253,25.272000000,0.000000000,0.000000000,0.000000000,0.000000000,-15.392634392,-87.964683533,0.000000000,-15.024000168,-4.804560184
1747396098.015131,25.275000000,0.000000000,0.000000000,0.000000000,0.000000000,-15.392634392,-87.964843750,0.000000000,-15.024000168,-4.804560184
1747396098.018104,25.278000000,0.000000000,0.000000000,0.000000000,0.000000000,-15.392634392,-87.965003967,0.000000000,-15.024000168,-4.804560184
1747396098.020983,25.281000000,0.000000000,0.000000000,0.000000000,0.000000000,-15.392634392,-87.965171814,0.000000000,-15.024000168,-4.804560184
1747396098.023902,25.283000000,0.000000000,0.000000000,0.000000000,0.000000000,-15.392634392,-87.965332031,0.000000000,-15.024000168,-4.804560184
1747396098.026819,25.286000000,0.000000000,0.000000000,0.000000000,0.000000000,-15.392634392,-87.965492249,0.000000000,-15.024000168,-4.804560184
1747396098.029894,25.289000000,0.000000000,0.000000000,0.000000000,0.000000000,-15.392634392,-87.965652466,0.000000000,-15.024000168,-4.804560184
1747396098.032894,25.292000000,0.000000000,0.000000000,0.000000000,0.000000000,-15.392634392,-87.965827942,0.000000000,-15.024000168,-4.804560184
1747396098.035962,25.295000000,0.000000000,0.000000000,0.000000000,0.000000000,-15.392634392,-87.965988159,0.000000000,-15.024000168,-4.804560184
1747396098.039002,25.299000000,0.000000000,0.000000000,0.000000000,0.000000000,-15.392634392,-87.966163635,0.000000000,-15.024000168,-4.804560184
1747396098.042004,25.302000000,0.000000000,0.000000000,0.000000000,0.000000000,-15.392634392,-87.966331482,0.000000000,-15.024000168,-4.804560184
1747396098.044916,25.304000000,0.000000000,0.000000000,0.000000000,0.000000000,-15.392634392,-87.966499329,0.000000000,-15.024000168,-4.804560184
1747396098.047927,25.307000000,0.000000000,0.000000000,0.000000000,0.000000000,-15.392634392,-87.966659546,0.000000000,-15.024000168,-4.804560184
1747396098.051020,25.310000000,0.000000000,0.000000000,0.000000000,0.000000000,-15.392634392,-87.966819763,0.000000000,-15.024000168,-4.804560184
1747396098.053915,25.314000000,0.000000000,0.000000000,0.000000000,0.000000000,-15.392634392,-87.966995239,0.000000000,-15.024000168,-4.804560184
1747396098.056794,25.316000000,0.000000000,0.000000000,0.000000000,0.000000000,-15.392634392,-87.967163086,0.000000000,-15.024000168,-4.804560184
1747396098.059791,25.319000000,0.000000000,0.000000000,0.000000000,0.000000000,-15.392634392,-87.967323303,0.000000000,-15.024000168,-4.804560184
1747396098.062739,25.322000000,0.000000000,0.000000000,0.000000000,0.000000000,-15.392634392,-87.967483521,0.000000000,-15.024000168,-4.804560184
1747396098.066295,25.326000000,0.000000000,0.000000000,0.000000000,0.000000000,-15.392634392,-87.967651367,0.000000000,-15.024000168,-4.804560184
1747396098.069610,25.329000000,0.000000000,0.000000000,0.000000000,0.000000000,-15.392634392,-87.967834473,0.000000000,-15.024000168,-4.804560184
1747396098.072428,25.332000000,0.000000000,0.000000000,0.000000000,0.000000000,-15.392634392,-87.968025208,0.000000000,-15.024000168,-4.804560184
1747396098.075353,25.335000000,0.000000000,0.000000000,0.000000000,0.000000000,-15.392634392,-87.968185425,0.000000000,-15.024000168,-4.804560184
1747396098.078319,25.338000000,0.000000000,0.000000000,0.000000000,0.000000000,-15.392634392,-87.968345642,0.000000000,-15.024000168,-4.804560184
1747396098.081261,25.341000000,0.000000000,0.000000000,0.000000000,0.000000000,-15.392634392,-87.968505859,0.000000000,-15.024000168,-4.804560184
1747396098.084454,25.344000000,0.000000000,0.000000000,0.000000000,0.000000000,-15.392634392,-87.968673706,0.000000000,-15.024000168,-4.804560184
1747396098.087746,25.347000000,0.000000000,0.000000000,0.000000000,0.000000000,-15.392634392,-87.968849182,0.000000000,-15.024000168,-4.804560184
1747396098.090920,25.350000000,0.000000000,0.000000000,0.000000000,0.000000000,-15.392634392,-87.969024658,0.000000000,-15.024000168,-4.804560184
1747396098.094348,25.354000000,0.000000000,0.000000000,0.000000000,0.000000000,-15.392634392,-87.969200134,0.000000000,-15.024000168,-4.804560184
1747396098.097580,25.357000000,0.000000000,0.000000000,0.000000000,0.000000000,-15.392634392,-87.969383240,0.000000000,-15.024000168,-4.804560184
1747396098.100210,25.360000000,0.000000000,0.000000000,0.000000000,0.000000000,-15.392634392,-87.969566345,0.000000000,-15.024000168,-4.804560184
1747396098.102953,25.363000000,0.000000000,0.000000000,0.000000000,0.000000000,-15.392634392,-87.969726563,0.000000000,-15.024000168,-4.804560184
1747396098.105882,25.365000000,0.000000000,0.000000000,0.000000000,0.000000000,-15.392634392,-87.969871521,0.000000000,-15.024000168,-4.804560184
1747396098.108823,25.368000000,0.000000000,0.000000000,0.000000000,0.000000000,-15.392634392,-87.970039368,0.000000000,-15.024000168,-4.804560184
1747396098.111856,25.371000000,0.000000000,0.000000000,0.000000000,0.000000000,-15.392634392,-87.970199585,0.000000000,-15.024000168,-4.804560184
1747396098.114798,25.374000000,0.000000000,0.000000000,0.000000000,0.000000000,-15.392634392,-87.970367432,0.000000000,-15.024000168,-4.804560184
1747396098.117886,25.377000000,0.000000000,0.000000000,0.000000000,0.000000000,-15.392634392,-87.970535278,0.000000000,-15.024000168,-4.804560184
1747396098.120598,25.380000000,0.000000000,0.000000000,0.000000000,0.000000000,-15.392634392,-87.970703125,0.000000000,-15.024000168,-4.804560184
1747396098.123764,25.383000000,0.000000000,0.000000000,0.000000000,0.000000000,-15.392634392,-87.970855713,0.000000000,-15.024000168,-4.804560184
1747396098.126759,25.386000000,0.000000000,0.000000000,0.000000000,0.000000000,-15.392634392,-87.971031189,0.000000000,-15.024000168,-4.804560184
1747396098.129726,25.389000000,0.000000000,0.000000000,0.000000000,0.000000000,-15.392634392,-87.971191406,0.000000000,-15.024000168,-4.804560184
1747396098.132713,25.392000000,0.000000000,0.000000000,0.000000000,0.000000000,-15.392634392,-87.971359253,0.000000000,-15.024000168,-4.804560184
1747396098.135717,25.395000000,0.000000000,0.000000000,0.000000000,0.000000000,-15.392634392,-87.971527100,0.000000000,-15.024000168,-4.804560184
1747396098.138717,25.398000000,0.000000000,0.000000000,0.000000000,0.000000000,-15.392634392,-87.971694946,0.000000000,-15.024000168,-4.804560184
1747396098.141627,25.401000000,0.000000000,0.000000000,0.000000000,0.000000000,-15.392634392,-87.971862793,0.000000000,-15.024000168,-4.804560184
1747396098.144696,25.404000000,0.000000000,0.000000000,0.000000000,0.000000000,-15.392634392,-87.972023010,0.000000000,-15.024000168,-4.804560184
1747396098.147696,25.407000000,0.000000000,0.000000000,0.000000000,0.000000000,-15.392634392,-87.972190857,0.000000000,-15.024000168,-4.804560184
1747396098.150659,25.410000000,0.000000000,0.000000000,0.000000000,0.000000000,-15.392634392,-87.972358704,0.000000000,-15.024000168,-4.804560184
1747396098.153673,25.413000000,0.000000000,0.000000000,0.000000000,0.000000000,-15.392634392,-87.972526550,0.000000000,-15.024000168,-4.804560184
1747396098.156646,25.416000000,0.000000000,0.000000000,0.000000000,0.000000000,-15.392634392,-87.972686768,0.000000000,-15.024000168,-4.804560184
1747396098.159697,25.419000000,0.000000000,0.000000000,0.000000000,0.000000000,-15.392634392,-87.972854614,0.000000000,-15.024000168,-4.804560184
1747396098.162674,25.422000000,0.000000000,0.000000000,0.000000000,0.000000000,-15.392634392,-87.973022461,0.000000000,-15.024000168,-4.804560184
1747396098.165645,25.425000000,0.000000000,0.000000000,0.000000000,0.000000000,-15.392634392,-87.973190308,0.000000000,-15.024000168,-4.804560184
1747396098.168704,25.428000000,0.000000000,0.000000000,0.000000000,0.000000000,-15.392634392,-87.973350525,0.000000000,-15.024000168,-4.804560184
1747396098.171693,25.431000000,0.000000000,0.000000000,0.000000000,0.000000000,-15.392634392,-87.973526001,0.000000000,-15.024000168,-4.804560184
1747396098.174715,25.434000000,0.000000000,0.000000000,0.000000000,0.000000000,-15.392634392,-87.973686218,0.000000000,-15.024000168,-4.804560184
1747396098.177706,25.437000000,0.000000000,0.000000000,0.000000000,0.000000000,-15.392634392,-87.973854065,0.000000000,-15.024000168,-4.804560184
1747396098.180619,25.440000000,0.000000000,0.000000000,0.000000000,0.000000000,-15.392634392,-87.974021912,0.000000000,-15.024000168,-4.804560184
1747396098.183823,25.443000000,0.000000000,0.000000000,0.000000000,0.000000000,-15.392634392,-87.974182129,0.000000000,-15.024000168,-4.804560184
1747396098.187466,25.447000000,0.000000000,0.000000000,0.000000000,0.000000000,-15.392634392,-87.974365234,0.000000000,-15.024000168,-4.804560184
1747396098.190628,25.450000000,0.000000000,0.000000000,0.000000000,0.000000000,-15.392634392,-87.974563599,0.000000000,-15.024000168,-4.804560184
1747396098.193495,25.453000000,0.000000000,0.000000000,0.000000000,0.000000000,-15.392634392,-87.974731445,0.000000000,-15.024000168,-4.804560184
1747396098.196515,25.456000000,0.000000000,0.000000000,0.000000000,0.000000000,-15.392634392,-87.974899292,0.000000000,-15.024000168,-4.804560184
1747396098.199492,25.459000000,0.000000000,0.000000000,0.000000000,0.000000000,-15.392634392,-87.975067139,0.000000000,-15.024000168,-4.804560184
1747396098.202527,25.462000000,0.000000000,0.000000000,0.000000000,0.000000000,-15.392634392,-87.975234985,0.000000000,-15.024000168,-4.804560184
1747396098.205568,25.465000000,0.000000000,0.000000000,0.000000000,0.000000000,-15.392634392,-87.975402832,0.000000000,-15.024000168,-4.804560184
1747396098.209106,25.469000000,0.000000000,0.000000000,0.000000000,0.000000000,-15.392634392,-87.975570679,0.000000000,-15.024000168,-4.804560184
1747396098.212100,25.472000000,0.000000000,0.000000000,0.000000000,0.000000000,-15.392634392,-87.975761414,0.000000000,-15.024000168,-4.804560184
1747396098.215006,25.475000000,0.000000000,0.000000000,0.000000000,0.000000000,-15.392634392,-87.975929260,0.000000000,-15.024000168,-4.804560184
1747396098.218469,25.478000000,0.000000000,0.000000000,0.000000000,0.000000000,-15.392634392,-87.976089478,0.000000000,-15.024000168,-4.804560184
1747396098.222012,25.481000000,0.000000000,0.000000000,0.000000000,0.000000000,-15.392634392,-87.976280212,0.000000000,-15.024000168,-4.804560184
1747396098.224926,25.484000000,0.000000000,0.000000000,0.000000000,0.000000000,-15.392634392,-87.976470947,0.000000000,-15.024000168,-4.804560184
1747396098.227911,25.488000000,0.000000000,0.000000000,0.000000000,0.000000000,-15.392634392,-87.976646423,0.000000000,-15.024000168,-4.804560184
1747396098.230877,25.490000000,0.000000000,0.000000000,0.000000000,0.000000000,-15.392634392,-87.976806641,0.000000000,-15.024000168,-4.804560184
1747396098.234044,25.494000000,0.000000000,0.000000000,0.000000000,0.000000000,-15.392634392,-87.976974487,0.000000000,-15.024000168,-4.804560184
1747396098.236999,25.497000000,0.000000000,0.000000000,0.000000000,0.000000000,-15.392634392,-87.977149963,0.000000000,-15.024000168,-4.804560184
1747396098.239970,25.500000000,0.000000000,0.000000000,0.000000000,0.000000000,-15.392634392,-87.977310181,0.000000000,-15.024000168,-4.804560184
1747396098.243016,25.503000000,0.000000000,0.000000000,0.000000000,0.000000000,-15.392634392,-87.977478027,0.000000000,-15.024000168,-4.804560184
1747396098.246038,25.506000000,0.000000000,0.000000000,0.000000000,0.000000000,-15.392634392,-87.977645874,0.000000000,-15.024000168,-4.804560184
1747396098.249019,25.509000000,0.000000000,0.000000000,0.000000000,0.000000000,-15.392634392,-87.977813721,0.000000000,-15.024000168,-4.804560184
1747396098.252049,25.512000000,0.000000000,0.000000000,0.000000000,0.000000000,-15.392634392,-87.977981567,0.000000000,-15.024000168,-4.804560184
1747396098.255145,25.515000000,0.000000000,0.000000000,0.000000000,0.000000000,-15.392634392,-87.978149414,0.000000000,-15.024000168,-4.804560184
1747396098.258277,25.518000000,0.000000000,0.000000000,0.000000000,0.000000000,-15.392634392,-87.978324890,0.000000000,-15.024000168,-4.804560184
1747396098.261306,25.521000000,0.000000000,0.000000000,0.000000000,0.000000000,-15.392634392,-87.978500366,0.000000000,-15.024000168,-4.804560184
1747396098.264425,25.524000000,0.000000000,0.000000000,0.000000000,0.000000000,-15.392634392,-87.978668213,0.000000000,-15.024000168,-4.804560184
1747396098.267405,25.527000000,0.000000000,0.000000000,0.000000000,0.000000000,-15.392634392,-87.978836060,0.000000000,-15.024000168,-4.804560184
1747396098.270490,25.530000000,0.000000000,0.000000000,0.000000000,0.000000000,-15.392634392,-87.979003906,0.000000000,-15.024000168,-4.804560184
1747396098.273416,25.533000000,0.000000000,0.000000000,0.000000000,0.000000000,-15.392634392,-87.979171753,0.000000000,-15.024000168,-4.804560184
1747396098.276450,25.536000000,0.000000000,0.000000000,0.000000000,0.000000000,-15.392634392,-87.979339600,0.000000000,-15.024000168,-4.804560184
1747396098.279441,25.539000000,0.000000000,0.000000000,0.000000000,0.000000000,-15.392634392,-87.979507446,0.000000000,-15.024000168,-4.804560184
1747396098.282461,25.542000000,0.000000000,0.000000000,0.000000000,0.000000000,-15.392634392,-87.979675293,0.000000000,-15.024000168,-4.804560184
1747396098.285671,25.545000000,0.000000000,0.000000000,0.000000000,0.000000000,-15.392634392,-87.979843140,0.000000000,-15.024000168,-4.804560184
1747396098.288963,25.548000000,0.000000000,0.000000000,0.000000000,0.000000000,-15.392634392,-87.980018616,0.000000000,-15.024000168,-4.804560184
1747396098.291893,25.551000000,0.000000000,0.000000000,0.000000000,0.000000000,-15.392634392,-87.980201721,0.000000000,-15.024000168,-4.804560184
1747396098.294875,25.554000000,0.000000000,0.000000000,0.000000000,0.000000000,-15.392634392,-87.980369568,0.000000000,-15.024000168,-4.804560184
1747396098.297825,25.557000000,0.000000000,0.000000000,0.000000000,0.000000000,-15.392634392,-87.980529785,0.000000000,-15.024000168,-4.804560184
1747396098.300772,25.560000000,0.000000000,0.000000000,0.000000000,0.000000000,-15.392634392,-87.980697632,0.000000000,-15.024000168,-4.804560184
1747396098.303782,25.563000000,0.000000000,0.000000000,0.000000000,0.000000000,-15.392634392,-87.980857849,0.000000000,-15.024000168,-4.804560184
1747396098.307130,25.567000000,0.000000000,0.000000000,0.000000000,0.000000000,-15.392634392,-87.981025696,0.000000000,-15.024000168,-4.804560184
1747396098.310079,25.570000000,0.000000000,0.000000000,0.000000000,0.000000000,-15.392634392,-87.981208801,0.000000000,-15.024000168,-4.804560184
1747396098.313032,25.573000000,0.000000000,0.000000000,0.000000000,0.000000000,-15.392634392,-87.981376648,0.000000000,-15.024000168,-4.804560184
1747396098.315908,25.575000000,0.000000000,0.000000000,0.000000000,0.000000000,-15.392634392,-87.981536865,0.000000000,-15.024000168,-4.804560184
1747396098.318839,25.578000000,0.000000000,0.000000000,0.000000000,0.000000000,-15.392634392,-87.981704712,0.000000000,-15.024000168,-4.804560184
1747396098.321720,25.581000000,0.000000000,0.000000000,0.000000000,0.000000000,-15.392634392,-87.981864929,0.000000000,-15.024000168,-4.804560184
1747396098.324602,25.584000000,0.000000000,0.000000000,0.000000000,0.000000000,-15.392634392,-87.982025146,0.000000000,-15.024000168,-4.804560184
1747396098.327515,25.587000000,0.000000000,0.000000000,0.000000000,0.000000000,-15.392634392,-87.982185364,0.000000000,-15.024000168,-4.804560184
1747396098.330395,25.590000000,0.000000000,0.000000000,0.000000000,0.000000000,-15.392634392,-87.982345581,0.000000000,-15.024000168,-4.804560184
1747396098.333730,25.593000000,0.000000000,0.000000000,0.000000000,0.000000000,-15.392634392,-87.982505798,0.000000000,-15.024000168,-4.804560184
1747396098.336617,25.596000000,0.000000000,0.000000000,0.000000000,0.000000000,-15.392634392,-87.982688904,0.000000000,-15.024000168,-4.804560184
1747396098.339552,25.599000000,0.000000000,0.000000000,0.000000000,0.000000000,-15.392634392,-87.982856750,0.000000000,-15.024000168,-4.804560184
1747396098.342506,25.602000000,0.000000000,0.000000000,0.000000000,0.000000000,-15.392634392,-87.983016968,0.000000000,-15.024000168,-4.804560184
1747396098.345463,25.605000000,0.000000000,0.000000000,0.000000000,0.000000000,-15.392634392,-87.983184814,0.000000000,-15.024000168,-4.804560184
1747396098.348406,25.608000000,0.000000000,0.000000000,0.000000000,0.000000000,-15.392634392,-87.983345032,0.000000000,-15.024000168,-4.804560184
1747396098.351327,25.611000000,0.000000000,0.000000000,0.000000000,0.000000000,-15.392634392,-87.983512878,0.000000000,-15.024000168,-4.804560184
1747396098.354125,25.614000000,0.000000000,0.000000000,0.000000000,0.000000000,-15.392634392,-87.983665466,0.000000000,-15.024000168,-4.804560184
1747396098.357568,25.617000000,0.000000000,0.000000000,0.000000000,0.000000000,-15.392634392,-87.983825684,0.000000000,-15.024000168,-4.804560184
1747396098.360538,25.620000000,0.000000000,0.000000000,0.000000000,0.000000000,-15.392634392,-87.984008789,0.000000000,-15.024000168,-4.804560184
1747396098.363430,25.623000000,0.000000000,0.000000000,0.000000000,0.000000000,-15.392634392,-87.984176636,0.000000000,-15.024000168,-4.804560184
1747396098.366344,25.626000000,0.000000000,0.000000000,0.000000000,0.000000000,-15.392634392,-87.984344482,0.000000000,-15.024000168,-4.804560184
1747396098.369333,25.629000000,0.000000000,0.000000000,0.000000000,0.000000000,-15.392634392,-87.984504700,0.000000000,-15.024000168,-4.804560184
1747396098.372319,25.632000000,0.000000000,0.000000000,0.000000000,0.000000000,-15.392634392,-87.984672546,0.000000000,-15.024000168,-4.804560184
1747396098.375346,25.635000000,0.000000000,0.000000000,0.000000000,0.000000000,-15.392634392,-87.984840393,0.000000000,-15.024000168,-4.804560184
1747396098.378224,25.638000000,0.000000000,0.000000000,0.000000000,0.000000000,-15.392634392,-87.985000610,0.000000000,-15.024000168,-4.804560184
1747396098.381247,25.641000000,0.000000000,0.000000000,0.000000000,0.000000000,-15.392634392,-87.985160828,0.000000000,-15.024000168,-4.804560184
1747396098.384268,25.644000000,0.000000000,0.000000000,0.000000000,0.000000000,-15.392634392,-87.985328674,0.000000000,-15.024000168,-4.804560184
1747396098.387293,25.647000000,0.000000000,0.000000000,0.000000000,0.000000000,-15.392634392,-87.985496521,0.000000000,-15.024000168,-4.804560184
1747396098.390271,25.650000000,0.000000000,0.000000000,0.000000000,0.000000000,-15.392634392,-87.985664368,0.000000000,-15.024000168,-4.804560184
1747396098.393276,25.653000000,0.000000000,0.000000000,0.000000000,0.000000000,-15.392634392,-87.985824585,0.000000000,-15.024000168,-4.804560184
1747396098.396252,25.656000000,0.000000000,0.000000000,0.000000000,0.000000000,-15.392634392,-87.985992432,0.000000000,-15.024000168,-4.804560184
1747396098.399214,25.659000000,0.000000000,0.000000000,0.000000000,0.000000000,-15.392634392,-87.986160278,0.000000000,-15.024000168,-4.804560184
1747396098.402160,25.662000000,0.000000000,0.000000000,0.000000000,0.000000000,-15.392634392,-87.986320496,0.000000000,-15.024000168,-4.804560184
1747396098.405153,25.665000000,0.000000000,0.000000000,0.000000000,0.000000000,-15.392634392,-87.986488342,0.000000000,-15.024000168,-4.804560184
1747396098.408385,25.668000000,0.000000000,0.000000000,0.000000000,0.000000000,-15.392634392,-87.986656189,0.000000000,-15.024000168,-4.804560184
1747396098.411583,25.671000000,0.000000000,0.000000000,0.000000000,0.000000000,-15.392634392,-87.986831665,0.000000000,-15.024000168,-4.804560184
1747396098.414710,25.674000000,0.000000000,0.000000000,0.000000000,0.000000000,-15.392634392,-87.987007141,0.000000000,-15.024000168,-4.804560184
1747396098.417859,25.677000000,0.000000000,0.000000000,0.000000000,0.000000000,-15.392634392,-87.987182617,0.000000000,-15.024000168,-4.804560184
1747396098.420696,25.680000000,0.000000000,0.000000000,0.000000000,0.000000000,-15.392634392,-87.987358093,0.000000000,-15.024000168,-4.804560184
1747396098.423719,25.683000000,0.000000000,0.000000000,0.000000000,0.000000000,-15.392634392,-87.987518311,0.000000000,-15.024000168,-4.804560184
1747396098.426712,25.686000000,0.000000000,0.000000000,0.000000000,0.000000000,-15.392634392,-87.987686157,0.000000000,-15.024000168,-4.804560184
1747396098.429612,25.689000000,0.000000000,0.000000000,0.000000000,0.000000000,-15.392634392,-87.987854004,0.000000000,-15.024000168,-4.804560184
1747396098.432573,25.692000000,0.000000000,0.000000000,0.000000000,0.000000000,-15.392634392,-87.988014221,0.000000000,-15.024000168,-4.804560184
1747396098.435618,25.695000000,0.000000000,0.000000000,0.000000000,0.000000000,-15.392634392,-87.988182068,0.000000000,-15.024000168,-4.804560184
1747396098.438593,25.698000000,0.000000000,0.000000000,0.000000000,0.000000000,-15.392634392,-87.988349915,0.000000000,-15.024000168,-4.804560184
1747396098.441475,25.701000000,0.000000000,0.000000000,0.000000000,0.000000000,-15.392634392,-87.988510132,0.000000000,-15.024000168,-4.804560184
1747396098.444534,25.704000000,0.000000000,0.000000000,0.000000000,0.000000000,-15.392634392,-87.988670349,0.000000000,-15.024000168,-4.804560184
1747396098.447573,25.707000000,0.000000000,0.000000000,0.000000000,0.000000000,-15.392634392,-87.988838196,0.000000000,-15.024000168,-4.804560184
1747396098.450555,25.710000000,0.000000000,0.000000000,0.000000000,0.000000000,-15.392634392,-87.989013672,0.000000000,-15.024000168,-4.804560184
1747396098.453593,25.713000000,0.000000000,0.000000000,0.000000000,0.000000000,-15.392634392,-87.989173889,0.000000000,-15.024000168,-4.804560184
1747396098.456598,25.716000000,0.000000000,0.000000000,0.000000000,0.000000000,-15.392634392,-87.989341736,0.000000000,-15.024000168,-4.804560184
1747396098.459564,25.719000000,0.000000000,0.000000000,0.000000000,0.000000000,-15.392634392,-87.989509583,0.000000000,-15.024000168,-4.804560184
1747396098.462523,25.722000000,0.000000000,0.000000000,0.000000000,0.000000000,-15.392634392,-87.989677429,0.000000000,-15.024000168,-4.804560184
1747396098.465597,25.725000000,0.000000000,0.000000000,0.000000000,0.000000000,-15.392634392,-87.989837646,0.000000000,-15.024000168,-4.804560184
1747396098.468615,25.728000000,0.000000000,0.000000000,0.000000000,0.000000000,-15.392634392,-87.990005493,0.000000000,-15.024000168,-4.804560184
1747396098.471885,25.731000000,0.000000000,0.000000000,0.000000000,0.000000000,-15.392634392,-87.990180969,0.000000000,-15.024000168,-4.804560184
1747396098.475223,25.735000000,0.000000000,0.000000000,0.000000000,0.000000000,-15.392634392,-87.990348816,0.000000000,-15.024000168,-4.804560184
1747396098.478382,25.738000000,0.000000000,0.000000000,0.000000000,0.000000000,-15.392634392,-87.990539551,0.000000000,-15.024000168,-4.804560184
1747396098.481377,25.741000000,0.000000000,0.000000000,0.000000000,0.000000000,-15.392634392,-87.990715027,0.000000000,-15.024000168,-4.804560184
1747396098.484268,25.744000000,0.000000000,0.000000000,0.000000000,0.000000000,-15.392634392,-87.990882874,0.000000000,-15.024000168,-4.804560184
1747396098.487359,25.747000000,0.000000000,0.000000000,0.000000000,0.000000000,-15.392634392,-87.991043091,0.000000000,-15.024000168,-4.804560184
1747396098.490258,25.750000000,0.000000000,0.000000000,0.000000000,0.000000000,-15.392634392,-87.991210938,0.000000000,-15.024000168,-4.804560184
1747396098.494181,25.754000000,0.000000000,0.000000000,0.000000000,0.000000000,-15.392634392,-87.991378784,0.000000000,-15.024000168,-4.804560184
1747396098.497048,25.757000000,0.000000000,0.000000000,0.000000000,0.000000000,-15.392634392,-87.991584778,0.000000000,-15.024000168,-4.804560184
1747396098.500562,25.760000000,0.000000000,0.000000000,0.000000000,0.000000000,-15.392634392,-87.991752625,0.000000000,-15.024000168,-4.804560184
1747396098.503745,25.763000000,0.000000000,0.000000000,0.000000000,0.000000000,-15.392634392,-87.991943359,0.000000000,-15.024000168,-4.804560184
1747396098.506679,25.766000000,0.000000000,0.000000000,0.000000000,0.000000000,-15.392634392,-87.992118835,0.000000000,-15.024000168,-4.804560184
1747396098.509664,25.769000000,0.000000000,0.000000000,0.000000000,0.000000000,-15.392634392,-87.992286682,0.000000000,-15.024000168,-4.804560184
1747396098.512727,25.772000000,0.000000000,0.000000000,0.000000000,0.000000000,-15.392634392,-87.992454529,0.000000000,-15.024000168,-4.804560184
1747396098.515671,25.775000000,0.000000000,0.000000000,0.000000000,0.000000000,-15.392634392,-87.992622375,0.000000000,-15.024000168,-4.804560184
1747396098.518586,25.778000000,0.000000000,0.000000000,0.000000000,0.000000000,-15.392634392,-87.992782593,0.000000000,-15.024000168,-4.804560184
1747396098.521492,25.781000000,0.000000000,0.000000000,0.000000000,0.000000000,-15.392634392,-87.992950439,0.000000000,-15.024000168,-4.804560184
1747396098.524477,25.784000000,0.000000000,0.000000000,0.000000000,0.000000000,-15.392634392,-87.993110657,0.000000000,-15.024000168,-4.804560184
1747396098.527523,25.787000000,0.000000000,0.000000000,0.000000000,0.000000000,-15.392634392,-87.993278503,0.000000000,-15.024000168,-4.804560184
1747396098.530431,25.790000000,0.000000000,0.000000000,0.000000000,0.000000000,-15.392634392,-87.993446350,0.000000000,-15.024000168,-4.804560184
1747396098.533441,25.793000000,0.000000000,0.000000000,0.000000000,0.000000000,-15.392634392,-87.993606567,0.000000000,-15.024000168,-4.804560184
1747396098.536447,25.796000000,0.000000000,0.000000000,0.000000000,0.000000000,-15.392634392,-87.993774414,0.000000000,-15.024000168,-4.804560184
1747396098.539340,25.799000000,0.000000000,0.000000000,0.000000000,0.000000000,-15.392634392,-87.993934631,0.000000000,-15.024000168,-4.804560184
1747396098.542334,25.802000000,0.000000000,0.000000000,0.000000000,0.000000000,-15.392634392,-87.994102478,0.000000000,-15.024000168,-4.804560184
1747396098.545402,25.805000000,0.000000000,0.000000000,0.000000000,0.000000000,-15.392634392,-87.994262695,0.000000000,-15.024000168,-4.804560184
1747396098.548345,25.808000000,0.000000000,0.000000000,0.000000000,0.000000000,-15.392634392,-87.994430542,0.000000000,-15.024000168,-4.804560184
1747396098.551606,25.811000000,0.000000000,0.000000000,0.000000000,0.000000000,-15.392634392,-87.994606018,0.000000000,-15.024000168,-4.804560184
1747396098.554736,25.814000000,0.000000000,0.000000000,0.000000000,0.000000000,-15.392634392,-87.994773865,0.000000000,-15.024000168,-4.804560184
1747396098.557612,25.817000000,0.000000000,0.000000000,0.000000000,0.000000000,-15.392634392,-87.994949341,0.000000000,-15.024000168,-4.804560184
1747396098.560816,25.820000000,0.000000000,0.000000000,0.000000000,0.000000000,-15.392634392,-87.995117188,0.000000000,-15.024000168,-4.804560184
1747396098.563859,25.823000000,0.000000000,0.000000000,0.000000000,0.000000000,-15.392634392,-87.995292664,0.000000000,-15.024000168,-4.804560184
1747396098.566882,25.826000000,0.000000000,0.000000000,0.000000000,0.000000000,-15.392634392,-87.995460510,0.000000000,-15.024000168,-4.804560184
1747396098.569865,25.829000000,0.000000000,0.000000000,0.000000000,0.000000000,-15.392634392,-87.995628357,0.000000000,-15.024000168,-4.804560184
1747396098.572898,25.832000000,0.000000000,0.000000000,0.000000000,0.000000000,-15.392634392,-87.995796204,0.000000000,-15.024000168,-4.804560184
1747396098.575819,25.835000000,0.000000000,0.000000000,0.000000000,0.000000000,-15.392634392,-87.995956421,0.000000000,-15.024000168,-4.804560184
1747396098.578764,25.838000000,0.000000000,0.000000000,0.000000000,0.000000000,-15.392634392,-87.996124268,0.000000000,-15.024000168,-4.804560184
1747396098.582224,25.842000000,0.000000000,0.000000000,0.000000000,0.000000000,-15.392634392,-87.996284485,0.000000000,-15.024000168,-4.804560184
1747396098.585082,25.845000000,0.000000000,0.000000000,0.000000000,0.000000000,-15.392634392,-87.996475220,0.000000000,-15.024000168,-4.804560184
1747396098.588161,25.848000000,0.000000000,0.000000000,0.000000000,0.000000000,-15.392634392,-87.996643066,0.000000000,-15.024000168,-4.804560184
1747396098.591071,25.851000000,0.000000000,0.000000000,0.000000000,0.000000000,-15.392634392,-87.996810913,0.000000000,-15.024000168,-4.804560184
1747396098.594042,25.854000000,0.000000000,0.000000000,0.000000000,0.000000000,-15.392634392,-87.996971130,0.000000000,-15.024000168,-4.804560184
1747396098.597008,25.856000000,0.000000000,0.000000000,0.000000000,0.000000000,-15.392634392,-87.997138977,0.000000000,-15.024000168,-4.804560184
1747396098.599988,25.859000000,0.000000000,0.000000000,0.000000000,0.000000000,-15.392634392,-87.997299194,0.000000000,-15.024000168,-4.804560184
1747396098.603279,25.863000000,0.000000000,0.000000000,0.000000000,0.000000000,-15.392634392,-87.997467041,0.000000000,-15.024000168,-4.804560184
1747396098.606251,25.866000000,0.000000000,0.000000000,0.000000000,0.000000000,-15.392634392,-87.997650146,0.000000000,-15.024000168,-4.804560184
1747396098.609710,25.869000000,0.000000000,0.000000000,0.000000000,0.000000000,-15.392634392,-87.997817993,0.000000000,-15.024000168,-4.804560184
1747396098.612784,25.872000000,0.000000000,0.000000000,0.000000000,0.000000000,-15.392634392,-87.998001099,0.000000000,-15.024000168,-4.804560184
1747396098.615724,25.875000000,0.000000000,0.000000000,0.000000000,0.000000000,-15.392634392,-87.998176575,0.000000000,-15.024000168,-4.804560184
1747396098.618738,25.878000000,0.000000000,0.000000000,0.000000000,0.000000000,-15.392634392,-87.998344421,0.000000000,-15.024000168,-4.804560184
1747396098.621696,25.881000000,0.000000000,0.000000000,0.000000000,0.000000000,-15.392634392,-87.998504639,0.000000000,-15.024000168,-4.804560184
1747396098.624709,25.884000000,0.000000000,0.000000000,0.000000000,0.000000000,-15.392634392,-87.998672485,0.000000000,-15.024000168,-4.804560184
1747396098.627692,25.887000000,0.000000000,0.000000000,0.000000000,0.000000000,-15.392634392,-87.998840332,0.000000000,-15.024000168,-4.804560184
1747396098.630591,25.890000000,0.000000000,0.000000000,0.000000000,0.000000000,-15.392634392,-87.999008179,0.000000000,-15.024000168,-4.804560184
1747396098.633610,25.893000000,0.000000000,0.000000000,0.000000000,0.000000000,-15.392634392,-87.999168396,0.000000000,-15.024000168,-4.804560184
1747396098.636596,25.896000000,0.000000000,0.000000000,0.000000000,0.000000000,-15.392634392,-87.999336243,0.000000000,-15.024000168,-4.804560184
1747396098.639976,25.899000000,0.000000000,0.000000000,0.000000000,0.000000000,-15.392634392,-87.999504089,0.000000000,-15.024000168,-4.804560184
1747396098.642868,25.902000000,0.000000000,0.000000000,0.000000000,0.000000000,-15.392634392,-87.999687195,0.000000000,-15.024000168,-4.804560184
1747396098.646280,25.906000000,0.000000000,0.000000000,0.000000000,0.000000000,-15.392634392,-87.999847412,0.000000000,-15.024000168,-4.804560184
1747396098.649156,25.909000000,0.000000000,0.000000000,0.000000000,0.000000000,-15.392634392,-88.000038147,0.000000000,-15.024000168,-4.804560184
1747396098.652156,25.912000000,0.000000000,0.000000000,0.000000000,0.000000000,-15.392634392,-88.000198364,0.000000000,-15.024000168,-4.804560184
1747396098.655204,25.915000000,0.000000000,0.000000000,0.000000000,0.000000000,-15.392634392,-88.000366211,0.000000000,-15.024000168,-4.804560184
1747396098.658081,25.918000000,0.000000000,0.000000000,0.000000000,0.000000000,-15.392634392,-88.000534058,0.000000000,-15.024000168,-4.804560184
1747396098.661021,25.921000000,0.000000000,0.000000000,0.000000000,0.000000000,-15.392634392,-88.000694275,0.000000000,-15.024000168,-4.804560184
1747396098.663939,25.924000000,0.000000000,0.000000000,0.000000000,0.000000000,-15.392634392,-88.000854492,0.000000000,-15.024000168,-4.804560184
1747396098.666888,25.926000000,0.000000000,0.000000000,0.000000000,0.000000000,-15.392634392,-88.001022339,0.000000000,-15.024000168,-4.804560184
1747396098.669801,25.929000000,0.000000000,0.000000000,0.000000000,0.000000000,-15.392634392,-88.001182556,0.000000000,-15.024000168,-4.804560184
1747396098.672751,25.932000000,0.000000000,0.000000000,0.000000000,0.000000000,-15.392634392,-88.001342773,0.000000000,-15.024000168,-4.804560184
1747396098.675721,25.935000000,0.000000000,0.000000000,0.000000000,0.000000000,-15.392634392,-88.001510620,0.000000000,-15.024000168,-4.804560184
1747396098.679075,25.939000000,0.000000000,0.000000000,0.000000000,0.000000000,-15.392634392,-88.001670837,0.000000000,-15.024000168,-4.804560184
1747396098.681948,25.941000000,0.000000000,0.000000000,0.000000000,0.000000000,-15.392634392,-88.001853943,0.000000000,-15.024000168,-4.804560184
1747396098.684915,25.944000000,0.000000000,0.000000000,0.000000000,0.000000000,-15.392634392,-88.002014160,0.000000000,-15.024000168,-4.804560184
1747396098.688258,25.948000000,0.000000000,0.000000000,0.000000000,0.000000000,-15.392634392,-88.002182007,0.000000000,-15.024000168,-4.804560184
1747396098.691107,25.951000000,0.000000000,0.000000000,0.000000000,0.000000000,-15.392634392,-88.002357483,0.000000000,-15.024000168,-4.804560184
1747396098.694042,25.954000000,0.000000000,0.000000000,0.000000000,0.000000000,-15.392634392,-88.002525330,0.000000000,-15.024000168,-4.804560184
1747396098.697008,25.957000000,0.000000000,0.000000000,0.000000000,0.000000000,-15.392634392,-88.002685547,0.000000000,-15.024000168,-4.804560184
1747396098.700338,25.960000000,0.000000000,0.000000000,0.000000000,0.000000000,-15.392634392,-88.002853394,0.000000000,-15.024000168,-4.804560184
1747396098.703263,25.963000000,0.000000000,0.000000000,0.000000000,0.000000000,-15.392634392,-88.003028870,0.000000000,-15.024000168,-4.804560184
1747396098.706495,25.966000000,0.000000000,0.000000000,0.000000000,0.000000000,-15.392634392,-88.003196716,0.000000000,-15.024000168,-4.804560184
1747396098.709643,25.969000000,0.000000000,0.000000000,0.000000000,0.000000000,-15.392634392,-88.003372192,0.000000000,-15.024000168,-4.804560184
1747396098.712775,25.972000000,0.000000000,0.000000000,0.000000000,0.000000000,-15.392634392,-88.003540039,0.000000000,-15.024000168,-4.804560184
1747396098.715910,25.975000000,0.000000000,0.000000000,0.000000000,0.000000000,-15.392634392,-88.003730774,0.000000000,-15.024000168,-4.804560184
1747396098.718853,25.978000000,0.000000000,0.000000000,0.000000000,0.000000000,-15.392634392,-88.003890991,0.000000000,-15.024000168,-4.804560184
1747396098.721650,25.981000000,0.000000000,0.000000000,0.000000000,0.000000000,-15.392634392,-88.004058838,0.000000000,-15.024000168,-4.804560184
1747396098.724434,25.984000000,0.000000000,0.000000000,0.000000000,0.000000000,-15.392634392,-88.004211426,0.000000000,-15.024000168,-4.804560184
1747396098.727441,25.987000000,0.000000000,0.000000000,0.000000000,0.000000000,-15.392634392,-88.004364014,0.000000000,-15.024000168,-4.804560184
1747396098.730401,25.990000000,0.000000000,0.000000000,0.000000000,0.000000000,-15.392634392,-88.004539490,0.000000000,-15.024000168,-4.804560184
1747396098.733213,25.993000000,0.000000000,0.000000000,0.000000000,0.000000000,-15.392634392,-88.004699707,0.000000000,-15.024000168,-4.804560184
1747396098.736367,25.996000000,0.000000000,0.000000000,0.000000000,0.000000000,-15.392634392,-88.004859924,0.000000000,-15.024000168,-4.804560184
1747396098.739102,25.999000000,0.000000000,0.000000000,0.000000000,0.000000000,-15.392634392,-88.005027771,0.000000000,-15.024000168,-4.804560184
1747396098.741987,26.002000000,0.000000000,0.000000000,0.000000000,0.000000000,-15.392634392,-88.005187988,0.000000000,-15.024000168,-4.804560184
1747396098.744929,26.004000000,0.000000000,0.000000000,0.000000000,0.000000000,-15.392634392,-88.005348206,0.000000000,-15.024000168,-4.804560184
1747396098.747970,26.008000000,0.000000000,0.000000000,0.000000000,0.000000000,-15.392634392,-88.005508423,0.000000000,-15.024000168,-4.804560184
1747396098.751118,26.011000000,0.000000000,0.000000000,0.000000000,0.000000000,-15.392634392,-88.005676270,0.000000000,-15.024000168,-4.804560184
1747396098.753981,26.014000000,0.000000000,0.000000000,0.000000000,0.000000000,-15.392634392,-88.005851746,0.000000000,-15.024000168,-4.804560184
1747396098.757164,26.017000000,0.000000000,0.000000000,0.000000000,0.000000000,-15.392634392,-88.006011963,0.000000000,-15.024000168,-4.804560184
1747396098.760412,26.020000000,0.000000000,0.000000000,0.000000000,0.000000000,-15.392634392,-88.006187439,0.000000000,-15.024000168,-4.804560184
1747396098.763545,26.023000000,0.000000000,0.000000000,0.000000000,0.000000000,-15.392634392,-88.006370544,0.000000000,-15.024000168,-4.804560184
1747396098.767105,26.027000000,0.000000000,0.000000000,0.000000000,0.000000000,-15.392634392,-88.006546021,0.000000000,-15.024000168,-4.804560184
1747396098.770005,26.030000000,0.000000000,0.000000000,0.000000000,0.000000000,-15.392634392,-88.006736755,0.000000000,-15.024000168,-4.804560184
1747396098.772958,26.032000000,0.000000000,0.000000000,0.000000000,0.000000000,-15.392634392,-88.006904602,0.000000000,-15.024000168,-4.804560184
1747396098.775886,26.035000000,0.000000000,0.000000000,0.000000000,0.000000000,-15.392634392,-88.007064819,0.000000000,-15.024000168,-4.804560184
1747396098.778835,26.038000000,0.000000000,0.000000000,0.000000000,0.000000000,-15.392634392,-88.007225037,0.000000000,-15.024000168,-4.804560184
1747396098.781834,26.041000000,0.000000000,0.000000000,0.000000000,0.000000000,-15.392634392,-88.007392883,0.000000000,-15.024000168,-4.804560184
1747396098.784800,26.044000000,0.000000000,0.000000000,0.000000000,0.000000000,-15.392634392,-88.007553101,0.000000000,-15.024000168,-4.804560184
1747396098.787714,26.047000000,0.000000000,0.000000000,0.000000000,0.000000000,-15.392634392,-88.007720947,0.000000000,-15.024000168,-4.804560184
1747396098.790653,26.050000000,0.000000000,0.000000000,0.000000000,0.000000000,-15.392634392,-88.007881165,0.000000000,-15.024000168,-4.804560184
1747396098.793550,26.053000000,0.000000000,0.000000000,0.000000000,0.000000000,-15.392634392,-88.008041382,0.000000000,-15.024000168,-4.804560184
1747396098.796498,26.056000000,0.000000000,0.000000000,0.000000000,0.000000000,-15.392634392,-88.008209229,0.000000000,-15.024000168,-4.804560184
1747396098.799358,26.059000000,0.000000000,0.000000000,0.000000000,0.000000000,-15.392634392,-88.008369446,0.000000000,-15.024000168,-4.804560184
1747396098.802380,26.062000000,0.000000000,0.000000000,0.000000000,0.000000000,-15.392634392,-88.008529663,0.000000000,-15.024000168,-4.804560184
1747396098.805238,26.065000000,0.000000000,0.000000000,0.000000000,0.000000000,-15.392634392,-88.008697510,0.000000000,-15.024000168,-4.804560184
1747396098.808287,26.068000000,0.000000000,0.000000000,0.000000000,0.000000000,-15.392634392,-88.008857727,0.000000000,-15.024000168,-4.804560184
1747396098.811218,26.071000000,0.000000000,0.000000000,0.000000000,0.000000000,-15.392634392,-88.009025574,0.000000000,-15.024000168,-4.804560184
1747396098.814224,26.074000000,0.000000000,0.000000000,0.000000000,0.000000000,-15.392634392,-88.009185791,0.000000000,-15.024000168,-4.804560184
1747396098.817319,26.077000000,0.000000000,0.000000000,0.000000000,0.000000000,-15.392634392,-88.009353638,0.000000000,-15.024000168,-4.804560184
1747396098.820424,26.080000000,0.000000000,0.000000000,0.000000000,0.000000000,-15.392634392,-88.009521484,0.000000000,-15.024000168,-4.804560184
1747396098.823290,26.083000000,0.000000000,0.000000000,0.000000000,0.000000000,-15.392634392,-88.009696960,0.000000000,-15.024000168,-4.804560184
1747396098.826226,26.086000000,0.000000000,0.000000000,0.000000000,0.000000000,-15.392634392,-88.009857178,0.000000000,-15.024000168,-4.804560184
1747396098.829213,26.089000000,0.000000000,0.000000000,0.000000000,0.000000000,-15.392634392,-88.010017395,0.000000000,-15.024000168,-4.804560184
1747396098.832244,26.092000000,0.000000000,0.000000000,0.000000000,0.000000000,-15.392634392,-88.010185242,0.000000000,-15.024000168,-4.804560184
1747396098.835374,26.095000000,0.000000000,0.000000000,0.000000000,0.000000000,-15.392634392,-88.010353088,0.000000000,-15.024000168,-4.804560184
1747396098.838357,26.098000000,0.000000000,0.000000000,0.000000000,0.000000000,-15.392634392,-88.010520935,0.000000000,-15.024000168,-4.804560184
1747396098.841817,26.101000000,0.000000000,0.000000000,0.000000000,0.000000000,-15.392634392,-88.010688782,0.000000000,-15.024000168,-4.804560184
1747396098.845117,26.105000000,0.000000000,0.000000000,0.000000000,0.000000000,-15.392634392,-88.010879517,0.000000000,-15.024000168,-4.804560184
1747396098.848377,26.108000000,0.000000000,0.000000000,0.000000000,0.000000000,-15.392634392,-88.011054993,0.000000000,-15.024000168,-4.804560184
1747396098.851485,26.111000000,0.000000000,0.000000000,0.000000000,0.000000000,-15.392634392,-88.011238098,0.000000000,-15.024000168,-4.804560184
1747396098.854603,26.114000000,0.000000000,0.000000000,0.000000000,0.000000000,-15.392634392,-88.011413574,0.000000000,-15.024000168,-4.804560184
1747396098.857659,26.117000000,0.000000000,0.000000000,0.000000000,0.000000000,-15.392634392,-88.011596680,0.000000000,-15.024000168,-4.804560184
1747396098.860628,26.120000000,0.000000000,0.000000000,0.000000000,0.000000000,-15.392634392,-88.011764526,0.000000000,-15.024000168,-4.804560184
1747396098.863635,26.123000000,0.000000000,0.000000000,0.000000000,0.000000000,-15.392634392,-88.011932373,0.000000000,-15.024000168,-4.804560184
1747396098.866671,26.126000000,0.000000000,0.000000000,0.000000000,0.000000000,-15.392634392,-88.012092590,0.000000000,-15.024000168,-4.804560184
1747396098.869597,26.129000000,0.000000000,0.000000000,0.000000000,0.000000000,-15.392634392,-88.012260437,0.000000000,-15.024000168,-4.804560184
1747396098.872456,26.132000000,0.000000000,0.000000000,0.000000000,0.000000000,-15.392634392,-88.012420654,0.000000000,-15.024000168,-4.804560184
1747396098.875448,26.135000000,0.000000000,0.000000000,0.000000000,0.000000000,-15.392634392,-88.012580872,0.000000000,-15.024000168,-4.804560184
1747396098.878384,26.138000000,0.000000000,0.000000000,0.000000000,0.000000000,-15.392634392,-88.012748718,0.000000000,-15.024000168,-4.804560184
1747396098.881516,26.141000000,0.000000000,0.000000000,0.000000000,0.000000000,-15.392634392,-88.012908936,0.000000000,-15.024000168,-4.804560184
1747396098.884595,26.144000000,0.000000000,0.000000000,0.000000000,0.000000000,-15.392634392,-88.013076782,0.000000000,-15.024000168,-4.804560184
1747396098.887689,26.147000000,0.000000000,0.000000000,0.000000000,0.000000000,-15.392634392,-88.013252258,0.000000000,-15.024000168,-4.804560184
1747396098.890502,26.150000000,0.000000000,0.000000000,0.000000000,0.000000000,-15.392634392,-88.013420105,0.000000000,-15.024000168,-4.804560184
1747396098.893488,26.153000000,0.000000000,0.000000000,0.000000000,0.000000000,-15.392634392,-88.013580322,0.000000000,-15.024000168,-4.804560184
1747396098.896508,26.156000000,0.000000000,0.000000000,0.000000000,0.000000000,-15.392634392,-88.013748169,0.000000000,-15.024000168,-4.804560184
1747396098.899194,26.159000000,0.000000000,0.000000000,0.000000000,0.000000000,-15.392634392,-88.013916016,0.000000000,-15.024000168,-4.804560184
1747396098.902136,26.162000000,0.000000000,0.000000000,0.000000000,0.000000000,-15.392634392,-88.014068604,0.000000000,-15.024000168,-4.804560184
1747396098.905014,26.165000000,0.000000000,0.000000000,0.000000000,0.000000000,-15.392634392,-88.014228821,0.000000000,-15.024000168,-4.804560184
1747396098.908225,26.168000000,0.000000000,0.000000000,0.000000000,0.000000000,-15.392634392,-88.014389038,0.000000000,-15.024000168,-4.804560184
1747396098.911245,26.171000000,0.000000000,0.000000000,0.000000000,0.000000000,-15.392634392,-88.014564514,0.000000000,-15.024000168,-4.804560184
1747396098.914458,26.174000000,0.000000000,0.000000000,0.000000000,0.000000000,-15.392634392,-88.014739990,0.000000000,-15.024000168,-4.804560184
1747396098.917446,26.177000000,0.000000000,0.000000000,0.000000000,0.000000000,-15.392634392,-88.014915466,0.000000000,-15.024000168,-4.804560184
1747396098.920467,26.180000000,0.000000000,0.000000000,0.000000000,0.000000000,-15.392634392,-88.015083313,0.000000000,-15.024000168,-4.804560184
1747396098.923325,26.183000000,0.000000000,0.000000000,0.000000000,0.000000000,-15.392634392,-88.015243530,0.000000000,-15.024000168,-4.804560184
1747396098.926718,26.186000000,0.000000000,0.000000000,0.000000000,0.000000000,-15.392634392,-88.015411377,0.000000000,-15.024000168,-4.804560184
1747396098.930101,26.189000000,0.000000000,0.000000000,0.000000000,0.000000000,-15.392634392,-88.015586853,0.000000000,-15.024000168,-4.804560184
1747396098.933414,26.193000000,0.000000000,0.000000000,0.000000000,0.000000000,-15.392634392,-88.015769958,0.000000000,-15.024000168,-4.804560184
1747396098.936561,26.196000000,0.000000000,0.000000000,0.000000000,0.000000000,-15.392634392,-88.015960693,0.000000000,-15.024000168,-4.804560184
1747396098.939520,26.199000000,0.000000000,0.000000000,0.000000000,0.000000000,-15.392634392,-88.016128540,0.000000000,-15.024000168,-4.804560184
1747396098.942441,26.202000000,0.000000000,0.000000000,0.000000000,0.000000000,-15.392634392,-88.016296387,0.000000000,-15.024000168,-4.804560184
1747396098.945917,26.205000000,0.000000000,0.000000000,0.000000000,0.000000000,-15.392634392,-88.016456604,0.000000000,-15.024000168,-4.804560184
1747396098.948787,26.208000000,0.000000000,0.000000000,0.000000000,0.000000000,-15.392634392,-88.016647339,0.000000000,-15.024000168,-4.804560184
1747396098.952346,26.212000000,0.000000000,0.000000000,0.000000000,0.000000000,-15.392634392,-88.016815186,0.000000000,-15.024000168,-4.804560184
1747396098.955281,26.215000000,0.000000000,0.000000000,0.000000000,0.000000000,-15.392634392,-88.017013550,0.000000000,-15.024000168,-4.804560184
1747396098.958967,26.218000000,0.000000000,0.000000000,0.000000000,0.000000000,-15.392634392,-88.017173767,0.000000000,-15.024000168,-4.804560184
1747396098.961756,26.221000000,0.000000000,0.000000000,0.000000000,0.000000000,-15.392634392,-88.017372131,0.000000000,-15.024000168,-4.804560184
1747396098.964729,26.224000000,0.000000000,0.000000000,0.000000000,0.000000000,-15.392634392,-88.017532349,0.000000000,-15.024000168,-4.804560184
1747396098.967799,26.227000000,0.000000000,0.000000000,0.000000000,0.000000000,-15.392634392,-88.017700195,0.000000000,-15.024000168,-4.804560184
1747396098.970720,26.230000000,0.000000000,0.000000000,0.000000000,0.000000000,-15.392634392,-88.017868042,0.000000000,-15.024000168,-4.804560184
1747396098.973616,26.233000000,0.000000000,0.000000000,0.000000000,0.000000000,-15.392634392,-88.018028259,0.000000000,-15.024000168,-4.804560184
1747396098.976730,26.236000000,0.000000000,0.000000000,0.000000000,0.000000000,-15.392634392,-88.018188477,0.000000000,-15.024000168,-4.804560184
1747396098.979695,26.239000000,0.000000000,0.000000000,0.000000000,0.000000000,-15.392634392,-88.018363953,0.000000000,-15.024000168,-4.804560184
1747396098.982652,26.242000000,0.000000000,0.000000000,0.000000000,0.000000000,-15.392634392,-88.018531799,0.000000000,-15.024000168,-4.804560184
1747396098.986144,26.246000000,0.000000000,0.000000000,0.000000000,0.000000000,-15.392634392,-88.018692017,0.000000000,-15.024000168,-4.804560184
1747396098.988994,26.249000000,0.000000000,0.000000000,0.000000000,0.000000000,-15.392634392,-88.018882751,0.000000000,-15.024000168,-4.804560184
1747396098.991940,26.251000000,0.000000000,0.000000000,0.000000000,0.000000000,-15.392634392,-88.019042969,0.000000000,-15.024000168,-4.804560184
1747396098.994859,26.254000000,0.000000000,0.000000000,0.000000000,0.000000000,-15.392634392,-88.019203186,0.000000000,-15.024000168,-4.804560184
1747396098.997911,26.257000000,0.000000000,0.000000000,0.000000000,0.000000000,-15.392634392,-88.019371033,0.000000000,-15.024000168,-4.804560184
1747396099.001192,26.261000000,0.000000000,0.000000000,0.000000000,0.000000000,-15.392634392,-88.019538879,0.000000000,-15.024000168,-4.804560184
1747396099.004100,26.264000000,0.000000000,0.000000000,0.000000000,0.000000000,-15.392634392,-88.019714355,0.000000000,-15.024000168,-4.804560184
1747396099.007041,26.267000000,0.000000000,0.000000000,0.000000000,0.000000000,-15.392634392,-88.019882202,0.000000000,-15.024000168,-4.804560184
1747396099.009933,26.269000000,0.000000000,0.000000000,0.000000000,0.000000000,-15.392634392,-88.020050049,0.000000000,-15.024000168,-4.804560184
1747396099.013191,26.273000000,0.000000000,0.000000000,0.000000000,0.000000000,-15.392634392,-88.020210266,0.000000000,-15.024000168,-4.804560184
1747396099.016000,26.276000000,0.000000000,0.000000000,0.000000000,0.000000000,-15.392634392,-88.020385742,0.000000000,-15.024000168,-4.804560184
1747396099.018924,26.278000000,0.000000000,0.000000000,0.000000000,0.000000000,-15.392634392,-88.020545959,0.000000000,-15.024000168,-4.804560184
1747396099.021878,26.281000000,0.000000000,0.000000000,0.000000000,0.000000000,-15.392634392,-88.020706177,0.000000000,-15.024000168,-4.804560184
1747396099.024973,26.284000000,0.000000000,0.000000000,0.000000000,0.000000000,-15.392634392,-88.020874023,0.000000000,-15.024000168,-4.804560184
1747396099.027975,26.287000000,0.000000000,0.000000000,0.000000000,0.000000000,-15.392634392,-88.021049500,0.000000000,-15.024000168,-4.804560184
1747396099.031002,26.290000000,0.000000000,0.000000000,0.000000000,0.000000000,-15.392634392,-88.021209717,0.000000000,-15.024000168,-4.804560184
1747396099.033986,26.293000000,0.000000000,0.000000000,0.000000000,0.000000000,-15.392634392,-88.021377563,0.000000000,-15.024000168,-4.804560184
1747396099.037043,26.297000000,0.000000000,0.000000000,0.000000000,0.000000000,-15.392634392,-88.021545410,0.000000000,-15.024000168,-4.804560184
1747396099.040045,26.300000000,0.000000000,0.000000000,0.000000000,0.000000000,-15.392634392,-88.021713257,0.000000000,-15.024000168,-4.804560184
1747396099.043543,26.303000000,0.000000000,0.000000000,0.000000000,0.000000000,-15.392634392,-88.021881104,0.000000000,-15.024000168,-4.804560184
1747396099.046652,26.306000000,0.000000000,0.000000000,0.000000000,0.000000000,-15.392634392,-88.022071838,0.000000000,-15.024000168,-4.804560184
1747396099.049988,26.309000000,0.000000000,0.000000000,0.000000000,0.000000000,-15.392634392,-88.022247314,0.000000000,-15.024000168,-4.804560184
1747396099.053127,26.313000000,0.000000000,0.000000000,0.000000000,0.000000000,-15.392634392,-88.022430420,0.000000000,-15.024000168,-4.804560184
1747396099.056044,26.316000000,0.000000000,0.000000000,0.000000000,0.000000000,-15.392634392,-88.022605896,0.000000000,-15.024000168,-4.804560184
1747396099.059035,26.319000000,0.000000000,0.000000000,0.000000000,0.000000000,-15.392634392,-88.022773743,0.000000000,-15.024000168,-4.804560184
1747396099.061996,26.322000000,0.000000000,0.000000000,0.000000000,0.000000000,-15.392634392,-88.022941589,0.000000000,-15.024000168,-4.804560184
1747396099.064953,26.324000000,0.000000000,0.000000000,0.000000000,0.000000000,-15.392634392,-88.023109436,0.000000000,-15.024000168,-4.804560184
1747396099.067844,26.327000000,0.000000000,0.000000000,0.000000000,0.000000000,-15.392634392,-88.023269653,0.000000000,-15.024000168,-4.804560184
1747396099.070773,26.330000000,0.000000000,0.000000000,0.000000000,0.000000000,-15.392634392,-88.023429871,0.000000000,-15.024000168,-4.804560184
1747396099.073707,26.333000000,0.000000000,0.000000000,0.000000000,0.000000000,-15.392634392,-88.023590088,0.000000000,-15.024000168,-4.804560184
1747396099.076640,26.336000000,0.000000000,0.000000000,0.000000000,0.000000000,-15.392634392,-88.023757935,0.000000000,-15.024000168,-4.804560184
1747396099.079740,26.339000000,0.000000000,0.000000000,0.000000000,0.000000000,-15.392634392,-88.023918152,0.000000000,-15.024000168,-4.804560184
1747396099.082641,26.342000000,0.000000000,0.000000000,0.000000000,0.000000000,-15.392634392,-88.024093628,0.000000000,-15.024000168,-4.804560184
1747396099.085635,26.345000000,0.000000000,0.000000000,0.000000000,0.000000000,-15.392634392,-88.024253845,0.000000000,-15.024000168,-4.804560184
1747396099.088571,26.348000000,0.000000000,0.000000000,0.000000000,0.000000000,-15.392634392,-88.024414063,0.000000000,-15.024000168,-4.804560184
1747396099.091469,26.351000000,0.000000000,0.000000000,0.000000000,0.000000000,-15.392634392,-88.024581909,0.000000000,-15.024000168,-4.804560184
1747396099.094536,26.354000000,0.000000000,0.000000000,0.000000000,0.000000000,-15.392634392,-88.024742126,0.000000000,-15.024000168,-4.804560184
1747396099.097653,26.357000000,0.000000000,0.000000000,0.000000000,0.000000000,-15.392634392,-88.024909973,0.000000000,-15.024000168,-4.804560184
1747396099.100600,26.360000000,0.000000000,0.000000000,0.000000000,0.000000000,-15.392634392,-88.025077820,0.000000000,-15.024000168,-4.804560184
1747396099.103732,26.363000000,0.000000000,0.000000000,0.000000000,0.000000000,-15.392634392,-88.025245667,0.000000000,-15.024000168,-4.804560184
1747396099.106601,26.366000000,0.000000000,0.000000000,0.000000000,0.000000000,-15.392634392,-88.025421143,0.000000000,-15.024000168,-4.804560184
1747396099.109581,26.369000000,0.000000000,0.000000000,0.000000000,0.000000000,-15.392634392,-88.025581360,0.000000000,-15.024000168,-4.804560184
1747396099.112981,26.372000000,0.000000000,0.000000000,0.000000000,0.000000000,-15.392634392,-88.025741577,0.000000000,-15.024000168,-4.804560184
1747396099.116232,26.376000000,0.000000000,0.000000000,0.000000000,0.000000000,-15.392634392,-88.025932312,0.000000000,-15.024000168,-4.804560184
1747396099.119395,26.379000000,0.000000000,0.000000000,0.000000000,0.000000000,-15.392634392,-88.026107788,0.000000000,-15.024000168,-4.804560184
1747396099.122408,26.382000000,0.000000000,0.000000000,0.000000000,0.000000000,-15.392634392,-88.026283264,0.000000000,-15.024000168,-4.804560184
1747396099.125794,26.385000000,0.000000000,0.000000000,0.000000000,0.000000000,-15.392634392,-88.026451111,0.000000000,-15.024000168,-4.804560184
1747396099.128531,26.388000000,0.000000000,0.000000000,0.000000000,0.000000000,-15.392634392,-88.026641846,0.000000000,-15.024000168,-4.804560184
1747396099.131461,26.391000000,0.000000000,0.000000000,0.000000000,0.000000000,-15.392634392,-88.026802063,0.000000000,-15.024000168,-4.804560184
1747396099.134429,26.394000000,0.000000000,0.000000000,0.000000000,0.000000000,-15.392634392,-88.026969910,0.000000000,-15.024000168,-4.804560184
1747396099.137449,26.397000000,0.000000000,0.000000000,0.000000000,0.000000000,-15.392634392,-88.027130127,0.000000000,-15.024000168,-4.804560184
1747396099.140633,26.400000000,0.000000000,0.000000000,0.000000000,0.000000000,-15.392634392,-88.027297974,0.000000000,-15.024000168,-4.804560184
1747396099.143619,26.403000000,0.000000000,0.000000000,0.000000000,0.000000000,-15.392634392,-88.027465820,0.000000000,-15.024000168,-4.804560184
1747396099.146636,26.406000000,0.000000000,0.000000000,0.000000000,0.000000000,-15.392634392,-88.027633667,0.000000000,-15.024000168,-4.804560184
1747396099.149606,26.409000000,0.000000000,0.000000000,0.000000000,0.000000000,-15.392634392,-88.027801514,0.000000000,-15.024000168,-4.804560184
1747396099.152516,26.412000000,0.000000000,0.000000000,0.000000000,0.000000000,-15.392634392,-88.027961731,0.000000000,-15.024000168,-4.804560184
1747396099.155637,26.415000000,0.000000000,0.000000000,0.000000000,0.000000000,-15.392634392,-88.028129578,0.000000000,-15.024000168,-4.804560184
1747396099.158527,26.418000000,0.000000000,0.000000000,0.000000000,0.000000000,-15.392634392,-88.028297424,0.000000000,-15.024000168,-4.804560184
1747396099.161494,26.421000000,0.000000000,0.000000000,0.000000000,0.000000000,-15.392634392,-88.028465271,0.000000000,-15.024000168,-4.804560184
1747396099.164673,26.424000000,0.000000000,0.000000000,0.000000000,0.000000000,-15.392634392,-88.028625488,0.000000000,-15.024000168,-4.804560184
1747396099.167585,26.427000000,0.000000000,0.000000000,0.000000000,0.000000000,-15.392634392,-88.028800964,0.000000000,-15.024000168,-4.804560184
1747396099.171360,26.431000000,0.000000000,0.000000000,0.000000000,0.000000000,-15.392634392,-88.028968811,0.000000000,-15.024000168,-4.804560184
1747396099.174304,26.434000000,0.000000000,0.000000000,0.000000000,0.000000000,-15.392634392,-88.029167175,0.000000000,-15.024000168,-4.804560184
1747396099.177863,26.437000000,0.000000000,0.000000000,0.000000000,0.000000000,-15.392634392,-88.029335022,0.000000000,-15.024000168,-4.804560184
1747396099.180727,26.440000000,0.000000000,0.000000000,0.000000000,0.000000000,-15.392634392,-88.029533386,0.000000000,-15.024000168,-4.804560184
1747396099.183621,26.443000000,0.000000000,0.000000000,0.000000000,0.000000000,-15.392634392,-88.029693604,0.000000000,-15.024000168,-4.804560184
1747396099.186604,26.446000000,0.000000000,0.000000000,0.000000000,0.000000000,-15.392634392,-88.029861450,0.000000000,-15.024000168,-4.804560184
1747396099.189908,26.449000000,0.000000000,0.000000000,0.000000000,0.000000000,-15.392634392,-88.030021667,0.000000000,-15.024000168,-4.804560184
1747396099.192881,26.452000000,0.000000000,0.000000000,0.000000000,0.000000000,-15.392634392,-88.030197144,0.000000000,-15.024000168,-4.804560184
1747396099.195831,26.455000000,0.000000000,0.000000000,0.000000000,0.000000000,-15.392634392,-88.030364990,0.000000000,-15.024000168,-4.804560184
1747396099.198807,26.458000000,0.000000000,0.000000000,0.000000000,0.000000000,-15.392634392,-88.030532837,0.000000000,-15.024000168,-4.804560184
1747396099.201700,26.461000000,0.000000000,0.000000000,0.000000000,0.000000000,-15.392634392,-88.030700684,0.000000000,-15.024000168,-4.804560184
1747396099.204814,26.464000000,0.000000000,0.000000000,0.000000000,0.000000000,-15.392634392,-88.030860901,0.000000000,-15.024000168,-4.804560184
1747396099.207873,26.467000000,0.000000000,0.000000000,0.000000000,0.000000000,-15.392634392,-88.031028748,0.000000000,-15.024000168,-4.804560184
1747396099.210825,26.470000000,0.000000000,0.000000000,0.000000000,0.000000000,-15.392634392,-88.031204224,0.000000000,-15.024000168,-4.804560184
1747396099.213757,26.473000000,0.000000000,0.000000000,0.000000000,0.000000000,-15.392634392,-88.031364441,0.000000000,-15.024000168,-4.804560184
1747396099.216711,26.476000000,0.000000000,0.000000000,0.000000000,0.000000000,-15.392634392,-88.031524658,0.000000000,-15.024000168,-4.804560184
1747396099.219692,26.479000000,0.000000000,0.000000000,0.000000000,0.000000000,-15.392634392,-88.031692505,0.000000000,-15.024000168,-4.804560184
1747396099.222663,26.482000000,0.000000000,0.000000000,0.000000000,0.000000000,-15.392634392,-88.031852722,0.000000000,-15.024000168,-4.804560184
1747396099.225610,26.485000000,0.000000000,0.000000000,0.000000000,0.000000000,-15.392634392,-88.032020569,0.000000000,-15.024000168,-4.804560184
1747396099.228560,26.488000000,0.000000000,0.000000000,0.000000000,0.000000000,-15.392634392,-88.032188416,0.000000000,-15.024000168,-4.804560184
1747396099.231845,26.491000000,0.000000000,0.000000000,0.000000000,0.000000000,-15.392634392,-88.032348633,0.000000000,-15.024000168,-4.804560184
1747396099.234703,26.494000000,0.000000000,0.000000000,0.000000000,0.000000000,-15.392634392,-88.032524109,0.000000000,-15.024000168,-4.804560184
1747396099.238087,26.498000000,0.000000000,0.000000000,0.000000000,0.000000000,-15.392634392,-88.032691956,0.000000000,-15.024000168,-4.804560184
1747396099.241355,26.501000000,0.000000000,0.000000000,0.000000000,0.000000000,-15.392634392,-88.032882690,0.000000000,-15.024000168,-4.804560184
1747396099.244294,26.504000000,0.000000000,0.000000000,0.000000000,0.000000000,-15.392634392,-88.033058167,0.000000000,-15.024000168,-4.804560184
