liamjosephnolan/thesis_matlab/roll_step_response/roll_step_response_roll_-15_pitch_-15.csv
__time,/psm_joint_telemetry/header/stamp,/psm_joint_telemetry/insertion/effort,/psm_joint_telemetry/insertion/position,/psm_joint_telemetry/insertion/velocity,/psm_joint_telemetry/pitch/effort,/psm_joint_telemetry/pitch/position,/psm_joint_telemetry/pitch/velocity,/psm_joint_telemetry/roll/effort,/psm_joint_telemetry/roll/position,/psm_joint_telemetry/roll/velocity
1747309968.678771,29.220000000,0.000000000,64338.074218750,0.000000000,0.000000000,-15.311633110,-82.992385864,0.000000000,-14.970000267,6.005604267
1747309968.681157,29.222000000,0.000000000,64338.074218750,0.000000000,0.000000000,-15.311633110,-84.797447205,0.000000000,-14.970000267,6.005604267
1747309968.683539,29.225000000,0.000000000,64338.074218750,0.000000000,0.000000000,-15.298132896,-83.605201721,0.000000000,-14.970000267,6.005604267
1747309968.685916,29.227000000,0.000000000,64338.074218750,0.000000000,0.000000000,-15.311633110,-83.006271362,0.000000000,-14.970000267,6.005604267
1747309968.688378,29.230000000,0.000000000,64338.074218750,0.000000000,0.000000000,-15.311633110,-84.797752380,0.000000000,-14.970000267,6.005604267
1747309968.690756,29.232000000,0.000000000,64338.074218750,0.000000000,0.000000000,-15.298132896,-83.574035645,0.000000000,-14.970000267,6.005604267
1747309968.693103,29.234000000,0.000000000,64338.074218750,0.000000000,0.000000000,-15.311633110,-83.005836487,0.000000000,-14.970000267,6.005604267
1747309968.695487,29.237000000,0.000000000,64338.074218750,0.000000000,0.000000000,-15.311633110,-84.798065186,0.000000000,-14.970000267,6.005604267
1747309968.697816,29.239000000,0.000000000,64338.074218750,0.000000000,0.000000000,-15.298132896,-83.620086670,0.000000000,-14.970000267,6.005604267
1747309968.700194,29.242000000,0.000000000,64338.074218750,0.000000000,0.000000000,-15.311633110,-82.967864990,0.000000000,-14.970000267,6.005604267
1747309968.702567,29.244000000,0.000000000,64338.074218750,0.000000000,0.000000000,-15.311633110,-84.798370361,0.000000000,-14.970000267,6.005604267
1747309968.704957,29.246000000,0.000000000,64338.074218750,0.000000000,0.000000000,-15.298132896,-83.622665405,0.000000000,-14.970000267,6.005604267
1747309968.707397,29.249000000,0.000000000,64338.074218750,0.000000000,0.000000000,-15.311633110,-82.968170166,0.000000000,-14.970000267,6.005604267
1747309968.709789,29.251000000,0.000000000,64338.074218750,0.000000000,0.000000000,-15.311633110,-84.798683167,0.000000000,-14.970000267,6.005604267
1747309968.712167,29.253000000,0.000000000,64338.074218750,0.000000000,0.000000000,-15.298132896,-83.592384338,0.000000000,-14.970000267,6.005604267
1747309968.714566,29.256000000,0.000000000,64338.074218750,0.000000000,0.000000000,-15.311633110,-82.996208191,0.000000000,-14.970000267,6.005604267
1747309968.716903,29.258000000,0.000000000,64338.074218750,0.000000000,0.000000000,-15.311633110,-84.798988342,0.000000000,-14.970000267,6.005604267
1747309968.719247,29.261000000,0.000000000,64338.074218750,0.000000000,0.000000000,-15.298132896,-83.631675720,0.000000000,-14.970000267,6.005604267
1747309968.721661,29.263000000,0.000000000,64338.074218750,0.000000000,0.000000000,-15.311633110,-82.963302612,0.000000000,-14.970000267,6.005604267
1747309968.724006,29.265000000,0.000000000,64338.074218750,0.000000000,0.000000000,-15.311633110,-84.799293518,0.000000000,-14.970000267,6.005604267
1747309968.726348,29.268000000,0.000000000,64338.074218750,0.000000000,0.000000000,-15.298132896,-83.626632690,0.000000000,-14.970000267,6.005604267
1747309968.728692,29.270000000,0.000000000,64338.074218750,0.000000000,0.000000000,-15.311633110,-82.987670898,0.000000000,-14.970000267,6.005604267
1747309968.731034,29.272000000,0.000000000,64338.074218750,0.000000000,0.000000000,-15.311633110,-84.799606323,0.000000000,-14.970000267,6.005604267
1747309968.733390,29.275000000,0.000000000,64338.074218750,0.000000000,0.000000000,-15.298132896,-83.645408630,0.000000000,-14.970000267,6.005604267
1747309968.735760,29.277000000,0.000000000,64338.074218750,0.000000000,0.000000000,-15.311633110,-82.981056213,0.000000000,-14.970000267,6.005604267
1747309968.738232,29.279000000,0.000000000,64338.074218750,0.000000000,0.000000000,-15.311633110,-84.799911499,0.000000000,-14.970000267,6.005604267
1747309968.740512,29.282000000,0.000000000,64338.074218750,0.000000000,0.000000000,-15.311633110,-84.800010681,0.000000000,-14.970000267,6.005604267
1747309968.742908,29.284000000,0.000000000,64338.074218750,0.000000000,0.000000000,-15.311633110,-84.800117493,0.000000000,-14.970000267,6.005604267
1747309968.745276,29.287000000,0.000000000,64338.074218750,0.000000000,0.000000000,-15.311633110,-84.800216675,0.000000000,-14.970000267,6.005604267
1747309968.747679,29.289000000,0.000000000,64338.074218750,0.000000000,0.000000000,-15.311633110,-84.800323486,0.000000000,-14.970000267,6.005604267
1747309968.750050,29.291000000,0.000000000,64338.074218750,0.000000000,0.000000000,-15.298132896,-83.609565735,0.000000000,-14.970000267,6.005604267
1747309968.752432,29.294000000,0.000000000,64338.074218750,0.000000000,0.000000000,-15.311633110,-82.996330261,0.000000000,-14.970000267,6.005604267
1747309968.754848,29.296000000,0.000000000,64338.074218750,0.000000000,0.000000000,-15.311633110,-84.800628662,0.000000000,-14.970000267,6.005604267
1747309968.757263,29.299000000,0.000000000,64338.074218750,0.000000000,0.000000000,-15.298132896,-83.600227356,0.000000000,-14.970000267,6.005604267
1747309968.759615,29.301000000,0.000000000,64338.074218750,0.000000000,0.000000000,-15.311633110,-83.015441895,0.000000000,-14.970000267,6.005604267
1747309968.761987,29.303000000,0.000000000,64338.074218750,0.000000000,0.000000000,-15.298132896,-83.626655579,0.000000000,-14.970000267,6.005604267
1747309968.764370,29.306000000,0.000000000,64338.074218750,0.000000000,0.000000000,-15.311633110,-82.996086121,0.000000000,-14.970000267,6.005604267
1747309968.766733,29.308000000,0.000000000,64338.074218750,0.000000000,0.000000000,-15.311633110,-84.801147461,0.000000000,-14.970000267,6.005604267
1747309968.769168,29.310000000,0.000000000,64338.074218750,0.000000000,0.000000000,-15.298132896,-83.632301331,0.000000000,-14.970000267,6.005604267
1747309968.771558,29.313000000,0.000000000,64338.074218750,0.000000000,0.000000000,-15.311633110,-83.000190735,0.000000000,-14.970000267,6.005604267
1747309968.773975,29.315000000,0.000000000,64338.074218750,0.000000000,0.000000000,-15.298132896,-83.586296082,0.000000000,-14.970000267,6.005604267
1747309968.776328,29.318000000,0.000000000,64338.074218750,0.000000000,0.000000000,-15.311633110,-83.021347046,0.000000000,-14.970000267,6.005604267
1747309968.778706,29.320000000,0.000000000,64338.074218750,0.000000000,0.000000000,-15.311633110,-84.801666260,0.000000000,-14.970000267,6.005604267
1747309968.781103,29.322000000,0.000000000,64338.074218750,0.000000000,0.000000000,-15.298132896,-83.631294250,0.000000000,-14.970000267,6.005604267
1747309968.783530,29.325000000,0.000000000,64338.074218750,0.000000000,0.000000000,-15.311633110,-83.014976501,0.000000000,-14.970000267,6.005604267
1747309968.785970,29.327000000,0.000000000,64338.074218750,0.000000000,0.000000000,-15.311633110,-84.801979065,0.000000000,-14.970000267,6.005604267
1747309968.788551,29.330000000,0.000000000,64338.074218750,0.000000000,0.000000000,-15.311633110,-84.802085876,0.000000000,-14.970000267,6.005604267
1747309968.790888,29.332000000,0.000000000,64338.074218750,0.000000000,0.000000000,-15.298132896,-83.548667908,0.000000000,-14.970000267,6.005604267
1747309968.793248,29.335000000,0.000000000,64338.074218750,0.000000000,0.000000000,-15.311633110,-83.009414673,0.000000000,-14.970000267,6.005604267
1747309968.795624,29.337000000,0.000000000,64338.074218750,0.000000000,0.000000000,-15.311633110,-84.802398682,0.000000000,-14.970000267,6.005604267
1747309968.797995,29.339000000,0.000000000,64338.074218750,0.000000000,0.000000000,-15.298132896,-83.625175476,0.000000000,-14.970000267,6.005604267
1747309968.800382,29.342000000,0.000000000,64338.074218750,0.000000000,0.000000000,-15.311633110,-82.996116638,0.000000000,-14.970000267,6.005604267
1747309968.802749,29.344000000,0.000000000,64338.074218750,0.000000000,0.000000000,-15.311633110,-84.802703857,0.000000000,-14.970000267,6.005604267
1747309968.805154,29.346000000,0.000000000,64338.074218750,0.000000000,0.000000000,-15.298132896,-83.633094788,0.000000000,-14.970000267,6.005604267
1747309968.807521,29.349000000,0.000000000,64338.074218750,0.000000000,0.000000000,-15.311633110,-83.013023376,0.000000000,-14.970000267,6.005604267
1747309968.809896,29.351000000,0.000000000,64338.074218750,0.000000000,0.000000000,-15.298132896,-83.631767273,0.000000000,-14.970000267,6.005604267
1747309968.812256,29.354000000,0.000000000,64338.074218750,0.000000000,0.000000000,-15.311633110,-83.001945496,0.000000000,-14.970000267,6.005604267
1747309968.814632,29.356000000,0.000000000,64338.074218750,0.000000000,0.000000000,-15.311633110,-84.803207397,0.000000000,-14.970000267,6.005604267
1747309968.817014,29.358000000,0.000000000,64338.074218750,0.000000000,0.000000000,-15.298132896,-83.626747131,0.000000000,-14.970000267,6.005604267
1747309968.819399,29.361000000,0.000000000,64338.074218750,0.000000000,0.000000000,-15.311633110,-83.000732422,0.000000000,-14.970000267,6.005604267
1747309968.821860,29.363000000,0.000000000,64338.074218750,0.000000000,0.000000000,-15.298132896,-83.626190186,0.000000000,-14.970000267,6.005604267
1747309968.824250,29.365000000,0.000000000,64338.074218750,0.000000000,0.000000000,-15.311633110,-83.033706665,0.000000000,-14.970000267,6.005604267
1747309968.826587,29.368000000,0.000000000,64338.074218750,0.000000000,0.000000000,-15.311633110,-84.803726196,0.000000000,-14.970000267,6.005604267
1747309968.828945,29.370000000,0.000000000,64338.074218750,0.000000000,0.000000000,-15.311633110,-84.803825378,0.000000000,-14.970000267,6.005604267
1747309968.831309,29.373000000,0.000000000,64338.074218750,0.000000000,0.000000000,-15.298132896,-83.636512756,0.000000000,-14.970000267,6.005604267
1747309968.833677,29.375000000,0.000000000,64338.074218750,0.000000000,0.000000000,-15.311633110,-82.992202759,0.000000000,-14.970000267,6.005604267
1747309968.836043,29.377000000,0.000000000,64338.074218750,0.000000000,0.000000000,-15.311633110,-84.804130554,0.000000000,-14.970000267,6.005604267
1747309968.838565,29.380000000,0.000000000,64338.074218750,0.000000000,0.000000000,-15.298132896,-83.629943848,0.000000000,-14.970000267,6.005604267
1747309968.840954,29.382000000,0.000000000,64338.074218750,0.000000000,0.000000000,-15.311633110,-83.073043823,0.000000000,-14.970000267,6.005604267
1747309968.843415,29.385000000,0.000000000,64338.074218750,0.000000000,0.000000000,-15.311633110,-84.804450989,0.000000000,-14.970000267,6.005604267
1747309968.845888,29.387000000,0.000000000,64338.074218750,0.000000000,0.000000000,-15.311633110,-84.804557800,0.000000000,-14.970000267,6.005604267
1747309968.848376,29.390000000,0.000000000,64338.074218750,0.000000000,0.000000000,-15.311633110,-84.804664612,0.000000000,-14.970000267,6.005604267
1747309968.850821,29.392000000,0.000000000,64338.074218750,0.000000000,0.000000000,-15.311633110,-84.804771423,0.000000000,-14.970000267,6.005604267
1747309968.853298,29.395000000,0.000000000,64338.074218750,0.000000000,0.000000000,-15.311633110,-84.804878235,0.000000000,-14.970000267,6.005604267
1747309968.855832,29.397000000,0.000000000,64338.074218750,0.000000000,0.000000000,-15.311633110,-84.804985046,0.000000000,-14.970000267,6.005604267
1747309968.858287,29.399000000,0.000000000,64338.074218750,0.000000000,0.000000000,-15.311633110,-84.805099487,0.000000000,-14.970000267,6.005604267
1747309968.860755,29.402000000,0.000000000,64338.074218750,0.000000000,0.000000000,-15.311633110,-84.805206299,0.000000000,-14.970000267,6.005604267
1747309968.863249,29.404000000,0.000000000,64338.074218750,0.000000000,0.000000000,-15.311633110,-84.805313110,0.000000000,-14.970000267,6.005604267
1747309968.865690,29.407000000,0.000000000,64338.074218750,0.000000000,0.000000000,-15.311633110,-84.805419922,0.000000000,-14.970000267,6.005604267
1747309968.868170,29.409000000,0.000000000,64338.074218750,0.000000000,0.000000000,-15.311633110,-84.805526733,0.000000000,-14.970000267,6.005604267
1747309968.870685,29.412000000,0.000000000,64338.074218750,0.000000000,0.000000000,-15.311633110,-84.805633545,0.000000000,-14.970000267,6.005604267
1747309968.873069,29.414000000,0.000000000,64338.074218750,0.000000000,0.000000000,-15.311633110,-84.805747986,0.000000000,-14.970000267,6.005604267
1747309968.875446,29.417000000,0.000000000,64338.074218750,0.000000000,0.000000000,-15.311633110,-84.805854797,0.000000000,-14.970000267,6.005604267
1747309968.877806,29.419000000,0.000000000,64338.074218750,0.000000000,0.000000000,-15.311633110,-84.805961609,0.000000000,-14.970000267,6.005604267
1747309968.880183,29.421000000,0.000000000,64338.074218750,0.000000000,0.000000000,-15.311633110,-84.806060791,0.000000000,-14.970000267,6.005604267
1747309968.882560,29.424000000,0.000000000,64338.074218750,0.000000000,0.000000000,-15.311633110,-84.806167603,0.000000000,-14.970000267,6.005604267
1747309968.884936,29.426000000,0.000000000,64338.074218750,0.000000000,0.000000000,-15.298132896,-83.633506775,0.000000000,-14.970000267,6.005604267
1747309968.887353,29.429000000,0.000000000,64338.074218750,0.000000000,0.000000000,-15.311633110,-83.004447937,0.000000000,-14.970000267,6.005604267
1747309968.889762,29.431000000,0.000000000,64338.074218750,0.000000000,0.000000000,-15.311633110,-84.806480408,0.000000000,-14.970000267,6.005604267
1747309968.892147,29.433000000,0.000000000,64338.074218750,0.000000000,0.000000000,-15.298132896,-83.611999512,0.000000000,-14.970000267,6.005604267
1747309968.894510,29.436000000,0.000000000,64338.074218750,0.000000000,0.000000000,-15.311633110,-83.016799927,0.000000000,-14.970000267,6.005604267
1747309968.896883,29.438000000,0.000000000,64338.074218750,0.000000000,0.000000000,-15.311633110,-84.806785583,0.000000000,-14.970000267,6.005604267
1747309968.899252,29.441000000,0.000000000,64338.074218750,0.000000000,0.000000000,-15.311633110,-84.806884766,0.000000000,-14.970000267,6.005604267
1747309968.901620,29.443000000,0.000000000,64338.074218750,0.000000000,0.000000000,-15.311633110,-84.806991577,0.000000000,-14.970000267,6.005604267
1747309968.904101,29.445000000,0.000000000,64338.074218750,0.000000000,0.000000000,-15.311633110,-84.807090759,0.000000000,-14.970000267,6.005604267
1747309968.906536,29.448000000,0.000000000,64338.074218750,0.000000000,0.000000000,-15.311633110,-84.807205200,0.000000000,-14.970000267,6.005604267
1747309968.908903,29.450000000,0.000000000,64338.074218750,0.000000000,0.000000000,-15.311633110,-84.807312012,0.000000000,-14.970000267,6.005604267
1747309968.911281,29.453000000,0.000000000,64338.074218750,0.000000000,0.000000000,-15.311633110,-84.807411194,0.000000000,-14.970000267,6.005604267
1747309968.913710,29.455000000,0.000000000,64338.074218750,0.000000000,0.000000000,-15.311633110,-84.807518005,0.000000000,-14.970000267,6.005604267
1747309968.916060,29.457000000,0.000000000,64338.074218750,0.000000000,0.000000000,-15.311633110,-84.807617188,0.000000000,-14.970000267,6.005604267
1747309968.918484,29.460000000,0.000000000,64338.074218750,0.000000000,0.000000000,-15.311633110,-84.807723999,0.000000000,-14.970000267,6.005604267
1747309968.920888,29.462000000,0.000000000,64338.074218750,0.000000000,0.000000000,-15.311633110,-84.807830811,0.000000000,-14.970000267,6.005604267
1747309968.923279,29.465000000,0.000000000,64338.074218750,0.000000000,0.000000000,-15.311633110,-84.807937622,0.000000000,-14.970000267,6.005604267
1747309968.925668,29.467000000,0.000000000,64338.074218750,0.000000000,0.000000000,-15.311633110,-84.808044434,0.000000000,-14.970000267,6.005604267
1747309968.928093,29.469000000,0.000000000,64338.074218750,0.000000000,0.000000000,-15.311633110,-84.808151245,0.000000000,-14.970000267,6.005604267
1747309968.930545,29.472000000,0.000000000,64338.074218750,0.000000000,0.000000000,-15.298132896,-83.594558716,0.000000000,-14.970000267,6.005604267
1747309968.933053,29.474000000,0.000000000,64338.074218750,0.000000000,0.000000000,-15.311633110,-83.073562622,0.000000000,-14.970000267,6.005604267
1747309968.935513,29.477000000,0.000000000,64338.074218750,0.000000000,0.000000000,-15.311633110,-84.808471680,0.000000000,-14.970000267,6.005604267
1747309968.937939,29.479000000,0.000000000,64338.074218750,0.000000000,0.000000000,-15.298132896,-83.560630798,0.000000000,-14.970000267,6.005604267
1747309968.940344,29.482000000,0.000000000,64338.074218750,0.000000000,0.000000000,-15.311633110,-83.041687012,0.000000000,-14.970000267,6.005604267
1747309968.942712,29.484000000,0.000000000,64338.074218750,0.000000000,0.000000000,-15.311633110,-84.808792114,0.000000000,-14.970000267,6.005604267
1747309968.945090,29.486000000,0.000000000,64338.074218750,0.000000000,0.000000000,-15.311633110,-84.808891296,0.000000000,-14.970000267,6.005604267
1747309968.947470,29.489000000,0.000000000,64338.074218750,0.000000000,0.000000000,-15.311633110,-84.808998108,0.000000000,-14.970000267,6.005604267
1747309968.949843,29.491000000,0.000000000,64338.074218750,0.000000000,0.000000000,-15.311633110,-84.809097290,0.000000000,-14.970000267,6.005604267
1747309968.952268,29.494000000,0.000000000,64338.074218750,0.000000000,0.000000000,-15.311633110,-84.809204102,0.000000000,-14.970000267,6.005604267
1747309968.954748,29.496000000,0.000000000,64338.074218750,0.000000000,0.000000000,-15.311633110,-84.809310913,0.000000000,-14.970000267,6.005604267
1747309968.957268,29.498000000,0.000000000,64338.074218750,0.000000000,0.000000000,-15.311633110,-84.809417725,0.000000000,-14.970000267,6.005604267
1747309968.959732,29.501000000,0.000000000,64338.074218750,0.000000000,0.000000000,-15.311633110,-84.809524536,0.000000000,-14.970000267,6.005604267
1747309968.962197,29.503000000,0.000000000,64338.074218750,0.000000000,0.000000000,-15.311633110,-84.809638977,0.000000000,-14.970000267,6.005604267
1747309968.964664,29.506000000,0.000000000,64338.074218750,0.000000000,0.000000000,-15.311633110,-84.809745789,0.000000000,-14.970000267,6.005604267
1747309968.967059,29.508000000,0.000000000,64338.074218750,0.000000000,0.000000000,-15.311633110,-84.809852600,0.000000000,-14.970000267,6.005604267
1747309968.969453,29.511000000,0.000000000,64338.074218750,0.000000000,0.000000000,-15.311633110,-84.809959412,0.000000000,-14.970000267,6.005604267
1747309968.971798,29.513000000,0.000000000,64338.074218750,0.000000000,0.000000000,-15.311633110,-84.810066223,0.000000000,-14.970000267,6.005604267
1747309968.974182,29.515000000,0.000000000,64338.074218750,0.000000000,0.000000000,-15.311633110,-84.810173035,0.000000000,-14.970000267,6.005604267
1747309968.976588,29.518000000,0.000000000,64338.074218750,0.000000000,0.000000000,-15.311633110,-84.810272217,0.000000000,-14.970000267,6.005604267
1747309968.978964,29.520000000,0.000000000,64338.074218750,0.000000000,0.000000000,-15.311633110,-84.810379028,0.000000000,-14.970000267,6.005604267
1747309968.981363,29.523000000,0.000000000,64338.074218750,0.000000000,0.000000000,-15.311633110,-84.810478210,0.000000000,-14.970000267,6.005604267
1747309968.983750,29.525000000,0.000000000,64338.074218750,0.000000000,0.000000000,-15.311633110,-84.810585022,0.000000000,-14.970000267,6.005604267
1747309968.986143,29.527000000,0.000000000,64338.074218750,0.000000000,0.000000000,-15.311633110,-84.810691833,0.000000000,-14.970000267,6.005604267
1747309968.988509,29.530000000,0.000000000,64338.074218750,0.000000000,0.000000000,-15.311633110,-84.810791016,0.000000000,-14.970000267,6.005604267
1747309968.990892,29.532000000,0.000000000,64338.074218750,0.000000000,0.000000000,-15.311633110,-84.810897827,0.000000000,-14.970000267,6.005604267
1747309968.993266,29.535000000,0.000000000,64338.074218750,0.000000000,0.000000000,-15.311633110,-84.810997009,0.000000000,-14.970000267,6.005604267
1747309968.995627,29.537000000,0.000000000,64338.074218750,0.000000000,0.000000000,-15.311633110,-84.811103821,0.000000000,-14.970000267,6.005604267
1747309968.998000,29.539000000,0.000000000,64338.074218750,0.000000000,0.000000000,-15.311633110,-84.811203003,0.000000000,-14.970000267,6.005604267
1747309969.000413,29.542000000,0.000000000,64338.074218750,0.000000000,0.000000000,-15.311633110,-84.811309814,0.000000000,-14.970000267,6.005604267
1747309969.002787,29.544000000,0.000000000,64338.074218750,0.000000000,0.000000000,-15.298132896,-83.631820679,0.000000000,-14.970000267,6.005604267
1747309969.005173,29.546000000,0.000000000,64338.074218750,0.000000000,0.000000000,-15.311633110,-83.011108398,0.000000000,-14.970000267,6.005604267
1747309969.007611,29.549000000,0.000000000,64338.074218750,0.000000000,0.000000000,-15.311633110,-84.811614990,0.000000000,-14.970000267,6.005604267
1747309969.009967,29.551000000,0.000000000,64338.074218750,0.000000000,0.000000000,-15.298132896,-83.594390869,0.000000000,-14.970000267,6.005604267
1747309969.012323,29.554000000,0.000000000,64338.074218750,0.000000000,0.000000000,-15.311633110,-83.004577637,0.000000000,-14.970000267,6.005604267
1747309969.014682,29.556000000,0.000000000,64338.074218750,0.000000000,0.000000000,-15.311633110,-84.811927795,0.000000000,-14.970000267,6.005604267
1747309969.017055,29.558000000,0.000000000,64338.074218750,0.000000000,0.000000000,-15.311633110,-84.812034607,0.000000000,-14.970000267,6.005604267
1747309969.019413,29.561000000,0.000000000,64338.074218750,0.000000000,0.000000000,-15.311633110,-84.812133789,0.000000000,-14.970000267,6.005604267
1747309969.021767,29.563000000,0.000000000,64338.074218750,0.000000000,0.000000000,-15.311633110,-84.812240601,0.000000000,-14.970000267,6.005604267
1747309969.024110,29.565000000,0.000000000,64338.074218750,0.000000000,0.000000000,-15.311633110,-84.812339783,0.000000000,-14.970000267,6.005604267
1747309969.026440,29.568000000,0.000000000,64338.074218750,0.000000000,0.000000000,-15.311633110,-84.812446594,0.000000000,-14.970000267,6.005604267
1747309969.028769,29.570000000,0.000000000,64338.074218750,0.000000000,0.000000000,-15.311633110,-84.812545776,0.000000000,-14.970000267,6.005604267
1747309969.031104,29.572000000,0.000000000,64338.074218750,0.000000000,0.000000000,-15.311633110,-84.812652588,0.000000000,-14.970000267,6.005604267
1747309969.033499,29.575000000,0.000000000,64338.074218750,0.000000000,0.000000000,-15.311633110,-84.812759399,0.000000000,-14.970000267,6.005604267
1747309969.035918,29.577000000,0.000000000,64338.074218750,0.000000000,0.000000000,-15.298132896,-83.629493713,0.000000000,-14.970000267,6.005604267
1747309969.038254,29.580000000,0.000000000,64338.074218750,0.000000000,0.000000000,-15.311633110,-83.015571594,0.000000000,-14.970000267,6.005604267
1747309969.040615,29.582000000,0.000000000,64338.074218750,0.000000000,0.000000000,-15.311633110,-84.813064575,0.000000000,-14.970000267,6.005604267
1747309969.042984,29.584000000,0.000000000,64338.074218750,0.000000000,0.000000000,-15.298132896,-83.644218445,0.000000000,-14.970000267,6.005604267
1747309969.045370,29.587000000,0.000000000,64338.074218750,0.000000000,0.000000000,-15.311633110,-83.014366150,0.000000000,-14.970000267,6.005604267
1747309969.047724,29.589000000,0.000000000,64338.074218750,0.000000000,0.000000000,-15.311633110,-84.813369751,0.000000000,-14.970000267,6.005604267
1747309969.050095,29.591000000,0.000000000,64338.074218750,0.000000000,0.000000000,-15.311633110,-84.813468933,0.000000000,-14.970000267,6.005604267
1747309969.052499,29.594000000,0.000000000,64338.074218750,0.000000000,0.000000000,-15.298132896,-83.648452759,0.000000000,-14.970000267,6.005604267
1747309969.054903,29.596000000,0.000000000,64338.074218750,0.000000000,0.000000000,-15.311633110,-83.004905701,0.000000000,-14.970000267,6.005604267
1747309969.057257,29.599000000,0.000000000,64338.074218750,0.000000000,0.000000000,-15.311633110,-84.813781738,0.000000000,-14.970000267,6.005604267
1747309969.059672,29.601000000,0.000000000,64338.074218750,0.000000000,0.000000000,-15.298132896,-83.614112854,0.000000000,-14.970000267,6.005604267
1747309969.062062,29.603000000,0.000000000,64338.074218750,0.000000000,0.000000000,-15.311633110,-83.035995483,0.000000000,-14.970000267,6.005604267
1747309969.064463,29.606000000,0.000000000,64338.074218750,0.000000000,0.000000000,-15.311633110,-84.814094543,0.000000000,-14.970000267,6.005604267
1747309969.066888,29.608000000,0.000000000,64338.074218750,0.000000000,0.000000000,-15.311633110,-84.814201355,0.000000000,-14.970000267,6.005604267
1747309969.069269,29.611000000,0.000000000,64338.074218750,0.000000000,0.000000000,-15.311633110,-84.814308167,0.000000000,-14.970000267,6.005604267
1747309969.071620,29.613000000,0.000000000,64338.074218750,0.000000000,0.000000000,-15.311633110,-84.814414978,0.000000000,-14.970000267,6.005604267
1747309969.073990,29.615000000,0.000000000,64338.074218750,0.000000000,0.000000000,-15.311633110,-84.814514160,0.000000000,-14.970000267,6.005604267
1747309969.076421,29.618000000,0.000000000,64338.074218750,0.000000000,0.000000000,-15.311633110,-84.814620972,0.000000000,-14.970000267,6.005604267
1747309969.078738,29.620000000,0.000000000,64338.074218750,0.000000000,0.000000000,-15.311633110,-84.814727783,0.000000000,-14.970000267,6.005604267
1747309969.081184,29.622000000,0.000000000,64338.074218750,0.000000000,0.000000000,-15.311633110,-84.814834595,0.000000000,-14.970000267,6.005604267
1747309969.083550,29.625000000,0.000000000,64338.074218750,0.000000000,0.000000000,-15.311633110,-84.814933777,0.000000000,-14.970000267,6.005604267
1747309969.085920,29.627000000,0.000000000,64338.074218750,0.000000000,0.000000000,-15.311633110,-84.815040588,0.000000000,-14.970000267,6.005604267
1747309969.088276,29.630000000,0.000000000,64338.074218750,0.000000000,0.000000000,-15.311633110,-84.815139771,0.000000000,-14.970000267,6.005604267
1747309969.090673,29.632000000,0.000000000,64338.074218750,0.000000000,0.000000000,-15.311633110,-84.815246582,0.000000000,-14.970000267,6.005604267
1747309969.093057,29.634000000,0.000000000,64338.074218750,0.000000000,0.000000000,-15.311633110,-84.815345764,0.000000000,-14.970000267,6.005604267
1747309969.095415,29.637000000,0.000000000,64338.074218750,0.000000000,0.000000000,-15.311633110,-84.815452576,0.000000000,-14.970000267,6.005604267
1747309969.097793,29.639000000,0.000000000,64338.074218750,0.000000000,0.000000000,-15.311633110,-84.815559387,0.000000000,-14.970000267,6.005604267
1747309969.100194,29.641000000,0.000000000,64338.074218750,0.000000000,0.000000000,-15.298132896,-83.637580872,0.000000000,-14.970000267,6.005604267
1747309969.102614,29.644000000,0.000000000,64338.074218750,0.000000000,0.000000000,-15.311633110,-83.030364990,0.000000000,-14.970000267,6.005604267
1747309969.105025,29.646000000,0.000000000,64338.074218750,0.000000000,0.000000000,-15.311633110,-84.815864563,0.000000000,-14.970000267,6.005604267
1747309969.107441,29.649000000,0.000000000,64338.074218750,0.000000000,0.000000000,-15.298132896,-83.607376099,0.000000000,-14.970000267,6.005604267
1747309969.109796,29.651000000,0.000000000,64338.074218750,0.000000000,0.000000000,-15.311633110,-83.020195007,0.000000000,-14.970000267,6.005604267
1747309969.112203,29.653000000,0.000000000,64338.074218750,0.000000000,0.000000000,-15.311633110,-84.816177368,0.000000000,-14.970000267,6.005604267
1747309969.114591,29.656000000,0.000000000,64338.074218750,0.000000000,0.000000000,-15.311633110,-84.816284180,0.000000000,-14.970000267,6.005604267
1747309969.117013,29.658000000,0.000000000,64338.074218750,0.000000000,0.000000000,-15.311633110,-84.816390991,0.000000000,-14.970000267,6.005604267
1747309969.119406,29.661000000,0.000000000,64338.074218750,0.000000000,0.000000000,-15.311633110,-84.816497803,0.000000000,-14.970000267,6.005604267
1747309969.121845,29.663000000,0.000000000,64338.074218750,0.000000000,0.000000000,-15.311633110,-84.816596985,0.000000000,-14.970000267,6.005604267
1747309969.124284,29.666000000,0.000000000,64338.074218750,0.000000000,0.000000000,-15.311633110,-84.816711426,0.000000000,-14.970000267,6.005604267
1747309969.126629,29.668000000,0.000000000,64338.074218750,0.000000000,0.000000000,-15.311633110,-84.816818237,0.000000000,-14.970000267,6.005604267
1747309969.128937,29.670000000,0.000000000,64338.074218750,0.000000000,0.000000000,-15.311633110,-84.816917419,0.000000000,-14.970000267,6.005604267
1747309969.131302,29.673000000,0.000000000,64338.074218750,0.000000000,0.000000000,-15.311633110,-84.817024231,0.000000000,-14.970000267,6.005604267
1747309969.133640,29.675000000,0.000000000,64338.074218750,0.000000000,0.000000000,-15.311633110,-84.817123413,0.000000000,-14.970000267,6.005604267
1747309969.136003,29.677000000,0.000000000,64338.074218750,0.000000000,0.000000000,-15.311633110,-84.817230225,0.000000000,-14.970000267,6.005604267
1747309969.138368,29.680000000,0.000000000,64338.074218750,0.000000000,0.000000000,-15.311633110,-84.817337036,0.000000000,-14.970000267,6.005604267
1747309969.140754,29.682000000,0.000000000,64338.074218750,0.000000000,0.000000000,-15.311633110,-84.817436218,0.000000000,-14.970000267,6.005604267
1747309969.143090,29.684000000,0.000000000,64338.074218750,0.000000000,0.000000000,-15.311633110,-84.817543030,0.000000000,-14.970000267,6.005604267
1747309969.145445,29.687000000,0.000000000,64338.074218750,0.000000000,0.000000000,-15.311633110,-84.817642212,0.000000000,-14.970000267,6.005604267
1747309969.147814,29.689000000,0.000000000,64338.074218750,0.000000000,0.000000000,-15.311633110,-84.817749023,0.000000000,-14.970000267,6.005604267
1747309969.150198,29.691000000,0.000000000,64338.074218750,0.000000000,0.000000000,-15.311633110,-84.817848206,0.000000000,-14.970000267,6.005604267
1747309969.152568,29.694000000,0.000000000,64338.074218750,0.000000000,0.000000000,-15.311633110,-84.817955017,0.000000000,-14.970000267,6.005604267
1747309969.154948,29.696000000,0.000000000,64338.074218750,0.000000000,0.000000000,-15.311633110,-84.818061829,0.000000000,-14.970000267,6.005604267
1747309969.157318,29.699000000,0.000000000,64338.074218750,0.000000000,0.000000000,-15.311633110,-84.818161011,0.000000000,-14.970000267,6.005604267
1747309969.159676,29.701000000,0.000000000,64338.074218750,0.000000000,0.000000000,-15.311633110,-84.818267822,0.000000000,-14.970000267,6.005604267
1747309969.162064,29.703000000,0.000000000,64338.074218750,0.000000000,0.000000000,-15.311633110,-84.818367004,0.000000000,-14.970000267,6.005604267
1747309969.164467,29.706000000,0.000000000,64338.074218750,0.000000000,0.000000000,-15.311633110,-84.818473816,0.000000000,-14.970000267,6.005604267
1747309969.166876,29.708000000,0.000000000,64338.074218750,0.000000000,0.000000000,-15.311633110,-84.818580627,0.000000000,-14.970000267,6.005604267
1747309969.169264,29.711000000,0.000000000,64338.074218750,0.000000000,0.000000000,-15.311633110,-84.818687439,0.000000000,-14.970000267,6.005604267
1747309969.171646,29.713000000,0.000000000,64338.074218750,0.000000000,0.000000000,-15.311633110,-84.818786621,0.000000000,-14.970000267,6.005604267
1747309969.174045,29.715000000,0.000000000,64338.074218750,0.000000000,0.000000000,-15.311633110,-84.818893433,0.000000000,-14.970000267,6.005604267
1747309969.176442,29.718000000,0.000000000,64338.074218750,0.000000000,0.000000000,-15.311633110,-84.819000244,0.000000000,-14.970000267,6.005604267
1747309969.178801,29.720000000,0.000000000,64338.074218750,0.000000000,0.000000000,-15.311633110,-84.819107056,0.000000000,-14.970000267,6.005604267
1747309969.181197,29.722000000,0.000000000,64338.074218750,0.000000000,0.000000000,-15.311633110,-84.819206238,0.000000000,-14.970000267,6.005604267
1747309969.183558,29.725000000,0.000000000,64338.074218750,0.000000000,0.000000000,-15.311633110,-84.819313049,0.000000000,-14.970000267,6.005604267
1747309969.185920,29.727000000,0.000000000,64338.074218750,0.000000000,0.000000000,-15.311633110,-84.819412231,0.000000000,-14.970000267,6.005604267
1747309969.188365,29.730000000,0.000000000,64338.074218750,0.000000000,0.000000000,-15.311633110,-84.819519043,0.000000000,-14.970000267,6.005604267
1747309969.190773,29.732000000,0.000000000,64338.074218750,0.000000000,0.000000000,-15.311633110,-84.819625854,0.000000000,-14.970000267,6.005604267
1747309969.193201,29.734000000,0.000000000,64338.074218750,0.000000000,0.000000000,-15.311633110,-84.819732666,0.000000000,-14.970000267,6.005604267
1747309969.195632,29.737000000,0.000000000,64338.074218750,0.000000000,0.000000000,-15.311633110,-84.819839478,0.000000000,-14.970000267,6.005604267
1747309969.198056,29.739000000,0.000000000,64338.074218750,0.000000000,0.000000000,-15.311633110,-84.819946289,0.000000000,-14.970000267,6.005604267
1747309969.200493,29.742000000,0.000000000,64338.074218750,0.000000000,0.000000000,-15.311633110,-84.820060730,0.000000000,-14.970000267,6.005604267
1747309969.202923,29.744000000,0.000000000,64338.074218750,0.000000000,0.000000000,-15.311633110,-84.820167542,0.000000000,-14.970000267,6.005604267
1747309969.205392,29.747000000,0.000000000,64338.074218750,0.000000000,0.000000000,-15.311633110,-84.820274353,0.000000000,-14.970000267,6.005604267
1747309969.207900,29.749000000,0.000000000,64338.074218750,0.000000000,0.000000000,-15.311633110,-84.820381165,0.000000000,-14.970000267,6.005604267
1747309969.210367,29.752000000,0.000000000,64338.074218750,0.000000000,0.000000000,-15.311633110,-84.820487976,0.000000000,-14.970000267,6.005604267
1747309969.212811,29.754000000,0.000000000,64338.074218750,0.000000000,0.000000000,-15.298132896,-83.574752808,0.000000000,-14.970000267,6.005604267
1747309969.215324,29.757000000,0.000000000,64338.074218750,0.000000000,0.000000000,-15.311633110,-83.086601257,0.000000000,-14.970000267,6.005604267
1747309969.217767,29.759000000,0.000000000,64338.074218750,0.000000000,0.000000000,-15.311633110,-84.820808411,0.000000000,-14.970000267,6.005604267
1747309969.220269,29.761000000,0.000000000,64338.074218750,0.000000000,0.000000000,-15.298132896,-83.584945679,0.000000000,-14.970000267,6.005604267
1747309969.222721,29.764000000,0.000000000,64338.074218750,0.000000000,0.000000000,-15.311633110,-83.088325500,0.000000000,-14.970000267,6.005604267
1747309969.225224,29.766000000,0.000000000,64338.074218750,0.000000000,0.000000000,-15.311633110,-84.821128845,0.000000000,-14.970000267,6.005604267
1747309969.227566,29.769000000,0.000000000,64338.074218750,0.000000000,0.000000000,-15.311633110,-84.821235657,0.000000000,-14.970000267,6.005604267
1747309969.229911,29.771000000,0.000000000,64338.074218750,0.000000000,0.000000000,-15.298132896,-83.654685974,0.000000000,-14.970000267,6.005604267
1747309969.232278,29.774000000,0.000000000,64338.074218750,0.000000000,0.000000000,-15.311633110,-83.001152039,0.000000000,-14.970000267,6.005604267
1747309969.234637,29.776000000,0.000000000,64338.074218750,0.000000000,0.000000000,-15.311633110,-84.821540833,0.000000000,-14.970000267,6.005604267
1747309969.237045,29.778000000,0.000000000,64338.074218750,0.000000000,0.000000000,-15.298132896,-83.659606934,0.000000000,-14.970000267,6.005604267
1747309969.239388,29.781000000,0.000000000,64338.074218750,0.000000000,0.000000000,-15.311633110,-83.024360657,0.000000000,-14.970000267,6.005604267
1747309969.241780,29.783000000,0.000000000,64338.074218750,0.000000000,0.000000000,-15.311633110,-84.821846008,0.000000000,-14.970000267,6.005604267
1747309969.244170,29.785000000,0.000000000,64338.074218750,0.000000000,0.000000000,-15.311633110,-84.821952820,0.000000000,-14.970000267,6.005604267
1747309969.246536,29.788000000,0.000000000,64338.074218750,0.000000000,0.000000000,-15.311633110,-84.822052002,0.000000000,-14.970000267,6.005604267
1747309969.248906,29.790000000,0.000000000,64338.074218750,0.000000000,0.000000000,-15.311633110,-84.822158813,0.000000000,-14.970000267,6.005604267
1747309969.251285,29.793000000,0.000000000,64338.074218750,0.000000000,0.000000000,-15.311633110,-84.822265625,0.000000000,-14.970000267,6.005604267
1747309969.253661,29.795000000,0.000000000,64338.074218750,0.000000000,0.000000000,-15.311633110,-84.822364807,0.000000000,-14.970000267,6.005604267
1747309969.256057,29.797000000,0.000000000,64338.074218750,0.000000000,0.000000000,-15.311633110,-84.822471619,0.000000000,-14.970000267,6.005604267
1747309969.258470,29.800000000,0.000000000,64338.074218750,0.000000000,0.000000000,-15.311633110,-84.822570801,0.000000000,-14.970000267,6.005604267
1747309969.260894,29.802000000,0.000000000,64338.074218750,0.000000000,0.000000000,-15.311633110,-84.822677612,0.000000000,-14.970000267,6.005604267
1747309969.263300,29.805000000,0.000000000,64338.074218750,0.000000000,0.000000000,-15.311633110,-84.822792053,0.000000000,-14.970000267,6.005604267
1747309969.265673,29.807000000,0.000000000,64338.074218750,0.000000000,0.000000000,-15.311633110,-84.822898865,0.000000000,-14.970000267,6.005604267
1747309969.268038,29.809000000,0.000000000,64338.074218750,0.000000000,0.000000000,-15.311633110,-84.822998047,0.000000000,-14.970000267,6.005604267
1747309969.270449,29.812000000,0.000000000,64338.074218750,0.000000000,0.000000000,-15.311633110,-84.823104858,0.000000000,-14.970000267,6.005604267
1747309969.272815,29.814000000,0.000000000,64338.074218750,0.000000000,0.000000000,-15.311633110,-84.823211670,0.000000000,-14.970000267,6.005604267
1747309969.275249,29.816000000,0.000000000,64338.074218750,0.000000000,0.000000000,-15.311633110,-84.823318481,0.000000000,-14.970000267,6.005604267
1747309969.277659,29.819000000,0.000000000,64338.074218750,0.000000000,0.000000000,-15.311633110,-84.823425293,0.000000000,-14.970000267,6.005604267
1747309969.280026,29.821000000,0.000000000,64338.074218750,0.000000000,0.000000000,-15.311633110,-84.823524475,0.000000000,-14.970000267,6.005604267
1747309969.282401,29.824000000,0.000000000,64338.074218750,0.000000000,0.000000000,-15.311633110,-84.823631287,0.000000000,-14.970000267,6.005604267
1747309969.284831,29.826000000,0.000000000,64338.074218750,0.000000000,0.000000000,-15.311633110,-84.823730469,0.000000000,-14.970000267,6.005604267
1747309969.287204,29.828000000,0.000000000,64338.074218750,0.000000000,0.000000000,-15.311633110,-84.823844910,0.000000000,-14.970000267,6.005604267
1747309969.289580,29.831000000,0.000000000,64338.074218750,0.000000000,0.000000000,-15.311633110,-84.823944092,0.000000000,-14.970000267,6.005604267
1747309969.291936,29.833000000,0.000000000,64338.074218750,0.000000000,0.000000000,-15.311633110,-84.824050903,0.000000000,-14.970000267,6.005604267
1747309969.294271,29.836000000,0.000000000,64338.074218750,0.000000000,0.000000000,-15.311633110,-84.824150085,0.000000000,-14.970000267,6.005604267
1747309969.296674,29.838000000,0.000000000,64338.074218750,0.000000000,0.000000000,-15.311633110,-84.824256897,0.000000000,-14.970000267,6.005604267
1747309969.299053,29.840000000,0.000000000,64338.074218750,0.000000000,0.000000000,-15.311633110,-84.824356079,0.000000000,-14.970000267,6.005604267
1747309969.301442,29.843000000,0.000000000,64338.074218750,0.000000000,0.000000000,-15.311633110,-84.824462891,0.000000000,-14.970000267,6.005604267
1747309969.303863,29.845000000,0.000000000,64338.074218750,0.000000000,0.000000000,-15.311633110,-84.824569702,0.000000000,-14.970000267,6.005604267
1747309969.306210,29.847000000,0.000000000,64338.074218750,0.000000000,0.000000000,-15.311633110,-84.824668884,0.000000000,-14.970000267,6.005604267
1747309969.308595,29.850000000,0.000000000,64338.074218750,0.000000000,0.000000000,-15.298132896,-83.642158508,0.000000000,-14.970000267,6.005604267
1747309969.311046,29.852000000,0.000000000,64338.074218750,0.000000000,0.000000000,-15.311633110,-83.026733398,0.000000000,-14.970000267,6.005604267
1747309969.313499,29.855000000,0.000000000,64338.074218750,0.000000000,0.000000000,-15.311633110,-84.824981689,0.000000000,-14.970000267,6.005604267
1747309969.315959,29.857000000,0.000000000,64338.074218750,0.000000000,0.000000000,-15.298132896,-83.593383789,0.000000000,-14.970000267,6.005604267
1747309969.318357,29.860000000,0.000000000,64338.074218750,0.000000000,0.000000000,-15.311633110,-83.091796875,0.000000000,-14.970000267,6.005604267
1747309969.320766,29.862000000,0.000000000,64338.074218750,0.000000000,0.000000000,-15.311633110,-84.825302124,0.000000000,-14.970000267,6.005604267
1747309969.323154,29.864000000,0.000000000,64338.074218750,0.000000000,0.000000000,-15.311633110,-84.825401306,0.000000000,-14.970000267,6.005604267
1747309969.325559,29.867000000,0.000000000,64338.074218750,0.000000000,0.000000000,-15.298132896,-83.642135620,0.000000000,-14.970000267,6.005604267
1747309969.327898,29.869000000,0.000000000,64338.074218750,0.000000000,0.000000000,-15.311633110,-83.026710510,0.000000000,-14.970000267,6.005604267
1747309969.330285,29.872000000,0.000000000,64338.074218750,0.000000000,0.000000000,-15.311633110,-84.825706482,0.000000000,-14.970000267,6.005604267
1747309969.332679,29.874000000,0.000000000,64338.074218750,0.000000000,0.000000000,-15.298132896,-83.635696411,0.000000000,-14.970000267,6.005604267
1747309969.335037,29.876000000,0.000000000,64338.074218750,0.000000000,0.000000000,-15.311633110,-83.024749756,0.000000000,-14.970000267,6.005604267
1747309969.337485,29.879000000,0.000000000,64338.074218750,0.000000000,0.000000000,-15.311633110,-84.826019287,0.000000000,-14.970000267,6.005604267
1747309969.339838,29.881000000,0.000000000,64338.074218750,0.000000000,0.000000000,-15.311633110,-84.826126099,0.000000000,-14.970000267,6.005604267
1747309969.342221,29.884000000,0.000000000,64338.074218750,0.000000000,0.000000000,-15.311633110,-84.826225281,0.000000000,-14.970000267,6.005604267
1747309969.344610,29.886000000,0.000000000,64338.074218750,0.000000000,0.000000000,-15.311633110,-84.826332092,0.000000000,-14.970000267,6.005604267
1747309969.346976,29.888000000,0.000000000,64338.074218750,0.000000000,0.000000000,-15.311633110,-84.826438904,0.000000000,-14.970000267,6.005604267
1747309969.349359,29.891000000,0.000000000,64338.074218750,0.000000000,0.000000000,-15.311633110,-84.826545715,0.000000000,-14.970000267,6.005604267
1747309969.351729,29.893000000,0.000000000,64338.074218750,0.000000000,0.000000000,-15.311633110,-84.826644897,0.000000000,-14.970000267,6.005604267
1747309969.354099,29.895000000,0.000000000,64338.074218750,0.000000000,0.000000000,-15.311633110,-84.826751709,0.000000000,-14.970000267,6.005604267
1747309969.356461,29.898000000,0.000000000,64338.074218750,0.000000000,0.000000000,-15.311633110,-84.826850891,0.000000000,-14.970000267,6.005604267
1747309969.358813,29.900000000,0.000000000,64338.074218750,0.000000000,0.000000000,-15.311633110,-84.826957703,0.000000000,-14.970000267,6.005604267
1747309969.361187,29.902000000,0.000000000,64338.074218750,0.000000000,0.000000000,-15.311633110,-84.827056885,0.000000000,-14.970000267,6.005604267
1747309969.363558,29.905000000,0.000000000,64338.074218750,0.000000000,0.000000000,-15.311633110,-84.827163696,0.000000000,-14.970000267,6.005604267
1747309969.365977,29.907000000,0.000000000,64338.074218750,0.000000000,0.000000000,-15.311633110,-84.827270508,0.000000000,-14.970000267,6.005604267
1747309969.368343,29.910000000,0.000000000,64338.074218750,0.000000000,0.000000000,-15.311633110,-84.827369690,0.000000000,-14.970000267,6.005604267
1747309969.370726,29.912000000,0.000000000,64338.074218750,0.000000000,0.000000000,-15.311633110,-84.827476501,0.000000000,-14.970000267,6.005604267
1747309969.373172,29.914000000,0.000000000,64338.074218750,0.000000000,0.000000000,-15.311633110,-84.827575684,0.000000000,-14.970000267,6.005604267
1747309969.375532,29.917000000,0.000000000,64338.074218750,0.000000000,0.000000000,-15.311633110,-84.827690125,0.000000000,-14.970000267,6.005604267
1747309969.377902,29.919000000,0.000000000,64338.074218750,0.000000000,0.000000000,-15.311633110,-84.827789307,0.000000000,-14.970000267,6.005604267
1747309969.380322,29.922000000,0.000000000,64338.074218750,0.000000000,0.000000000,-15.311633110,-84.827896118,0.000000000,-14.970000267,6.005604267
1747309969.382716,29.924000000,0.000000000,64338.074218750,0.000000000,0.000000000,-15.311633110,-84.828002930,0.000000000,-14.970000267,6.005604267
1747309969.385091,29.926000000,0.000000000,64338.074218750,0.000000000,0.000000000,-15.311633110,-84.828102112,0.000000000,-14.970000267,6.005604267
1747309969.387486,29.929000000,0.000000000,64338.074218750,0.000000000,0.000000000,-15.311633110,-84.828208923,0.000000000,-14.970000267,6.005604267
1747309969.389880,29.931000000,0.000000000,64338.074218750,0.000000000,0.000000000,-15.311633110,-84.828315735,0.000000000,-14.970000267,6.005604267
1747309969.392257,29.934000000,0.000000000,64338.074218750,0.000000000,0.000000000,-15.311633110,-84.828422546,0.000000000,-14.970000267,6.005604267
1747309969.394634,29.936000000,0.000000000,64338.074218750,0.000000000,0.000000000,-15.311633110,-84.828521729,0.000000000,-14.970000267,6.005604267
1747309969.397079,29.938000000,0.000000000,64338.074218750,0.000000000,0.000000000,-15.311633110,-84.828628540,0.000000000,-14.970000267,6.005604267
1747309969.399462,29.941000000,0.000000000,64338.074218750,0.000000000,0.000000000,-15.311633110,-84.828727722,0.000000000,-14.970000267,6.005604267
1747309969.401846,29.943000000,0.000000000,64338.074218750,0.000000000,0.000000000,-15.311633110,-84.828834534,0.000000000,-14.970000267,6.005604267
1747309969.404271,29.945000000,0.000000000,64338.074218750,0.000000000,0.000000000,-15.311633110,-84.828941345,0.000000000,-14.970000267,6.005604267
1747309969.406617,29.948000000,0.000000000,64338.074218750,0.000000000,0.000000000,-15.311633110,-84.829048157,0.000000000,-14.970000267,6.005604267
1747309969.408986,29.950000000,0.000000000,64338.074218750,0.000000000,0.000000000,-15.311633110,-84.829147339,0.000000000,-14.970000267,6.005604267
1747309969.411382,29.953000000,0.000000000,64338.074218750,0.000000000,0.000000000,-15.311633110,-84.829254150,0.000000000,-14.970000267,6.005604267
1747309969.413773,29.955000000,0.000000000,64338.074218750,0.000000000,0.000000000,-15.311633110,-84.829353333,0.000000000,-14.970000267,6.005604267
1747309969.416161,29.957000000,0.000000000,64338.074218750,0.000000000,0.000000000,-15.311633110,-84.829460144,0.000000000,-14.970000267,6.005604267
1747309969.418612,29.960000000,0.000000000,64338.074218750,0.000000000,0.000000000,-15.311633110,-84.829566956,0.000000000,-14.970000267,6.005604267
1747309969.421108,29.962000000,0.000000000,64338.074218750,0.000000000,0.000000000,-15.311633110,-84.829673767,0.000000000,-14.970000267,6.005604267
1747309969.423505,29.965000000,0.000000000,64338.074218750,0.000000000,0.000000000,-15.311633110,-84.829780579,0.000000000,-14.970000267,6.005604267
1747309969.425906,29.967000000,0.000000000,64338.074218750,0.000000000,0.000000000,-15.311633110,-84.829887390,0.000000000,-14.970000267,6.005604267
1747309969.428327,29.970000000,0.000000000,64338.074218750,0.000000000,0.000000000,-15.311633110,-84.829994202,0.000000000,-14.970000267,6.005604267
1747309969.430727,29.972000000,0.000000000,64338.074218750,0.000000000,0.000000000,-15.311633110,-84.830101013,0.000000000,-14.970000267,6.005604267
1747309969.433146,29.974000000,0.000000000,64338.074218750,0.000000000,0.000000000,-15.311633110,-84.830207825,0.000000000,-14.970000267,6.005604267
1747309969.435587,29.977000000,0.000000000,64338.074218750,0.000000000,0.000000000,-15.311633110,-84.830314636,0.000000000,-14.970000267,6.005604267
1747309969.438025,29.979000000,0.000000000,64338.074218750,0.000000000,0.000000000,-15.311633110,-84.830421448,0.000000000,-14.970000267,6.005604267
1747309969.440431,29.982000000,0.000000000,64338.074218750,0.000000000,0.000000000,-15.311633110,-84.830528259,0.000000000,-14.970000267,6.005604267
1747309969.442875,29.984000000,0.000000000,64338.074218750,0.000000000,0.000000000,-15.311633110,-84.830635071,0.000000000,-14.970000267,6.005604267
1747309969.445423,29.987000000,0.000000000,64338.074218750,0.000000000,0.000000000,-15.311633110,-84.830749512,0.000000000,-14.970000267,6.005604267
1747309969.447980,29.989000000,0.000000000,64338.074218750,0.000000000,0.000000000,-15.311633110,-84.830856323,0.000000000,-14.970000267,6.005604267
1747309969.450546,29.992000000,0.000000000,64338.074218750,0.000000000,0.000000000,-15.311633110,-84.830970764,0.000000000,-14.970000267,6.005604267
1747309969.453143,29.994000000,0.000000000,64338.074218750,0.000000000,0.000000000,-15.311633110,-84.831085205,0.000000000,-14.970000267,6.005604267
1747309969.455728,29.997000000,0.000000000,64338.074218750,0.000000000,0.000000000,-15.311633110,-84.831192017,0.000000000,-14.970000267,6.005604267
1747309969.458268,29.999000000,0.000000000,64338.074218750,0.000000000,0.000000000,-15.311633110,-84.831306458,0.000000000,-14.970000267,6.005604267
1747309969.460804,30.002000000,0.000000000,64338.074218750,0.000000000,0.000000000,-15.311633110,-84.831420898,0.000000000,-14.970000267,6.005604267
1747309969.463357,30.005000000,0.000000000,64338.074218750,0.000000000,0.000000000,-15.311633110,-84.831527710,0.000000000,-14.970000267,6.005604267
1747309969.465908,30.007000000,0.000000000,64338.074218750,0.000000000,0.000000000,-15.311633110,-84.831642151,0.000000000,-14.970000267,6.005604267
1747309969.468482,30.010000000,0.000000000,64338.074218750,0.000000000,0.000000000,-15.311633110,-84.831756592,0.000000000,-14.970000267,6.005604267
1747309969.471086,30.012000000,0.000000000,64338.074218750,0.000000000,0.000000000,-15.311633110,-84.831871033,0.000000000,-14.970000267,6.005604267
1747309969.473567,30.015000000,0.000000000,64338.074218750,0.000000000,0.000000000,-15.311633110,-84.831977844,0.000000000,-14.970000267,6.005604267
1747309969.476097,30.017000000,0.000000000,64338.074218750,0.000000000,0.000000000,-15.311633110,-84.832092285,0.000000000,-14.970000267,6.005604267
1747309969.478608,30.020000000,0.000000000,64338.074218750,0.000000000,0.000000000,-15.311633110,-84.832206726,0.000000000,-14.970000267,6.005604267
1747309969.481201,30.022000000,0.000000000,64338.074218750,0.000000000,0.000000000,-15.311633110,-84.832313538,0.000000000,-14.970000267,6.005604267
1747309969.483796,30.025000000,0.000000000,64338.074218750,0.000000000,0.000000000,-15.311633110,-84.832427979,0.000000000,-14.970000267,6.005604267
1747309969.486449,30.028000000,0.000000000,64338.074218750,0.000000000,0.000000000,-15.311633110,-84.832542419,0.000000000,-14.970000267,6.005604267
1747309969.488974,30.030000000,0.000000000,64338.074218750,0.000000000,0.000000000,-15.311633110,-84.832656860,0.000000000,-14.970000267,6.005604267
1747309969.491506,30.033000000,0.000000000,64338.074218750,0.000000000,0.000000000,-15.311633110,-84.832763672,0.000000000,-14.970000267,6.005604267
1747309969.493992,30.035000000,0.000000000,64338.074218750,0.000000000,0.000000000,-15.311633110,-84.832870483,0.000000000,-14.970000267,6.005604267
1747309969.496456,30.038000000,0.000000000,64338.074218750,0.000000000,0.000000000,-15.311633110,-84.832977295,0.000000000,-14.970000267,6.005604267
1747309969.498933,30.040000000,0.000000000,64338.074218750,0.000000000,0.000000000,-15.311633110,-84.833091736,0.000000000,-14.970000267,6.005604267
1747309969.501472,30.043000000,0.000000000,64338.074218750,0.000000000,0.000000000,-15.311633110,-84.833198547,0.000000000,-14.970000267,6.005604267
1747309969.503994,30.045000000,0.000000000,64338.074218750,0.000000000,0.000000000,-15.311633110,-84.833305359,0.000000000,-14.970000267,6.005604267
1747309969.506423,30.048000000,0.000000000,64338.074218750,0.000000000,0.000000000,-15.311633110,-84.833419800,0.000000000,-14.970000267,6.005604267
1747309969.508822,30.050000000,0.000000000,64338.074218750,0.000000000,0.000000000,-15.311633110,-84.833526611,0.000000000,-14.970000267,6.005604267
1747309969.511214,30.052000000,0.000000000,64338.074218750,0.000000000,0.000000000,-15.311633110,-84.833633423,0.000000000,-14.970000267,6.005604267
1747309969.513604,30.055000000,0.000000000,64338.074218750,0.000000000,0.000000000,-15.311633110,-84.833732605,0.000000000,-14.970000267,6.005604267
1747309969.515985,30.057000000,0.000000000,64338.074218750,0.000000000,0.000000000,-15.311633110,-84.833839417,0.000000000,-14.970000267,6.005604267
1747309969.518372,30.060000000,0.000000000,64338.074218750,0.000000000,0.000000000,-15.311633110,-84.833946228,0.000000000,-14.970000267,6.005604267
1747309969.520741,30.062000000,0.000000000,64338.074218750,0.000000000,0.000000000,-15.311633110,-84.834045410,0.000000000,-14.970000267,6.005604267
1747309969.523204,30.064000000,0.000000000,64338.074218750,0.000000000,0.000000000,-15.311633110,-84.834152222,0.000000000,-14.970000267,6.005604267
1747309969.525619,30.067000000,0.000000000,64338.074218750,0.000000000,0.000000000,-15.311633110,-84.834259033,0.000000000,-14.970000267,6.005604267
1747309969.528007,30.069000000,0.000000000,64338.074218750,0.000000000,0.000000000,-15.311633110,-84.834365845,0.000000000,-14.970000267,6.005604267
1747309969.530418,30.072000000,0.000000000,64338.074218750,0.000000000,0.000000000,-15.311633110,-84.834472656,0.000000000,-14.970000267,6.005604267
1747309969.532801,30.074000000,0.000000000,64338.074218750,0.000000000,0.000000000,-15.311633110,-84.834579468,0.000000000,-14.970000267,6.005604267
1747309969.535232,30.076000000,0.000000000,64338.074218750,0.000000000,0.000000000,-15.311633110,-84.834678650,0.000000000,-14.970000267,6.005604267
1747309969.537544,30.079000000,0.000000000,64338.074218750,0.000000000,0.000000000,-15.311633110,-84.834785461,0.000000000,-14.970000267,6.005604267
1747309969.540008,30.081000000,0.000000000,64338.074218750,0.000000000,0.000000000,-15.311633110,-84.834892273,0.000000000,-14.970000267,6.005604267
1747309969.542441,30.084000000,0.000000000,64338.074218750,0.000000000,0.000000000,-15.311633110,-84.834999084,0.000000000,-14.970000267,6.005604267
1747309969.544878,30.086000000,0.000000000,64338.074218750,0.000000000,0.000000000,-15.311633110,-84.835105896,0.000000000,-14.970000267,6.005604267
1747309969.547374,30.089000000,0.000000000,64338.074218750,0.000000000,0.000000000,-15.311633110,-84.835212708,0.000000000,-14.970000267,6.005604267
1747309969.549819,30.091000000,0.000000000,64338.074218750,0.000000000,0.000000000,-15.311633110,-84.835327148,0.000000000,-14.970000267,6.005604267
1747309969.552269,30.094000000,0.000000000,64338.074218750,0.000000000,0.000000000,-15.311633110,-84.835433960,0.000000000,-14.970000267,6.005604267
1747309969.554708,30.096000000,0.000000000,64338.074218750,0.000000000,0.000000000,-15.311633110,-84.835540771,0.000000000,-14.970000267,6.005604267
1747309969.557106,30.098000000,0.000000000,64338.074218750,0.000000000,0.000000000,-15.311633110,-84.835647583,0.000000000,-14.970000267,6.005604267
1747309969.559495,30.101000000,0.000000000,64338.074218750,0.000000000,0.000000000,-15.311633110,-84.835754395,0.000000000,-14.970000267,6.005604267
1747309969.561885,30.103000000,0.000000000,64338.074218750,0.000000000,0.000000000,-15.311633110,-84.835861206,0.000000000,-14.970000267,6.005604267
1747309969.564268,30.106000000,0.000000000,64338.074218750,0.000000000,0.000000000,-15.311633110,-84.835960388,0.000000000,-14.970000267,6.005604267
1747309969.566675,30.108000000,0.000000000,64338.074218750,0.000000000,0.000000000,-15.311633110,-84.836067200,0.000000000,-14.970000267,6.005604267
1747309969.569105,30.110000000,0.000000000,64338.074218750,0.000000000,0.000000000,-15.311633110,-84.836174011,0.000000000,-14.970000267,6.005604267
1747309969.571557,30.113000000,0.000000000,64338.074218750,0.000000000,0.000000000,-15.311633110,-84.836280823,0.000000000,-14.970000267,6.005604267
1747309969.573979,30.115000000,0.000000000,64338.074218750,0.000000000,0.000000000,-15.311633110,-84.836387634,0.000000000,-14.970000267,6.005604267
1747309969.576387,30.118000000,0.000000000,64338.074218750,0.000000000,0.000000000,-15.311633110,-84.836494446,0.000000000,-14.970000267,6.005604267
1747309969.578770,30.120000000,0.000000000,64338.074218750,0.000000000,0.000000000,-15.311633110,-84.836608887,0.000000000,-14.970000267,6.005604267
1747309969.581152,30.122000000,0.000000000,64338.074218750,0.000000000,0.000000000,-15.311633110,-84.836708069,0.000000000,-14.970000267,6.005604267
1747309969.583565,30.125000000,0.000000000,64338.074218750,0.000000000,0.000000000,-15.311633110,-84.836814880,0.000000000,-14.970000267,6.005604267
1747309969.585936,30.127000000,0.000000000,64338.074218750,0.000000000,0.000000000,-15.311633110,-84.836921692,0.000000000,-14.970000267,6.005604267
1747309969.588379,30.130000000,0.000000000,64338.074218750,0.000000000,0.000000000,-15.311633110,-84.837020874,0.000000000,-14.970000267,6.005604267
1747309969.590782,30.132000000,0.000000000,64338.074218750,0.000000000,0.000000000,-15.311633110,-84.837135315,0.000000000,-14.970000267,6.005604267
1747309969.593216,30.134000000,0.000000000,64338.074218750,0.000000000,0.000000000,-15.311633110,-84.837242126,0.000000000,-14.970000267,6.005604267
1747309969.595569,30.137000000,0.000000000,64338.074218750,0.000000000,0.000000000,-15.311633110,-84.837348938,0.000000000,-14.970000267,6.005604267
1747309969.597932,30.139000000,0.000000000,64338.074218750,0.000000000,0.000000000,-15.311633110,-84.837448120,0.000000000,-14.970000267,6.005604267
1747309969.600296,30.142000000,0.000000000,64338.074218750,0.000000000,0.000000000,-15.311633110,-84.837554932,0.000000000,-14.970000267,6.005604267
1747309969.602673,30.144000000,0.000000000,64338.074218750,0.000000000,0.000000000,-15.311633110,-84.837661743,0.000000000,-14.970000267,6.005604267
1747309969.605075,30.146000000,0.000000000,64338.074218750,0.000000000,0.000000000,-15.311633110,-84.837760925,0.000000000,-14.970000267,6.005604267
1747309969.607453,30.149000000,0.000000000,64338.074218750,0.000000000,0.000000000,-15.311633110,-84.837867737,0.000000000,-14.970000267,6.005604267
1747309969.609835,30.151000000,0.000000000,64338.074218750,0.000000000,0.000000000,-15.311633110,-84.837966919,0.000000000,-14.970000267,6.005604267
1747309969.612221,30.154000000,0.000000000,64338.074218750,0.000000000,0.000000000,-15.311633110,-84.838073730,0.000000000,-14.970000267,6.005604267
1747309969.614634,30.156000000,0.000000000,64338.074218750,0.000000000,0.000000000,-15.311633110,-84.838172913,0.000000000,-14.970000267,6.005604267
1747309969.616965,30.158000000,0.000000000,64338.074218750,0.000000000,0.000000000,-15.311633110,-84.838279724,0.000000000,-14.970000267,6.005604267
1747309969.619335,30.161000000,0.000000000,64338.074218750,0.000000000,0.000000000,-15.311633110,-84.838386536,0.000000000,-14.970000267,6.005604267
1747309969.621728,30.163000000,0.000000000,64338.074218750,0.000000000,0.000000000,-15.311633110,-84.838485718,0.000000000,-14.970000267,6.005604267
1747309969.624133,30.165000000,0.000000000,64338.074218750,0.000000000,0.000000000,-15.311633110,-84.838592529,0.000000000,-14.970000267,6.005604267
1747309969.626493,30.168000000,0.000000000,64338.074218750,0.000000000,0.000000000,-15.311633110,-84.838691711,0.000000000,-14.970000267,6.005604267
1747309969.628825,30.170000000,0.000000000,64338.074218750,0.000000000,0.000000000,-15.311633110,-84.838798523,0.000000000,-14.970000267,6.005604267
1747309969.631207,30.172000000,0.000000000,64338.074218750,0.000000000,0.000000000,-15.311633110,-84.838897705,0.000000000,-14.970000267,6.005604267
1747309969.633565,30.175000000,0.000000000,64338.074218750,0.000000000,0.000000000,-15.311633110,-84.839004517,0.000000000,-14.970000267,6.005604267
1747309969.635929,30.177000000,0.000000000,64338.074218750,0.000000000,0.000000000,-15.311633110,-84.839111328,0.000000000,-14.970000267,6.005604267
1747309969.638333,30.180000000,0.000000000,64338.074218750,0.000000000,0.000000000,-15.311633110,-84.839210510,0.000000000,-14.970000267,6.005604267
1747309969.640740,30.182000000,0.000000000,64338.074218750,0.000000000,0.000000000,-15.311633110,-84.839317322,0.000000000,-14.970000267,6.005604267
1747309969.643111,30.184000000,0.000000000,64338.074218750,0.000000000,0.000000000,-15.311633110,-84.839424133,0.000000000,-14.970000267,6.005604267
1747309969.645491,30.187000000,0.000000000,64338.074218750,0.000000000,0.000000000,-15.311633110,-84.839530945,0.000000000,-14.970000267,6.005604267
1747309969.647869,30.189000000,0.000000000,64338.074218750,0.000000000,0.000000000,-15.311633110,-84.839630127,0.000000000,-14.970000267,6.005604267
1747309969.650244,30.192000000,0.000000000,64338.074218750,0.000000000,0.000000000,-15.311633110,-84.839736938,0.000000000,-14.970000267,6.005604267
1747309969.652619,30.194000000,0.000000000,64338.074218750,0.000000000,0.000000000,-15.311633110,-84.839836121,0.000000000,-14.970000267,6.005604267
1747309969.654996,30.196000000,0.000000000,64338.074218750,0.000000000,0.000000000,-15.311633110,-84.839942932,0.000000000,-14.970000267,6.005604267
1747309969.657385,30.199000000,0.000000000,64338.074218750,0.000000000,0.000000000,-15.311633110,-84.840042114,0.000000000,-14.970000267,6.005604267
1747309969.659786,30.201000000,0.000000000,64338.074218750,0.000000000,0.000000000,-15.311633110,-84.840148926,0.000000000,-14.970000267,6.005604267
1747309969.662169,30.203000000,0.000000000,64338.074218750,0.000000000,0.000000000,-15.311633110,-84.840255737,0.000000000,-14.970000267,6.005604267
1747309969.664556,30.206000000,0.000000000,64338.074218750,0.000000000,0.000000000,-15.311633110,-84.840362549,0.000000000,-14.970000267,6.005604267
1747309969.666939,30.208000000,0.000000000,64338.074218750,0.000000000,0.000000000,-15.311633110,-84.840461731,0.000000000,-14.970000267,6.005604267
1747309969.669333,30.211000000,0.000000000,64338.074218750,0.000000000,0.000000000,-15.311633110,-84.840568542,0.000000000,-14.970000267,6.005604267
1747309969.671735,30.213000000,0.000000000,64338.074218750,0.000000000,0.000000000,-15.311633110,-84.840667725,0.000000000,-14.970000267,6.005604267
1747309969.674201,30.215000000,0.000000000,64338.074218750,0.000000000,0.000000000,-15.311633110,-84.840782166,0.000000000,-14.970000267,6.005604267
1747309969.676556,30.218000000,0.000000000,64338.074218750,0.000000000,0.000000000,-15.311633110,-84.840888977,0.000000000,-14.970000267,6.005604267
1747309969.678901,30.220000000,0.000000000,64338.074218750,0.000000000,0.000000000,-15.311633110,-84.840995789,0.000000000,-14.970000267,6.005604267
1747309969.681279,30.223000000,0.000000000,64338.074218750,0.000000000,0.000000000,-15.311633110,-84.841094971,0.000000000,-14.970000267,6.005604267
1747309969.683637,30.225000000,0.000000000,64338.074218750,0.000000000,0.000000000,-15.311633110,-84.841201782,0.000000000,-14.970000267,6.005604267
1747309969.686010,30.227000000,0.000000000,64338.074218750,0.000000000,0.000000000,-15.311633110,-84.841308594,0.000000000,-14.970000267,6.005604267
1747309969.688439,30.230000000,0.000000000,64338.074218750,0.000000000,0.000000000,-15.311633110,-84.841407776,0.000000000,-14.970000267,6.005604267
1747309969.690835,30.232000000,0.000000000,64338.074218750,0.000000000,0.000000000,-15.311633110,-84.841514587,0.000000000,-14.970000267,6.005604267
1747309969.693222,30.235000000,0.000000000,64338.074218750,0.000000000,0.000000000,-15.311633110,-84.841621399,0.000000000,-14.970000267,6.005604267
1747309969.695578,30.237000000,0.000000000,64338.074218750,0.000000000,0.000000000,-15.311633110,-84.841728210,0.000000000,-14.970000267,6.005604267
1747309969.697941,30.239000000,0.000000000,64338.074218750,0.000000000,0.000000000,-15.311633110,-84.841835022,0.000000000,-14.970000267,6.005604267
1747309969.700306,30.242000000,0.000000000,64338.074218750,0.000000000,0.000000000,-15.311633110,-84.841934204,0.000000000,-14.970000267,6.005604267
1747309969.702680,30.244000000,0.000000000,64338.074218750,0.000000000,0.000000000,-15.311633110,-84.842041016,0.000000000,-14.970000267,6.005604267
1747309969.705119,30.246000000,0.000000000,64338.074218750,0.000000000,0.000000000,-15.311633110,-84.842140198,0.000000000,-14.970000267,6.005604267
1747309969.707525,30.249000000,0.000000000,64338.074218750,0.000000000,0.000000000,-15.311633110,-84.842247009,0.000000000,-14.970000267,6.005604267
1747309969.709897,30.251000000,0.000000000,64338.074218750,0.000000000,0.000000000,-15.311633110,-84.842353821,0.000000000,-14.970000267,6.005604267
1747309969.712295,30.254000000,0.000000000,64338.074218750,0.000000000,0.000000000,-15.311633110,-84.842460632,0.000000000,-14.970000267,6.005604267
1747309969.714674,30.256000000,0.000000000,64338.074218750,0.000000000,0.000000000,-15.311633110,-84.842559814,0.000000000,-14.970000267,6.005604267
1747309969.717077,30.258000000,0.000000000,64338.074218750,0.000000000,0.000000000,-15.311633110,-84.842666626,0.000000000,-14.970000267,6.005604267
1747309969.719458,30.261000000,0.000000000,64338.074218750,0.000000000,0.000000000,-15.311633110,-84.842765808,0.000000000,-14.970000267,6.005604267
1747309969.721867,30.263000000,0.000000000,64338.074218750,0.000000000,0.000000000,-15.311633110,-84.842872620,0.000000000,-14.970000267,6.005604267
1747309969.724267,30.266000000,0.000000000,64338.074218750,0.000000000,0.000000000,-15.311633110,-84.842979431,0.000000000,-14.970000267,6.005604267
1747309969.726633,30.268000000,0.000000000,64338.074218750,0.000000000,0.000000000,-15.311633110,-84.843086243,0.000000000,-14.970000267,6.005604267
1747309969.729010,30.270000000,0.000000000,64338.074218750,0.000000000,0.000000000,-15.311633110,-84.843185425,0.000000000,-14.970000267,6.005604267
1747309969.731391,30.273000000,0.000000000,64338.074218750,0.000000000,0.000000000,-15.311633110,-84.843292236,0.000000000,-14.970000267,6.005604267
1747309969.733766,30.275000000,0.000000000,64338.074218750,0.000000000,0.000000000,-15.311633110,-84.843391418,0.000000000,-14.970000267,6.005604267
1747309969.736143,30.277000000,0.000000000,64338.074218750,0.000000000,0.000000000,-15.311633110,-84.843498230,0.000000000,-14.970000267,6.005604267
1747309969.738531,30.280000000,0.000000000,64338.074218750,0.000000000,0.000000000,-15.311633110,-84.843597412,0.000000000,-14.970000267,6.005604267
1747309969.740914,30.282000000,0.000000000,64338.074218750,0.000000000,0.000000000,-15.311633110,-84.843704224,0.000000000,-14.970000267,6.005604267
1747309969.743295,30.285000000,0.000000000,64338.074218750,0.000000000,0.000000000,-15.311633110,-84.843811035,0.000000000,-14.970000267,6.005604267
1747309969.745691,30.287000000,0.000000000,64338.074218750,0.000000000,0.000000000,-15.311633110,-84.843910217,0.000000000,-14.970000267,6.005604267
1747309969.748076,30.289000000,0.000000000,64338.074218750,0.000000000,0.000000000,-15.311633110,-84.844017029,0.000000000,-14.970000267,6.005604267
1747309969.750464,30.292000000,0.000000000,64338.074218750,0.000000000,0.000000000,-15.311633110,-84.844123840,0.000000000,-14.970000267,6.005604267
1747309969.752844,30.294000000,0.000000000,64338.074218750,0.000000000,0.000000000,-15.311633110,-84.844223022,0.000000000,-14.970000267,6.005604267
1747309969.755243,30.297000000,0.000000000,64338.074218750,0.000000000,0.000000000,-15.311633110,-84.844329834,0.000000000,-14.970000267,6.005604267
1747309969.757639,30.299000000,0.000000000,64338.074218750,0.000000000,0.000000000,-15.311633110,-84.844436646,0.000000000,-14.970000267,6.005604267
1747309969.760042,30.301000000,0.000000000,64338.074218750,0.000000000,0.000000000,-15.311633110,-84.844543457,0.000000000,-14.970000267,6.005604267
1747309969.762419,30.304000000,0.000000000,64338.074218750,0.000000000,0.000000000,-15.311633110,-84.844642639,0.000000000,-14.970000267,6.005604267
1747309969.764805,30.306000000,0.000000000,64338.074218750,0.000000000,0.000000000,-15.311633110,-84.844749451,0.000000000,-14.970000267,6.005604267
1747309969.767210,30.308000000,0.000000000,64338.074218750,0.000000000,0.000000000,-15.311633110,-84.844856262,0.000000000,-14.970000267,6.005604267
1747309969.769551,30.311000000,0.000000000,64338.074218750,0.000000000,0.000000000,-15.311633110,-84.844963074,0.000000000,-14.970000267,6.005604267
1747309969.771952,30.313000000,0.000000000,64338.074218750,0.000000000,0.000000000,-15.311633110,-84.845062256,0.000000000,-14.970000267,6.005604267
1747309969.774317,30.316000000,0.000000000,64338.074218750,0.000000000,0.000000000,-15.311633110,-84.845169067,0.000000000,-14.970000267,6.005604267
1747309969.776691,30.318000000,0.000000000,64338.074218750,0.000000000,0.000000000,-15.311633110,-84.845268250,0.000000000,-14.970000267,6.005604267
1747309969.779066,30.320000000,0.000000000,64338.074218750,0.000000000,0.000000000,-15.311633110,-84.845375061,0.000000000,-14.970000267,6.005604267
1747309969.781423,30.323000000,0.000000000,64338.074218750,0.000000000,0.000000000,-15.311633110,-84.845474243,0.000000000,-14.970000267,6.005604267
1747309969.783798,30.325000000,0.000000000,64338.074218750,0.000000000,0.000000000,-15.311633110,-84.845581055,0.000000000,-14.970000267,6.005604267
1747309969.786229,30.327000000,0.000000000,64338.074218750,0.000000000,0.000000000,-15.311633110,-84.845687866,0.000000000,-14.970000267,6.005604267
1747309969.788672,30.330000000,0.000000000,64338.074218750,0.000000000,0.000000000,-15.311633110,-84.845794678,0.000000000,-14.970000267,6.005604267
1747309969.791092,30.332000000,0.000000000,64338.074218750,0.000000000,0.000000000,-15.311633110,-84.845901489,0.000000000,-14.970000267,6.005604267
1747309969.793460,30.335000000,0.000000000,64338.074218750,0.000000000,0.000000000,-15.311633110,-84.846008301,0.000000000,-14.970000267,6.005604267
1747309969.795836,30.337000000,0.000000000,64338.074218750,0.000000000,0.000000000,-15.311633110,-84.846115112,0.000000000,-14.970000267,6.005604267
1747309969.798184,30.339000000,0.000000000,64338.074218750,0.000000000,0.000000000,-15.311633110,-84.846214294,0.000000000,-14.970000267,6.005604267
1747309969.800557,30.342000000,0.000000000,64338.074218750,0.000000000,0.000000000,-15.311633110,-84.846321106,0.000000000,-14.970000267,6.005604267
1747309969.802932,30.344000000,0.000000000,64338.074218750,0.000000000,0.000000000,-15.311633110,-84.846420288,0.000000000,-14.970000267,6.005604267
1747309969.805350,30.347000000,0.000000000,64338.074218750,0.000000000,0.000000000,-15.298132896,-83.667686462,0.000000000,-14.970000267,6.005604267
1747309969.807772,30.349000000,0.000000000,64338.074218750,0.000000000,0.000000000,-15.311633110,-83.060478210,0.000000000,-14.970000267,6.005604267
1747309969.810107,30.351000000,0.000000000,64338.074218750,0.000000000,0.000000000,-15.311633110,-84.846733093,0.000000000,-14.970000267,6.005604267
1747309969.812496,30.354000000,0.000000000,64338.074218750,0.000000000,0.000000000,-15.298132896,-83.674835205,0.000000000,-14.970000267,6.005604267
1747309969.814896,30.356000000,0.000000000,64338.074218750,0.000000000,0.000000000,-15.311633110,-83.060043335,0.000000000,-14.970000267,6.005604267
1747309969.817287,30.359000000,0.000000000,64338.074218750,0.000000000,0.000000000,-15.311633110,-84.847038269,0.000000000,-14.970000267,6.005604267
1747309969.819687,30.361000000,0.000000000,64338.074218750,0.000000000,0.000000000,-15.311633110,-84.847145081,0.000000000,-14.970000267,6.005604267
1747309969.822061,30.363000000,0.000000000,64338.074218750,0.000000000,0.000000000,-15.298132896,-83.665390015,0.000000000,-14.970000267,6.005604267
1747309969.824418,30.366000000,0.000000000,64338.074218750,0.000000000,0.000000000,-15.311633110,-83.043151855,0.000000000,-14.970000267,6.005604267
1747309969.826798,30.368000000,0.000000000,64338.074218750,0.000000000,0.000000000,-15.311633110,-84.847457886,0.000000000,-14.970000267,6.005604267
1747309969.829210,30.370000000,0.000000000,64338.074218750,0.000000000,0.000000000,-15.311633110,-84.847557068,0.000000000,-14.970000267,6.005604267
1747309969.831582,30.373000000,0.000000000,64338.074218750,0.000000000,0.000000000,-15.311633110,-84.847663879,0.000000000,-14.970000267,6.005604267
1747309969.833966,30.375000000,0.000000000,64338.074218750,0.000000000,0.000000000,-15.298132896,-83.669685364,0.000000000,-14.970000267,6.005604267
1747309969.836340,30.378000000,0.000000000,64338.074218750,0.000000000,0.000000000,-15.311633110,-83.042915344,0.000000000,-14.970000267,6.005604267
1747309969.838739,30.380000000,0.000000000,64338.074218750,0.000000000,0.000000000,-15.311633110,-84.847969055,0.000000000,-14.970000267,6.005604267
1747309969.841148,30.382000000,0.000000000,64338.074218750,0.000000000,0.000000000,-15.311633110,-84.848075867,0.000000000,-14.970000267,6.005604267
1747309969.843512,30.385000000,0.000000000,64338.074218750,0.000000000,0.000000000,-15.298132896,-83.646934509,0.000000000,-14.970000267,6.005604267
1747309969.845891,30.387000000,0.000000000,64338.074218750,0.000000000,0.000000000,-15.311633110,-83.046363831,0.000000000,-14.970000267,6.005604267
1747309969.848280,30.390000000,0.000000000,64338.074218750,0.000000000,0.000000000,-15.311633110,-84.848388672,0.000000000,-14.970000267,6.005604267
1747309969.850660,30.392000000,0.000000000,64338.074218750,0.000000000,0.000000000,-15.298132896,-83.668144226,0.000000000,-14.970000267,6.005604267
1747309969.853065,30.394000000,0.000000000,64338.074218750,0.000000000,0.000000000,-15.311633110,-83.053459167,0.000000000,-14.970000267,6.005604267
1747309969.855530,30.397000000,0.000000000,64338.074218750,0.000000000,0.000000000,-15.311633110,-84.848693848,0.000000000,-14.970000267,6.005604267
1747309969.857916,30.399000000,0.000000000,64338.074218750,0.000000000,0.000000000,-15.311633110,-84.848808289,0.000000000,-14.970000267,6.005604267
1747309969.860363,30.402000000,0.000000000,64338.074218750,0.000000000,0.000000000,-15.298132896,-83.643981934,0.000000000,-14.970000267,6.005604267
1747309969.862776,30.404000000,0.000000000,64338.074218750,0.000000000,0.000000000,-15.311633110,-83.092163086,0.000000000,-14.970000267,6.005604267
1747309969.865181,30.406000000,0.000000000,64338.074218750,0.000000000,0.000000000,-15.311633110,-84.849121094,0.000000000,-14.970000267,6.005604267
1747309969.867610,30.409000000,0.000000000,64338.074218750,0.000000000,0.000000000,-15.298132896,-83.647979736,0.000000000,-14.970000267,6.005604267
1747309969.870011,30.411000000,0.000000000,64338.074218750,0.000000000,0.000000000,-15.311633110,-83.083068848,0.000000000,-14.970000267,6.005604267
1747309969.872424,30.414000000,0.000000000,64338.074218750,0.000000000,0.000000000,-15.311633110,-84.849441528,0.000000000,-14.970000267,6.005604267
1747309969.874776,30.416000000,0.000000000,64338.074218750,0.000000000,0.000000000,-15.311633110,-84.849548340,0.000000000,-14.970000267,6.005604267
1747309969.877169,30.418000000,0.000000000,64338.074218750,0.000000000,0.000000000,-15.298132896,-83.676124573,0.000000000,-14.970000267,6.005604267
1747309969.879553,30.421000000,0.000000000,64338.074218750,0.000000000,0.000000000,-15.311633110,-83.064353943,0.000000000,-14.970000267,6.005604267
1747309969.881950,30.423000000,0.000000000,64338.074218750,0.000000000,0.000000000,-15.311633110,-84.849861145,0.000000000,-14.970000267,6.005604267
1747309969.884329,30.426000000,0.000000000,64338.074218750,0.000000000,0.000000000,-15.311633110,-84.849967957,0.000000000,-14.970000267,6.005604267
1747309969.886704,30.428000000,0.000000000,64338.074218750,0.000000000,0.000000000,-15.311633110,-84.850067139,0.000000000,-14.970000267,6.005604267
1747309969.889115,30.430000000,0.000000000,64338.074218750,0.000000000,0.000000000,-15.311633110,-84.850173950,0.000000000,-14.970000267,6.005604267
1747309969.891511,30.433000000,0.000000000,64338.074218750,0.000000000,0.000000000,-15.311633110,-84.850280762,0.000000000,-14.970000267,6.005604267
1747309969.893878,30.435000000,0.000000000,64338.074218750,0.000000000,0.000000000,-15.311633110,-84.850387573,0.000000000,-14.970000267,6.005604267
1747309969.896253,30.438000000,0.000000000,64338.074218750,0.000000000,0.000000000,-15.311633110,-84.850486755,0.000000000,-14.970000267,6.005604267
1747309969.898624,30.440000000,0.000000000,64338.074218750,0.000000000,0.000000000,-15.311633110,-84.850593567,0.000000000,-14.970000267,6.005604267
1747309969.901004,30.442000000,0.000000000,64338.074218750,0.000000000,0.000000000,-15.311633110,-84.850692749,0.000000000,-14.970000267,6.005604267
1747309969.903454,30.445000000,0.000000000,64338.074218750,0.000000000,0.000000000,-15.311633110,-84.850799561,0.000000000,-14.970000267,6.005604267
1747309969.905951,30.447000000,0.000000000,64338.074218750,0.000000000,0.000000000,-15.311633110,-84.850906372,0.000000000,-14.970000267,6.005604267
1747309969.908407,30.450000000,0.000000000,64338.074218750,0.000000000,0.000000000,-15.311633110,-84.851013184,0.000000000,-14.970000267,6.005604267
1747309969.910835,30.452000000,0.000000000,64338.074218750,0.000000000,0.000000000,-15.311633110,-84.851119995,0.000000000,-14.970000267,6.005604267
1747309969.913341,30.455000000,0.000000000,64338.074218750,0.000000000,0.000000000,-15.311633110,-84.851226807,0.000000000,-14.970000267,6.005604267
1747309969.915751,30.457000000,0.000000000,64338.074218750,0.000000000,0.000000000,-15.311633110,-84.851341248,0.000000000,-14.970000267,6.005604267
1747309969.918169,30.459000000,0.000000000,64338.074218750,0.000000000,0.000000000,-15.311633110,-84.851448059,0.000000000,-14.970000267,6.005604267
1747309969.920605,30.462000000,0.000000000,64338.074218750,0.000000000,0.000000000,-15.311633110,-84.851554871,0.000000000,-14.970000267,6.005604267
1747309969.923017,30.464000000,0.000000000,64338.074218750,0.000000000,0.000000000,-15.311633110,-84.851654053,0.000000000,-14.970000267,6.005604267
1747309969.925441,30.467000000,0.000000000,64338.074218750,0.000000000,0.000000000,-15.311633110,-84.851768494,0.000000000,-14.970000267,6.005604267
1747309969.927831,30.469000000,0.000000000,64338.074218750,0.000000000,0.000000000,-15.311633110,-84.851875305,0.000000000,-14.970000267,6.005604267
1747309969.930207,30.471000000,0.000000000,64338.074218750,0.000000000,0.000000000,-15.311633110,-84.851974487,0.000000000,-14.970000267,6.005604267
1747309969.932583,30.474000000,0.000000000,64338.074218750,0.000000000,0.000000000,-15.311633110,-84.852081299,0.000000000,-14.970000267,6.005604267
1747309969.934949,30.476000000,0.000000000,64338.074218750,0.000000000,0.000000000,-15.311633110,-84.852180481,0.000000000,-14.970000267,6.005604267
1747309969.937443,30.479000000,0.000000000,64338.074218750,0.000000000,0.000000000,-15.311633110,-84.852287292,0.000000000,-14.970000267,6.005604267
1747309969.939845,30.481000000,0.000000000,64338.074218750,0.000000000,0.000000000,-15.311633110,-84.852394104,0.000000000,-14.970000267,6.005604267
1747309969.942231,30.484000000,0.000000000,64338.074218750,0.000000000,0.000000000,-15.311633110,-84.852500916,0.000000000,-14.970000267,6.005604267
1747309969.944599,30.486000000,0.000000000,64338.074218750,0.000000000,0.000000000,-15.311633110,-84.852600098,0.000000000,-14.970000267,6.005604267
1747309969.946968,30.488000000,0.000000000,64338.074218750,0.000000000,0.000000000,-15.311633110,-84.852706909,0.000000000,-14.970000267,6.005604267
1747309969.949342,30.491000000,0.000000000,64338.074218750,0.000000000,0.000000000,-15.311633110,-84.852806091,0.000000000,-14.970000267,6.005604267
1747309969.951712,30.493000000,0.000000000,64338.074218750,0.000000000,0.000000000,-15.311633110,-84.852912903,0.000000000,-14.970000267,6.005604267
1747309969.954113,30.495000000,0.000000000,64338.074218750,0.000000000,0.000000000,-15.311633110,-84.853019714,0.000000000,-14.970000267,6.005604267
1747309969.956541,30.498000000,0.000000000,64338.074218750,0.000000000,0.000000000,-15.311633110,-84.853118896,0.000000000,-14.970000267,6.005604267
1747309969.958971,30.500000000,0.000000000,64338.074218750,0.000000000,0.000000000,-15.311633110,-84.853225708,0.000000000,-14.970000267,6.005604267
1747309969.961376,30.503000000,0.000000000,64338.074218750,0.000000000,0.000000000,-15.311633110,-84.853332520,0.000000000,-14.970000267,6.005604267
1747309969.963769,30.505000000,0.000000000,64338.074218750,0.000000000,0.000000000,-15.311633110,-84.853446960,0.000000000,-14.970000267,6.005604267
1747309969.966142,30.507000000,0.000000000,64338.074218750,0.000000000,0.000000000,-15.311633110,-84.853546143,0.000000000,-14.970000267,6.005604267
1747309969.968520,30.510000000,0.000000000,64338.074218750,0.000000000,0.000000000,-15.311633110,-84.853652954,0.000000000,-14.970000267,6.005604267
1747309969.970901,30.512000000,0.000000000,64338.074218750,0.000000000,0.000000000,-15.311633110,-84.853752136,0.000000000,-14.970000267,6.005604267
1747309969.973300,30.515000000,0.000000000,64338.074218750,0.000000000,0.000000000,-15.298132896,-83.680328369,0.000000000,-14.970000267,6.005604267
1747309969.975728,30.517000000,0.000000000,64338.074218750,0.000000000,0.000000000,-15.311633110,-83.078910828,0.000000000,-14.970000267,6.005604267
1747309969.978111,30.519000000,0.000000000,64338.074218750,0.000000000,0.000000000,-15.311633110,-84.854072571,0.000000000,-14.970000267,6.005604267
1747309969.980489,30.522000000,0.000000000,64338.074218750,0.000000000,0.000000000,-15.298132896,-83.673072815,0.000000000,-14.970000267,6.005604267
1747309969.982861,30.524000000,0.000000000,64338.074218750,0.000000000,0.000000000,-15.311633110,-83.056129456,0.000000000,-14.970000267,6.005604267
1747309969.985236,30.527000000,0.000000000,64338.074218750,0.000000000,0.000000000,-15.311633110,-84.854377747,0.000000000,-14.970000267,6.005604267
1747309969.987706,30.529000000,0.000000000,64338.074218750,0.000000000,0.000000000,-15.311633110,-84.854476929,0.000000000,-14.970000267,6.005604267
1747309969.990109,30.531000000,0.000000000,64338.074218750,0.000000000,0.000000000,-15.298132896,-83.608741760,0.000000000,-14.970000267,6.005604267
1747309969.992486,30.534000000,0.000000000,64338.074218750,0.000000000,0.000000000,-15.311633110,-83.063308716,0.000000000,-14.970000267,6.005604267
1747309969.994857,30.536000000,0.000000000,64338.074218750,0.000000000,0.000000000,-15.311633110,-84.854789734,0.000000000,-14.970000267,6.005604267
1747309969.997221,30.539000000,0.000000000,64338.074218750,0.000000000,0.000000000,-15.298132896,-83.683654785,0.000000000,-14.970000267,6.005604267
1747309969.999589,30.541000000,0.000000000,64338.074218750,0.000000000,0.000000000,-15.311633110,-83.053077698,0.000000000,-14.970000267,6.005604267
1747309970.001943,30.543000000,0.000000000,64338.074218750,0.000000000,0.000000000,-15.311633110,-84.855094910,0.000000000,-14.970000267,6.005604267
1747309970.004320,30.546000000,0.000000000,64338.074218750,0.000000000,0.000000000,-15.311633110,-84.855201721,0.000000000,-14.970000267,6.005604267
1747309970.006849,30.548000000,0.000000000,64338.074218750,0.000000000,0.000000000,-15.298132896,-83.693267822,0.000000000,-14.970000267,6.005604267
1747309970.009282,30.551000000,0.000000000,64338.074218750,0.000000000,0.000000000,-15.311633110,-83.160408020,0.000000000,-14.970000267,6.005604267
1747309970.011671,30.553000000,0.000000000,64338.074218750,0.000000000,0.000000000,-15.311633110,-84.855522156,0.000000000,-14.970000267,6.005604267
1747309970.014080,30.555000000,0.000000000,64338.074218750,0.000000000,0.000000000,-15.298132896,-83.664764404,0.000000000,-14.970000267,6.005604267
1747309970.016498,30.558000000,0.000000000,64338.074218750,0.000000000,0.000000000,-15.311633110,-83.082145691,0.000000000,-14.970000267,6.005604267
1747309970.018885,30.560000000,0.000000000,64338.074218750,0.000000000,0.000000000,-15.311633110,-84.855834961,0.000000000,-14.970000267,6.005604267
1747309970.021248,30.563000000,0.000000000,64338.074218750,0.000000000,0.000000000,-15.298132896,-83.680892944,0.000000000,-14.970000267,6.005604267
1747309970.023631,30.565000000,0.000000000,64338.074218750,0.000000000,0.000000000,-15.311633110,-83.049552917,0.000000000,-14.970000267,6.005604267
1747309970.026019,30.567000000,0.000000000,64338.074218750,0.000000000,0.000000000,-15.311633110,-84.856140137,0.000000000,-14.970000267,6.005604267
1747309970.028353,30.570000000,0.000000000,64338.074218750,0.000000000,0.000000000,-15.311633110,-84.856246948,0.000000000,-14.970000267,6.005604267
1747309970.030695,30.572000000,0.000000000,64338.074218750,0.000000000,0.000000000,-15.298132896,-83.702049255,0.000000000,-14.970000267,6.005604267
1747309970.033060,30.574000000,0.000000000,64338.074218750,0.000000000,0.000000000,-15.311633110,-83.024482727,0.000000000,-14.970000267,6.005604267
1747309970.035431,30.577000000,0.000000000,64338.074218750,0.000000000,0.000000000,-15.311633110,-84.856552124,0.000000000,-14.970000267,6.005604267
1747309970.037953,30.579000000,0.000000000,64338.074218750,0.000000000,0.000000000,-15.298132896,-83.683891296,0.000000000,-14.970000267,6.005604267
1747309970.040424,30.582000000,0.000000000,64338.074218750,0.000000000,0.000000000,-15.311633110,-83.141403198,0.000000000,-14.970000267,6.005604267
1747309970.042880,30.584000000,0.000000000,64338.074218750,0.000000000,0.000000000,-15.311633110,-84.856872559,0.000000000,-14.970000267,6.005604267
1747309970.045360,30.587000000,0.000000000,64338.074218750,0.000000000,0.000000000,-15.298132896,-83.625984192,0.000000000,-14.970000267,6.005604267
1747309970.047839,30.589000000,0.000000000,64338.074218750,0.000000000,0.000000000,-15.311633110,-83.130661011,0.000000000,-14.970000267,6.005604267
1747309970.050348,30.592000000,0.000000000,64338.074218750,0.000000000,0.000000000,-15.311633110,-84.857192993,0.000000000,-14.970000267,6.005604267
1747309970.052850,30.594000000,0.000000000,64338.074218750,0.000000000,0.000000000,-15.298132896,-83.594787598,0.000000000,-14.970000267,6.005604267
1747309970.055344,30.597000000,0.000000000,64338.074218750,0.000000000,0.000000000,-15.311633110,-83.119071960,0.000000000,-14.970000267,6.005604267
1747309970.057785,30.599000000,0.000000000,64338.074218750,0.000000000,0.000000000,-15.311633110,-84.857513428,0.000000000,-14.970000267,6.005604267
1747309970.060257,30.601000000,0.000000000,64338.074218750,0.000000000,0.000000000,-15.298132896,-83.636672974,0.000000000,-14.970000267,6.005604267
1747309970.062692,30.604000000,0.000000000,64338.074218750,0.000000000,0.000000000,-15.311633110,-83.119400024,0.000000000,-14.970000267,6.005604267
1747309970.065136,30.606000000,0.000000000,64338.074218750,0.000000000,0.000000000,-15.311633110,-84.857833862,0.000000000,-14.970000267,6.005604267
1747309970.067579,30.609000000,0.000000000,64338.074218750,0.000000000,0.000000000,-15.311633110,-84.857940674,0.000000000,-14.970000267,6.005604267
1747309970.069994,30.611000000,0.000000000,64338.074218750,0.000000000,0.000000000,-15.311633110,-84.858047485,0.000000000,-14.970000267,6.005604267
1747309970.072433,30.614000000,0.000000000,64338.074218750,0.000000000,0.000000000,-15.311633110,-84.858154297,0.000000000,-14.970000267,6.005604267
1747309970.074764,30.616000000,0.000000000,64338.074218750,0.000000000,0.000000000,-15.311633110,-84.858261108,0.000000000,-14.970000267,6.005604267
1747309970.077180,30.618000000,0.000000000,64338.074218750,0.000000000,0.000000000,-15.311633110,-84.858367920,0.000000000,-14.970000267,6.005604267
1747309970.079498,30.621000000,0.000000000,64338.074218750,0.000000000,0.000000000,-15.311633110,-84.858467102,0.000000000,-14.970000267,6.005604267
1747309970.081946,30.623000000,0.000000000,64338.074218750,0.000000000,0.000000000,-15.311633110,-84.858573914,0.000000000,-14.970000267,6.005604267
1747309970.084307,30.626000000,0.000000000,64338.074218750,0.000000000,0.000000000,-15.298132896,-83.674560547,0.000000000,-14.970000267,6.005604267
1747309970.086682,30.628000000,0.000000000,64338.074218750,0.000000000,0.000000000,-15.311633110,-83.055343628,0.000000000,-14.970000267,6.005604267
1747309970.089062,30.630000000,0.000000000,64338.074218750,0.000000000,0.000000000,-15.311633110,-84.858879089,0.000000000,-14.970000267,6.005604267
1747309970.091477,30.633000000,0.000000000,64338.074218750,0.000000000,0.000000000,-15.298132896,-83.654060364,0.000000000,-14.970000267,6.005604267
1747309970.093858,30.635000000,0.000000000,64338.074218750,0.000000000,0.000000000,-15.311633110,-83.082572937,0.000000000,-14.970000267,6.005604267
1747309970.096237,30.638000000,0.000000000,64338.074218750,0.000000000,0.000000000,-15.311633110,-84.859199524,0.000000000,-14.970000267,6.005604267
1747309970.098641,30.640000000,0.000000000,64338.074218750,0.000000000,0.000000000,-15.298132896,-83.673683167,0.000000000,-14.970000267,6.005604267
1747309970.101016,30.642000000,0.000000000,64338.074218750,0.000000000,0.000000000,-15.311633110,-83.074005127,0.000000000,-14.970000267,6.005604267
1747309970.103495,30.645000000,0.000000000,64338.074218750,0.000000000,0.000000000,-15.311633110,-84.859504700,0.000000000,-14.970000267,6.005604267
1747309970.105996,30.647000000,0.000000000,64338.074218750,0.000000000,0.000000000,-15.298132896,-83.597793579,0.000000000,-14.970000267,6.005604267
1747309970.108458,30.650000000,0.000000000,64338.074218750,0.000000000,0.000000000,-15.311633110,-83.130516052,0.000000000,-14.970000267,6.005604267
1747309970.110933,30.652000000,0.000000000,64338.074218750,0.000000000,0.000000000,-15.311633110,-84.859825134,0.000000000,-14.970000267,6.005604267
1747309970.113427,30.655000000,0.000000000,64338.074218750,0.000000000,0.000000000,-15.298132896,-83.593994141,0.000000000,-14.970000267,6.005604267
1747309970.115908,30.657000000,0.000000000,64338.074218750,0.000000000,0.000000000,-15.311633110,-83.138473511,0.000000000,-14.970000267,6.005604267
1747309970.118381,30.660000000,0.000000000,64338.074218750,0.000000000,0.000000000,-15.298132896,-83.622047424,0.000000000,-14.970000267,6.005604267
1747309970.120828,30.662000000,0.000000000,64338.074218750,0.000000000,0.000000000,-15.311633110,-83.121223450,0.000000000,-14.970000267,6.005604267
1747309970.123226,30.665000000,0.000000000,64338.074218750,0.000000000,0.000000000,-15.311633110,-84.860359192,0.000000000,-14.970000267,6.005604267
1747309970.125583,30.667000000,0.000000000,64338.074218750,0.000000000,0.000000000,-15.298132896,-83.657737732,0.000000000,-14.970000267,6.005604267
1747309970.127944,30.669000000,0.000000000,64338.074218750,0.000000000,0.000000000,-15.311633110,-83.041046143,0.000000000,-14.970000267,6.005604267
1747309970.130316,30.672000000,0.000000000,64338.074218750,0.000000000,0.000000000,-15.298132896,-83.695549011,0.000000000,-14.970000267,6.005604267
1747309970.132687,30.674000000,0.000000000,64338.074218750,0.000000000,0.000000000,-15.311633110,-83.047401428,0.000000000,-14.970000267,6.005604267
1747309970.135058,30.676000000,0.000000000,64338.074218750,0.000000000,0.000000000,-15.311633110,-84.860870361,0.000000000,-14.970000267,6.005604267
1747309970.137484,30.679000000,0.000000000,64338.074218750,0.000000000,0.000000000,-15.298132896,-83.682891846,0.000000000,-14.970000267,6.005604267
1747309970.139907,30.681000000,0.000000000,64338.074218750,0.000000000,0.000000000,-15.311633110,-83.086761475,0.000000000,-14.970000267,6.005604267
1747309970.142268,30.684000000,0.000000000,64338.074218750,0.000000000,0.000000000,-15.298132896,-83.659934998,0.000000000,-14.970000267,6.005604267
1747309970.144635,30.686000000,0.000000000,64338.074218750,0.000000000,0.000000000,-15.311633110,-83.064651489,0.000000000,-14.970000267,6.005604267
1747309970.147003,30.688000000,0.000000000,64338.074218750,0.000000000,0.000000000,-15.298132896,-83.693969727,0.000000000,-14.970000267,6.005604267
1747309970.149403,30.691000000,0.000000000,64338.074218750,0.000000000,0.000000000,-15.311633110,-83.052719116,0.000000000,-14.970000267,6.005604267
1747309970.151772,30.693000000,0.000000000,64338.074218750,0.000000000,0.000000000,-15.311633110,-84.861587524,0.000000000,-14.970000267,6.005604267
1747309970.154173,30.695000000,0.000000000,64338.074218750,0.000000000,0.000000000,-15.298132896,-83.685127258,0.000000000,-14.970000267,6.005604267
1747309970.156662,30.698000000,0.000000000,64338.074218750,0.000000000,0.000000000,-15.311633110,-83.089691162,0.000000000,-14.970000267,6.005604267
1747309970.159088,30.700000000,0.000000000,64338.074218750,0.000000000,0.000000000,-15.298132896,-83.613960266,0.000000000,-14.970000267,6.005604267
1747309970.161519,30.703000000,0.000000000,64338.074218750,0.000000000,0.000000000,-15.311633110,-83.102989197,0.000000000,-14.970000267,6.005604267
1747309970.163955,30.705000000,0.000000000,64338.074218750,0.000000000,0.000000000,-15.311633110,-84.862113953,0.000000000,-14.970000267,6.005604267
1747309970.166415,30.708000000,0.000000000,64338.074218750,0.000000000,0.000000000,-15.298132896,-83.637680054,0.000000000,-14.970000267,6.005604267
1747309970.168892,30.710000000,0.000000000,64338.074218750,0.000000000,0.000000000,-15.311633110,-83.116920471,0.000000000,-14.970000267,6.005604267
1747309970.171335,30.713000000,0.000000000,64338.074218750,0.000000000,0.000000000,-15.298132896,-83.640045166,0.000000000,-14.970000267,6.005604267
1747309970.173765,30.715000000,0.000000000,64338.074218750,0.000000000,0.000000000,-15.311633110,-83.108566284,0.000000000,-14.970000267,6.005604267
1747309970.176206,30.717000000,0.000000000,64338.074218750,0.000000000,0.000000000,-15.311633110,-84.862648010,0.000000000,-14.970000267,6.005604267
1747309970.178633,30.720000000,0.000000000,64338.074218750,0.000000000,0.000000000,-15.298132896,-83.622543335,0.000000000,-14.970000267,6.005604267
1747309970.181069,30.722000000,0.000000000,64338.074218750,0.000000000,0.000000000,-15.311633110,-83.107444763,0.000000000,-14.970000267,6.005604267
1747309970.183502,30.725000000,0.000000000,64338.074218750,0.000000000,0.000000000,-15.298132896,-83.644180298,0.000000000,-14.970000267,6.005604267
1747309970.185946,30.727000000,0.000000000,64338.074218750,0.000000000,0.000000000,-15.311633110,-83.114097595,0.000000000,-14.970000267,6.005604267
1747309970.188384,30.730000000,0.000000000,64338.074218750,0.000000000,0.000000000,-15.311633110,-84.863182068,0.000000000,-14.970000267,6.005604267
1747309970.190835,30.732000000,0.000000000,64338.074218750,0.000000000,0.000000000,-15.298132896,-83.655418396,0.000000000,-14.970000267,6.005604267
1747309970.193266,30.735000000,0.000000000,64338.074218750,0.000000000,0.000000000,-15.311633110,-83.115135193,0.000000000,-14.970000267,6.005604267
1747309970.195731,30.737000000,0.000000000,64338.074218750,0.000000000,0.000000000,-15.311633110,-84.863494873,0.000000000,-14.970000267,6.005604267
1747309970.198185,30.739000000,0.000000000,64338.074218750,0.000000000,0.000000000,-15.298132896,-83.621276855,0.000000000,-14.970000267,6.005604267
1747309970.200650,30.742000000,0.000000000,64338.074218750,0.000000000,0.000000000,-15.311633110,-83.116882324,0.000000000,-14.970000267,6.005604267
1747309970.203093,30.744000000,0.000000000,64338.074218750,0.000000000,0.000000000,-15.298132896,-83.615875244,0.000000000,-14.970000267,6.005604267
1747309970.205564,30.747000000,0.000000000,64338.074218750,0.000000000,0.000000000,-15.311633110,-83.096199036,0.000000000,-14.970000267,6.005604267
1747309970.208042,30.749000000,0.000000000,64338.074218750,0.000000000,0.000000000,-15.311633110,-84.864028931,0.000000000,-14.970000267,6.005604267
1747309970.210491,30.752000000,0.000000000,64338.074218750,0.000000000,0.000000000,-15.298132896,-83.614097595,0.000000000,-14.970000267,6.005604267
1747309970.212844,30.754000000,0.000000000,64338.074218750,0.000000000,0.000000000,-15.311633110,-83.072113037,0.000000000,-14.970000267,6.005604267
1747309970.215223,30.756000000,0.000000000,64338.074218750,0.000000000,0.000000000,-15.298132896,-83.698455811,0.000000000,-14.970000267,6.005604267
1747309970.217601,30.759000000,0.000000000,64338.074218750,0.000000000,0.000000000,-15.311633110,-83.061004639,0.000000000,-14.970000267,6.005604267
1747309970.219975,30.761000000,0.000000000,64338.074218750,0.000000000,0.000000000,-15.298132896,-83.686462402,0.000000000,-14.970000267,6.005604267
1747309970.222424,30.764000000,0.000000000,64338.074218750,0.000000000,0.000000000,-15.311633110,-83.062721252,0.000000000,-14.970000267,6.005604267
1747309970.224804,30.766000000,0.000000000,64338.074218750,0.000000000,0.000000000,-15.311633110,-84.864746094,0.000000000,-14.970000267,6.005604267
1747309970.227175,30.768000000,0.000000000,64338.074218750,0.000000000,0.000000000,-15.298132896,-83.668777466,0.000000000,-14.970000267,6.005604267
1747309970.229544,30.771000000,0.000000000,64338.074218750,0.000000000,0.000000000,-15.311633110,-83.061515808,0.000000000,-14.970000267,6.005604267
1747309970.231929,30.773000000,0.000000000,64338.074218750,0.000000000,0.000000000,-15.298132896,-83.694580078,0.000000000,-14.970000267,6.005604267
1747309970.234297,30.776000000,0.000000000,64338.074218750,0.000000000,0.000000000,-15.311633110,-83.060958862,0.000000000,-14.970000267,6.005604267
1747309970.236677,30.778000000,0.000000000,64338.074218750,0.000000000,0.000000000,-15.298132896,-83.690216064,0.000000000,-14.970000267,6.005604267
1747309970.239082,30.780000000,0.000000000,64338.074218750,0.000000000,0.000000000,-15.311633110,-83.058113098,0.000000000,-14.970000267,6.005604267
1747309970.241570,30.783000000,0.000000000,64338.074218750,0.000000000,0.000000000,-15.311633110,-84.865463257,0.000000000,-14.970000267,6.005604267
1747309970.243988,30.785000000,0.000000000,64338.074218750,0.000000000,0.000000000,-15.298132896,-83.618324280,0.000000000,-14.970000267,6.005604267
1747309970.246443,30.788000000,0.000000000,64338.074218750,0.000000000,0.000000000,-15.311633110,-83.111694336,0.000000000,-14.970000267,6.005604267
1747309970.248865,30.790000000,0.000000000,64338.074218750,0.000000000,0.000000000,-15.298132896,-83.626976013,0.000000000,-14.970000267,6.005604267
1747309970.251303,30.793000000,0.000000000,64338.074218750,0.000000000,0.000000000,-15.311633110,-83.122612000,0.000000000,-14.970000267,6.005604267
1747309970.253788,30.795000000,0.000000000,64338.074218750,0.000000000,0.000000000,-15.298132896,-83.635719299,0.000000000,-14.970000267,6.005604267
1747309970.256219,30.797000000,0.000000000,64338.074218750,0.000000000,0.000000000,-15.311633110,-83.128479004,0.000000000,-14.970000267,6.005604267
1747309970.258603,30.800000000,0.000000000,64338.074218750,0.000000000,0.000000000,-15.311633110,-84.866203308,0.000000000,-14.970000267,6.005604267
1747309970.261048,30.802000000,0.000000000,64338.074218750,0.000000000,0.000000000,-15.298132896,-83.676940918,0.000000000,-14.970000267,6.005604267
1747309970.263482,30.805000000,0.000000000,64338.074218750,0.000000000,0.000000000,-15.311633110,-83.134407043,0.000000000,-14.970000267,6.005604267
1747309970.265949,30.807000000,0.000000000,64338.074218750,0.000000000,0.000000000,-15.298132896,-83.647735596,0.000000000,-14.970000267,6.005604267
1747309970.268436,30.810000000,0.000000000,64338.074218750,0.000000000,0.000000000,-15.311633110,-83.130409241,0.000000000,-14.970000267,6.005604267
1747309970.270941,30.812000000,0.000000000,64338.074218750,0.000000000,0.000000000,-15.311633110,-84.866729736,0.000000000,-14.970000267,6.005604267
1747309970.273376,30.815000000,0.000000000,64338.074218750,0.000000000,0.000000000,-15.298132896,-83.634422302,0.000000000,-14.970000267,6.005604267
1747309970.275805,30.817000000,0.000000000,64338.074218750,0.000000000,0.000000000,-15.311633110,-83.108650208,0.000000000,-14.970000267,6.005604267
1747309970.278292,30.820000000,0.000000000,64338.074218750,0.000000000,0.000000000,-15.298132896,-83.621200562,0.000000000,-14.970000267,6.005604267
1747309970.280726,30.822000000,0.000000000,64338.074218750,0.000000000,0.000000000,-15.311633110,-83.122459412,0.000000000,-14.970000267,6.005604267
1747309970.283199,30.824000000,0.000000000,64338.074218750,0.000000000,0.000000000,-15.311633110,-84.867263794,0.000000000,-14.970000267,6.005604267
