liamjosephnolan/thesis_matlab/roll_step_response/roll_step_response_roll_15_pitch_-15.csv
__time,/psm_joint_telemetry/header/stamp,/psm_joint_telemetry/insertion/effort,/psm_joint_telemetry/insertion/position,/psm_joint_telemetry/insertion/velocity,/psm_joint_telemetry/pitch/effort,/psm_joint_telemetry/pitch/position,/psm_joint_telemetry/pitch/velocity,/psm_joint_telemetry/roll/effort,/psm_joint_telemetry/roll/position,/psm_joint_telemetry/roll/velocity
1747313550.236886,20.061000000,0.000000000,58670.988281250,0.000000000,0.000000000,-15.500638008,-93.714317322,0.000000000,14.874000549,-25.223653793
1747313550.239233,20.064000000,0.000000000,58670.988281250,0.000000000,0.000000000,-15.500638008,-93.714485168,0.000000000,14.874000549,-25.223653793
1747313550.241619,20.066000000,0.000000000,58670.988281250,0.000000000,0.000000000,-15.500638008,-93.714653015,0.000000000,14.874000549,-25.223653793
1747313550.244110,20.068000000,0.000000000,58670.988281250,0.000000000,0.000000000,-15.500638008,-93.714820862,0.000000000,14.874000549,-25.223653793
1747313550.246398,20.071000000,0.000000000,58670.988281250,0.000000000,0.000000000,-15.500638008,-93.714996338,0.000000000,14.874000549,-25.223653793
1747313550.248770,20.073000000,0.000000000,58670.988281250,0.000000000,0.000000000,-15.500638008,-93.715164185,0.000000000,14.874000549,-25.223653793
1747313550.251206,20.075000000,0.000000000,58670.988281250,0.000000000,0.000000000,-15.500638008,-93.715332031,0.000000000,14.874000549,-25.223653793
1747313550.253663,20.078000000,0.000000000,58670.988281250,0.000000000,0.000000000,-15.500638008,-93.715499878,0.000000000,14.874000549,-25.223653793
1747313550.256034,20.080000000,0.000000000,58670.988281250,0.000000000,0.000000000,-15.500638008,-93.715667725,0.000000000,14.874000549,-25.223653793
1747313550.258434,20.083000000,0.000000000,58670.988281250,0.000000000,0.000000000,-15.500638008,-93.715843201,0.000000000,14.874000549,-25.223653793
1747313550.260809,20.085000000,0.000000000,58670.988281250,0.000000000,0.000000000,-15.500638008,-93.716011047,0.000000000,14.874000549,-25.223653793
1747313550.263144,20.087000000,0.000000000,58670.988281250,0.000000000,0.000000000,-15.500638008,-93.716178894,0.000000000,14.874000549,-25.223653793
1747313550.265492,20.090000000,0.000000000,58670.988281250,0.000000000,0.000000000,-15.500638008,-93.716346741,0.000000000,14.874000549,-25.223653793
1747313550.267871,20.092000000,0.000000000,58670.988281250,0.000000000,0.000000000,-15.500638008,-93.716514587,0.000000000,14.874000549,-25.223653793
1747313550.270227,20.095000000,0.000000000,58670.988281250,0.000000000,0.000000000,-15.500638008,-93.716682434,0.000000000,14.874000549,-25.223653793
1747313550.272571,20.097000000,0.000000000,58670.988281250,0.000000000,0.000000000,-15.500638008,-93.716850281,0.000000000,14.874000549,-25.223653793
1747313550.274921,20.099000000,0.000000000,58670.988281250,0.000000000,0.000000000,-15.500638008,-93.717010498,0.000000000,14.874000549,-25.223653793
1747313550.277327,20.102000000,0.000000000,58670.988281250,0.000000000,0.000000000,-15.500638008,-93.717178345,0.000000000,14.874000549,-25.223653793
1747313550.279663,20.104000000,0.000000000,58670.988281250,0.000000000,0.000000000,-15.500638008,-93.717346191,0.000000000,14.874000549,-25.223653793
1747313550.282018,20.106000000,0.000000000,58670.988281250,0.000000000,0.000000000,-15.500638008,-93.717514038,0.000000000,14.874000549,-25.223653793
1747313550.284413,20.109000000,0.000000000,58670.988281250,0.000000000,0.000000000,-15.500638008,-93.717681885,0.000000000,14.874000549,-25.223653793
1747313550.286798,20.111000000,0.000000000,58670.988281250,0.000000000,0.000000000,-15.500638008,-93.717849731,0.000000000,14.874000549,-25.223653793
1747313550.289147,20.113000000,0.000000000,58670.988281250,0.000000000,0.000000000,-15.500638008,-93.718017578,0.000000000,14.874000549,-25.223653793
1747313550.291470,20.116000000,0.000000000,58670.988281250,0.000000000,0.000000000,-15.500638008,-93.718185425,0.000000000,14.874000549,-25.223653793
1747313550.293817,20.118000000,0.000000000,58670.988281250,0.000000000,0.000000000,-15.500638008,-93.718353271,0.000000000,14.874000549,-25.223653793
1747313550.296153,20.120000000,0.000000000,58670.988281250,0.000000000,0.000000000,-15.500638008,-93.718521118,0.000000000,14.874000549,-25.223653793
1747313550.298527,20.123000000,0.000000000,58670.988281250,0.000000000,0.000000000,-15.500638008,-93.718681335,0.000000000,14.874000549,-25.223653793
1747313550.300942,20.125000000,0.000000000,58670.988281250,0.000000000,0.000000000,-15.500638008,-93.718856812,0.000000000,14.874000549,-25.223653793
1747313550.303288,20.128000000,0.000000000,58670.988281250,0.000000000,0.000000000,-15.500638008,-93.719024658,0.000000000,14.874000549,-25.223653793
1747313550.305672,20.130000000,0.000000000,58670.988281250,0.000000000,0.000000000,-15.500638008,-93.719192505,0.000000000,14.874000549,-25.223653793
1747313550.308044,20.132000000,0.000000000,58670.988281250,0.000000000,0.000000000,-15.500638008,-93.719360352,0.000000000,14.874000549,-25.223653793
1747313550.310436,20.135000000,0.000000000,58670.988281250,0.000000000,0.000000000,-15.500638008,-93.719528198,0.000000000,14.874000549,-25.223653793
1747313550.312811,20.137000000,0.000000000,58670.988281250,0.000000000,0.000000000,-15.500638008,-93.719696045,0.000000000,14.874000549,-25.223653793
1747313550.315214,20.139000000,0.000000000,58670.988281250,0.000000000,0.000000000,-15.500638008,-93.719863892,0.000000000,14.874000549,-25.223653793
1747313550.317608,20.142000000,0.000000000,58670.988281250,0.000000000,0.000000000,-15.500638008,-93.720031738,0.000000000,14.874000549,-25.223653793
1747313550.319973,20.144000000,0.000000000,58670.988281250,0.000000000,0.000000000,-15.500638008,-93.720199585,0.000000000,14.874000549,-25.223653793
1747313550.322305,20.147000000,0.000000000,58670.988281250,0.000000000,0.000000000,-15.500638008,-93.720367432,0.000000000,14.874000549,-25.223653793
1747313550.324642,20.149000000,0.000000000,58670.988281250,0.000000000,0.000000000,-15.500638008,-93.720535278,0.000000000,14.874000549,-25.223653793
1747313550.327002,20.151000000,0.000000000,58670.988281250,0.000000000,0.000000000,-15.500638008,-93.720703125,0.000000000,14.874000549,-25.223653793
1747313550.329351,20.154000000,0.000000000,58670.988281250,0.000000000,0.000000000,-15.500638008,-93.720863342,0.000000000,14.874000549,-25.223653793
1747313550.331754,20.156000000,0.000000000,58670.988281250,0.000000000,0.000000000,-15.500638008,-93.721031189,0.000000000,14.874000549,-25.223653793
1747313550.334212,20.158000000,0.000000000,58670.988281250,0.000000000,0.000000000,-15.500638008,-93.721199036,0.000000000,14.874000549,-25.223653793
1747313550.336592,20.161000000,0.000000000,58670.988281250,0.000000000,0.000000000,-15.500638008,-93.721374512,0.000000000,14.874000549,-25.223653793
1747313550.338949,20.163000000,0.000000000,58670.988281250,0.000000000,0.000000000,-15.500638008,-93.721542358,0.000000000,14.874000549,-25.223653793
1747313550.341297,20.166000000,0.000000000,58670.988281250,0.000000000,0.000000000,-15.500638008,-93.721710205,0.000000000,14.874000549,-25.223653793
1747313550.343665,20.168000000,0.000000000,58670.988281250,0.000000000,0.000000000,-15.500638008,-93.721878052,0.000000000,14.874000549,-25.223653793
1747313550.346035,20.170000000,0.000000000,58670.988281250,0.000000000,0.000000000,-15.500638008,-93.722045898,0.000000000,14.874000549,-25.223653793
1747313550.348370,20.173000000,0.000000000,58670.988281250,0.000000000,0.000000000,-15.500638008,-93.722213745,0.000000000,14.874000549,-25.223653793
1747313550.350713,20.175000000,0.000000000,58670.988281250,0.000000000,0.000000000,-15.500638008,-93.722373962,0.000000000,14.874000549,-25.223653793
1747313550.353030,20.177000000,0.000000000,58670.988281250,0.000000000,0.000000000,-15.500638008,-93.722541809,0.000000000,14.874000549,-25.223653793
1747313550.355358,20.180000000,0.000000000,58670.988281250,0.000000000,0.000000000,-15.500638008,-93.722709656,0.000000000,14.874000549,-25.223653793
1747313550.357738,20.182000000,0.000000000,58670.988281250,0.000000000,0.000000000,-15.500638008,-93.722869873,0.000000000,14.874000549,-25.223653793
1747313550.360054,20.184000000,0.000000000,58670.988281250,0.000000000,0.000000000,-15.500638008,-93.723037720,0.000000000,14.874000549,-25.223653793
1747313550.362391,20.187000000,0.000000000,58670.988281250,0.000000000,0.000000000,-15.500638008,-93.723205566,0.000000000,14.874000549,-25.223653793
1747313550.364735,20.189000000,0.000000000,58670.988281250,0.000000000,0.000000000,-15.500638008,-93.723373413,0.000000000,14.874000549,-25.223653793
1747313550.367111,20.191000000,0.000000000,58670.988281250,0.000000000,0.000000000,-15.500638008,-93.723533630,0.000000000,14.874000549,-25.223653793
1747313550.369461,20.194000000,0.000000000,58670.988281250,0.000000000,0.000000000,-15.500638008,-93.723701477,0.000000000,14.874000549,-25.223653793
1747313550.371793,20.196000000,0.000000000,58670.988281250,0.000000000,0.000000000,-15.500638008,-93.723869324,0.000000000,14.874000549,-25.223653793
1747313550.374140,20.198000000,0.000000000,58670.988281250,0.000000000,0.000000000,-15.500638008,-93.724037170,0.000000000,14.874000549,-25.223653793
1747313550.376475,20.201000000,0.000000000,58670.988281250,0.000000000,0.000000000,-15.500638008,-93.724205017,0.000000000,14.874000549,-25.223653793
1747313550.378824,20.203000000,0.000000000,58670.988281250,0.000000000,0.000000000,-15.500638008,-93.724365234,0.000000000,14.874000549,-25.223653793
1747313550.381191,20.205000000,0.000000000,58670.988281250,0.000000000,0.000000000,-15.500638008,-93.724533081,0.000000000,14.874000549,-25.223653793
1747313550.383527,20.208000000,0.000000000,58670.988281250,0.000000000,0.000000000,-15.500638008,-93.724700928,0.000000000,14.874000549,-25.223653793
1747313550.385880,20.210000000,0.000000000,58670.988281250,0.000000000,0.000000000,-15.500638008,-93.724868774,0.000000000,14.874000549,-25.223653793
1747313550.388217,20.213000000,0.000000000,58670.988281250,0.000000000,0.000000000,-15.500638008,-93.725028992,0.000000000,14.874000549,-25.223653793
1747313550.390556,20.215000000,0.000000000,58670.988281250,0.000000000,0.000000000,-15.500638008,-93.725196838,0.000000000,14.874000549,-25.223653793
1747313550.392902,20.217000000,0.000000000,58670.988281250,0.000000000,0.000000000,-15.500638008,-93.725364685,0.000000000,14.874000549,-25.223653793
1747313550.395238,20.220000000,0.000000000,58670.988281250,0.000000000,0.000000000,-15.500638008,-93.725532532,0.000000000,14.874000549,-25.223653793
1747313550.397591,20.222000000,0.000000000,58670.988281250,0.000000000,0.000000000,-15.500638008,-93.725692749,0.000000000,14.874000549,-25.223653793
1747313550.399940,20.224000000,0.000000000,58670.988281250,0.000000000,0.000000000,-15.500638008,-93.725860596,0.000000000,14.874000549,-25.223653793
1747313550.402289,20.227000000,0.000000000,58670.988281250,0.000000000,0.000000000,-15.500638008,-93.726028442,0.000000000,14.874000549,-25.223653793
1747313550.404614,20.229000000,0.000000000,58670.988281250,0.000000000,0.000000000,-15.500638008,-93.726196289,0.000000000,14.874000549,-25.223653793
1747313550.406970,20.231000000,0.000000000,58670.988281250,0.000000000,0.000000000,-15.500638008,-93.726356506,0.000000000,14.874000549,-25.223653793
1747313550.409311,20.234000000,0.000000000,58670.988281250,0.000000000,0.000000000,-15.500638008,-93.726524353,0.000000000,14.874000549,-25.223653793
1747313550.411660,20.236000000,0.000000000,58670.988281250,0.000000000,0.000000000,-15.500638008,-93.726692200,0.000000000,14.874000549,-25.223653793
1747313550.414024,20.238000000,0.000000000,58670.988281250,0.000000000,0.000000000,-15.500638008,-93.726860046,0.000000000,14.874000549,-25.223653793
1747313550.416435,20.241000000,0.000000000,58670.988281250,0.000000000,0.000000000,-15.500638008,-93.727027893,0.000000000,14.874000549,-25.223653793
1747313550.418846,20.243000000,0.000000000,58670.988281250,0.000000000,0.000000000,-15.500638008,-93.727195740,0.000000000,14.874000549,-25.223653793
1747313550.421232,20.246000000,0.000000000,58670.988281250,0.000000000,0.000000000,-15.500638008,-93.727363586,0.000000000,14.874000549,-25.223653793
1747313550.423598,20.248000000,0.000000000,58670.988281250,0.000000000,0.000000000,-15.500638008,-93.727539063,0.000000000,14.874000549,-25.223653793
1747313550.425976,20.250000000,0.000000000,58670.988281250,0.000000000,0.000000000,-15.500638008,-93.727706909,0.000000000,14.874000549,-25.223653793
1747313550.428372,20.253000000,0.000000000,58670.988281250,0.000000000,0.000000000,-15.500638008,-93.727874756,0.000000000,14.874000549,-25.223653793
1747313550.430730,20.255000000,0.000000000,58670.988281250,0.000000000,0.000000000,-15.500638008,-93.728042603,0.000000000,14.874000549,-25.223653793
1747313550.433110,20.257000000,0.000000000,58670.988281250,0.000000000,0.000000000,-15.500638008,-93.728210449,0.000000000,14.874000549,-25.223653793
1747313550.435491,20.260000000,0.000000000,58670.988281250,0.000000000,0.000000000,-15.500638008,-93.728378296,0.000000000,14.874000549,-25.223653793
1747313550.437855,20.262000000,0.000000000,58670.988281250,0.000000000,0.000000000,-15.500638008,-93.728546143,0.000000000,14.874000549,-25.223653793
1747313550.440228,20.265000000,0.000000000,58670.988281250,0.000000000,0.000000000,-15.500638008,-93.728713989,0.000000000,14.874000549,-25.223653793
1747313550.442607,20.267000000,0.000000000,58670.988281250,0.000000000,0.000000000,-15.500638008,-93.728881836,0.000000000,14.874000549,-25.223653793
1747313550.444965,20.269000000,0.000000000,58670.988281250,0.000000000,0.000000000,-15.500638008,-93.729049683,0.000000000,14.874000549,-25.223653793
1747313550.447353,20.272000000,0.000000000,58670.988281250,0.000000000,0.000000000,-15.500638008,-93.729217529,0.000000000,14.874000549,-25.223653793
1747313550.449733,20.274000000,0.000000000,58670.988281250,0.000000000,0.000000000,-15.500638008,-93.729385376,0.000000000,14.874000549,-25.223653793
1747313550.452130,20.276000000,0.000000000,58670.988281250,0.000000000,0.000000000,-15.500638008,-93.729553223,0.000000000,14.874000549,-25.223653793
1747313550.454487,20.279000000,0.000000000,58670.988281250,0.000000000,0.000000000,-15.500638008,-93.729721069,0.000000000,14.874000549,-25.223653793
1747313550.456856,20.281000000,0.000000000,58670.988281250,0.000000000,0.000000000,-15.500638008,-93.729888916,0.000000000,14.874000549,-25.223653793
1747313550.459240,20.284000000,0.000000000,58670.988281250,0.000000000,0.000000000,-15.500638008,-93.730056763,0.000000000,14.874000549,-25.223653793
1747313550.461638,20.286000000,0.000000000,58670.988281250,0.000000000,0.000000000,-15.500638008,-93.730232239,0.000000000,14.874000549,-25.223653793
1747313550.464018,20.288000000,0.000000000,58670.988281250,0.000000000,0.000000000,-15.500638008,-93.730400085,0.000000000,14.874000549,-25.223653793
1747313550.466470,20.291000000,0.000000000,58670.988281250,0.000000000,0.000000000,-15.500638008,-93.730567932,0.000000000,14.874000549,-25.223653793
1747313550.468907,20.293000000,0.000000000,58670.988281250,0.000000000,0.000000000,-15.500638008,-93.730735779,0.000000000,14.874000549,-25.223653793
1747313550.471233,20.296000000,0.000000000,58670.988281250,0.000000000,0.000000000,-15.500638008,-93.730911255,0.000000000,14.874000549,-25.223653793
1747313550.473567,20.298000000,0.000000000,58670.988281250,0.000000000,0.000000000,-15.500638008,-93.731079102,0.000000000,14.874000549,-25.223653793
1747313550.475905,20.300000000,0.000000000,58670.988281250,0.000000000,0.000000000,-15.500638008,-93.731239319,0.000000000,14.874000549,-25.223653793
1747313550.478269,20.303000000,0.000000000,58670.988281250,0.000000000,0.000000000,-15.500638008,-93.731407166,0.000000000,14.874000549,-25.223653793
1747313550.480618,20.305000000,0.000000000,58670.988281250,0.000000000,0.000000000,-15.500638008,-93.731575012,0.000000000,14.874000549,-25.223653793
1747313550.482979,20.307000000,0.000000000,58670.988281250,0.000000000,0.000000000,-15.500638008,-93.731742859,0.000000000,14.874000549,-25.223653793
1747313550.485372,20.310000000,0.000000000,58670.988281250,0.000000000,0.000000000,-15.500638008,-93.731910706,0.000000000,14.874000549,-25.223653793
1747313550.487725,20.312000000,0.000000000,58670.988281250,0.000000000,0.000000000,-15.500638008,-93.732078552,0.000000000,14.874000549,-25.223653793
1747313550.490088,20.314000000,0.000000000,58670.988281250,0.000000000,0.000000000,-15.500638008,-93.732246399,0.000000000,14.874000549,-25.223653793
1747313550.492480,20.317000000,0.000000000,58670.988281250,0.000000000,0.000000000,-15.500638008,-93.732414246,0.000000000,14.874000549,-25.223653793
1747313550.494867,20.319000000,0.000000000,58670.988281250,0.000000000,0.000000000,-15.500638008,-93.732582092,0.000000000,14.874000549,-25.223653793
1747313550.497251,20.322000000,0.000000000,58670.988281250,0.000000000,0.000000000,-15.500638008,-93.732749939,0.000000000,14.874000549,-25.223653793
1747313550.499641,20.324000000,0.000000000,58670.988281250,0.000000000,0.000000000,-15.500638008,-93.732917786,0.000000000,14.874000549,-25.223653793
1747313550.501998,20.326000000,0.000000000,58670.988281250,0.000000000,0.000000000,-15.500638008,-93.733085632,0.000000000,14.874000549,-25.223653793
1747313550.504366,20.329000000,0.000000000,58670.988281250,0.000000000,0.000000000,-15.500638008,-93.733253479,0.000000000,14.874000549,-25.223653793
1747313550.506710,20.331000000,0.000000000,58670.988281250,0.000000000,0.000000000,-15.500638008,-93.733421326,0.000000000,14.874000549,-25.223653793
1747313550.509066,20.333000000,0.000000000,58670.988281250,0.000000000,0.000000000,-15.500638008,-93.733589172,0.000000000,14.874000549,-25.223653793
1747313550.511425,20.336000000,0.000000000,58670.988281250,0.000000000,0.000000000,-15.500638008,-93.733757019,0.000000000,14.874000549,-25.223653793
1747313550.513779,20.338000000,0.000000000,58670.988281250,0.000000000,0.000000000,-15.500638008,-93.733917236,0.000000000,14.874000549,-25.223653793
1747313550.516137,20.340000000,0.000000000,58670.988281250,0.000000000,0.000000000,-15.500638008,-93.734085083,0.000000000,14.874000549,-25.223653793
1747313550.518507,20.343000000,0.000000000,58670.988281250,0.000000000,0.000000000,-15.500638008,-93.734252930,0.000000000,14.874000549,-25.223653793
1747313550.520841,20.345000000,0.000000000,58670.988281250,0.000000000,0.000000000,-15.500638008,-93.734420776,0.000000000,14.874000549,-25.223653793
1747313550.523198,20.347000000,0.000000000,58670.988281250,0.000000000,0.000000000,-15.500638008,-93.734588623,0.000000000,14.874000549,-25.223653793
1747313550.525544,20.350000000,0.000000000,58670.988281250,0.000000000,0.000000000,-15.500638008,-93.734756470,0.000000000,14.874000549,-25.223653793
1747313550.527895,20.352000000,0.000000000,58670.988281250,0.000000000,0.000000000,-15.500638008,-93.734916687,0.000000000,14.874000549,-25.223653793
1747313550.530246,20.355000000,0.000000000,58670.988281250,0.000000000,0.000000000,-15.500638008,-93.735084534,0.000000000,14.874000549,-25.223653793
1747313550.532593,20.357000000,0.000000000,58670.988281250,0.000000000,0.000000000,-15.500638008,-93.735252380,0.000000000,14.874000549,-25.223653793
1747313550.534948,20.359000000,0.000000000,58670.988281250,0.000000000,0.000000000,-15.500638008,-93.735420227,0.000000000,14.874000549,-25.223653793
1747313550.537297,20.362000000,0.000000000,58670.988281250,0.000000000,0.000000000,-15.500638008,-93.735588074,0.000000000,14.874000549,-25.223653793
1747313550.539652,20.364000000,0.000000000,58670.988281250,0.000000000,0.000000000,-15.500638008,-93.735755920,0.000000000,14.874000549,-25.223653793
1747313550.541999,20.366000000,0.000000000,58670.988281250,0.000000000,0.000000000,-15.500638008,-93.735916138,0.000000000,14.874000549,-25.223653793
1747313550.544349,20.369000000,0.000000000,58670.988281250,0.000000000,0.000000000,-15.500638008,-93.736083984,0.000000000,14.874000549,-25.223653793
1747313550.546694,20.371000000,0.000000000,58670.988281250,0.000000000,0.000000000,-15.500638008,-93.736251831,0.000000000,14.874000549,-25.223653793
1747313550.549046,20.373000000,0.000000000,58670.988281250,0.000000000,0.000000000,-15.500638008,-93.736419678,0.000000000,14.874000549,-25.223653793
1747313550.551399,20.376000000,0.000000000,58670.988281250,0.000000000,0.000000000,-15.500638008,-93.736587524,0.000000000,14.874000549,-25.223653793
1747313550.553817,20.378000000,0.000000000,58670.988281250,0.000000000,0.000000000,-15.500638008,-93.736747742,0.000000000,14.874000549,-25.223653793
1747313550.556166,20.380000000,0.000000000,58670.988281250,0.000000000,0.000000000,-15.500638008,-93.736923218,0.000000000,14.874000549,-25.223653793
1747313550.558550,20.383000000,0.000000000,58670.988281250,0.000000000,0.000000000,-15.500638008,-93.737091064,0.000000000,14.874000549,-25.223653793
1747313550.561007,20.385000000,0.000000000,58670.988281250,0.000000000,0.000000000,-15.500638008,-93.737251282,0.000000000,14.874000549,-25.223653793
1747313550.563384,20.388000000,0.000000000,58670.988281250,0.000000000,0.000000000,-15.500638008,-93.737426758,0.000000000,14.874000549,-25.223653793
1747313550.565678,20.390000000,0.000000000,58670.988281250,0.000000000,0.000000000,-15.500638008,-93.737594604,0.000000000,14.874000549,-25.223653793
1747313550.568027,20.392000000,0.000000000,58670.988281250,0.000000000,0.000000000,-15.500638008,-93.737762451,0.000000000,14.874000549,-25.223653793
1747313550.570364,20.395000000,0.000000000,58670.988281250,0.000000000,0.000000000,-15.500638008,-93.737930298,0.000000000,14.874000549,-25.223653793
1747313550.572706,20.397000000,0.000000000,58670.988281250,0.000000000,0.000000000,-15.500638008,-93.738090515,0.000000000,14.874000549,-25.223653793
1747313550.575059,20.399000000,0.000000000,58670.988281250,0.000000000,0.000000000,-15.500638008,-93.738258362,0.000000000,14.874000549,-25.223653793
1747313550.577412,20.402000000,0.000000000,58670.988281250,0.000000000,0.000000000,-15.500638008,-93.738426208,0.000000000,14.874000549,-25.223653793
1747313550.579749,20.404000000,0.000000000,58670.988281250,0.000000000,0.000000000,-15.500638008,-93.738594055,0.000000000,14.874000549,-25.223653793
1747313550.582082,20.406000000,0.000000000,58670.988281250,0.000000000,0.000000000,-15.500638008,-93.738754272,0.000000000,14.874000549,-25.223653793
1747313550.584437,20.409000000,0.000000000,58670.988281250,0.000000000,0.000000000,-15.500638008,-93.738922119,0.000000000,14.874000549,-25.223653793
1747313550.586775,20.411000000,0.000000000,58670.988281250,0.000000000,0.000000000,-15.500638008,-93.739089966,0.000000000,14.874000549,-25.223653793
1747313550.589142,20.413000000,0.000000000,58670.988281250,0.000000000,0.000000000,-15.500638008,-93.739257813,0.000000000,14.874000549,-25.223653793
1747313550.591533,20.416000000,0.000000000,58670.988281250,0.000000000,0.000000000,-15.500638008,-93.739418030,0.000000000,14.874000549,-25.223653793
1747313550.593871,20.418000000,0.000000000,58670.988281250,0.000000000,0.000000000,-15.500638008,-93.739593506,0.000000000,14.874000549,-25.223653793
1747313550.596243,20.420000000,0.000000000,58670.988281250,0.000000000,0.000000000,-15.500638008,-93.739761353,0.000000000,14.874000549,-25.223653793
1747313550.598577,20.423000000,0.000000000,58670.988281250,0.000000000,0.000000000,-15.500638008,-93.739921570,0.000000000,14.874000549,-25.223653793
1747313550.600925,20.425000000,0.000000000,58670.988281250,0.000000000,0.000000000,-15.500638008,-93.740089417,0.000000000,14.874000549,-25.223653793
1747313550.603289,20.428000000,0.000000000,58670.988281250,0.000000000,0.000000000,-15.500638008,-93.740257263,0.000000000,14.874000549,-25.223653793
1747313550.605629,20.430000000,0.000000000,58670.988281250,0.000000000,0.000000000,-15.500638008,-93.740425110,0.000000000,14.874000549,-25.223653793
1747313550.608023,20.432000000,0.000000000,58670.988281250,0.000000000,0.000000000,-15.500638008,-93.740592957,0.000000000,14.874000549,-25.223653793
1747313550.610416,20.435000000,0.000000000,58670.988281250,0.000000000,0.000000000,-15.500638008,-93.740760803,0.000000000,14.874000549,-25.223653793
1747313550.612862,20.437000000,0.000000000,58670.988281250,0.000000000,0.000000000,-15.500638008,-93.740928650,0.000000000,14.874000549,-25.223653793
1747313550.615191,20.439000000,0.000000000,58670.988281250,0.000000000,0.000000000,-15.500638008,-93.741096497,0.000000000,14.874000549,-25.223653793
1747313550.617552,20.442000000,0.000000000,58670.988281250,0.000000000,0.000000000,-15.500638008,-93.741264343,0.000000000,14.874000549,-25.223653793
1747313550.619980,20.444000000,0.000000000,58670.988281250,0.000000000,0.000000000,-15.500638008,-93.741432190,0.000000000,14.874000549,-25.223653793
1747313550.622320,20.447000000,0.000000000,58670.988281250,0.000000000,0.000000000,-15.500638008,-93.741607666,0.000000000,14.874000549,-25.223653793
1747313550.624675,20.449000000,0.000000000,58670.988281250,0.000000000,0.000000000,-15.500638008,-93.741767883,0.000000000,14.874000549,-25.223653793
1747313550.627036,20.451000000,0.000000000,58670.988281250,0.000000000,0.000000000,-15.500638008,-93.741935730,0.000000000,14.874000549,-25.223653793
1747313550.629421,20.454000000,0.000000000,58670.988281250,0.000000000,0.000000000,-15.500638008,-93.742103577,0.000000000,14.874000549,-25.223653793
1747313550.631778,20.456000000,0.000000000,58670.988281250,0.000000000,0.000000000,-15.500638008,-93.742271423,0.000000000,14.874000549,-25.223653793
1747313550.634106,20.458000000,0.000000000,58670.988281250,0.000000000,0.000000000,-15.500638008,-93.742439270,0.000000000,14.874000549,-25.223653793
1747313550.636483,20.461000000,0.000000000,58670.988281250,0.000000000,0.000000000,-15.500638008,-93.742607117,0.000000000,14.874000549,-25.223653793
1747313550.638847,20.463000000,0.000000000,58670.988281250,0.000000000,0.000000000,-15.500638008,-93.742774963,0.000000000,14.874000549,-25.223653793
1747313550.641199,20.465000000,0.000000000,58670.988281250,0.000000000,0.000000000,-15.500638008,-93.742942810,0.000000000,14.874000549,-25.223653793
1747313550.643532,20.468000000,0.000000000,58670.988281250,0.000000000,0.000000000,-15.500638008,-93.743110657,0.000000000,14.874000549,-25.223653793
1747313550.645886,20.470000000,0.000000000,58670.988281250,0.000000000,0.000000000,-15.500638008,-93.743270874,0.000000000,14.874000549,-25.223653793
1747313550.648232,20.473000000,0.000000000,58670.988281250,0.000000000,0.000000000,-15.500638008,-93.743438721,0.000000000,14.874000549,-25.223653793
1747313550.650607,20.475000000,0.000000000,58670.988281250,0.000000000,0.000000000,-15.500638008,-93.743606567,0.000000000,14.874000549,-25.223653793
1747313550.653019,20.477000000,0.000000000,58670.988281250,0.000000000,0.000000000,-15.500638008,-93.743774414,0.000000000,14.874000549,-25.223653793
1747313550.655392,20.480000000,0.000000000,58670.988281250,0.000000000,0.000000000,-15.500638008,-93.743942261,0.000000000,14.874000549,-25.223653793
1747313550.657807,20.482000000,0.000000000,58670.988281250,0.000000000,0.000000000,-15.500638008,-93.744110107,0.000000000,14.874000549,-25.223653793
1747313550.660219,20.484000000,0.000000000,58670.988281250,0.000000000,0.000000000,-15.500638008,-93.744285583,0.000000000,14.874000549,-25.223653793
1747313550.662587,20.487000000,0.000000000,58670.988281250,0.000000000,0.000000000,-15.500638008,-93.744453430,0.000000000,14.874000549,-25.223653793
1747313550.664939,20.489000000,0.000000000,58670.988281250,0.000000000,0.000000000,-15.500638008,-93.744621277,0.000000000,14.874000549,-25.223653793
1747313550.667347,20.492000000,0.000000000,58670.988281250,0.000000000,0.000000000,-15.500638008,-93.744789124,0.000000000,14.874000549,-25.223653793
1747313550.669789,20.494000000,0.000000000,58670.988281250,0.000000000,0.000000000,-15.500638008,-93.744956970,0.000000000,14.874000549,-25.223653793
1747313550.672194,20.496000000,0.000000000,58670.988281250,0.000000000,0.000000000,-15.500638008,-93.745132446,0.000000000,14.874000549,-25.223653793
1747313550.674526,20.499000000,0.000000000,58670.988281250,0.000000000,0.000000000,-15.500638008,-93.745300293,0.000000000,14.874000549,-25.223653793
1747313550.676870,20.501000000,0.000000000,58670.988281250,0.000000000,0.000000000,-15.500638008,-93.745468140,0.000000000,14.874000549,-25.223653793
1747313550.679220,20.504000000,0.000000000,58670.988281250,0.000000000,0.000000000,-15.500638008,-93.745635986,0.000000000,14.874000549,-25.223653793
1747313550.681573,20.506000000,0.000000000,58670.988281250,0.000000000,0.000000000,-15.500638008,-93.745796204,0.000000000,14.874000549,-25.223653793
1747313550.683933,20.508000000,0.000000000,58670.988281250,0.000000000,0.000000000,-15.500638008,-93.745964050,0.000000000,14.874000549,-25.223653793
1747313550.686306,20.511000000,0.000000000,58670.988281250,0.000000000,0.000000000,-15.500638008,-93.746131897,0.000000000,14.874000549,-25.223653793
1747313550.688650,20.513000000,0.000000000,58670.988281250,0.000000000,0.000000000,-15.500638008,-93.746299744,0.000000000,14.874000549,-25.223653793
1747313550.691000,20.515000000,0.000000000,58670.988281250,0.000000000,0.000000000,-15.500638008,-93.746467590,0.000000000,14.874000549,-25.223653793
1747313550.693354,20.518000000,0.000000000,58670.988281250,0.000000000,0.000000000,-15.500638008,-93.746635437,0.000000000,14.874000549,-25.223653793
1747313550.695689,20.520000000,0.000000000,58670.988281250,0.000000000,0.000000000,-15.500638008,-93.746795654,0.000000000,14.874000549,-25.223653793
1747313550.698029,20.522000000,0.000000000,58670.988281250,0.000000000,0.000000000,-15.500638008,-93.746963501,0.000000000,14.874000549,-25.223653793
1747313550.700436,20.525000000,0.000000000,58670.988281250,0.000000000,0.000000000,-15.500638008,-93.747131348,0.000000000,14.874000549,-25.223653793
1747313550.702787,20.527000000,0.000000000,58670.988281250,0.000000000,0.000000000,-15.500638008,-93.747299194,0.000000000,14.874000549,-25.223653793
1747313550.705230,20.529000000,0.000000000,58670.988281250,0.000000000,0.000000000,-15.500638008,-93.747467041,0.000000000,14.874000549,-25.223653793
1747313550.707575,20.532000000,0.000000000,58670.988281250,0.000000000,0.000000000,-15.500638008,-93.747642517,0.000000000,14.874000549,-25.223653793
1747313550.709922,20.534000000,0.000000000,58670.988281250,0.000000000,0.000000000,-15.500638008,-93.747802734,0.000000000,14.874000549,-25.223653793
1747313550.712273,20.537000000,0.000000000,58670.988281250,0.000000000,0.000000000,-15.500638008,-93.747970581,0.000000000,14.874000549,-25.223653793
1747313550.714677,20.539000000,0.000000000,58670.988281250,0.000000000,0.000000000,-15.500638008,-93.748138428,0.000000000,14.874000549,-25.223653793
1747313550.717095,20.541000000,0.000000000,58670.988281250,0.000000000,0.000000000,-15.500638008,-93.748306274,0.000000000,14.874000549,-25.223653793
1747313550.719424,20.544000000,0.000000000,58670.988281250,0.000000000,0.000000000,-15.500638008,-93.748481750,0.000000000,14.874000549,-25.223653793
1747313550.721772,20.546000000,0.000000000,58670.988281250,0.000000000,0.000000000,-15.500638008,-93.748641968,0.000000000,14.874000549,-25.223653793
1747313550.724100,20.548000000,0.000000000,58670.988281250,0.000000000,0.000000000,-15.500638008,-93.748809814,0.000000000,14.874000549,-25.223653793
1747313550.726447,20.551000000,0.000000000,58670.988281250,0.000000000,0.000000000,-15.500638008,-93.748977661,0.000000000,14.874000549,-25.223653793
1747313550.728773,20.553000000,0.000000000,58670.988281250,0.000000000,0.000000000,-15.500638008,-93.749137878,0.000000000,14.874000549,-25.223653793
1747313550.731105,20.555000000,0.000000000,58670.988281250,0.000000000,0.000000000,-15.500638008,-93.749305725,0.000000000,14.874000549,-25.223653793
1747313550.733439,20.558000000,0.000000000,58670.988281250,0.000000000,0.000000000,-15.500638008,-93.749473572,0.000000000,14.874000549,-25.223653793
1747313550.735788,20.560000000,0.000000000,58670.988281250,0.000000000,0.000000000,-15.500638008,-93.749633789,0.000000000,14.874000549,-25.223653793
1747313550.738121,20.562000000,0.000000000,58670.988281250,0.000000000,0.000000000,-15.500638008,-93.749801636,0.000000000,14.874000549,-25.223653793
1747313550.740473,20.565000000,0.000000000,58670.988281250,0.000000000,0.000000000,-15.500638008,-93.749969482,0.000000000,14.874000549,-25.223653793
1747313550.742811,20.567000000,0.000000000,58670.988281250,0.000000000,0.000000000,-15.500638008,-93.750137329,0.000000000,14.874000549,-25.223653793
1747313550.745175,20.569000000,0.000000000,58670.988281250,0.000000000,0.000000000,-15.500638008,-93.750297546,0.000000000,14.874000549,-25.223653793
1747313550.747531,20.572000000,0.000000000,58670.988281250,0.000000000,0.000000000,-15.500638008,-93.750465393,0.000000000,14.874000549,-25.223653793
1747313550.749894,20.574000000,0.000000000,58670.988281250,0.000000000,0.000000000,-15.500638008,-93.750633240,0.000000000,14.874000549,-25.223653793
1747313550.752284,20.577000000,0.000000000,58670.988281250,0.000000000,0.000000000,-15.500638008,-93.750801086,0.000000000,14.874000549,-25.223653793
1747313550.754630,20.579000000,0.000000000,58670.988281250,0.000000000,0.000000000,-15.500638008,-93.750968933,0.000000000,14.874000549,-25.223653793
1747313550.756970,20.581000000,0.000000000,58670.988281250,0.000000000,0.000000000,-15.500638008,-93.751136780,0.000000000,14.874000549,-25.223653793
1747313550.759313,20.584000000,0.000000000,58670.988281250,0.000000000,0.000000000,-15.500638008,-93.751304626,0.000000000,14.874000549,-25.223653793
1747313550.761652,20.586000000,0.000000000,58670.988281250,0.000000000,0.000000000,-15.500638008,-93.751464844,0.000000000,14.874000549,-25.223653793
1747313550.763999,20.588000000,0.000000000,58670.988281250,0.000000000,0.000000000,-15.500638008,-93.751632690,0.000000000,14.874000549,-25.223653793
1747313550.766361,20.591000000,0.000000000,58670.988281250,0.000000000,0.000000000,-15.500638008,-93.751800537,0.000000000,14.874000549,-25.223653793
1747313550.768708,20.593000000,0.000000000,58670.988281250,0.000000000,0.000000000,-15.500638008,-93.751968384,0.000000000,14.874000549,-25.223653793
1747313550.771048,20.595000000,0.000000000,58670.988281250,0.000000000,0.000000000,-15.500638008,-93.752128601,0.000000000,14.874000549,-25.223653793
1747313550.773386,20.598000000,0.000000000,58670.988281250,0.000000000,0.000000000,-15.500638008,-93.752296448,0.000000000,14.874000549,-25.223653793
1747313550.775720,20.600000000,0.000000000,58670.988281250,0.000000000,0.000000000,-15.500638008,-93.752464294,0.000000000,14.874000549,-25.223653793
1747313550.778054,20.602000000,0.000000000,58670.988281250,0.000000000,0.000000000,-15.500638008,-93.752632141,0.000000000,14.874000549,-25.223653793
1747313550.780385,20.605000000,0.000000000,58670.988281250,0.000000000,0.000000000,-15.500638008,-93.752792358,0.000000000,14.874000549,-25.223653793
1747313550.782721,20.607000000,0.000000000,58670.988281250,0.000000000,0.000000000,-15.500638008,-93.752960205,0.000000000,14.874000549,-25.223653793
1747313550.785061,20.609000000,0.000000000,58670.988281250,0.000000000,0.000000000,-15.500638008,-93.753128052,0.000000000,14.874000549,-25.223653793
1747313550.787419,20.612000000,0.000000000,58670.988281250,0.000000000,0.000000000,-15.500638008,-93.753288269,0.000000000,14.874000549,-25.223653793
1747313550.789782,20.614000000,0.000000000,58670.988281250,0.000000000,0.000000000,-15.500638008,-93.753456116,0.000000000,14.874000549,-25.223653793
1747313550.792112,20.616000000,0.000000000,58670.988281250,0.000000000,0.000000000,-15.500638008,-93.753623962,0.000000000,14.874000549,-25.223653793
1747313550.794477,20.619000000,0.000000000,58670.988281250,0.000000000,0.000000000,-15.500638008,-93.753791809,0.000000000,14.874000549,-25.223653793
1747313550.796849,20.621000000,0.000000000,58670.988281250,0.000000000,0.000000000,-15.500638008,-93.753959656,0.000000000,14.874000549,-25.223653793
1747313550.799163,20.623000000,0.000000000,58670.988281250,0.000000000,0.000000000,-15.500638008,-93.754119873,0.000000000,14.874000549,-25.223653793
1747313550.801556,20.626000000,0.000000000,58670.988281250,0.000000000,0.000000000,-15.500638008,-93.754287720,0.000000000,14.874000549,-25.223653793
1747313550.803906,20.628000000,0.000000000,58670.988281250,0.000000000,0.000000000,-15.500638008,-93.754455566,0.000000000,14.874000549,-25.223653793
1747313550.806250,20.631000000,0.000000000,58670.988281250,0.000000000,0.000000000,-15.500638008,-93.754623413,0.000000000,14.874000549,-25.223653793
1747313550.808594,20.633000000,0.000000000,58670.988281250,0.000000000,0.000000000,-15.500638008,-93.754791260,0.000000000,14.874000549,-25.223653793
1747313550.810932,20.635000000,0.000000000,58670.988281250,0.000000000,0.000000000,-15.500638008,-93.754959106,0.000000000,14.874000549,-25.223653793
1747313550.813310,20.638000000,0.000000000,58670.988281250,0.000000000,0.000000000,-15.500638008,-93.755126953,0.000000000,14.874000549,-25.223653793
1747313550.815680,20.640000000,0.000000000,58670.988281250,0.000000000,0.000000000,-15.500638008,-93.755287170,0.000000000,14.874000549,-25.223653793
1747313550.818050,20.642000000,0.000000000,58670.988281250,0.000000000,0.000000000,-15.500638008,-93.755455017,0.000000000,14.874000549,-25.223653793
1747313550.820382,20.645000000,0.000000000,58670.988281250,0.000000000,0.000000000,-15.500638008,-93.755622864,0.000000000,14.874000549,-25.223653793
1747313550.822724,20.647000000,0.000000000,58670.988281250,0.000000000,0.000000000,-15.500638008,-93.755790710,0.000000000,14.874000549,-25.223653793
1747313550.825054,20.649000000,0.000000000,58670.988281250,0.000000000,0.000000000,-15.500638008,-93.755958557,0.000000000,14.874000549,-25.223653793
1747313550.827397,20.652000000,0.000000000,58670.988281250,0.000000000,0.000000000,-15.500638008,-93.756126404,0.000000000,14.874000549,-25.223653793
1747313550.829754,20.654000000,0.000000000,58670.988281250,0.000000000,0.000000000,-15.500638008,-93.756286621,0.000000000,14.874000549,-25.223653793
1747313550.832105,20.656000000,0.000000000,58670.988281250,0.000000000,0.000000000,-15.500638008,-93.756454468,0.000000000,14.874000549,-25.223653793
1747313550.834445,20.659000000,0.000000000,58670.988281250,0.000000000,0.000000000,-15.500638008,-93.756622314,0.000000000,14.874000549,-25.223653793
1747313550.836797,20.661000000,0.000000000,58670.988281250,0.000000000,0.000000000,-15.500638008,-93.756790161,0.000000000,14.874000549,-25.223653793
1747313550.839134,20.663000000,0.000000000,58670.988281250,0.000000000,0.000000000,-15.500638008,-93.756958008,0.000000000,14.874000549,-25.223653793
1747313550.841478,20.666000000,0.000000000,58670.988281250,0.000000000,0.000000000,-15.500638008,-93.757118225,0.000000000,14.874000549,-25.223653793
1747313550.843808,20.668000000,0.000000000,58670.988281250,0.000000000,0.000000000,-15.500638008,-93.757286072,0.000000000,14.874000549,-25.223653793
1747313550.846155,20.670000000,0.000000000,58670.988281250,0.000000000,0.000000000,-15.500638008,-93.757453918,0.000000000,14.874000549,-25.223653793
1747313550.848473,20.673000000,0.000000000,58670.988281250,0.000000000,0.000000000,-15.500638008,-93.757614136,0.000000000,14.874000549,-25.223653793
1747313550.850863,20.675000000,0.000000000,58670.988281250,0.000000000,0.000000000,-15.500638008,-93.757781982,0.000000000,14.874000549,-25.223653793
1747313550.853238,20.677000000,0.000000000,58670.988281250,0.000000000,0.000000000,-15.500638008,-93.757949829,0.000000000,14.874000549,-25.223653793
1747313550.855583,20.680000000,0.000000000,58670.988281250,0.000000000,0.000000000,-15.500638008,-93.758117676,0.000000000,14.874000549,-25.223653793
1747313550.857929,20.682000000,0.000000000,58670.988281250,0.000000000,0.000000000,-15.500638008,-93.758285522,0.000000000,14.874000549,-25.223653793
1747313550.860277,20.685000000,0.000000000,58670.988281250,0.000000000,0.000000000,-15.500638008,-93.758453369,0.000000000,14.874000549,-25.223653793
1747313550.862628,20.687000000,0.000000000,58670.988281250,0.000000000,0.000000000,-15.500638008,-93.758621216,0.000000000,14.874000549,-25.223653793
1747313550.864974,20.689000000,0.000000000,58670.988281250,0.000000000,0.000000000,-15.500638008,-93.758781433,0.000000000,14.874000549,-25.223653793
1747313550.867347,20.692000000,0.000000000,58670.988281250,0.000000000,0.000000000,-15.500638008,-93.758949280,0.000000000,14.874000549,-25.223653793
1747313550.869694,20.694000000,0.000000000,58670.988281250,0.000000000,0.000000000,-15.500638008,-93.759117126,0.000000000,14.874000549,-25.223653793
1747313550.872037,20.696000000,0.000000000,58670.988281250,0.000000000,0.000000000,-15.500638008,-93.759284973,0.000000000,14.874000549,-25.223653793
1747313550.874402,20.699000000,0.000000000,58670.988281250,0.000000000,0.000000000,-15.500638008,-93.759452820,0.000000000,14.874000549,-25.223653793
1747313550.876758,20.701000000,0.000000000,58670.988281250,0.000000000,0.000000000,-15.500638008,-93.759620667,0.000000000,14.874000549,-25.223653793
1747313550.879102,20.703000000,0.000000000,58670.988281250,0.000000000,0.000000000,-15.500638008,-93.759780884,0.000000000,14.874000549,-25.223653793
1747313550.881459,20.706000000,0.000000000,58670.988281250,0.000000000,0.000000000,-15.500638008,-93.759948730,0.000000000,14.874000549,-25.223653793
1747313550.883910,20.708000000,0.000000000,58670.988281250,0.000000000,0.000000000,-15.500638008,-93.760116577,0.000000000,14.874000549,-25.223653793
1747313550.886365,20.711000000,0.000000000,58670.988281250,0.000000000,0.000000000,-15.500638008,-93.760292053,0.000000000,14.874000549,-25.223653793
1747313550.888781,20.713000000,0.000000000,58670.988281250,0.000000000,0.000000000,-15.500638008,-93.760459900,0.000000000,14.874000549,-25.223653793
1747313550.891192,20.715000000,0.000000000,58670.988281250,0.000000000,0.000000000,-15.500638008,-93.760635376,0.000000000,14.874000549,-25.223653793
1747313550.893592,20.718000000,0.000000000,58670.988281250,0.000000000,0.000000000,-15.500638008,-93.760803223,0.000000000,14.874000549,-25.223653793
1747313550.896016,20.720000000,0.000000000,58670.988281250,0.000000000,0.000000000,-15.500638008,-93.760978699,0.000000000,14.874000549,-25.223653793
1747313550.898405,20.723000000,0.000000000,58670.988281250,0.000000000,0.000000000,-15.500638008,-93.761146545,0.000000000,14.874000549,-25.223653793
1747313550.900827,20.725000000,0.000000000,58670.988281250,0.000000000,0.000000000,-15.500638008,-93.761314392,0.000000000,14.874000549,-25.223653793
1747313550.903177,20.727000000,0.000000000,58670.988281250,0.000000000,0.000000000,-15.500638008,-93.761489868,0.000000000,14.874000549,-25.223653793
1747313550.905542,20.730000000,0.000000000,58670.988281250,0.000000000,0.000000000,-15.500638008,-93.761650085,0.000000000,14.874000549,-25.223653793
1747313550.907883,20.732000000,0.000000000,58670.988281250,0.000000000,0.000000000,-15.500638008,-93.761817932,0.000000000,14.874000549,-25.223653793
1747313550.910235,20.735000000,0.000000000,58670.988281250,0.000000000,0.000000000,-15.500638008,-93.761985779,0.000000000,14.874000549,-25.223653793
1747313550.912569,20.737000000,0.000000000,58670.988281250,0.000000000,0.000000000,-15.500638008,-93.762153625,0.000000000,14.874000549,-25.223653793
1747313550.914908,20.739000000,0.000000000,58670.988281250,0.000000000,0.000000000,-15.500638008,-93.762321472,0.000000000,14.874000549,-25.223653793
1747313550.917259,20.742000000,0.000000000,58670.988281250,0.000000000,0.000000000,-15.500638008,-93.762481689,0.000000000,14.874000549,-25.223653793
1747313550.919618,20.744000000,0.000000000,58670.988281250,0.000000000,0.000000000,-15.500638008,-93.762649536,0.000000000,14.874000549,-25.223653793
1747313550.921950,20.746000000,0.000000000,58670.988281250,0.000000000,0.000000000,-15.500638008,-93.762817383,0.000000000,14.874000549,-25.223653793
1747313550.924288,20.749000000,0.000000000,58670.988281250,0.000000000,0.000000000,-15.500638008,-93.762985229,0.000000000,14.874000549,-25.223653793
1747313550.926636,20.751000000,0.000000000,58670.988281250,0.000000000,0.000000000,-15.500638008,-93.763145447,0.000000000,14.874000549,-25.223653793
1747313550.928994,20.753000000,0.000000000,58670.988281250,0.000000000,0.000000000,-15.500638008,-93.763313293,0.000000000,14.874000549,-25.223653793
1747313550.931327,20.756000000,0.000000000,58670.988281250,0.000000000,0.000000000,-15.500638008,-93.763481140,0.000000000,14.874000549,-25.223653793
1747313550.933673,20.758000000,0.000000000,58670.988281250,0.000000000,0.000000000,-15.500638008,-93.763648987,0.000000000,14.874000549,-25.223653793
1747313550.936009,20.760000000,0.000000000,58670.988281250,0.000000000,0.000000000,-15.500638008,-93.763809204,0.000000000,14.874000549,-25.223653793
1747313550.938352,20.763000000,0.000000000,58670.988281250,0.000000000,0.000000000,-15.500638008,-93.763977051,0.000000000,14.874000549,-25.223653793
1747313550.940683,20.765000000,0.000000000,58670.988281250,0.000000000,0.000000000,-15.500638008,-93.764144897,0.000000000,14.874000549,-25.223653793
1747313550.943025,20.767000000,0.000000000,58670.988281250,0.000000000,0.000000000,-15.500638008,-93.764312744,0.000000000,14.874000549,-25.223653793
1747313550.945354,20.770000000,0.000000000,58670.988281250,0.000000000,0.000000000,-15.500638008,-93.764472961,0.000000000,14.874000549,-25.223653793
1747313550.947694,20.772000000,0.000000000,58670.988281250,0.000000000,0.000000000,-15.500638008,-93.764640808,0.000000000,14.874000549,-25.223653793
1747313550.950024,20.774000000,0.000000000,58670.988281250,0.000000000,0.000000000,-15.500638008,-93.764801025,0.000000000,14.874000549,-25.223653793
1747313550.952389,20.777000000,0.000000000,58670.988281250,0.000000000,0.000000000,-15.500638008,-93.764968872,0.000000000,14.874000549,-25.223653793
1747313550.954725,20.779000000,0.000000000,58670.988281250,0.000000000,0.000000000,-15.500638008,-93.765136719,0.000000000,14.874000549,-25.223653793
1747313550.957075,20.781000000,0.000000000,58670.988281250,0.000000000,0.000000000,-15.500638008,-93.765304565,0.000000000,14.874000549,-25.223653793
1747313550.959409,20.784000000,0.000000000,58670.988281250,0.000000000,0.000000000,-15.500638008,-93.765464783,0.000000000,14.874000549,-25.223653793
1747313550.961745,20.786000000,0.000000000,58670.988281250,0.000000000,0.000000000,-15.500638008,-93.765632629,0.000000000,14.874000549,-25.223653793
1747313550.964071,20.788000000,0.000000000,58670.988281250,0.000000000,0.000000000,-15.500638008,-93.765800476,0.000000000,14.874000549,-25.223653793
1747313550.966439,20.791000000,0.000000000,58670.988281250,0.000000000,0.000000000,-15.500638008,-93.765960693,0.000000000,14.874000549,-25.223653793
1747313550.968789,20.793000000,0.000000000,58670.988281250,0.000000000,0.000000000,-15.500638008,-93.766128540,0.000000000,14.874000549,-25.223653793
1747313550.971135,20.795000000,0.000000000,58670.988281250,0.000000000,0.000000000,-15.500638008,-93.766296387,0.000000000,14.874000549,-25.223653793
1747313550.973502,20.798000000,0.000000000,58670.988281250,0.000000000,0.000000000,-15.500638008,-93.766464233,0.000000000,14.874000549,-25.223653793
1747313550.975888,20.800000000,0.000000000,58670.988281250,0.000000000,0.000000000,-15.500638008,-93.766632080,0.000000000,14.874000549,-25.223653793
1747313550.978220,20.802000000,0.000000000,58670.988281250,0.000000000,0.000000000,-15.500638008,-93.766799927,0.000000000,14.874000549,-25.223653793
1747313550.980538,20.805000000,0.000000000,58670.988281250,0.000000000,0.000000000,-15.500638008,-93.766967773,0.000000000,14.874000549,-25.223653793
1747313550.982864,20.807000000,0.000000000,58670.988281250,0.000000000,0.000000000,-15.500638008,-93.767127991,0.000000000,14.874000549,-25.223653793
1747313550.985220,20.809000000,0.000000000,58670.988281250,0.000000000,0.000000000,-15.500638008,-93.767295837,0.000000000,14.874000549,-25.223653793
1747313550.987556,20.812000000,0.000000000,58670.988281250,0.000000000,0.000000000,-15.500638008,-93.767463684,0.000000000,14.874000549,-25.223653793
1747313550.989887,20.814000000,0.000000000,58670.988281250,0.000000000,0.000000000,-15.500638008,-93.767623901,0.000000000,14.874000549,-25.223653793
1747313550.992232,20.817000000,0.000000000,58670.988281250,0.000000000,0.000000000,-15.500638008,-93.767791748,0.000000000,14.874000549,-25.223653793
1747313550.994565,20.819000000,0.000000000,58670.988281250,0.000000000,0.000000000,-15.500638008,-93.767959595,0.000000000,14.874000549,-25.223653793
1747313550.996918,20.821000000,0.000000000,58670.988281250,0.000000000,0.000000000,-15.500638008,-93.768127441,0.000000000,14.874000549,-25.223653793
1747313550.999232,20.824000000,0.000000000,58670.988281250,0.000000000,0.000000000,-15.500638008,-93.768287659,0.000000000,14.874000549,-25.223653793
1747313551.001587,20.826000000,0.000000000,58670.988281250,0.000000000,0.000000000,-15.500638008,-93.768455505,0.000000000,14.874000549,-25.223653793
1747313551.003909,20.828000000,0.000000000,58670.988281250,0.000000000,0.000000000,-15.500638008,-93.768615723,0.000000000,14.874000549,-25.223653793
1747313551.006293,20.831000000,0.000000000,58670.988281250,0.000000000,0.000000000,-15.500638008,-93.768783569,0.000000000,14.874000549,-25.223653793
1747313551.008599,20.833000000,0.000000000,58670.988281250,0.000000000,0.000000000,-15.500638008,-93.768951416,0.000000000,14.874000549,-25.223653793
1747313551.010924,20.835000000,0.000000000,58670.988281250,0.000000000,0.000000000,-15.500638008,-93.769119263,0.000000000,14.874000549,-25.223653793
1747313551.013282,20.838000000,0.000000000,58670.988281250,0.000000000,0.000000000,-15.500638008,-93.769279480,0.000000000,14.874000549,-25.223653793
1747313551.015653,20.840000000,0.000000000,58670.988281250,0.000000000,0.000000000,-15.500638008,-93.769447327,0.000000000,14.874000549,-25.223653793
1747313551.017981,20.842000000,0.000000000,58670.988281250,0.000000000,0.000000000,-15.500638008,-93.769615173,0.000000000,14.874000549,-25.223653793
1747313551.020313,20.845000000,0.000000000,58670.988281250,0.000000000,0.000000000,-15.500638008,-93.769783020,0.000000000,14.874000549,-25.223653793
1747313551.022646,20.847000000,0.000000000,58670.988281250,0.000000000,0.000000000,-15.500638008,-93.769943237,0.000000000,14.874000549,-25.223653793
1747313551.024992,20.849000000,0.000000000,58670.988281250,0.000000000,0.000000000,-15.500638008,-93.770111084,0.000000000,14.874000549,-25.223653793
1747313551.027369,20.852000000,0.000000000,58670.988281250,0.000000000,0.000000000,-15.500638008,-93.770278931,0.000000000,14.874000549,-25.223653793
1747313551.029683,20.854000000,0.000000000,58670.988281250,0.000000000,0.000000000,-15.500638008,-93.770446777,0.000000000,14.874000549,-25.223653793
1747313551.032011,20.856000000,0.000000000,58670.988281250,0.000000000,0.000000000,-15.500638008,-93.770606995,0.000000000,14.874000549,-25.223653793
1747313551.034379,20.859000000,0.000000000,58670.988281250,0.000000000,0.000000000,-15.500638008,-93.770774841,0.000000000,14.874000549,-25.223653793
1747313551.036706,20.861000000,0.000000000,58670.988281250,0.000000000,0.000000000,-15.500638008,-93.770942688,0.000000000,14.874000549,-25.223653793
1747313551.039026,20.863000000,0.000000000,58670.988281250,0.000000000,0.000000000,-15.500638008,-93.771102905,0.000000000,14.874000549,-25.223653793
1747313551.041372,20.866000000,0.000000000,58670.988281250,0.000000000,0.000000000,-15.500638008,-93.771270752,0.000000000,14.874000549,-25.223653793
1747313551.043724,20.868000000,0.000000000,58670.988281250,0.000000000,0.000000000,-15.500638008,-93.771438599,0.000000000,14.874000549,-25.223653793
1747313551.046064,20.870000000,0.000000000,58670.988281250,0.000000000,0.000000000,-15.500638008,-93.771606445,0.000000000,14.874000549,-25.223653793
1747313551.048384,20.873000000,0.000000000,58670.988281250,0.000000000,0.000000000,-15.500638008,-93.771766663,0.000000000,14.874000549,-25.223653793
1747313551.050754,20.875000000,0.000000000,58670.988281250,0.000000000,0.000000000,-15.500638008,-93.771934509,0.000000000,14.874000549,-25.223653793
1747313551.053118,20.877000000,0.000000000,58670.988281250,0.000000000,0.000000000,-15.500638008,-93.772102356,0.000000000,14.874000549,-25.223653793
1747313551.055449,20.880000000,0.000000000,58670.988281250,0.000000000,0.000000000,-15.500638008,-93.772270203,0.000000000,14.874000549,-25.223653793
1747313551.057800,20.882000000,0.000000000,58670.988281250,0.000000000,0.000000000,-15.500638008,-93.772430420,0.000000000,14.874000549,-25.223653793
1747313551.060145,20.884000000,0.000000000,58670.988281250,0.000000000,0.000000000,-15.500638008,-93.772598267,0.000000000,14.874000549,-25.223653793
1747313551.062487,20.887000000,0.000000000,58670.988281250,0.000000000,0.000000000,-15.500638008,-93.772766113,0.000000000,14.874000549,-25.223653793
1747313551.064821,20.889000000,0.000000000,58670.988281250,0.000000000,0.000000000,-15.500638008,-93.772933960,0.000000000,14.874000549,-25.223653793
1747313551.067210,20.891000000,0.000000000,58670.988281250,0.000000000,0.000000000,-15.500638008,-93.773094177,0.000000000,14.874000549,-25.223653793
1747313551.069573,20.894000000,0.000000000,58670.988281250,0.000000000,0.000000000,-15.500638008,-93.773262024,0.000000000,14.874000549,-25.223653793
1747313551.071933,20.896000000,0.000000000,58670.988281250,0.000000000,0.000000000,-15.500638008,-93.773429871,0.000000000,14.874000549,-25.223653793
1747313551.074253,20.899000000,0.000000000,58670.988281250,0.000000000,0.000000000,-15.500638008,-93.773597717,0.000000000,14.874000549,-25.223653793
1747313551.076615,20.901000000,0.000000000,58670.988281250,0.000000000,0.000000000,-15.500638008,-93.773765564,0.000000000,14.874000549,-25.223653793
1747313551.078914,20.903000000,0.000000000,58670.988281250,0.000000000,0.000000000,-15.500638008,-93.773925781,0.000000000,14.874000549,-25.223653793
1747313551.081233,20.906000000,0.000000000,58670.988281250,0.000000000,0.000000000,-15.500638008,-93.774093628,0.000000000,14.874000549,-25.223653793
1747313551.083578,20.908000000,0.000000000,58670.988281250,0.000000000,0.000000000,-15.500638008,-93.774261475,0.000000000,14.874000549,-25.223653793
1747313551.085955,20.910000000,0.000000000,58670.988281250,0.000000000,0.000000000,-15.500638008,-93.774421692,0.000000000,14.874000549,-25.223653793
1747313551.088280,20.913000000,0.000000000,58670.988281250,0.000000000,0.000000000,-15.500638008,-93.774589539,0.000000000,14.874000549,-25.223653793
1747313551.090626,20.915000000,0.000000000,58670.988281250,0.000000000,0.000000000,-15.500638008,-93.774757385,0.000000000,14.874000549,-25.223653793
1747313551.092963,20.917000000,0.000000000,58670.988281250,0.000000000,0.000000000,-15.500638008,-93.774925232,0.000000000,14.874000549,-25.223653793
1747313551.095298,20.920000000,0.000000000,58670.988281250,0.000000000,0.000000000,-15.500638008,-93.775085449,0.000000000,14.874000549,-25.223653793
1747313551.097652,20.922000000,0.000000000,58670.988281250,0.000000000,0.000000000,-15.500638008,-93.775253296,0.000000000,14.874000549,-25.223653793
1747313551.100004,20.924000000,0.000000000,58670.988281250,0.000000000,0.000000000,-15.500638008,-93.775421143,0.000000000,14.874000549,-25.223653793
1747313551.102407,20.927000000,0.000000000,58670.988281250,0.000000000,0.000000000,-15.500638008,-93.775588989,0.000000000,14.874000549,-25.223653793
1747313551.104740,20.929000000,0.000000000,58670.988281250,0.000000000,0.000000000,-15.500638008,-93.775756836,0.000000000,14.874000549,-25.223653793
1747313551.107095,20.931000000,0.000000000,58670.988281250,0.000000000,0.000000000,-15.500638008,-93.775924683,0.000000000,14.874000549,-25.223653793
1747313551.109413,20.934000000,0.000000000,58670.988281250,0.000000000,0.000000000,-15.500638008,-93.776084900,0.000000000,14.874000549,-25.223653793
1747313551.111758,20.936000000,0.000000000,58670.988281250,0.000000000,0.000000000,-15.500638008,-93.776252747,0.000000000,14.874000549,-25.223653793
1747313551.114143,20.938000000,0.000000000,58670.988281250,0.000000000,0.000000000,-15.500638008,-93.776420593,0.000000000,14.874000549,-25.223653793
1747313551.116602,20.941000000,0.000000000,58670.988281250,0.000000000,0.000000000,-15.500638008,-93.776588440,0.000000000,14.874000549,-25.223653793
1747313551.119027,20.943000000,0.000000000,58670.988281250,0.000000000,0.000000000,-15.500638008,-93.776756287,0.000000000,14.874000549,-25.223653793
1747313551.121408,20.946000000,0.000000000,58670.988281250,0.000000000,0.000000000,-15.500638008,-93.776931763,0.000000000,14.874000549,-25.223653793
1747313551.123761,20.948000000,0.000000000,58670.988281250,0.000000000,0.000000000,-15.500638008,-93.777099609,0.000000000,14.874000549,-25.223653793
1747313551.126143,20.950000000,0.000000000,58670.988281250,0.000000000,0.000000000,-15.500638008,-93.777267456,0.000000000,14.874000549,-25.223653793
1747313551.128511,20.953000000,0.000000000,58670.988281250,0.000000000,0.000000000,-15.500638008,-93.777435303,0.000000000,14.874000549,-25.223653793
1747313551.130871,20.955000000,0.000000000,58670.988281250,0.000000000,0.000000000,-15.500638008,-93.777603149,0.000000000,14.874000549,-25.223653793
1747313551.133242,20.958000000,0.000000000,58670.988281250,0.000000000,0.000000000,-15.500638008,-93.777770996,0.000000000,14.874000549,-25.223653793
1747313551.135613,20.960000000,0.000000000,58670.988281250,0.000000000,0.000000000,-15.500638008,-93.777938843,0.000000000,14.874000549,-25.223653793
1747313551.137958,20.962000000,0.000000000,58670.988281250,0.000000000,0.000000000,-15.500638008,-93.778106689,0.000000000,14.874000549,-25.223653793
1747313551.140300,20.965000000,0.000000000,58670.988281250,0.000000000,0.000000000,-15.500638008,-93.778274536,0.000000000,14.874000549,-25.223653793
1747313551.142669,20.967000000,0.000000000,58670.988281250,0.000000000,0.000000000,-15.500638008,-93.778442383,0.000000000,14.874000549,-25.223653793
1747313551.145026,20.969000000,0.000000000,58670.988281250,0.000000000,0.000000000,-15.500638008,-93.778610229,0.000000000,14.874000549,-25.223653793
1747313551.147385,20.972000000,0.000000000,58670.988281250,0.000000000,0.000000000,-15.500638008,-93.778778076,0.000000000,14.874000549,-25.223653793
1747313551.149722,20.974000000,0.000000000,58670.988281250,0.000000000,0.000000000,-15.500638008,-93.778938293,0.000000000,14.874000549,-25.223653793
1747313551.152066,20.976000000,0.000000000,58670.988281250,0.000000000,0.000000000,-15.500638008,-93.779106140,0.000000000,14.874000549,-25.223653793
1747313551.154398,20.979000000,0.000000000,58670.988281250,0.000000000,0.000000000,-15.500638008,-93.779273987,0.000000000,14.874000549,-25.223653793
1747313551.156736,20.981000000,0.000000000,58670.988281250,0.000000000,0.000000000,-15.500638008,-93.779434204,0.000000000,14.874000549,-25.223653793
1747313551.159093,20.983000000,0.000000000,58670.988281250,0.000000000,0.000000000,-15.500638008,-93.779602051,0.000000000,14.874000549,-25.223653793
1747313551.161437,20.986000000,0.000000000,58670.988281250,0.000000000,0.000000000,-15.500638008,-93.779769897,0.000000000,14.874000549,-25.223653793
1747313551.163847,20.988000000,0.000000000,58670.988281250,0.000000000,0.000000000,-15.500638008,-93.779937744,0.000000000,14.874000549,-25.223653793
1747313551.166201,20.990000000,0.000000000,58670.988281250,0.000000000,0.000000000,-15.500638008,-93.780105591,0.000000000,14.874000549,-25.223653793
1747313551.168544,20.993000000,0.000000000,58670.988281250,0.000000000,0.000000000,-15.500638008,-93.780273438,0.000000000,14.874000549,-25.223653793
1747313551.170882,20.995000000,0.000000000,58670.988281250,0.000000000,0.000000000,-15.500638008,-93.780433655,0.000000000,14.874000549,-25.223653793
1747313551.173323,20.998000000,0.000000000,58670.988281250,0.000000000,0.000000000,-15.500638008,-93.780601501,0.000000000,14.874000549,-25.223653793
1747313551.175643,21.000000000,0.000000000,58670.988281250,0.000000000,0.000000000,-15.500638008,-93.780776978,0.000000000,14.874000549,-25.223653793
1747313551.178065,21.002000000,0.000000000,58670.988281250,0.000000000,0.000000000,-15.500638008,-93.780937195,0.000000000,14.874000549,-25.223653793
1747313551.180408,21.005000000,0.000000000,58670.988281250,0.000000000,0.000000000,-15.500638008,-93.781112671,0.000000000,14.874000549,-25.223653793
1747313551.182762,21.007000000,0.000000000,58670.988281250,0.000000000,0.000000000,-15.500638008,-93.781280518,0.000000000,14.874000549,-25.223653793
1747313551.185111,21.009000000,0.000000000,58670.988281250,0.000000000,0.000000000,-15.500638008,-93.781448364,0.000000000,14.874000549,-25.223653793
1747313551.187443,21.012000000,0.000000000,58670.988281250,0.000000000,0.000000000,-15.500638008,-93.781608582,0.000000000,14.874000549,-25.223653793
1747313551.189799,21.014000000,0.000000000,58670.988281250,0.000000000,0.000000000,-15.500638008,-93.781776428,0.000000000,14.874000549,-25.223653793
1747313551.192158,21.016000000,0.000000000,58670.988281250,0.000000000,0.000000000,-15.500638008,-93.781944275,0.000000000,14.874000549,-25.223653793
1747313551.194495,21.019000000,0.000000000,58670.988281250,0.000000000,0.000000000,-15.500638008,-93.782112122,0.000000000,14.874000549,-25.223653793
1747313551.196853,21.021000000,0.000000000,58670.988281250,0.000000000,0.000000000,-15.500638008,-93.782272339,0.000000000,14.874000549,-25.223653793
1747313551.199194,21.023000000,0.000000000,58670.988281250,0.000000000,0.000000000,-15.500638008,-93.782440186,0.000000000,14.874000549,-25.223653793
1747313551.201581,21.026000000,0.000000000,58670.988281250,0.000000000,0.000000000,-15.500638008,-93.782608032,0.000000000,14.874000549,-25.223653793
1747313551.203966,21.028000000,0.000000000,58670.988281250,0.000000000,0.000000000,-15.500638008,-93.782775879,0.000000000,14.874000549,-25.223653793
1747313551.206291,21.031000000,0.000000000,58670.988281250,0.000000000,0.000000000,-15.500638008,-93.782943726,0.000000000,14.874000549,-25.223653793
1747313551.208619,21.033000000,0.000000000,58670.988281250,0.000000000,0.000000000,-15.500638008,-93.783111572,0.000000000,14.874000549,-25.223653793
1747313551.210952,21.035000000,0.000000000,58670.988281250,0.000000000,0.000000000,-15.500638008,-93.783279419,0.000000000,14.874000549,-25.223653793
1747313551.213331,21.038000000,0.000000000,58670.988281250,0.000000000,0.000000000,-15.500638008,-93.783439636,0.000000000,14.874000549,-25.223653793
1747313551.215688,21.040000000,0.000000000,58670.988281250,0.000000000,0.000000000,-15.500638008,-93.783607483,0.000000000,14.874000549,-25.223653793
1747313551.218115,21.042000000,0.000000000,58670.988281250,0.000000000,0.000000000,-15.500638008,-93.783775330,0.000000000,14.874000549,-25.223653793
1747313551.220468,21.045000000,0.000000000,58670.988281250,0.000000000,0.000000000,-15.500638008,-93.783943176,0.000000000,14.874000549,-25.223653793
1747313551.222804,21.047000000,0.000000000,58670.988281250,0.000000000,0.000000000,-15.500638008,-93.784111023,0.000000000,14.874000549,-25.223653793
1747313551.225197,21.049000000,0.000000000,58670.988281250,0.000000000,0.000000000,-15.500638008,-93.784278870,0.000000000,14.874000549,-25.223653793
1747313551.227557,21.052000000,0.000000000,58670.988281250,0.000000000,0.000000000,-15.500638008,-93.784446716,0.000000000,14.874000549,-25.223653793
1747313551.229922,21.054000000,0.000000000,58670.988281250,0.000000000,0.000000000,-15.500638008,-93.784614563,0.000000000,14.874000549,-25.223653793
1747313551.232298,21.057000000,0.000000000,58670.988281250,0.000000000,0.000000000,-15.500638008,-93.784782410,0.000000000,14.874000549,-25.223653793
1747313551.234708,21.059000000,0.000000000,58670.988281250,0.000000000,0.000000000,-15.500638008,-93.784950256,0.000000000,14.874000549,-25.223653793
1747313551.237042,21.061000000,0.000000000,58670.988281250,0.000000000,0.000000000,-15.500638008,-93.785118103,0.000000000,14.874000549,-25.223653793
1747313551.239385,21.064000000,0.000000000,58670.988281250,0.000000000,0.000000000,-15.500638008,-93.785285950,0.000000000,14.874000549,-25.223653793
1747313551.241831,21.066000000,0.000000000,58670.988281250,0.000000000,0.000000000,-15.500638008,-93.785453796,0.000000000,14.874000549,-25.223653793
1747313551.244191,21.068000000,0.000000000,58670.988281250,0.000000000,0.000000000,-15.500638008,-93.785621643,0.000000000,14.874000549,-25.223653793
1747313551.246519,21.071000000,0.000000000,58670.988281250,0.000000000,0.000000000,-15.500638008,-93.785789490,0.000000000,14.874000549,-25.223653793
1747313551.248875,21.073000000,0.000000000,58670.988281250,0.000000000,0.000000000,-15.500638008,-93.785957336,0.000000000,14.874000549,-25.223653793
1747313551.251304,21.076000000,0.000000000,58670.988281250,0.000000000,0.000000000,-15.500638008,-93.786125183,0.000000000,14.874000549,-25.223653793
1747313551.253663,21.078000000,0.000000000,58670.988281250,0.000000000,0.000000000,-15.500638008,-93.786293030,0.000000000,14.874000549,-25.223653793
1747313551.256073,21.080000000,0.000000000,58670.988281250,0.000000000,0.000000000,-15.500638008,-93.786460876,0.000000000,14.874000549,-25.223653793
1747313551.258468,21.083000000,0.000000000,58670.988281250,0.000000000,0.000000000,-15.500638008,-93.786636353,0.000000000,14.874000549,-25.223653793
1747313551.260851,21.085000000,0.000000000,58670.988281250,0.000000000,0.000000000,-15.500638008,-93.786804199,0.000000000,14.874000549,-25.223653793
1747313551.263263,21.088000000,0.000000000,58670.988281250,0.000000000,0.000000000,-15.500638008,-93.786972046,0.000000000,14.874000549,-25.223653793
1747313551.265634,21.090000000,0.000000000,58670.988281250,0.000000000,0.000000000,-15.500638008,-93.787147522,0.000000000,14.874000549,-25.223653793
1747313551.268023,21.092000000,0.000000000,58670.988281250,0.000000000,0.000000000,-15.500638008,-93.787315369,0.000000000,14.874000549,-25.223653793
1747313551.270398,21.095000000,0.000000000,58670.988281250,0.000000000,0.000000000,-15.500638008,-93.787483215,0.000000000,14.874000549,-25.223653793
1747313551.272774,21.097000000,0.000000000,58670.988281250,0.000000000,0.000000000,-15.500638008,-93.787651062,0.000000000,14.874000549,-25.223653793
1747313551.275161,21.099000000,0.000000000,58670.988281250,0.000000000,0.000000000,-15.500638008,-93.787818909,0.000000000,14.874000549,-25.223653793
1747313551.277555,21.102000000,0.000000000,58670.988281250,0.000000000,0.000000000,-15.500638008,-93.787986755,0.000000000,14.874000549,-25.223653793
1747313551.279927,21.104000000,0.000000000,58670.988281250,0.000000000,0.000000000,-15.500638008,-93.788154602,0.000000000,14.874000549,-25.223653793
1747313551.282295,21.107000000,0.000000000,58670.988281250,0.000000000,0.000000000,-15.500638008,-93.788322449,0.000000000,14.874000549,-25.223653793
1747313551.284746,21.109000000,0.000000000,58670.988281250,0.000000000,0.000000000,-15.500638008,-93.788490295,0.000000000,14.874000549,-25.223653793
1747313551.287152,21.111000000,0.000000000,58670.988281250,0.000000000,0.000000000,-15.500638008,-93.788665771,0.000000000,14.874000549,-25.223653793
1747313551.289527,21.114000000,0.000000000,58670.988281250,0.000000000,0.000000000,-15.500638008,-93.788833618,0.000000000,14.874000549,-25.223653793
1747313551.292064,21.116000000,0.000000000,58670.988281250,0.000000000,0.000000000,-15.500638008,-93.789001465,0.000000000,14.874000549,-25.223653793
1747313551.294543,21.119000000,0.000000000,58670.988281250,0.000000000,0.000000000,-15.500638008,-93.789184570,0.000000000,14.874000549,-25.223653793
1747313551.296968,21.121000000,0.000000000,58670.988281250,0.000000000,0.000000000,-15.500638008,-93.789352417,0.000000000,14.874000549,-25.223653793
1747313551.299438,21.124000000,0.000000000,58670.988281250,0.000000000,0.000000000,-15.500638008,-93.789527893,0.000000000,14.874000549,-25.223653793
1747313551.301943,21.126000000,0.000000000,58670.988281250,0.000000000,0.000000000,-15.500638008,-93.789703369,0.000000000,14.874000549,-25.223653793
1747313551.304309,21.129000000,0.000000000,58670.988281250,0.000000000,0.000000000,-15.500638008,-93.789878845,0.000000000,14.874000549,-25.223653793
1747313551.306674,21.131000000,0.000000000,58670.988281250,0.000000000,0.000000000,-15.500638008,-93.790046692,0.000000000,14.874000549,-25.223653793
1747313551.309016,21.133000000,0.000000000,58670.988281250,0.000000000,0.000000000,-15.500638008,-93.790214539,0.000000000,14.874000549,-25.223653793
1747313551.311356,21.136000000,0.000000000,58670.988281250,0.000000000,0.000000000,-15.500638008,-93.790382385,0.000000000,14.874000549,-25.223653793
1747313551.313724,21.138000000,0.000000000,58670.988281250,0.000000000,0.000000000,-15.500638008,-93.790550232,0.000000000,14.874000549,-25.223653793
1747313551.316072,21.140000000,0.000000000,58670.988281250,0.000000000,0.000000000,-15.500638008,-93.790718079,0.000000000,14.874000549,-25.223653793
1747313551.318444,21.143000000,0.000000000,58670.988281250,0.000000000,0.000000000,-15.500638008,-93.790885925,0.000000000,14.874000549,-25.223653793
1747313551.320780,21.145000000,0.000000000,58670.988281250,0.000000000,0.000000000,-15.500638008,-93.791046143,0.000000000,14.874000549,-25.223653793
1747313551.323143,21.147000000,0.000000000,58670.988281250,0.000000000,0.000000000,-15.500638008,-93.791213989,0.000000000,14.874000549,-25.223653793
1747313551.325542,21.150000000,0.000000000,58670.988281250,0.000000000,0.000000000,-15.500638008,-93.791381836,0.000000000,14.874000549,-25.223653793
1747313551.327893,21.152000000,0.000000000,58670.988281250,0.000000000,0.000000000,-15.500638008,-93.791549683,0.000000000,14.874000549,-25.223653793
1747313551.330231,21.155000000,0.000000000,58670.988281250,0.000000000,0.000000000,-15.500638008,-93.791717529,0.000000000,14.874000549,-25.223653793
1747313551.332563,21.157000000,0.000000000,58670.988281250,0.000000000,0.000000000,-15.500638008,-93.791885376,0.000000000,14.874000549,-25.223653793
1747313551.334910,21.159000000,0.000000000,58670.988281250,0.000000000,0.000000000,-15.500638008,-93.792045593,0.000000000,14.874000549,-25.223653793
1747313551.337236,21.162000000,0.000000000,58670.988281250,0.000000000,0.000000000,-15.500638008,-93.792213440,0.000000000,14.874000549,-25.223653793
1747313551.339572,21.164000000,0.000000000,58670.988281250,0.000000000,0.000000000,-15.500638008,-93.792381287,0.000000000,14.874000549,-25.223653793
1747313551.341944,21.166000000,0.000000000,58670.988281250,0.000000000,0.000000000,-15.500638008,-93.792541504,0.000000000,14.874000549,-25.223653793
1747313551.344300,21.169000000,0.000000000,58670.988281250,0.000000000,0.000000000,-15.500638008,-93.792709351,0.000000000,14.874000549,-25.223653793
1747313551.346684,21.171000000,0.000000000,58670.988281250,0.000000000,0.000000000,-15.500638008,-93.792877197,0.000000000,14.874000549,-25.223653793
1747313551.349012,21.173000000,0.000000000,58670.988281250,0.000000000,0.000000000,-15.500638008,-93.793045044,0.000000000,14.874000549,-25.223653793
1747313551.351375,21.176000000,0.000000000,58670.988281250,0.000000000,0.000000000,-15.500638008,-93.793212891,0.000000000,14.874000549,-25.223653793
1747313551.353767,21.178000000,0.000000000,58670.988281250,0.000000000,0.000000000,-15.500638008,-93.793380737,0.000000000,14.874000549,-25.223653793
1747313551.356130,21.180000000,0.000000000,58670.988281250,0.000000000,0.000000000,-15.500638008,-93.793548584,0.000000000,14.874000549,-25.223653793
1747313551.358501,21.183000000,0.000000000,58670.988281250,0.000000000,0.000000000,-15.500638008,-93.793716431,0.000000000,14.874000549,-25.223653793
1747313551.360816,21.185000000,0.000000000,58670.988281250,0.000000000,0.000000000,-15.500638008,-93.793884277,0.000000000,14.874000549,-25.223653793
1747313551.363155,21.187000000,0.000000000,58670.988281250,0.000000000,0.000000000,-15.500638008,-93.794044495,0.000000000,14.874000549,-25.223653793
1747313551.365511,21.190000000,0.000000000,58670.988281250,0.000000000,0.000000000,-15.500638008,-93.794212341,0.000000000,14.874000549,-25.223653793
1747313551.367864,21.192000000,0.000000000,58670.988281250,0.000000000,0.000000000,-15.500638008,-93.794380188,0.000000000,14.874000549,-25.223653793
1747313551.370191,21.194000000,0.000000000,58670.988281250,0.000000000,0.000000000,-15.500638008,-93.794548035,0.000000000,14.874000549,-25.223653793
1747313551.372535,21.197000000,0.000000000,58670.988281250,0.000000000,0.000000000,-15.500638008,-93.794715881,0.000000000,14.874000549,-25.223653793
1747313551.374896,21.199000000,0.000000000,58670.988281250,0.000000000,0.000000000,-15.500638008,-93.794876099,0.000000000,14.874000549,-25.223653793
1747313551.377248,21.202000000,0.000000000,58670.988281250,0.000000000,0.000000000,-15.500638008,-93.795043945,0.000000000,14.874000549,-25.223653793
1747313551.379622,21.204000000,0.000000000,58670.988281250,0.000000000,0.000000000,-15.500638008,-93.795211792,0.000000000,14.874000549,-25.223653793
1747313551.381963,21.206000000,0.000000000,58670.988281250,0.000000000,0.000000000,-15.500638008,-93.795379639,0.000000000,14.874000549,-25.223653793
1747313551.384339,21.209000000,0.000000000,58670.988281250,0.000000000,0.000000000,-15.500638008,-93.795547485,0.000000000,14.874000549,-25.223653793
1747313551.386689,21.211000000,0.000000000,58670.988281250,0.000000000,0.000000000,-15.500638008,-93.795715332,0.000000000,14.874000549,-25.223653793
1747313551.389066,21.213000000,0.000000000,58670.988281250,0.000000000,0.000000000,-15.500638008,-93.795883179,0.000000000,14.874000549,-25.223653793
1747313551.391586,21.216000000,0.000000000,58670.988281250,0.000000000,0.000000000,-15.500638008,-93.796051025,0.000000000,14.874000549,-25.223653793
1747313551.393941,21.218000000,0.000000000,58670.988281250,0.000000000,0.000000000,-15.500638008,-93.796226501,0.000000000,14.874000549,-25.223653793
1747313551.396326,21.221000000,0.000000000,58670.988281250,0.000000000,0.000000000,-15.500638008,-93.796394348,0.000000000,14.874000549,-25.223653793
1747313551.398708,21.223000000,0.000000000,58670.988281250,0.000000000,0.000000000,-15.500638008,-93.796562195,0.000000000,14.874000549,-25.223653793
1747313551.401040,21.225000000,0.000000000,58670.988281250,0.000000000,0.000000000,-15.500638008,-93.796730042,0.000000000,14.874000549,-25.223653793
1747313551.403462,21.228000000,0.000000000,58670.988281250,0.000000000,0.000000000,-15.500638008,-93.796897888,0.000000000,14.874000549,-25.223653793
1747313551.405807,21.230000000,0.000000000,58670.988281250,0.000000000,0.000000000,-15.500638008,-93.797065735,0.000000000,14.874000549,-25.223653793
1747313551.408216,21.232000000,0.000000000,58670.988281250,0.000000000,0.000000000,-15.500638008,-93.797233582,0.000000000,14.874000549,-25.223653793
1747313551.410573,21.235000000,0.000000000,58670.988281250,0.000000000,0.000000000,-15.500638008,-93.797401428,0.000000000,14.874000549,-25.223653793
1747313551.412965,21.237000000,0.000000000,58670.988281250,0.000000000,0.000000000,-15.500638008,-93.797569275,0.000000000,14.874000549,-25.223653793
1747313551.415346,21.240000000,0.000000000,58670.988281250,0.000000000,0.000000000,-15.500638008,-93.797737122,0.000000000,14.874000549,-25.223653793
1747313551.417747,21.242000000,0.000000000,58670.988281250,0.000000000,0.000000000,-15.500638008,-93.797904968,0.000000000,14.874000549,-25.223653793
1747313551.420150,21.244000000,0.000000000,58670.988281250,0.000000000,0.000000000,-15.500638008,-93.798080444,0.000000000,14.874000549,-25.223653793
1747313551.422519,21.247000000,0.000000000,58670.988281250,0.000000000,0.000000000,-15.500638008,-93.798248291,0.000000000,14.874000549,-25.223653793
1747313551.424916,21.249000000,0.000000000,58670.988281250,0.000000000,0.000000000,-15.500638008,-93.798416138,0.000000000,14.874000549,-25.223653793
1747313551.427333,21.252000000,0.000000000,58670.988281250,0.000000000,0.000000000,-15.500638008,-93.798583984,0.000000000,14.874000549,-25.223653793
1747313551.429718,21.254000000,0.000000000,58670.988281250,0.000000000,0.000000000,-15.500638008,-93.798759460,0.000000000,14.874000549,-25.223653793
1747313551.432104,21.256000000,0.000000000,58670.988281250,0.000000000,0.000000000,-15.500638008,-93.798927307,0.000000000,14.874000549,-25.223653793
1747313551.434563,21.259000000,0.000000000,58670.988281250,0.000000000,0.000000000,-15.500638008,-93.799095154,0.000000000,14.874000549,-25.223653793
1747313551.436957,21.261000000,0.000000000,58670.988281250,0.000000000,0.000000000,-15.500638008,-93.799270630,0.000000000,14.874000549,-25.223653793
1747313551.439383,21.264000000,0.000000000,58670.988281250,0.000000000,0.000000000,-15.500638008,-93.799438477,0.000000000,14.874000549,-25.223653793
1747313551.441741,21.266000000,0.000000000,58670.988281250,0.000000000,0.000000000,-15.500638008,-93.799606323,0.000000000,14.874000549,-25.223653793
1747313551.444143,21.268000000,0.000000000,58670.988281250,0.000000000,0.000000000,-15.500638008,-93.799774170,0.000000000,14.874000549,-25.223653793
1747313551.446522,21.271000000,0.000000000,58670.988281250,0.000000000,0.000000000,-15.500638008,-93.799949646,0.000000000,14.874000549,-25.223653793
1747313551.448900,21.273000000,0.000000000,58670.988281250,0.000000000,0.000000000,-15.500638008,-93.800117493,0.000000000,14.874000549,-25.223653793
1747313551.451300,21.276000000,0.000000000,58670.988281250,0.000000000,0.000000000,-15.500638008,-93.800285339,0.000000000,14.874000549,-25.223653793
1747313551.453677,21.278000000,0.000000000,58670.988281250,0.000000000,0.000000000,-15.500638008,-93.800453186,0.000000000,14.874000549,-25.223653793
1747313551.456078,21.280000000,0.000000000,58670.988281250,0.000000000,0.000000000,-15.500638008,-93.800621033,0.000000000,14.874000549,-25.223653793
1747313551.458454,21.283000000,0.000000000,58670.988281250,0.000000000,0.000000000,-15.500638008,-93.800788879,0.000000000,14.874000549,-25.223653793
1747313551.460829,21.285000000,0.000000000,58670.988281250,0.000000000,0.000000000,-15.500638008,-93.800956726,0.000000000,14.874000549,-25.223653793
1747313551.463230,21.287000000,0.000000000,58670.988281250,0.000000000,0.000000000,-15.500638008,-93.801124573,0.000000000,14.874000549,-25.223653793
1747313551.465637,21.290000000,0.000000000,58670.988281250,0.000000000,0.000000000,-15.500638008,-93.801300049,0.000000000,14.874000549,-25.223653793
1747313551.468035,21.292000000,0.000000000,58670.988281250,0.000000000,0.000000000,-15.500638008,-93.801467896,0.000000000,14.874000549,-25.223653793
1747313551.470461,21.295000000,0.000000000,58670.988281250,0.000000000,0.000000000,-15.500638008,-93.801635742,0.000000000,14.874000549,-25.223653793
1747313551.472839,21.297000000,0.000000000,58670.988281250,0.000000000,0.000000000,-15.500638008,-93.801811218,0.000000000,14.874000549,-25.223653793
1747313551.475236,21.299000000,0.000000000,58670.988281250,0.000000000,0.000000000,-15.500638008,-93.801979065,0.000000000,14.874000549,-25.223653793
1747313551.477761,21.302000000,0.000000000,58670.988281250,0.000000000,0.000000000,-15.500638008,-93.802146912,0.000000000,14.874000549,-25.223653793
1747313551.480351,21.305000000,0.000000000,58670.988281250,0.000000000,0.000000000,-15.500638008,-93.802330017,0.000000000,14.874000549,-25.223653793
1747313551.482732,21.307000000,0.000000000,58670.988281250,0.000000000,0.000000000,-15.500638008,-93.802505493,0.000000000,14.874000549,-25.223653793
1747313551.485093,21.309000000,0.000000000,58670.988281250,0.000000000,0.000000000,-15.500638008,-93.802673340,0.000000000,14.874000549,-25.223653793
1747313551.487424,21.312000000,0.000000000,58670.988281250,0.000000000,0.000000000,-15.500638008,-93.802848816,0.000000000,14.874000549,-25.223653793
1747313551.489766,21.314000000,0.000000000,58670.988281250,0.000000000,0.000000000,-15.500638008,-93.803009033,0.000000000,14.874000549,-25.223653793
1747313551.492172,21.316000000,0.000000000,58670.988281250,0.000000000,0.000000000,-15.500638008,-93.803176880,0.000000000,14.874000549,-25.223653793
1747313551.494554,21.319000000,0.000000000,58670.988281250,0.000000000,0.000000000,-15.500638008,-93.803344727,0.000000000,14.874000549,-25.223653793
1747313551.496924,21.321000000,0.000000000,58670.988281250,0.000000000,0.000000000,-15.500638008,-93.803512573,0.000000000,14.874000549,-25.223653793
1747313551.499302,21.324000000,0.000000000,58670.988281250,0.000000000,0.000000000,-15.500638008,-93.803680420,0.000000000,14.874000549,-25.223653793
1747313551.501687,21.326000000,0.000000000,58670.988281250,0.000000000,0.000000000,-15.500638008,-93.803848267,0.000000000,14.874000549,-25.223653793
1747313551.504084,21.328000000,0.000000000,58670.988281250,0.000000000,0.000000000,-15.500638008,-93.804023743,0.000000000,14.874000549,-25.223653793
1747313551.506469,21.331000000,0.000000000,58670.988281250,0.000000000,0.000000000,-15.500638008,-93.804191589,0.000000000,14.874000549,-25.223653793
1747313551.508842,21.333000000,0.000000000,58670.988281250,0.000000000,0.000000000,-15.500638008,-93.804359436,0.000000000,14.874000549,-25.223653793
1747313551.511224,21.335000000,0.000000000,58670.988281250,0.000000000,0.000000000,-15.500638008,-93.804527283,0.000000000,14.874000549,-25.223653793
1747313551.513607,21.338000000,0.000000000,58670.988281250,0.000000000,0.000000000,-15.500638008,-93.804695129,0.000000000,14.874000549,-25.223653793
1747313551.515978,21.340000000,0.000000000,58670.988281250,0.000000000,0.000000000,-15.500638008,-93.804862976,0.000000000,14.874000549,-25.223653793
1747313551.518390,21.343000000,0.000000000,58670.988281250,0.000000000,0.000000000,-15.500638008,-93.805030823,0.000000000,14.874000549,-25.223653793
1747313551.520764,21.345000000,0.000000000,58670.988281250,0.000000000,0.000000000,-15.500638008,-93.805198669,0.000000000,14.874000549,-25.223653793
1747313551.523147,21.347000000,0.000000000,58670.988281250,0.000000000,0.000000000,-15.500638008,-93.805374146,0.000000000,14.874000549,-25.223653793
1747313551.525551,21.350000000,0.000000000,58670.988281250,0.000000000,0.000000000,-15.500638008,-93.805541992,0.000000000,14.874000549,-25.223653793
1747313551.527952,21.352000000,0.000000000,58670.988281250,0.000000000,0.000000000,-15.500638008,-93.805709839,0.000000000,14.874000549,-25.223653793
1747313551.530352,21.355000000,0.000000000,58670.988281250,0.000000000,0.000000000,-15.500638008,-93.805877686,0.000000000,14.874000549,-25.223653793
1747313551.532717,21.357000000,0.000000000,58670.988281250,0.000000000,0.000000000,-15.500638008,-93.806045532,0.000000000,14.874000549,-25.223653793
1747313551.535159,21.359000000,0.000000000,58670.988281250,0.000000000,0.000000000,-15.500638008,-93.806213379,0.000000000,14.874000549,-25.223653793
1747313551.537538,21.362000000,0.000000000,58670.988281250,0.000000000,0.000000000,-15.500638008,-93.806388855,0.000000000,14.874000549,-25.223653793
1747313551.539937,21.364000000,0.000000000,58670.988281250,0.000000000,0.000000000,-15.500638008,-93.806556702,0.000000000,14.874000549,-25.223653793
1747313551.542319,21.367000000,0.000000000,58670.988281250,0.000000000,0.000000000,-15.500638008,-93.806724548,0.000000000,14.874000549,-25.223653793
1747313551.544699,21.369000000,0.000000000,58670.988281250,0.000000000,0.000000000,-15.500638008,-93.806892395,0.000000000,14.874000549,-25.223653793
1747313551.547082,21.371000000,0.000000000,58670.988281250,0.000000000,0.000000000,-15.500638008,-93.807067871,0.000000000,14.874000549,-25.223653793
1747313551.549475,21.374000000,0.000000000,58670.988281250,0.000000000,0.000000000,-15.500638008,-93.807235718,0.000000000,14.874000549,-25.223653793
1747313551.551885,21.376000000,0.000000000,58670.988281250,0.000000000,0.000000000,-15.500638008,-93.807403564,0.000000000,14.874000549,-25.223653793
1747313551.554262,21.379000000,0.000000000,58670.988281250,0.000000000,0.000000000,-15.500638008,-93.807571411,0.000000000,14.874000549,-25.223653793
1747313551.556638,21.381000000,0.000000000,58670.988281250,0.000000000,0.000000000,-15.500638008,-93.807739258,0.000000000,14.874000549,-25.223653793
1747313551.559017,21.383000000,0.000000000,58670.988281250,0.000000000,0.000000000,-15.500638008,-93.807907104,0.000000000,14.874000549,-25.223653793
1747313551.561399,21.386000000,0.000000000,58670.988281250,0.000000000,0.000000000,-15.500638008,-93.808074951,0.000000000,14.874000549,-25.223653793
1747313551.563842,21.388000000,0.000000000,58670.988281250,0.000000000,0.000000000,-15.500638008,-93.808242798,0.000000000,14.874000549,-25.223653793
1747313551.566271,21.390000000,0.000000000,58670.988281250,0.000000000,0.000000000,-15.500638008,-93.808418274,0.000000000,14.874000549,-25.223653793
1747313551.568658,21.393000000,0.000000000,58670.988281250,0.000000000,0.000000000,-15.500638008,-93.808586121,0.000000000,14.874000549,-25.223653793
1747313551.571061,21.395000000,0.000000000,58670.988281250,0.000000000,0.000000000,-15.500638008,-93.808761597,0.000000000,14.874000549,-25.223653793
1747313551.573411,21.398000000,0.000000000,58670.988281250,0.000000000,0.000000000,-15.500638008,-93.808929443,0.000000000,14.874000549,-25.223653793
1747313551.575791,21.400000000,0.000000000,58670.988281250,0.000000000,0.000000000,-15.500638008,-93.809097290,0.000000000,14.874000549,-25.223653793
1747313551.578216,21.402000000,0.000000000,58670.988281250,0.000000000,0.000000000,-15.500638008,-93.809265137,0.000000000,14.874000549,-25.223653793
1747313551.580678,21.405000000,0.000000000,58670.988281250,0.000000000,0.000000000,-15.500638008,-93.809432983,0.000000000,14.874000549,-25.223653793
1747313551.583019,21.407000000,0.000000000,58670.988281250,0.000000000,0.000000000,-15.500638008,-93.809608459,0.000000000,14.874000549,-25.223653793
1747313551.585424,21.410000000,0.000000000,58670.988281250,0.000000000,0.000000000,-15.500638008,-93.809776306,0.000000000,14.874000549,-25.223653793
1747313551.587821,21.412000000,0.000000000,58670.988281250,0.000000000,0.000000000,-15.500638008,-93.809944153,0.000000000,14.874000549,-25.223653793
1747313551.590214,21.414000000,0.000000000,58670.988281250,0.000000000,0.000000000,-15.500638008,-93.810119629,0.000000000,14.874000549,-25.223653793
1747313551.592592,21.417000000,0.000000000,58670.988281250,0.000000000,0.000000000,-15.500638008,-93.810287476,0.000000000,14.874000549,-25.223653793
1747313551.594960,21.419000000,0.000000000,58670.988281250,0.000000000,0.000000000,-15.500638008,-93.810455322,0.000000000,14.874000549,-25.223653793
1747313551.597343,21.422000000,0.000000000,58670.988281250,0.000000000,0.000000000,-15.500638008,-93.810623169,0.000000000,14.874000549,-25.223653793
1747313551.599795,21.424000000,0.000000000,58670.988281250,0.000000000,0.000000000,-15.500638008,-93.810791016,0.000000000,14.874000549,-25.223653793
1747313551.602240,21.426000000,0.000000000,58670.988281250,0.000000000,0.000000000,-15.500638008,-93.810958862,0.000000000,14.874000549,-25.223653793
1747313551.604647,21.429000000,0.000000000,58670.988281250,0.000000000,0.000000000,-15.500638008,-93.811134338,0.000000000,14.874000549,-25.223653793
1747313551.607028,21.431000000,0.000000000,58670.988281250,0.000000000,0.000000000,-15.500638008,-93.811309814,0.000000000,14.874000549,-25.223653793
1747313551.609415,21.434000000,0.000000000,58670.988281250,0.000000000,0.000000000,-15.500638008,-93.811477661,0.000000000,14.874000549,-25.223653793
1747313551.611832,21.436000000,0.000000000,58670.988281250,0.000000000,0.000000000,-15.500638008,-93.811645508,0.000000000,14.874000549,-25.223653793
1747313551.614188,21.438000000,0.000000000,58670.988281250,0.000000000,0.000000000,-15.500638008,-93.811813354,0.000000000,14.874000549,-25.223653793
1747313551.616615,21.441000000,0.000000000,58670.988281250,0.000000000,0.000000000,-15.500638008,-93.811981201,0.000000000,14.874000549,-25.223653793
1747313551.619028,21.443000000,0.000000000,58670.988281250,0.000000000,0.000000000,-15.500638008,-93.812156677,0.000000000,14.874000549,-25.223653793
1747313551.621409,21.446000000,0.000000000,58670.988281250,0.000000000,0.000000000,-15.500638008,-93.812324524,0.000000000,14.874000549,-25.223653793
1747313551.623787,21.448000000,0.000000000,58670.988281250,0.000000000,0.000000000,-15.500638008,-93.812492371,0.000000000,14.874000549,-25.223653793
1747313551.626126,21.450000000,0.000000000,58670.988281250,0.000000000,0.000000000,-15.500638008,-93.812660217,0.000000000,14.874000549,-25.223653793
1747313551.628469,21.453000000,0.000000000,58670.988281250,0.000000000,0.000000000,-15.500638008,-93.812828064,0.000000000,14.874000549,-25.223653793
1747313551.630838,21.455000000,0.000000000,58670.988281250,0.000000000,0.000000000,-15.500638008,-93.812995911,0.000000000,14.874000549,-25.223653793
1747313551.633208,21.457000000,0.000000000,58670.988281250,0.000000000,0.000000000,-15.500638008,-93.813163757,0.000000000,14.874000549,-25.223653793
1747313551.635568,21.460000000,0.000000000,58670.988281250,0.000000000,0.000000000,-15.500638008,-93.813331604,0.000000000,14.874000549,-25.223653793
1747313551.637933,21.462000000,0.000000000,58670.988281250,0.000000000,0.000000000,-15.500638008,-93.813499451,0.000000000,14.874000549,-25.223653793
1747313551.640292,21.465000000,0.000000000,58670.988281250,0.000000000,0.000000000,-15.500638008,-93.813659668,0.000000000,14.874000549,-25.223653793
1747313551.642662,21.467000000,0.000000000,58670.988281250,0.000000000,0.000000000,-15.500638008,-93.813827515,0.000000000,14.874000549,-25.223653793
1747313551.645029,21.469000000,0.000000000,58670.988281250,0.000000000,0.000000000,-15.500638008,-93.813995361,0.000000000,14.874000549,-25.223653793
1747313551.647397,21.472000000,0.000000000,58670.988281250,0.000000000,0.000000000,-15.500638008,-93.814163208,0.000000000,14.874000549,-25.223653793
1747313551.649769,21.474000000,0.000000000,58670.988281250,0.000000000,0.000000000,-15.500638008,-93.814331055,0.000000000,14.874000549,-25.223653793
1747313551.652199,21.476000000,0.000000000,58670.988281250,0.000000000,0.000000000,-15.500638008,-93.814498901,0.000000000,14.874000549,-25.223653793
1747313551.654599,21.479000000,0.000000000,58670.988281250,0.000000000,0.000000000,-15.500638008,-93.814674377,0.000000000,14.874000549,-25.223653793
1747313551.656977,21.481000000,0.000000000,58670.988281250,0.000000000,0.000000000,-15.500638008,-93.814842224,0.000000000,14.874000549,-25.223653793
1747313551.659390,21.484000000,0.000000000,58670.988281250,0.000000000,0.000000000,-15.500638008,-93.815010071,0.000000000,14.874000549,-25.223653793
1747313551.661800,21.486000000,0.000000000,58670.988281250,0.000000000,0.000000000,-15.500638008,-93.815177917,0.000000000,14.874000549,-25.223653793
1747313551.664293,21.488000000,0.000000000,58670.988281250,0.000000000,0.000000000,-15.500638008,-93.815353394,0.000000000,14.874000549,-25.223653793
1747313551.666671,21.491000000,0.000000000,58670.988281250,0.000000000,0.000000000,-15.500638008,-93.815528870,0.000000000,14.874000549,-25.223653793
1747313551.669070,21.493000000,0.000000000,58670.988281250,0.000000000,0.000000000,-15.500638008,-93.815696716,0.000000000,14.874000549,-25.223653793
1747313551.671450,21.496000000,0.000000000,58670.988281250,0.000000000,0.000000000,-15.500638008,-93.815864563,0.000000000,14.874000549,-25.223653793
1747313551.673815,21.498000000,0.000000000,58670.988281250,0.000000000,0.000000000,-15.500638008,-93.816032410,0.000000000,14.874000549,-25.223653793
1747313551.676192,21.500000000,0.000000000,58670.988281250,0.000000000,0.000000000,-15.500638008,-93.816200256,0.000000000,14.874000549,-25.223653793
1747313551.678566,21.503000000,0.000000000,58670.988281250,0.000000000,0.000000000,-15.500638008,-93.816368103,0.000000000,14.874000549,-25.223653793
1747313551.681019,21.505000000,0.000000000,58670.988281250,0.000000000,0.000000000,-15.500638008,-93.816535950,0.000000000,14.874000549,-25.223653793
1747313551.683382,21.508000000,0.000000000,58670.988281250,0.000000000,0.000000000,-15.500638008,-93.816711426,0.000000000,14.874000549,-25.223653793
1747313551.685774,21.510000000,0.000000000,58670.988281250,0.000000000,0.000000000,-15.500638008,-93.816879272,0.000000000,14.874000549,-25.223653793
1747313551.688169,21.512000000,0.000000000,58670.988281250,0.000000000,0.000000000,-15.500638008,-93.817047119,0.000000000,14.874000549,-25.223653793
1747313551.690545,21.515000000,0.000000000,58670.988281250,0.000000000,0.000000000,-15.500638008,-93.817214966,0.000000000,14.874000549,-25.223653793
1747313551.692924,21.517000000,0.000000000,58670.988281250,0.000000000,0.000000000,-15.500638008,-93.817390442,0.000000000,14.874000549,-25.223653793
1747313551.695290,21.520000000,0.000000000,58670.988281250,0.000000000,0.000000000,-15.500638008,-93.817558289,0.000000000,14.874000549,-25.223653793
1747313551.697652,21.522000000,0.000000000,58670.988281250,0.000000000,0.000000000,-15.500638008,-93.817726135,0.000000000,14.874000549,-25.223653793
1747313551.700023,21.524000000,0.000000000,58670.988281250,0.000000000,0.000000000,-15.500638008,-93.817893982,0.000000000,14.874000549,-25.223653793
1747313551.702469,21.527000000,0.000000000,58670.988281250,0.000000000,0.000000000,-15.500638008,-93.818054199,0.000000000,14.874000549,-25.223653793
1747313551.704930,21.529000000,0.000000000,58670.988281250,0.000000000,0.000000000,-15.500638008,-93.818229675,0.000000000,14.874000549,-25.223653793
1747313551.707365,21.532000000,0.000000000,58670.988281250,0.000000000,0.000000000,-15.500638008,-93.818405151,0.000000000,14.874000549,-25.223653793
1747313551.709805,21.534000000,0.000000000,58670.988281250,0.000000000,0.000000000,-15.500638008,-93.818580627,0.000000000,14.874000549,-25.223653793
1747313551.712251,21.536000000,0.000000000,58670.988281250,0.000000000,0.000000000,-15.500638008,-93.818748474,0.000000000,14.874000549,-25.223653793
1747313551.714753,21.539000000,0.000000000,58670.988281250,0.000000000,0.000000000,-15.500638008,-93.818923950,0.000000000,14.874000549,-25.223653793
1747313551.717272,21.541000000,0.000000000,58670.988281250,0.000000000,0.000000000,-15.500638008,-93.819099426,0.000000000,14.874000549,-25.223653793
1747313551.719737,21.544000000,0.000000000,58670.988281250,0.000000000,0.000000000,-15.500638008,-93.819282532,0.000000000,14.874000549,-25.223653793
1747313551.722270,21.546000000,0.000000000,58670.988281250,0.000000000,0.000000000,-15.500638008,-93.819458008,0.000000000,14.874000549,-25.223653793
1747313551.724643,21.549000000,0.000000000,58670.988281250,0.000000000,0.000000000,-15.500638008,-93.819633484,0.000000000,14.874000549,-25.223653793
1747313551.727117,21.551000000,0.000000000,58670.988281250,0.000000000,0.000000000,-15.500638008,-93.819801331,0.000000000,14.874000549,-25.223653793
1747313551.729497,21.554000000,0.000000000,58670.988281250,0.000000000,0.000000000,-15.500638008,-93.819976807,0.000000000,14.874000549,-25.223653793
1747313551.731904,21.556000000,0.000000000,58670.988281250,0.000000000,0.000000000,-15.500638008,-93.820144653,0.000000000,14.874000549,-25.223653793
1747313551.734293,21.559000000,0.000000000,58670.988281250,0.000000000,0.000000000,-15.500638008,-93.820312500,0.000000000,14.874000549,-25.223653793
1747313551.736672,21.561000000,0.000000000,58670.988281250,0.000000000,0.000000000,-15.500638008,-93.820480347,0.000000000,14.874000549,-25.223653793
1747313551.739024,21.563000000,0.000000000,58670.988281250,0.000000000,0.000000000,-15.500638008,-93.820655823,0.000000000,14.874000549,-25.223653793
1747313551.741405,21.566000000,0.000000000,58670.988281250,0.000000000,0.000000000,-15.500638008,-93.820816040,0.000000000,14.874000549,-25.223653793
1747313551.743794,21.568000000,0.000000000,58670.988281250,0.000000000,0.000000000,-15.500638008,-93.820983887,0.000000000,14.874000549,-25.223653793
1747313551.746183,21.570000000,0.000000000,58670.988281250,0.000000000,0.000000000,-15.500638008,-93.821159363,0.000000000,14.874000549,-25.223653793
1747313551.748569,21.573000000,0.000000000,58670.988281250,0.000000000,0.000000000,-15.500638008,-93.821327209,0.000000000,14.874000549,-25.223653793
1747313551.750970,21.575000000,0.000000000,58670.988281250,0.000000000,0.000000000,-15.500638008,-93.821495056,0.000000000,14.874000549,-25.223653793
1747313551.753340,21.578000000,0.000000000,58670.988281250,0.000000000,0.000000000,-15.500638008,-93.821662903,0.000000000,14.874000549,-25.223653793
1747313551.755715,21.580000000,0.000000000,58670.988281250,0.000000000,0.000000000,-15.500638008,-93.821830750,0.000000000,14.874000549,-25.223653793
1747313551.758081,21.582000000,0.000000000,58670.988281250,0.000000000,0.000000000,-15.500638008,-93.821998596,0.000000000,14.874000549,-25.223653793
1747313551.760546,21.585000000,0.000000000,58670.988281250,0.000000000,0.000000000,-15.500638008,-93.822166443,0.000000000,14.874000549,-25.223653793
1747313551.762948,21.587000000,0.000000000,58670.988281250,0.000000000,0.000000000,-15.500638008,-93.822341919,0.000000000,14.874000549,-25.223653793
1747313551.765430,21.590000000,0.000000000,58670.988281250,0.000000000,0.000000000,-15.500638008,-93.822517395,0.000000000,14.874000549,-25.223653793
1747313551.767936,21.592000000,0.000000000,58670.988281250,0.000000000,0.000000000,-15.500638008,-93.822692871,0.000000000,14.874000549,-25.223653793
1747313551.770373,21.595000000,0.000000000,58670.988281250,0.000000000,0.000000000,-15.500638008,-93.822868347,0.000000000,14.874000549,-25.223653793
1747313551.772783,21.597000000,0.000000000,58670.988281250,0.000000000,0.000000000,-15.500638008,-93.823036194,0.000000000,14.874000549,-25.223653793
1747313551.775218,21.599000000,0.000000000,58670.988281250,0.000000000,0.000000000,-15.500638008,-93.823211670,0.000000000,14.874000549,-25.223653793
1747313551.777660,21.602000000,0.000000000,58670.988281250,0.000000000,0.000000000,-15.500638008,-93.823379517,0.000000000,14.874000549,-25.223653793
1747313551.780090,21.604000000,0.000000000,58670.988281250,0.000000000,0.000000000,-15.500638008,-93.823554993,0.000000000,14.874000549,-25.223653793
1747313551.782528,21.607000000,0.000000000,58670.988281250,0.000000000,0.000000000,-15.500638008,-93.823730469,0.000000000,14.874000549,-25.223653793
1747313551.784984,21.609000000,0.000000000,58670.988281250,0.000000000,0.000000000,-15.500638008,-93.823898315,0.000000000,14.874000549,-25.223653793
1747313551.787454,21.612000000,0.000000000,58670.988281250,0.000000000,0.000000000,-15.500638008,-93.824073792,0.000000000,14.874000549,-25.223653793
1747313551.789908,21.614000000,0.000000000,58670.988281250,0.000000000,0.000000000,-15.500638008,-93.824249268,0.000000000,14.874000549,-25.223653793
1747313551.792344,21.617000000,0.000000000,58670.988281250,0.000000000,0.000000000,-15.500638008,-93.824424744,0.000000000,14.874000549,-25.223653793
1747313551.794778,21.619000000,0.000000000,58670.988281250,0.000000000,0.000000000,-15.500638008,-93.824592590,0.000000000,14.874000549,-25.223653793
1747313551.797243,21.621000000,0.000000000,58670.988281250,0.000000000,0.000000000,-15.500638008,-93.824768066,0.000000000,14.874000549,-25.223653793
1747313551.799684,21.624000000,0.000000000,58670.988281250,0.000000000,0.000000000,-15.500638008,-93.824943542,0.000000000,14.874000549,-25.223653793
1747313551.802186,21.626000000,0.000000000,58670.988281250,0.000000000,0.000000000,-15.500638008,-93.825119019,0.000000000,14.874000549,-25.223653793
1747313551.804592,21.629000000,0.000000000,58670.988281250,0.000000000,0.000000000,-15.500638008,-93.825286865,0.000000000,14.874000549,-25.223653793
1747313551.807039,21.631000000,0.000000000,58670.988281250,0.000000000,0.000000000,-15.500638008,-93.825462341,0.000000000,14.874000549,-25.223653793
1747313551.809519,21.634000000,0.000000000,58670.988281250,0.000000000,0.000000000,-15.500638008,-93.825637817,0.000000000,14.874000549,-25.223653793
