liamjosephnolan/thesis_matlab/roll_step_response/roll_step_response_roll_15_pitch_0.csv
__time,/psm_joint_telemetry/header/stamp,/psm_joint_telemetry/insertion/effort,/psm_joint_telemetry/insertion/position,/psm_joint_telemetry/insertion/velocity,/psm_joint_telemetry/pitch/effort,/psm_joint_telemetry/pitch/position,/psm_joint_telemetry/pitch/velocity,/psm_joint_telemetry/roll/effort,/psm_joint_telemetry/roll/position,/psm_joint_telemetry/roll/velocity
1747313634.433668,17.196000000,0.000000000,57670.914062500,0.000000000,0.000000000,-0.272256732,-82.068878174,0.000000000,14.882999420,-23.422182083
1747313634.436025,17.198000000,0.000000000,57670.914062500,0.000000000,0.000000000,-0.272256732,-82.068969727,0.000000000,14.882999420,-23.422182083
1747313634.438475,17.200000000,0.000000000,57670.914062500,0.000000000,0.000000000,-0.272256732,-82.069061279,0.000000000,14.882999420,-23.422182083
1747313634.440834,17.203000000,0.000000000,57670.914062500,0.000000000,0.000000000,-0.272256732,-82.069160461,0.000000000,14.882999420,-23.422182083
1747313634.443175,17.205000000,0.000000000,57670.914062500,0.000000000,0.000000000,-0.272256732,-82.069244385,0.000000000,14.882999420,-23.422182083
1747313634.445566,17.208000000,0.000000000,57670.914062500,0.000000000,0.000000000,-0.272256732,-82.069335938,0.000000000,14.882999420,-23.422182083
1747313634.447988,17.210000000,0.000000000,57670.914062500,0.000000000,0.000000000,-0.272256732,-82.069427490,0.000000000,14.882999420,-23.422182083
1747313634.450372,17.212000000,0.000000000,57670.914062500,0.000000000,0.000000000,-0.272256732,-82.069519043,0.000000000,14.882999420,-23.422182083
1747313634.452794,17.215000000,0.000000000,57670.914062500,0.000000000,0.000000000,-0.272256732,-82.069610596,0.000000000,14.882999420,-23.422182083
1747313634.455070,17.217000000,0.000000000,57670.914062500,0.000000000,0.000000000,-0.258757174,-80.899284363,0.000000000,14.882999420,-23.422182083
1747313634.457422,17.219000000,0.000000000,57670.914062500,0.000000000,0.000000000,-0.272256732,-80.254981995,0.000000000,14.882999420,-23.422182083
1747313634.459774,17.222000000,0.000000000,57670.914062500,0.000000000,0.000000000,-0.272256732,-82.069877625,0.000000000,14.882999420,-23.422182083
1747313634.462129,17.224000000,0.000000000,57670.914062500,0.000000000,0.000000000,-0.258757174,-80.921966553,0.000000000,14.882999420,-23.422182083
1747313634.464470,17.226000000,0.000000000,57670.914062500,0.000000000,0.000000000,-0.272256732,-80.248306274,0.000000000,14.882999420,-23.422182083
1747313634.466824,17.229000000,0.000000000,57670.914062500,0.000000000,0.000000000,-0.258757174,-80.920578003,0.000000000,14.882999420,-23.422182083
1747313634.469187,17.231000000,0.000000000,57670.914062500,0.000000000,0.000000000,-0.272256732,-80.256965637,0.000000000,14.882999420,-23.422182083
1747313634.471527,17.233000000,0.000000000,57670.914062500,0.000000000,0.000000000,-0.258757174,-80.904495239,0.000000000,14.882999420,-23.422182083
1747313634.473865,17.236000000,0.000000000,57670.914062500,0.000000000,0.000000000,-0.272256732,-80.240882874,0.000000000,14.882999420,-23.422182083
1747313634.476214,17.238000000,0.000000000,57670.914062500,0.000000000,0.000000000,-0.258757174,-80.927200317,0.000000000,14.882999420,-23.422182083
1747313634.478553,17.241000000,0.000000000,57670.914062500,0.000000000,0.000000000,-0.272256732,-80.244178772,0.000000000,14.882999420,-23.422182083
1747313634.480917,17.243000000,0.000000000,57670.914062500,0.000000000,0.000000000,-0.272256732,-82.070678711,0.000000000,14.882999420,-23.422182083
1747313634.483274,17.245000000,0.000000000,57670.914062500,0.000000000,0.000000000,-0.258757174,-80.908782959,0.000000000,14.882999420,-23.422182083
1747313634.485678,17.248000000,0.000000000,57670.914062500,0.000000000,0.000000000,-0.272256732,-80.235054016,0.000000000,14.882999420,-23.422182083
1747313634.487981,17.250000000,0.000000000,57670.914062500,0.000000000,0.000000000,-0.272256732,-82.070945740,0.000000000,14.882999420,-23.422182083
1747313634.490317,17.252000000,0.000000000,57670.914062500,0.000000000,0.000000000,-0.272256732,-82.071037292,0.000000000,14.882999420,-23.422182083
1747313634.492652,17.255000000,0.000000000,57670.914062500,0.000000000,0.000000000,-0.272256732,-82.071128845,0.000000000,14.882999420,-23.422182083
1747313634.495010,17.257000000,0.000000000,57670.914062500,0.000000000,0.000000000,-0.272256732,-82.071220398,0.000000000,14.882999420,-23.422182083
1747313634.497397,17.259000000,0.000000000,57670.914062500,0.000000000,0.000000000,-0.272256732,-82.071311951,0.000000000,14.882999420,-23.422182083
1747313634.499758,17.262000000,0.000000000,57670.914062500,0.000000000,0.000000000,-0.272256732,-82.071403503,0.000000000,14.882999420,-23.422182083
1747313634.502110,17.264000000,0.000000000,57670.914062500,0.000000000,0.000000000,-0.258757174,-80.910278320,0.000000000,14.882999420,-23.422182083
1747313634.504472,17.266000000,0.000000000,57670.914062500,0.000000000,0.000000000,-0.272256732,-80.245170593,0.000000000,14.882999420,-23.422182083
1747313634.506798,17.269000000,0.000000000,57670.914062500,0.000000000,0.000000000,-0.258757174,-80.908142090,0.000000000,14.882999420,-23.422182083
1747313634.509137,17.271000000,0.000000000,57670.914062500,0.000000000,0.000000000,-0.258757174,-79.092658997,0.000000000,14.882999420,-23.422182083
1747313634.511459,17.273000000,0.000000000,57670.914062500,0.000000000,0.000000000,-0.258757174,-79.092742920,0.000000000,14.882999420,-23.422182083
1747313634.513799,17.276000000,0.000000000,57670.914062500,0.000000000,0.000000000,-0.258757174,-79.092826843,0.000000000,14.882999420,-23.422182083
1747313634.516166,17.278000000,0.000000000,57670.914062500,0.000000000,0.000000000,-0.258757174,-79.092910767,0.000000000,14.882999420,-23.422182083
1747313634.518508,17.280000000,0.000000000,57670.914062500,0.000000000,0.000000000,-0.258757174,-79.093002319,0.000000000,14.882999420,-23.422182083
1747313634.520841,17.283000000,0.000000000,57670.914062500,0.000000000,0.000000000,-0.258757174,-79.093086243,0.000000000,14.882999420,-23.422182083
1747313634.523217,17.285000000,0.000000000,57670.914062500,0.000000000,0.000000000,-0.258757174,-79.093170166,0.000000000,14.882999420,-23.422182083
1747313634.525598,17.288000000,0.000000000,57670.914062500,0.000000000,0.000000000,-0.258757174,-79.093261719,0.000000000,14.882999420,-23.422182083
1747313634.528297,17.290000000,0.000000000,57670.914062500,0.000000000,0.000000000,-0.258757174,-79.093345642,0.000000000,14.882999420,-23.422182083
1747313634.530720,17.293000000,0.000000000,57670.914062500,0.000000000,0.000000000,-0.272256732,-80.459915161,0.000000000,14.882999420,-23.422182083
1747313634.533145,17.295000000,0.000000000,57670.914062500,0.000000000,0.000000000,-0.272256732,-82.072639465,0.000000000,14.882999420,-23.422182083
1747313634.535511,17.297000000,0.000000000,57670.914062500,0.000000000,0.000000000,-0.258757174,-80.868591309,0.000000000,14.882999420,-23.422182083
1747313634.537917,17.300000000,0.000000000,57670.914062500,0.000000000,0.000000000,-0.272256732,-80.300064087,0.000000000,14.882999420,-23.422182083
1747313634.540287,17.302000000,0.000000000,57670.914062500,0.000000000,0.000000000,-0.272256732,-82.072914124,0.000000000,14.882999420,-23.422182083
1747313634.542693,17.305000000,0.000000000,57670.914062500,0.000000000,0.000000000,-0.258757174,-80.896492004,0.000000000,14.882999420,-23.422182083
1747313634.545079,17.307000000,0.000000000,57670.914062500,0.000000000,0.000000000,-0.272256732,-80.288520813,0.000000000,14.882999420,-23.422182083
1747313634.547476,17.309000000,0.000000000,57670.914062500,0.000000000,0.000000000,-0.272256732,-82.073181152,0.000000000,14.882999420,-23.422182083
1747313634.549897,17.312000000,0.000000000,57670.914062500,0.000000000,0.000000000,-0.258757174,-80.879493713,0.000000000,14.882999420,-23.422182083
1747313634.552260,17.314000000,0.000000000,57670.914062500,0.000000000,0.000000000,-0.272256732,-80.311538696,0.000000000,14.882999420,-23.422182083
1747313634.554584,17.317000000,0.000000000,57670.914062500,0.000000000,0.000000000,-0.272256732,-82.073455811,0.000000000,14.882999420,-23.422182083
1747313634.556921,17.319000000,0.000000000,57670.914062500,0.000000000,0.000000000,-0.258757174,-80.933395386,0.000000000,14.882999420,-23.422182083
1747313634.559250,17.321000000,0.000000000,57670.914062500,0.000000000,0.000000000,-0.272256732,-80.241752625,0.000000000,14.882999420,-23.422182083
1747313634.561580,17.324000000,0.000000000,57670.914062500,0.000000000,0.000000000,-0.272256732,-82.073722839,0.000000000,14.882999420,-23.422182083
1747313634.563912,17.326000000,0.000000000,57670.914062500,0.000000000,0.000000000,-0.258757174,-80.933662415,0.000000000,14.882999420,-23.422182083
1747313634.566252,17.328000000,0.000000000,57670.914062500,0.000000000,0.000000000,-0.272256732,-80.244369507,0.000000000,14.882999420,-23.422182083
1747313634.568588,17.331000000,0.000000000,57670.914062500,0.000000000,0.000000000,-0.272256732,-82.073989868,0.000000000,14.882999420,-23.422182083
1747313634.570909,17.333000000,0.000000000,57670.914062500,0.000000000,0.000000000,-0.258757174,-80.927635193,0.000000000,14.882999420,-23.422182083
1747313634.573252,17.335000000,0.000000000,57670.914062500,0.000000000,0.000000000,-0.272256732,-80.225685120,0.000000000,14.882999420,-23.422182083
1747313634.575590,17.338000000,0.000000000,57670.914062500,0.000000000,0.000000000,-0.258757174,-80.923118591,0.000000000,14.882999420,-23.422182083
1747313634.577934,17.340000000,0.000000000,57670.914062500,0.000000000,0.000000000,-0.258757174,-79.095237732,0.000000000,14.882999420,-23.422182083
1747313634.580274,17.342000000,0.000000000,57670.914062500,0.000000000,0.000000000,-0.258757174,-79.095321655,0.000000000,14.882999420,-23.422182083
1747313634.582610,17.345000000,0.000000000,57670.914062500,0.000000000,0.000000000,-0.258757174,-79.095413208,0.000000000,14.882999420,-23.422182083
1747313634.584947,17.347000000,0.000000000,57670.914062500,0.000000000,0.000000000,-0.258757174,-79.095497131,0.000000000,14.882999420,-23.422182083
1747313634.587278,17.349000000,0.000000000,57670.914062500,0.000000000,0.000000000,-0.258757174,-79.095581055,0.000000000,14.882999420,-23.422182083
1747313634.589614,17.352000000,0.000000000,57670.914062500,0.000000000,0.000000000,-0.272256732,-80.235031128,0.000000000,14.882999420,-23.422182083
1747313634.591937,17.354000000,0.000000000,57670.914062500,0.000000000,0.000000000,-0.272256732,-82.074859619,0.000000000,14.882999420,-23.422182083
1747313634.594274,17.356000000,0.000000000,57670.914062500,0.000000000,0.000000000,-0.258757174,-80.940345764,0.000000000,14.882999420,-23.422182083
1747313634.596635,17.359000000,0.000000000,57670.914062500,0.000000000,0.000000000,-0.272256732,-80.243156433,0.000000000,14.882999420,-23.422182083
1747313634.598974,17.361000000,0.000000000,57670.914062500,0.000000000,0.000000000,-0.272256732,-82.075126648,0.000000000,14.882999420,-23.422182083
1747313634.601323,17.363000000,0.000000000,57670.914062500,0.000000000,0.000000000,-0.272256732,-82.075218201,0.000000000,14.882999420,-23.422182083
1747313634.603638,17.366000000,0.000000000,57670.914062500,0.000000000,0.000000000,-0.272256732,-82.075309753,0.000000000,14.882999420,-23.422182083
1747313634.605960,17.368000000,0.000000000,57670.914062500,0.000000000,0.000000000,-0.272256732,-82.075393677,0.000000000,14.882999420,-23.422182083
1747313634.608290,17.370000000,0.000000000,57670.914062500,0.000000000,0.000000000,-0.272256732,-82.075485229,0.000000000,14.882999420,-23.422182083
1747313634.610622,17.373000000,0.000000000,57670.914062500,0.000000000,0.000000000,-0.272256732,-82.075576782,0.000000000,14.882999420,-23.422182083
1747313634.612969,17.375000000,0.000000000,57670.914062500,0.000000000,0.000000000,-0.272256732,-82.075668335,0.000000000,14.882999420,-23.422182083
1747313634.615294,17.377000000,0.000000000,57670.914062500,0.000000000,0.000000000,-0.272256732,-82.075752258,0.000000000,14.882999420,-23.422182083
1747313634.617626,17.380000000,0.000000000,57670.914062500,0.000000000,0.000000000,-0.272256732,-82.075843811,0.000000000,14.882999420,-23.422182083
1747313634.619980,17.382000000,0.000000000,57670.914062500,0.000000000,0.000000000,-0.258757174,-80.942123413,0.000000000,14.882999420,-23.422182083
1747313634.622339,17.384000000,0.000000000,57670.914062500,0.000000000,0.000000000,-0.272256732,-80.240219116,0.000000000,14.882999420,-23.422182083
1747313634.624664,17.387000000,0.000000000,57670.914062500,0.000000000,0.000000000,-0.258757174,-80.909515381,0.000000000,14.882999420,-23.422182083
1747313634.626973,17.389000000,0.000000000,57670.914062500,0.000000000,0.000000000,-0.258757174,-79.097099304,0.000000000,14.882999420,-23.422182083
1747313634.629314,17.391000000,0.000000000,57670.914062500,0.000000000,0.000000000,-0.258757174,-79.097183228,0.000000000,14.882999420,-23.422182083
1747313634.631663,17.394000000,0.000000000,57670.914062500,0.000000000,0.000000000,-0.272256732,-80.241355896,0.000000000,14.882999420,-23.422182083
1747313634.634019,17.396000000,0.000000000,57670.914062500,0.000000000,0.000000000,-0.272256732,-82.076461792,0.000000000,14.882999420,-23.422182083
1747313634.636363,17.398000000,0.000000000,57670.914062500,0.000000000,0.000000000,-0.258757174,-80.923866272,0.000000000,14.882999420,-23.422182083
1747313634.638694,17.401000000,0.000000000,57670.914062500,0.000000000,0.000000000,-0.272256732,-80.263366699,0.000000000,14.882999420,-23.422182083
1747313634.641030,17.403000000,0.000000000,57670.914062500,0.000000000,0.000000000,-0.258757174,-80.930290222,0.000000000,14.882999420,-23.422182083
1747313634.643365,17.405000000,0.000000000,57670.914062500,0.000000000,0.000000000,-0.272256732,-80.248062134,0.000000000,14.882999420,-23.422182083
1747313634.645696,17.408000000,0.000000000,57670.914062500,0.000000000,0.000000000,-0.272256732,-82.076904297,0.000000000,14.882999420,-23.422182083
1747313634.648041,17.410000000,0.000000000,57670.914062500,0.000000000,0.000000000,-0.258757174,-80.935272217,0.000000000,14.882999420,-23.422182083
1747313634.650382,17.412000000,0.000000000,57670.914062500,0.000000000,0.000000000,-0.272256732,-80.245201111,0.000000000,14.882999420,-23.422182083
1747313634.652765,17.415000000,0.000000000,57670.914062500,0.000000000,0.000000000,-0.272256732,-82.077171326,0.000000000,14.882999420,-23.422182083
1747313634.655143,17.417000000,0.000000000,57670.914062500,0.000000000,0.000000000,-0.272256732,-82.077262878,0.000000000,14.882999420,-23.422182083
1747313634.657509,17.419000000,0.000000000,57670.914062500,0.000000000,0.000000000,-0.272256732,-82.077354431,0.000000000,14.882999420,-23.422182083
1747313634.659866,17.422000000,0.000000000,57670.914062500,0.000000000,0.000000000,-0.272256732,-82.077445984,0.000000000,14.882999420,-23.422182083
1747313634.662202,17.424000000,0.000000000,57670.914062500,0.000000000,0.000000000,-0.258757174,-80.922515869,0.000000000,14.882999420,-23.422182083
1747313634.664647,17.427000000,0.000000000,57670.914062500,0.000000000,0.000000000,-0.272256732,-80.244964600,0.000000000,14.882999420,-23.422182083
1747313634.666933,17.429000000,0.000000000,57670.914062500,0.000000000,0.000000000,-0.272256732,-82.077713013,0.000000000,14.882999420,-23.422182083
1747313634.669292,17.431000000,0.000000000,57670.914062500,0.000000000,0.000000000,-0.258757174,-80.903572083,0.000000000,14.882999420,-23.422182083
1747313634.671616,17.434000000,0.000000000,57670.914062500,0.000000000,0.000000000,-0.272256732,-80.258460999,0.000000000,14.882999420,-23.422182083
1747313634.673955,17.436000000,0.000000000,57670.914062500,0.000000000,0.000000000,-0.258757174,-80.929977417,0.000000000,14.882999420,-23.422182083
1747313634.676295,17.438000000,0.000000000,57670.914062500,0.000000000,0.000000000,-0.272256732,-80.246978760,0.000000000,14.882999420,-23.422182083
1747313634.678639,17.441000000,0.000000000,57670.914062500,0.000000000,0.000000000,-0.272256732,-82.078155518,0.000000000,14.882999420,-23.422182083
1747313634.681000,17.443000000,0.000000000,57670.914062500,0.000000000,0.000000000,-0.258757174,-80.926338196,0.000000000,14.882999420,-23.422182083
1747313634.683435,17.445000000,0.000000000,57670.914062500,0.000000000,0.000000000,-0.272256732,-80.257362366,0.000000000,14.882999420,-23.422182083
1747313634.685800,17.448000000,0.000000000,57670.914062500,0.000000000,0.000000000,-0.258757174,-80.848930359,0.000000000,14.882999420,-23.422182083
1747313634.688146,17.450000000,0.000000000,57670.914062500,0.000000000,0.000000000,-0.272256732,-80.259086609,0.000000000,14.882999420,-23.422182083
1747313634.690496,17.452000000,0.000000000,57670.914062500,0.000000000,0.000000000,-0.258757174,-80.929039001,0.000000000,14.882999420,-23.422182083
1747313634.692835,17.455000000,0.000000000,57670.914062500,0.000000000,0.000000000,-0.258757174,-79.099594116,0.000000000,14.882999420,-23.422182083
1747313634.695195,17.457000000,0.000000000,57670.914062500,0.000000000,0.000000000,-0.258757174,-79.099678040,0.000000000,14.882999420,-23.422182083
1747313634.697553,17.460000000,0.000000000,57670.914062500,0.000000000,0.000000000,-0.272256732,-80.262519836,0.000000000,14.882999420,-23.422182083
1747313634.699945,17.462000000,0.000000000,57670.914062500,0.000000000,0.000000000,-0.272256732,-82.078956604,0.000000000,14.882999420,-23.422182083
1747313634.702345,17.464000000,0.000000000,57670.914062500,0.000000000,0.000000000,-0.258757174,-80.898002625,0.000000000,14.882999420,-23.422182083
1747313634.704692,17.467000000,0.000000000,57670.914062500,0.000000000,0.000000000,-0.272256732,-80.300491333,0.000000000,14.882999420,-23.422182083
1747313634.707064,17.469000000,0.000000000,57670.914062500,0.000000000,0.000000000,-0.258757174,-80.924980164,0.000000000,14.882999420,-23.422182083
1747313634.709387,17.471000000,0.000000000,57670.914062500,0.000000000,0.000000000,-0.272256732,-80.260658264,0.000000000,14.882999420,-23.422182083
1747313634.711746,17.474000000,0.000000000,57670.914062500,0.000000000,0.000000000,-0.272256732,-82.079406738,0.000000000,14.882999420,-23.422182083
1747313634.714105,17.476000000,0.000000000,57670.914062500,0.000000000,0.000000000,-0.258757174,-80.919822693,0.000000000,14.882999420,-23.422182083
1747313634.716474,17.478000000,0.000000000,57670.914062500,0.000000000,0.000000000,-0.272256732,-80.255500793,0.000000000,14.882999420,-23.422182083
1747313634.718780,17.481000000,0.000000000,57670.914062500,0.000000000,0.000000000,-0.272256732,-82.079673767,0.000000000,14.882999420,-23.422182083
1747313634.721133,17.483000000,0.000000000,57670.914062500,0.000000000,0.000000000,-0.258757174,-80.924736023,0.000000000,14.882999420,-23.422182083
1747313634.723452,17.485000000,0.000000000,57670.914062500,0.000000000,0.000000000,-0.272256732,-80.250320435,0.000000000,14.882999420,-23.422182083
1747313634.725806,17.488000000,0.000000000,57670.914062500,0.000000000,0.000000000,-0.258757174,-80.935852051,0.000000000,14.882999420,-23.422182083
1747313634.728139,17.490000000,0.000000000,57670.914062500,0.000000000,0.000000000,-0.272256732,-80.254394531,0.000000000,14.882999420,-23.422182083
1747313634.730512,17.492000000,0.000000000,57670.914062500,0.000000000,0.000000000,-0.272256732,-82.080116272,0.000000000,14.882999420,-23.422182083
1747313634.732945,17.495000000,0.000000000,57670.914062500,0.000000000,0.000000000,-0.258757174,-80.899162292,0.000000000,14.882999420,-23.422182083
1747313634.735324,17.497000000,0.000000000,57670.914062500,0.000000000,0.000000000,-0.272256732,-80.288253784,0.000000000,14.882999420,-23.422182083
1747313634.737689,17.500000000,0.000000000,57670.914062500,0.000000000,0.000000000,-0.258757174,-80.896324158,0.000000000,14.882999420,-23.422182083
1747313634.740113,17.502000000,0.000000000,57670.914062500,0.000000000,0.000000000,-0.258757174,-79.101371765,0.000000000,14.882999420,-23.422182083
1747313634.742477,17.504000000,0.000000000,57670.914062500,0.000000000,0.000000000,-0.258757174,-79.101463318,0.000000000,14.882999420,-23.422182083
1747313634.744810,17.507000000,0.000000000,57670.914062500,0.000000000,0.000000000,-0.272256732,-80.275779724,0.000000000,14.882999420,-23.422182083
1747313634.747213,17.509000000,0.000000000,57670.914062500,0.000000000,0.000000000,-0.258757174,-80.933517456,0.000000000,14.882999420,-23.422182083
1747313634.749579,17.512000000,0.000000000,57670.914062500,0.000000000,0.000000000,-0.258757174,-79.101722717,0.000000000,14.882999420,-23.422182083
1747313634.751929,17.514000000,0.000000000,57670.914062500,0.000000000,0.000000000,-0.258757174,-79.101814270,0.000000000,14.882999420,-23.422182083
1747313634.754277,17.516000000,0.000000000,57670.914062500,0.000000000,0.000000000,-0.272256732,-80.261566162,0.000000000,14.882999420,-23.422182083
1747313634.756645,17.519000000,0.000000000,57670.914062500,0.000000000,0.000000000,-0.272256732,-82.081085205,0.000000000,14.882999420,-23.422182083
1747313634.759022,17.521000000,0.000000000,57670.914062500,0.000000000,0.000000000,-0.258757174,-80.908470154,0.000000000,14.882999420,-23.422182083
1747313634.761391,17.523000000,0.000000000,57670.914062500,0.000000000,0.000000000,-0.272256732,-80.272590637,0.000000000,14.882999420,-23.422182083
1747313634.763763,17.526000000,0.000000000,57670.914062500,0.000000000,0.000000000,-0.258757174,-80.908645630,0.000000000,14.882999420,-23.422182083
1747313634.766133,17.528000000,0.000000000,57670.914062500,0.000000000,0.000000000,-0.272256732,-80.275810242,0.000000000,14.882999420,-23.422182083
1747313634.768559,17.530000000,0.000000000,57670.914062500,0.000000000,0.000000000,-0.272256732,-82.081535339,0.000000000,14.882999420,-23.422182083
1747313634.770970,17.533000000,0.000000000,57670.914062500,0.000000000,0.000000000,-0.272256732,-82.081626892,0.000000000,14.882999420,-23.422182083
1747313634.773395,17.535000000,0.000000000,57670.914062500,0.000000000,0.000000000,-0.258757174,-80.882003784,0.000000000,14.882999420,-23.422182083
1747313634.775765,17.538000000,0.000000000,57670.914062500,0.000000000,0.000000000,-0.272256732,-80.305374146,0.000000000,14.882999420,-23.422182083
1747313634.778195,17.540000000,0.000000000,57670.914062500,0.000000000,0.000000000,-0.272256732,-82.081901550,0.000000000,14.882999420,-23.422182083
1747313634.780546,17.543000000,0.000000000,57670.914062500,0.000000000,0.000000000,-0.258757174,-80.880798340,0.000000000,14.882999420,-23.422182083
1747313634.782899,17.545000000,0.000000000,57670.914062500,0.000000000,0.000000000,-0.272256732,-80.268806458,0.000000000,14.882999420,-23.422182083
1747313634.785254,17.547000000,0.000000000,57670.914062500,0.000000000,0.000000000,-0.272256732,-82.082168579,0.000000000,14.882999420,-23.422182083
1747313634.787583,17.550000000,0.000000000,57670.914062500,0.000000000,0.000000000,-0.258757174,-80.919502258,0.000000000,14.882999420,-23.422182083
1747313634.789921,17.552000000,0.000000000,57670.914062500,0.000000000,0.000000000,-0.272256732,-80.248901367,0.000000000,14.882999420,-23.422182083
1747313634.792325,17.554000000,0.000000000,57670.914062500,0.000000000,0.000000000,-0.258757174,-80.934432983,0.000000000,14.882999420,-23.422182083
1747313634.794707,17.557000000,0.000000000,57670.914062500,0.000000000,0.000000000,-0.272256732,-80.287483215,0.000000000,14.882999420,-23.422182083
1747313634.797121,17.559000000,0.000000000,57670.914062500,0.000000000,0.000000000,-0.272256732,-82.082618713,0.000000000,14.882999420,-23.422182083
1747313634.799540,17.561000000,0.000000000,57670.914062500,0.000000000,0.000000000,-0.258757174,-80.888183594,0.000000000,14.882999420,-23.422182083
1747313634.801931,17.564000000,0.000000000,57670.914062500,0.000000000,0.000000000,-0.272256732,-80.299713135,0.000000000,14.882999420,-23.422182083
1747313634.804338,17.566000000,0.000000000,57670.914062500,0.000000000,0.000000000,-0.258757174,-80.884658813,0.000000000,14.882999420,-23.422182083
1747313634.806727,17.569000000,0.000000000,57670.914062500,0.000000000,0.000000000,-0.258757174,-79.103881836,0.000000000,14.882999420,-23.422182083
1747313634.809224,17.571000000,0.000000000,57670.914062500,0.000000000,0.000000000,-0.258757174,-79.103973389,0.000000000,14.882999420,-23.422182083
1747313634.811602,17.574000000,0.000000000,57670.914062500,0.000000000,0.000000000,-0.258757174,-79.104057312,0.000000000,14.882999420,-23.422182083
1747313634.813986,17.576000000,0.000000000,57670.914062500,0.000000000,0.000000000,-0.258757174,-79.104148865,0.000000000,14.882999420,-23.422182083
1747313634.816364,17.578000000,0.000000000,57670.914062500,0.000000000,0.000000000,-0.258757174,-79.104232788,0.000000000,14.882999420,-23.422182083
1747313634.818725,17.581000000,0.000000000,57670.914062500,0.000000000,0.000000000,-0.258757174,-79.104324341,0.000000000,14.882999420,-23.422182083
1747313634.821048,17.583000000,0.000000000,57670.914062500,0.000000000,0.000000000,-0.258757174,-79.104408264,0.000000000,14.882999420,-23.422182083
1747313634.823399,17.585000000,0.000000000,57670.914062500,0.000000000,0.000000000,-0.258757174,-79.104492188,0.000000000,14.882999420,-23.422182083
1747313634.825698,17.588000000,0.000000000,57670.914062500,0.000000000,0.000000000,-0.258757174,-79.104583740,0.000000000,14.882999420,-23.422182083
1747313634.828035,17.590000000,0.000000000,57670.914062500,0.000000000,0.000000000,-0.258757174,-79.104667664,0.000000000,14.882999420,-23.422182083
1747313634.830416,17.592000000,0.000000000,57670.914062500,0.000000000,0.000000000,-0.258757174,-79.104751587,0.000000000,14.882999420,-23.422182083
1747313634.832765,17.595000000,0.000000000,57670.914062500,0.000000000,0.000000000,-0.258757174,-79.104835510,0.000000000,14.882999420,-23.422182083
1747313634.835133,17.597000000,0.000000000,57670.914062500,0.000000000,0.000000000,-0.258757174,-79.104927063,0.000000000,14.882999420,-23.422182083
1747313634.837450,17.599000000,0.000000000,57670.914062500,0.000000000,0.000000000,-0.258757174,-79.105010986,0.000000000,14.882999420,-23.422182083
1747313634.839781,17.602000000,0.000000000,57670.914062500,0.000000000,0.000000000,-0.258757174,-79.105094910,0.000000000,14.882999420,-23.422182083
1747313634.842120,17.604000000,0.000000000,57670.914062500,0.000000000,0.000000000,-0.258757174,-79.105178833,0.000000000,14.882999420,-23.422182083
1747313634.844466,17.606000000,0.000000000,57670.914062500,0.000000000,0.000000000,-0.258757174,-79.105270386,0.000000000,14.882999420,-23.422182083
1747313634.846795,17.609000000,0.000000000,57670.914062500,0.000000000,0.000000000,-0.258757174,-79.105354309,0.000000000,14.882999420,-23.422182083
1747313634.849160,17.611000000,0.000000000,57670.914062500,0.000000000,0.000000000,-0.258757174,-79.105438232,0.000000000,14.882999420,-23.422182083
1747313634.851501,17.613000000,0.000000000,57670.914062500,0.000000000,0.000000000,-0.258757174,-79.105529785,0.000000000,14.882999420,-23.422182083
1747313634.853826,17.616000000,0.000000000,57670.914062500,0.000000000,0.000000000,-0.258757174,-79.105613708,0.000000000,14.882999420,-23.422182083
1747313634.856166,17.618000000,0.000000000,57670.914062500,0.000000000,0.000000000,-0.258757174,-79.105697632,0.000000000,14.882999420,-23.422182083
1747313634.858525,17.620000000,0.000000000,57670.914062500,0.000000000,0.000000000,-0.258757174,-79.105789185,0.000000000,14.882999420,-23.422182083
1747313634.860861,17.623000000,0.000000000,57670.914062500,0.000000000,0.000000000,-0.258757174,-79.105873108,0.000000000,14.882999420,-23.422182083
1747313634.863196,17.625000000,0.000000000,57670.914062500,0.000000000,0.000000000,-0.258757174,-79.105957031,0.000000000,14.882999420,-23.422182083
1747313634.865538,17.628000000,0.000000000,57670.914062500,0.000000000,0.000000000,-0.258757174,-79.106048584,0.000000000,14.882999420,-23.422182083
1747313634.867907,17.630000000,0.000000000,57670.914062500,0.000000000,0.000000000,-0.258757174,-79.106132507,0.000000000,14.882999420,-23.422182083
1747313634.870299,17.632000000,0.000000000,57670.914062500,0.000000000,0.000000000,-0.258757174,-79.106216431,0.000000000,14.882999420,-23.422182083
1747313634.872677,17.635000000,0.000000000,57670.914062500,0.000000000,0.000000000,-0.258757174,-79.106307983,0.000000000,14.882999420,-23.422182083
1747313634.875052,17.637000000,0.000000000,57670.914062500,0.000000000,0.000000000,-0.258757174,-79.106391907,0.000000000,14.882999420,-23.422182083
1747313634.877393,17.639000000,0.000000000,57670.914062500,0.000000000,0.000000000,-0.258757174,-79.106475830,0.000000000,14.882999420,-23.422182083
1747313634.879741,17.642000000,0.000000000,57670.914062500,0.000000000,0.000000000,-0.258757174,-79.106567383,0.000000000,14.882999420,-23.422182083
1747313634.882085,17.644000000,0.000000000,57670.914062500,0.000000000,0.000000000,-0.258757174,-79.106651306,0.000000000,14.882999420,-23.422182083
1747313634.884453,17.646000000,0.000000000,57670.914062500,0.000000000,0.000000000,-0.258757174,-79.106735229,0.000000000,14.882999420,-23.422182083
1747313634.886827,17.649000000,0.000000000,57670.914062500,0.000000000,0.000000000,-0.258757174,-79.106826782,0.000000000,14.882999420,-23.422182083
1747313634.889195,17.651000000,0.000000000,57670.914062500,0.000000000,0.000000000,-0.258757174,-79.106910706,0.000000000,14.882999420,-23.422182083
1747313634.891568,17.654000000,0.000000000,57670.914062500,0.000000000,0.000000000,-0.272256732,-80.275123596,0.000000000,14.882999420,-23.422182083
1747313634.893940,17.656000000,0.000000000,57670.914062500,0.000000000,0.000000000,-0.272256732,-82.086189270,0.000000000,14.882999420,-23.422182083
1747313634.896309,17.658000000,0.000000000,57670.914062500,0.000000000,0.000000000,-0.258757174,-80.911285400,0.000000000,14.882999420,-23.422182083
1747313634.898694,17.661000000,0.000000000,57670.914062500,0.000000000,0.000000000,-0.272256732,-80.276924133,0.000000000,14.882999420,-23.422182083
1747313634.901091,17.663000000,0.000000000,57670.914062500,0.000000000,0.000000000,-0.258757174,-80.906921387,0.000000000,14.882999420,-23.422182083
1747313634.903458,17.665000000,0.000000000,57670.914062500,0.000000000,0.000000000,-0.258757174,-79.107444763,0.000000000,14.882999420,-23.422182083
1747313634.905816,17.668000000,0.000000000,57670.914062500,0.000000000,0.000000000,-0.258757174,-79.107528687,0.000000000,14.882999420,-23.422182083
1747313634.908158,17.670000000,0.000000000,57670.914062500,0.000000000,0.000000000,-0.272256732,-80.259521484,0.000000000,14.882999420,-23.422182083
1747313634.910486,17.672000000,0.000000000,57670.914062500,0.000000000,0.000000000,-0.258757174,-80.938018799,0.000000000,14.882999420,-23.422182083
1747313634.912885,17.675000000,0.000000000,57670.914062500,0.000000000,0.000000000,-0.258757174,-79.107788086,0.000000000,14.882999420,-23.422182083
1747313634.915247,17.677000000,0.000000000,57670.914062500,0.000000000,0.000000000,-0.258757174,-79.107879639,0.000000000,14.882999420,-23.422182083
1747313634.917590,17.680000000,0.000000000,57670.914062500,0.000000000,0.000000000,-0.258757174,-79.107963562,0.000000000,14.882999420,-23.422182083
1747313634.919930,17.682000000,0.000000000,57670.914062500,0.000000000,0.000000000,-0.258757174,-79.108055115,0.000000000,14.882999420,-23.422182083
1747313634.922258,17.684000000,0.000000000,57670.914062500,0.000000000,0.000000000,-0.272256732,-80.253791809,0.000000000,14.882999420,-23.422182083
1747313634.924584,17.687000000,0.000000000,57670.914062500,0.000000000,0.000000000,-0.272256732,-82.087326050,0.000000000,14.882999420,-23.422182083
1747313634.926919,17.689000000,0.000000000,57670.914062500,0.000000000,0.000000000,-0.258757174,-80.952812195,0.000000000,14.882999420,-23.422182083
1747313634.929281,17.691000000,0.000000000,57670.914062500,0.000000000,0.000000000,-0.272256732,-80.264198303,0.000000000,14.882999420,-23.422182083
1747313634.931657,17.694000000,0.000000000,57670.914062500,0.000000000,0.000000000,-0.258757174,-80.928703308,0.000000000,14.882999420,-23.422182083
1747313634.934040,17.696000000,0.000000000,57670.914062500,0.000000000,0.000000000,-0.272256732,-80.292640686,0.000000000,14.882999420,-23.422182083
1747313634.936387,17.698000000,0.000000000,57670.914062500,0.000000000,0.000000000,-0.258757174,-80.921943665,0.000000000,14.882999420,-23.422182083
1747313634.938738,17.701000000,0.000000000,57670.914062500,0.000000000,0.000000000,-0.258757174,-79.108757019,0.000000000,14.882999420,-23.422182083
1747313634.941072,17.703000000,0.000000000,57670.914062500,0.000000000,0.000000000,-0.258757174,-79.108848572,0.000000000,14.882999420,-23.422182083
1747313634.943421,17.705000000,0.000000000,57670.914062500,0.000000000,0.000000000,-0.272256732,-80.251441956,0.000000000,14.882999420,-23.422182083
1747313634.945778,17.708000000,0.000000000,57670.914062500,0.000000000,0.000000000,-0.272256732,-82.088119507,0.000000000,14.882999420,-23.422182083
1747313634.948156,17.710000000,0.000000000,57670.914062500,0.000000000,0.000000000,-0.258757174,-80.932418823,0.000000000,14.882999420,-23.422182083
1747313634.950536,17.712000000,0.000000000,57670.914062500,0.000000000,0.000000000,-0.272256732,-80.255638123,0.000000000,14.882999420,-23.422182083
1747313634.952887,17.715000000,0.000000000,57670.914062500,0.000000000,0.000000000,-0.258757174,-80.882049561,0.000000000,14.882999420,-23.422182083
1747313634.955245,17.717000000,0.000000000,57670.914062500,0.000000000,0.000000000,-0.272256732,-80.266731262,0.000000000,14.882999420,-23.422182083
1747313634.957583,17.720000000,0.000000000,57670.914062500,0.000000000,0.000000000,-0.258757174,-80.923507690,0.000000000,14.882999420,-23.422182083
1747313634.959919,17.722000000,0.000000000,57670.914062500,0.000000000,0.000000000,-0.272256732,-80.256774902,0.000000000,14.882999420,-23.422182083
1747313634.962264,17.724000000,0.000000000,57670.914062500,0.000000000,0.000000000,-0.258757174,-80.941528320,0.000000000,14.882999420,-23.422182083
1747313634.964631,17.727000000,0.000000000,57670.914062500,0.000000000,0.000000000,-0.258757174,-79.109733582,0.000000000,14.882999420,-23.422182083
1747313634.966973,17.729000000,0.000000000,57670.914062500,0.000000000,0.000000000,-0.258757174,-79.109817505,0.000000000,14.882999420,-23.422182083
1747313634.969324,17.731000000,0.000000000,57670.914062500,0.000000000,0.000000000,-0.272256732,-80.259475708,0.000000000,14.882999420,-23.422182083
1747313634.971668,17.734000000,0.000000000,57670.914062500,0.000000000,0.000000000,-0.272256732,-82.089096069,0.000000000,14.882999420,-23.422182083
1747313634.974047,17.736000000,0.000000000,57670.914062500,0.000000000,0.000000000,-0.258757174,-80.928741455,0.000000000,14.882999420,-23.422182083
1747313634.976413,17.738000000,0.000000000,57670.914062500,0.000000000,0.000000000,-0.272256732,-80.263641357,0.000000000,14.882999420,-23.422182083
1747313634.978776,17.741000000,0.000000000,57670.914062500,0.000000000,0.000000000,-0.258757174,-80.920471191,0.000000000,14.882999420,-23.422182083
1747313634.981100,17.743000000,0.000000000,57670.914062500,0.000000000,0.000000000,-0.272256732,-80.272331238,0.000000000,14.882999420,-23.422182083
1747313634.983444,17.745000000,0.000000000,57670.914062500,0.000000000,0.000000000,-0.258757174,-80.941535950,0.000000000,14.882999420,-23.422182083
1747313634.985809,17.748000000,0.000000000,57670.914062500,0.000000000,0.000000000,-0.272256732,-80.263992310,0.000000000,14.882999420,-23.422182083
1747313634.988168,17.750000000,0.000000000,57670.914062500,0.000000000,0.000000000,-0.258757174,-80.915489197,0.000000000,14.882999420,-23.422182083
1747313634.990585,17.752000000,0.000000000,57670.914062500,0.000000000,0.000000000,-0.258757174,-79.110702515,0.000000000,14.882999420,-23.422182083
1747313634.992928,17.755000000,0.000000000,57670.914062500,0.000000000,0.000000000,-0.272256732,-80.306060791,0.000000000,14.882999420,-23.422182083
1747313634.995333,17.757000000,0.000000000,57670.914062500,0.000000000,0.000000000,-0.272256732,-82.089981079,0.000000000,14.882999420,-23.422182083
1747313634.997730,17.760000000,0.000000000,57670.914062500,0.000000000,0.000000000,-0.258757174,-80.880805969,0.000000000,14.882999420,-23.422182083
1747313635.000143,17.762000000,0.000000000,57670.914062500,0.000000000,0.000000000,-0.272256732,-80.304100037,0.000000000,14.882999420,-23.422182083
1747313635.002526,17.764000000,0.000000000,57670.914062500,0.000000000,0.000000000,-0.258757174,-80.894248962,0.000000000,14.882999420,-23.422182083
1747313635.004900,17.767000000,0.000000000,57670.914062500,0.000000000,0.000000000,-0.272256732,-80.293800354,0.000000000,14.882999420,-23.422182083
1747313635.007289,17.769000000,0.000000000,57670.914062500,0.000000000,0.000000000,-0.272256732,-82.090438843,0.000000000,14.882999420,-23.422182083
1747313635.009684,17.772000000,0.000000000,57670.914062500,0.000000000,0.000000000,-0.258757174,-80.907974243,0.000000000,14.882999420,-23.422182083
1747313635.012064,17.774000000,0.000000000,57670.914062500,0.000000000,0.000000000,-0.272256732,-80.302322388,0.000000000,14.882999420,-23.422182083
1747313635.014495,17.776000000,0.000000000,57670.914062500,0.000000000,0.000000000,-0.258757174,-80.910415649,0.000000000,14.882999420,-23.422182083
1747313635.016875,17.779000000,0.000000000,57670.914062500,0.000000000,0.000000000,-0.272256732,-80.295005798,0.000000000,14.882999420,-23.422182083
1747313635.019264,17.781000000,0.000000000,57670.914062500,0.000000000,0.000000000,-0.258757174,-80.912109375,0.000000000,14.882999420,-23.422182083
1747313635.021646,17.784000000,0.000000000,57670.914062500,0.000000000,0.000000000,-0.258757174,-79.111869812,0.000000000,14.882999420,-23.422182083
1747313635.024048,17.786000000,0.000000000,57670.914062500,0.000000000,0.000000000,-0.258757174,-79.111961365,0.000000000,14.882999420,-23.422182083
1747313635.026475,17.788000000,0.000000000,57670.914062500,0.000000000,0.000000000,-0.272256732,-80.300613403,0.000000000,14.882999420,-23.422182083
1747313635.028875,17.791000000,0.000000000,57670.914062500,0.000000000,0.000000000,-0.258757174,-80.906425476,0.000000000,14.882999420,-23.422182083
1747313635.031337,17.793000000,0.000000000,57670.914062500,0.000000000,0.000000000,-0.258757174,-79.112228394,0.000000000,14.882999420,-23.422182083
1747313635.033750,17.796000000,0.000000000,57670.914062500,0.000000000,0.000000000,-0.272256732,-80.359504700,0.000000000,14.882999420,-23.422182083
1747313635.036165,17.798000000,0.000000000,57670.914062500,0.000000000,0.000000000,-0.258757174,-80.873512268,0.000000000,14.882999420,-23.422182083
1747313635.038543,17.800000000,0.000000000,57670.914062500,0.000000000,0.000000000,-0.272256732,-80.315162659,0.000000000,14.882999420,-23.422182083
1747313635.040921,17.803000000,0.000000000,57670.914062500,0.000000000,0.000000000,-0.258757174,-80.914428711,0.000000000,14.882999420,-23.422182083
1747313635.043324,17.805000000,0.000000000,57670.914062500,0.000000000,0.000000000,-0.258757174,-79.112678528,0.000000000,14.882999420,-23.422182083
1747313635.045754,17.808000000,0.000000000,57670.914062500,0.000000000,0.000000000,-0.272256732,-80.293060303,0.000000000,14.882999420,-23.422182083
1747313635.048142,17.810000000,0.000000000,57670.914062500,0.000000000,0.000000000,-0.272256732,-82.091957092,0.000000000,14.882999420,-23.422182083
1747313635.050556,17.812000000,0.000000000,57670.914062500,0.000000000,0.000000000,-0.258757174,-80.899009705,0.000000000,14.882999420,-23.422182083
1747313635.052930,17.815000000,0.000000000,57670.914062500,0.000000000,0.000000000,-0.272256732,-80.304588318,0.000000000,14.882999420,-23.422182083
1747313635.055312,17.817000000,0.000000000,57670.914062500,0.000000000,0.000000000,-0.258757174,-80.910430908,0.000000000,14.882999420,-23.422182083
1747313635.057700,17.820000000,0.000000000,57670.914062500,0.000000000,0.000000000,-0.272256732,-80.298027039,0.000000000,14.882999420,-23.422182083
1747313635.060088,17.822000000,0.000000000,57670.914062500,0.000000000,0.000000000,-0.272256732,-82.092414856,0.000000000,14.882999420,-23.422182083
1747313635.062489,17.824000000,0.000000000,57670.914062500,0.000000000,0.000000000,-0.258757174,-80.908439636,0.000000000,14.882999420,-23.422182083
1747313635.064885,17.827000000,0.000000000,57670.914062500,0.000000000,0.000000000,-0.272256732,-80.304298401,0.000000000,14.882999420,-23.422182083
1747313635.067254,17.829000000,0.000000000,57670.914062500,0.000000000,0.000000000,-0.258757174,-80.906372070,0.000000000,14.882999420,-23.422182083
1747313635.069645,17.832000000,0.000000000,57670.914062500,0.000000000,0.000000000,-0.272256732,-80.290176392,0.000000000,14.882999420,-23.422182083
1747313635.072052,17.834000000,0.000000000,57670.914062500,0.000000000,0.000000000,-0.258757174,-80.907302856,0.000000000,14.882999420,-23.422182083
1747313635.074438,17.836000000,0.000000000,57670.914062500,0.000000000,0.000000000,-0.258757174,-79.113853455,0.000000000,14.882999420,-23.422182083
1747313635.076920,17.839000000,0.000000000,57670.914062500,0.000000000,0.000000000,-0.258757174,-79.113937378,0.000000000,14.882999420,-23.422182083
1747313635.079318,17.841000000,0.000000000,57670.914062500,0.000000000,0.000000000,-0.272256732,-80.364013672,0.000000000,14.882999420,-23.422182083
1747313635.081725,17.844000000,0.000000000,57670.914062500,0.000000000,0.000000000,-0.272256732,-82.093223572,0.000000000,14.882999420,-23.422182083
1747313635.084117,17.846000000,0.000000000,57670.914062500,0.000000000,0.000000000,-0.258757174,-80.893600464,0.000000000,14.882999420,-23.422182083
1747313635.086464,17.848000000,0.000000000,57670.914062500,0.000000000,0.000000000,-0.272256732,-80.312538147,0.000000000,14.882999420,-23.422182083
1747313635.088792,17.851000000,0.000000000,57670.914062500,0.000000000,0.000000000,-0.258757174,-80.940032959,0.000000000,14.882999420,-23.422182083
1747313635.091154,17.853000000,0.000000000,57670.914062500,0.000000000,0.000000000,-0.272256732,-80.261703491,0.000000000,14.882999420,-23.422182083
1747313635.093480,17.855000000,0.000000000,57670.914062500,0.000000000,0.000000000,-0.258757174,-80.952735901,0.000000000,14.882999420,-23.422182083
1747313635.095817,17.858000000,0.000000000,57670.914062500,0.000000000,0.000000000,-0.272256732,-80.258743286,0.000000000,14.882999420,-23.422182083
1747313635.098186,17.860000000,0.000000000,57670.914062500,0.000000000,0.000000000,-0.272256732,-82.093849182,0.000000000,14.882999420,-23.422182083
1747313635.100539,17.862000000,0.000000000,57670.914062500,0.000000000,0.000000000,-0.258757174,-80.935043335,0.000000000,14.882999420,-23.422182083
1747313635.102886,17.865000000,0.000000000,57670.914062500,0.000000000,0.000000000,-0.272256732,-80.269172668,0.000000000,14.882999420,-23.422182083
1747313635.105228,17.867000000,0.000000000,57670.914062500,0.000000000,0.000000000,-0.258757174,-80.937538147,0.000000000,14.882999420,-23.422182083
1747313635.107559,17.870000000,0.000000000,57670.914062500,0.000000000,0.000000000,-0.272256732,-80.266235352,0.000000000,14.882999420,-23.422182083
1747313635.109888,17.872000000,0.000000000,57670.914062500,0.000000000,0.000000000,-0.258757174,-80.953361511,0.000000000,14.882999420,-23.422182083
1747313635.112219,17.874000000,0.000000000,57670.914062500,0.000000000,0.000000000,-0.272256732,-80.258583069,0.000000000,14.882999420,-23.422182083
1747313635.114576,17.877000000,0.000000000,57670.914062500,0.000000000,0.000000000,-0.272256732,-82.094467163,0.000000000,14.882999420,-23.422182083
1747313635.116968,17.879000000,0.000000000,57670.914062500,0.000000000,0.000000000,-0.258757174,-80.937988281,0.000000000,14.882999420,-23.422182083
1747313635.119321,17.881000000,0.000000000,57670.914062500,0.000000000,0.000000000,-0.272256732,-80.299606323,0.000000000,14.882999420,-23.422182083
1747313635.121679,17.884000000,0.000000000,57670.914062500,0.000000000,0.000000000,-0.258757174,-80.920509338,0.000000000,14.882999420,-23.422182083
1747313635.124028,17.886000000,0.000000000,57670.914062500,0.000000000,0.000000000,-0.272256732,-80.283088684,0.000000000,14.882999420,-23.422182083
1747313635.126374,17.888000000,0.000000000,57670.914062500,0.000000000,0.000000000,-0.258757174,-80.947692871,0.000000000,14.882999420,-23.422182083
1747313635.128720,17.891000000,0.000000000,57670.914062500,0.000000000,0.000000000,-0.258757174,-79.115905762,0.000000000,14.882999420,-23.422182083
1747313635.131071,17.893000000,0.000000000,57670.914062500,0.000000000,0.000000000,-0.258757174,-79.115989685,0.000000000,14.882999420,-23.422182083
1747313635.133427,17.895000000,0.000000000,57670.914062500,0.000000000,0.000000000,-0.272256732,-80.270317078,0.000000000,14.882999420,-23.422182083
1747313635.135796,17.898000000,0.000000000,57670.914062500,0.000000000,0.000000000,-0.272256732,-82.095268250,0.000000000,14.882999420,-23.422182083
1747313635.138132,17.900000000,0.000000000,57670.914062500,0.000000000,0.000000000,-0.258757174,-80.927230835,0.000000000,14.882999420,-23.422182083
1747313635.140462,17.902000000,0.000000000,57670.914062500,0.000000000,0.000000000,-0.272256732,-80.266693115,0.000000000,14.882999420,-23.422182083
1747313635.142802,17.905000000,0.000000000,57670.914062500,0.000000000,0.000000000,-0.258757174,-80.955383301,0.000000000,14.882999420,-23.422182083
1747313635.145143,17.907000000,0.000000000,57670.914062500,0.000000000,0.000000000,-0.272256732,-80.266868591,0.000000000,14.882999420,-23.422182083
1747313635.147494,17.909000000,0.000000000,57670.914062500,0.000000000,0.000000000,-0.258757174,-80.947700500,0.000000000,14.882999420,-23.422182083
1747313635.149827,17.912000000,0.000000000,57670.914062500,0.000000000,0.000000000,-0.272256732,-80.270164490,0.000000000,14.882999420,-23.422182083
1747313635.152181,17.914000000,0.000000000,57670.914062500,0.000000000,0.000000000,-0.258757174,-80.945541382,0.000000000,14.882999420,-23.422182083
1747313635.154505,17.916000000,0.000000000,57670.914062500,0.000000000,0.000000000,-0.258757174,-79.116874695,0.000000000,14.882999420,-23.422182083
1747313635.156852,17.919000000,0.000000000,57670.914062500,0.000000000,0.000000000,-0.272256732,-80.257896423,0.000000000,14.882999420,-23.422182083
1747313635.159186,17.921000000,0.000000000,57670.914062500,0.000000000,0.000000000,-0.272256732,-82.096153259,0.000000000,14.882999420,-23.422182083
1747313635.161533,17.924000000,0.000000000,57670.914062500,0.000000000,0.000000000,-0.258757174,-80.948234558,0.000000000,14.882999420,-23.422182083
1747313635.163883,17.926000000,0.000000000,57670.914062500,0.000000000,0.000000000,-0.272256732,-80.273025513,0.000000000,14.882999420,-23.422182083
1747313635.166215,17.928000000,0.000000000,57670.914062500,0.000000000,0.000000000,-0.258757174,-80.944511414,0.000000000,14.882999420,-23.422182083
1747313635.168619,17.931000000,0.000000000,57670.914062500,0.000000000,0.000000000,-0.272256732,-80.261489868,0.000000000,14.882999420,-23.422182083
1747313635.170941,17.933000000,0.000000000,57670.914062500,0.000000000,0.000000000,-0.272256732,-82.096595764,0.000000000,14.882999420,-23.422182083
1747313635.173314,17.935000000,0.000000000,57670.914062500,0.000000000,0.000000000,-0.258757174,-80.940109253,0.000000000,14.882999420,-23.422182083
1747313635.175674,17.938000000,0.000000000,57670.914062500,0.000000000,0.000000000,-0.272256732,-80.286567688,0.000000000,14.882999420,-23.422182083
1747313635.178014,17.940000000,0.000000000,57670.914062500,0.000000000,0.000000000,-0.258757174,-80.930267334,0.000000000,14.882999420,-23.422182083
1747313635.180374,17.942000000,0.000000000,57670.914062500,0.000000000,0.000000000,-0.272256732,-80.265853882,0.000000000,14.882999420,-23.422182083
1747313635.182709,17.945000000,0.000000000,57670.914062500,0.000000000,0.000000000,-0.258757174,-80.938919067,0.000000000,14.882999420,-23.422182083
1747313635.185051,17.947000000,0.000000000,57670.914062500,0.000000000,0.000000000,-0.258757174,-79.118026733,0.000000000,14.882999420,-23.422182083
1747313635.187403,17.949000000,0.000000000,57670.914062500,0.000000000,0.000000000,-0.258757174,-79.118110657,0.000000000,14.882999420,-23.422182083
1747313635.189739,17.952000000,0.000000000,57670.914062500,0.000000000,0.000000000,-0.258757174,-79.118202209,0.000000000,14.882999420,-23.422182083
1747313635.192082,17.954000000,0.000000000,57670.914062500,0.000000000,0.000000000,-0.258757174,-79.118286133,0.000000000,14.882999420,-23.422182083
1747313635.194412,17.956000000,0.000000000,57670.914062500,0.000000000,0.000000000,-0.258757174,-79.118370056,0.000000000,14.882999420,-23.422182083
1747313635.196763,17.959000000,0.000000000,57670.914062500,0.000000000,0.000000000,-0.258757174,-79.118461609,0.000000000,14.882999420,-23.422182083
1747313635.199119,17.961000000,0.000000000,57670.914062500,0.000000000,0.000000000,-0.272256732,-80.274337769,0.000000000,14.882999420,-23.422182083
1747313635.201463,17.963000000,0.000000000,57670.914062500,0.000000000,0.000000000,-0.272256732,-82.097732544,0.000000000,14.882999420,-23.422182083
1747313635.203798,17.966000000,0.000000000,57670.914062500,0.000000000,0.000000000,-0.258757174,-80.952171326,0.000000000,14.882999420,-23.422182083
1747313635.206134,17.968000000,0.000000000,57670.914062500,0.000000000,0.000000000,-0.272256732,-80.267601013,0.000000000,14.882999420,-23.422182083
1747313635.208468,17.970000000,0.000000000,57670.914062500,0.000000000,0.000000000,-0.258757174,-80.957855225,0.000000000,14.882999420,-23.422182083
1747313635.210833,17.973000000,0.000000000,57670.914062500,0.000000000,0.000000000,-0.272256732,-80.263862610,0.000000000,14.882999420,-23.422182083
1747313635.213243,17.975000000,0.000000000,57670.914062500,0.000000000,0.000000000,-0.258757174,-80.938507080,0.000000000,14.882999420,-23.422182083
1747313635.215703,17.978000000,0.000000000,57670.914062500,0.000000000,0.000000000,-0.272256732,-80.326240540,0.000000000,14.882999420,-23.422182083
1747313635.218057,17.980000000,0.000000000,57670.914062500,0.000000000,0.000000000,-0.272256732,-82.098365784,0.000000000,14.882999420,-23.422182083
1747313635.220452,17.982000000,0.000000000,57670.914062500,0.000000000,0.000000000,-0.258757174,-80.927268982,0.000000000,14.882999420,-23.422182083
1747313635.223830,17.986000000,0.000000000,57670.914062500,0.000000000,0.000000000,-0.272256732,-80.295944214,0.000000000,14.882999420,-23.422182083
1747313635.226184,17.988000000,0.000000000,57670.914062500,0.000000000,0.000000000,-0.258757174,-80.384254456,0.000000000,14.882999420,-23.422182083
1747313635.228523,17.990000000,0.000000000,57670.914062500,0.000000000,0.000000000,-0.272256732,-80.277778625,0.000000000,14.882999420,-23.422182083
1747313635.230897,17.993000000,0.000000000,57670.914062500,0.000000000,0.000000000,-0.258757174,-80.950836182,0.000000000,14.882999420,-23.422182083
1747313635.233235,17.995000000,0.000000000,57670.914062500,0.000000000,0.000000000,-0.272256732,-80.277175903,0.000000000,14.882999420,-23.422182083
1747313635.235571,17.998000000,0.000000000,57670.914062500,0.000000000,0.000000000,-0.258757174,-80.953361511,0.000000000,14.882999420,-23.422182083
1747313635.237905,18.000000000,0.000000000,57670.914062500,0.000000000,0.000000000,-0.258757174,-79.120010376,0.000000000,14.882999420,-23.422182083
1747313635.240276,18.002000000,0.000000000,57670.914062500,0.000000000,0.000000000,-0.272256732,-80.270439148,0.000000000,14.882999420,-23.422182083
1747313635.242603,18.005000000,0.000000000,57670.914062500,0.000000000,0.000000000,-0.258757174,-80.946594238,0.000000000,14.882999420,-23.422182083
1747313635.244937,18.007000000,0.000000000,57670.914062500,0.000000000,0.000000000,-0.272256732,-80.262779236,0.000000000,14.882999420,-23.422182083
1747313635.247319,18.009000000,0.000000000,57670.914062500,0.000000000,0.000000000,-0.272256732,-82.099464417,0.000000000,14.882999420,-23.422182083
1747313635.249756,18.012000000,0.000000000,57670.914062500,0.000000000,0.000000000,-0.258757174,-80.922286987,0.000000000,14.882999420,-23.422182083
1747313635.252233,18.014000000,0.000000000,57670.914062500,0.000000000,0.000000000,-0.272256732,-80.346466064,0.000000000,14.882999420,-23.422182083
1747313635.254603,18.017000000,0.000000000,57670.914062500,0.000000000,0.000000000,-0.258757174,-80.851158142,0.000000000,14.882999420,-23.422182083
1747313635.256987,18.019000000,0.000000000,57670.914062500,0.000000000,0.000000000,-0.272256732,-80.272636414,0.000000000,14.882999420,-23.422182083
1747313635.259398,18.021000000,0.000000000,57670.914062500,0.000000000,0.000000000,-0.272256732,-82.099914551,0.000000000,14.882999420,-23.422182083
1747313635.261811,18.024000000,0.000000000,57670.914062500,0.000000000,0.000000000,-0.258757174,-80.901771545,0.000000000,14.882999420,-23.422182083
1747313635.264261,18.026000000,0.000000000,57670.914062500,0.000000000,0.000000000,-0.272256732,-80.335365295,0.000000000,14.882999420,-23.422182083
1747313635.266657,18.029000000,0.000000000,57670.914062500,0.000000000,0.000000000,-0.258757174,-80.887275696,0.000000000,14.882999420,-23.422182083
1747313635.269057,18.031000000,0.000000000,57670.914062500,0.000000000,0.000000000,-0.272256732,-80.323844910,0.000000000,14.882999420,-23.422182083
1747313635.271433,18.033000000,0.000000000,57670.914062500,0.000000000,0.000000000,-0.272256732,-82.100372314,0.000000000,14.882999420,-23.422182083
1747313635.273798,18.036000000,0.000000000,57670.914062500,0.000000000,0.000000000,-0.258757174,-80.914901733,0.000000000,14.882999420,-23.422182083
1747313635.276166,18.038000000,0.000000000,57670.914062500,0.000000000,0.000000000,-0.272256732,-80.294921875,0.000000000,14.882999420,-23.422182083
1747313635.278513,18.040000000,0.000000000,57670.914062500,0.000000000,0.000000000,-0.272256732,-82.100639343,0.000000000,14.882999420,-23.422182083
1747313635.280881,18.043000000,0.000000000,57670.914062500,0.000000000,0.000000000,-0.258757174,-80.949600220,0.000000000,14.882999420,-23.422182083
1747313635.283274,18.045000000,0.000000000,57670.914062500,0.000000000,0.000000000,-0.272256732,-80.289077759,0.000000000,14.882999420,-23.422182083
1747313635.285665,18.048000000,0.000000000,57670.914062500,0.000000000,0.000000000,-0.272256732,-82.100914001,0.000000000,14.882999420,-23.422182083
1747313635.287995,18.050000000,0.000000000,57670.914062500,0.000000000,0.000000000,-0.258757174,-80.929054260,0.000000000,14.882999420,-23.422182083
1747313635.290349,18.052000000,0.000000000,57670.914062500,0.000000000,0.000000000,-0.272256732,-80.266860962,0.000000000,14.882999420,-23.422182083
1747313635.292680,18.055000000,0.000000000,57670.914062500,0.000000000,0.000000000,-0.258757174,-80.946159363,0.000000000,14.882999420,-23.422182083
1747313635.295020,18.057000000,0.000000000,57670.914062500,0.000000000,0.000000000,-0.258757174,-79.122161865,0.000000000,14.882999420,-23.422182083
1747313635.297369,18.059000000,0.000000000,57670.914062500,0.000000000,0.000000000,-0.258757174,-79.122253418,0.000000000,14.882999420,-23.422182083
1747313635.299723,18.062000000,0.000000000,57670.914062500,0.000000000,0.000000000,-0.258757174,-79.122337341,0.000000000,14.882999420,-23.422182083
1747313635.302086,18.064000000,0.000000000,57670.914062500,0.000000000,0.000000000,-0.258757174,-79.122421265,0.000000000,14.882999420,-23.422182083
1747313635.304458,18.066000000,0.000000000,57670.914062500,0.000000000,0.000000000,-0.258757174,-79.122512817,0.000000000,14.882999420,-23.422182083
1747313635.306835,18.069000000,0.000000000,57670.914062500,0.000000000,0.000000000,-0.258757174,-79.122596741,0.000000000,14.882999420,-23.422182083
1747313635.309146,18.071000000,0.000000000,57670.914062500,0.000000000,0.000000000,-0.258757174,-79.122680664,0.000000000,14.882999420,-23.422182083
1747313635.311471,18.073000000,0.000000000,57670.914062500,0.000000000,0.000000000,-0.258757174,-79.122772217,0.000000000,14.882999420,-23.422182083
1747313635.313793,18.076000000,0.000000000,57670.914062500,0.000000000,0.000000000,-0.258757174,-79.122856140,0.000000000,14.882999420,-23.422182083
1747313635.316118,18.078000000,0.000000000,57670.914062500,0.000000000,0.000000000,-0.258757174,-79.122940063,0.000000000,14.882999420,-23.422182083
1747313635.318462,18.080000000,0.000000000,57670.914062500,0.000000000,0.000000000,-0.258757174,-79.123023987,0.000000000,14.882999420,-23.422182083
1747313635.320782,18.083000000,0.000000000,57670.914062500,0.000000000,0.000000000,-0.272256732,-80.263259888,0.000000000,14.882999420,-23.422182083
1747313635.323114,18.085000000,0.000000000,57670.914062500,0.000000000,0.000000000,-0.272256732,-82.102302551,0.000000000,14.882999420,-23.422182083
1747313635.325443,18.087000000,0.000000000,57670.914062500,0.000000000,0.000000000,-0.258757174,-80.959091187,0.000000000,14.882999420,-23.422182083
1747313635.327782,18.090000000,0.000000000,57670.914062500,0.000000000,0.000000000,-0.272256732,-80.261940002,0.000000000,14.882999420,-23.422182083
1747313635.330128,18.092000000,0.000000000,57670.914062500,0.000000000,0.000000000,-0.258757174,-80.952995300,0.000000000,14.882999420,-23.422182083
1747313635.332450,18.094000000,0.000000000,57670.914062500,0.000000000,0.000000000,-0.258757174,-79.123558044,0.000000000,14.882999420,-23.422182083
1747313635.334797,18.097000000,0.000000000,57670.914062500,0.000000000,0.000000000,-0.258757174,-79.123641968,0.000000000,14.882999420,-23.422182083
1747313635.337167,18.099000000,0.000000000,57670.914062500,0.000000000,0.000000000,-0.272256732,-80.267807007,0.000000000,14.882999420,-23.422182083
1747313635.339510,18.101000000,0.000000000,57670.914062500,0.000000000,0.000000000,-0.258757174,-80.932495117,0.000000000,14.882999420,-23.422182083
1747313635.341908,18.104000000,0.000000000,57670.914062500,0.000000000,0.000000000,-0.258757174,-79.123901367,0.000000000,14.882999420,-23.422182083
1747313635.344259,18.106000000,0.000000000,57670.914062500,0.000000000,0.000000000,-0.258757174,-79.123985291,0.000000000,14.882999420,-23.422182083
1747313635.346622,18.109000000,0.000000000,57670.914062500,0.000000000,0.000000000,-0.258757174,-79.124076843,0.000000000,14.882999420,-23.422182083
1747313635.348953,18.111000000,0.000000000,57670.914062500,0.000000000,0.000000000,-0.258757174,-79.124160767,0.000000000,14.882999420,-23.422182083
1747313635.351300,18.113000000,0.000000000,57670.914062500,0.000000000,0.000000000,-0.258757174,-79.124244690,0.000000000,14.882999420,-23.422182083
1747313635.353626,18.116000000,0.000000000,57670.914062500,0.000000000,0.000000000,-0.258757174,-79.124336243,0.000000000,14.882999420,-23.422182083
1747313635.355965,18.118000000,0.000000000,57670.914062500,0.000000000,0.000000000,-0.258757174,-79.124420166,0.000000000,14.882999420,-23.422182083
1747313635.358279,18.120000000,0.000000000,57670.914062500,0.000000000,0.000000000,-0.258757174,-79.124504089,0.000000000,14.882999420,-23.422182083
1747313635.360618,18.123000000,0.000000000,57670.914062500,0.000000000,0.000000000,-0.272256732,-80.259193420,0.000000000,14.882999420,-23.422182083
1747313635.362949,18.125000000,0.000000000,57670.914062500,0.000000000,0.000000000,-0.272256732,-82.103782654,0.000000000,14.882999420,-23.422182083
1747313635.365289,18.127000000,0.000000000,57670.914062500,0.000000000,0.000000000,-0.258757174,-80.962150574,0.000000000,14.882999420,-23.422182083
1747313635.367640,18.130000000,0.000000000,57670.914062500,0.000000000,0.000000000,-0.272256732,-80.267364502,0.000000000,14.882999420,-23.422182083
1747313635.369962,18.132000000,0.000000000,57670.914062500,0.000000000,0.000000000,-0.258757174,-80.962326050,0.000000000,14.882999420,-23.422182083
1747313635.372302,18.134000000,0.000000000,57670.914062500,0.000000000,0.000000000,-0.272256732,-80.278503418,0.000000000,14.882999420,-23.422182083
1747313635.374641,18.137000000,0.000000000,57670.914062500,0.000000000,0.000000000,-0.258757174,-80.949203491,0.000000000,14.882999420,-23.422182083
1747313635.376997,18.139000000,0.000000000,57670.914062500,0.000000000,0.000000000,-0.258757174,-79.125213623,0.000000000,14.882999420,-23.422182083
1747313635.379341,18.141000000,0.000000000,57670.914062500,0.000000000,0.000000000,-0.258757174,-79.125297546,0.000000000,14.882999420,-23.422182083
1747313635.381678,18.144000000,0.000000000,57670.914062500,0.000000000,0.000000000,-0.272256732,-80.273391724,0.000000000,14.882999420,-23.422182083
1747313635.384035,18.146000000,0.000000000,57670.914062500,0.000000000,0.000000000,-0.272256732,-82.104576111,0.000000000,14.882999420,-23.422182083
1747313635.386377,18.148000000,0.000000000,57670.914062500,0.000000000,0.000000000,-0.258757174,-80.959793091,0.000000000,14.882999420,-23.422182083
1747313635.388711,18.151000000,0.000000000,57670.914062500,0.000000000,0.000000000,-0.272256732,-80.289939880,0.000000000,14.882999420,-23.422182083
1747313635.391054,18.153000000,0.000000000,57670.914062500,0.000000000,0.000000000,-0.258757174,-80.960754395,0.000000000,14.882999420,-23.422182083
1747313635.393410,18.155000000,0.000000000,57670.914062500,0.000000000,0.000000000,-0.272256732,-80.279296875,0.000000000,14.882999420,-23.422182083
1747313635.395752,18.158000000,0.000000000,57670.914062500,0.000000000,0.000000000,-0.258757174,-80.948440552,0.000000000,14.882999420,-23.422182083
1747313635.398140,18.160000000,0.000000000,57670.914062500,0.000000000,0.000000000,-0.258757174,-79.126007080,0.000000000,14.882999420,-23.422182083
1747313635.400518,18.162000000,0.000000000,57670.914062500,0.000000000,0.000000000,-0.258757174,-79.126091003,0.000000000,14.882999420,-23.422182083
1747313635.402886,18.165000000,0.000000000,57670.914062500,0.000000000,0.000000000,-0.272256732,-80.301170349,0.000000000,14.882999420,-23.422182083
1747313635.405223,18.167000000,0.000000000,57670.914062500,0.000000000,0.000000000,-0.272256732,-82.105369568,0.000000000,14.882999420,-23.422182083
1747313635.407567,18.170000000,0.000000000,57670.914062500,0.000000000,0.000000000,-0.258757174,-80.959800720,0.000000000,14.882999420,-23.422182083
1747313635.409938,18.172000000,0.000000000,57670.914062500,0.000000000,0.000000000,-0.272256732,-80.279136658,0.000000000,14.882999420,-23.422182083
1747313635.412281,18.174000000,0.000000000,57670.914062500,0.000000000,0.000000000,-0.258757174,-80.939804077,0.000000000,14.882999420,-23.422182083
1747313635.414631,18.177000000,0.000000000,57670.914062500,0.000000000,0.000000000,-0.272256732,-80.276191711,0.000000000,14.882999420,-23.422182083
1747313635.416956,18.179000000,0.000000000,57670.914062500,0.000000000,0.000000000,-0.258757174,-80.947692871,0.000000000,14.882999420,-23.422182083
1747313635.419327,18.181000000,0.000000000,57670.914062500,0.000000000,0.000000000,-0.258757174,-79.126800537,0.000000000,14.882999420,-23.422182083
1747313635.421678,18.184000000,0.000000000,57670.914062500,0.000000000,0.000000000,-0.258757174,-79.126884460,0.000000000,14.882999420,-23.422182083
1747313635.424024,18.186000000,0.000000000,57670.914062500,0.000000000,0.000000000,-0.272256732,-80.292030334,0.000000000,14.882999420,-23.422182083
1747313635.426377,18.188000000,0.000000000,57670.914062500,0.000000000,0.000000000,-0.258757174,-80.952697754,0.000000000,14.882999420,-23.422182083
1747313635.428725,18.191000000,0.000000000,57670.914062500,0.000000000,0.000000000,-0.258757174,-79.127143860,0.000000000,14.882999420,-23.422182083
1747313635.431080,18.193000000,0.000000000,57670.914062500,0.000000000,0.000000000,-0.272256732,-80.279144287,0.000000000,14.882999420,-23.422182083
1747313635.433444,18.195000000,0.000000000,57670.914062500,0.000000000,0.000000000,-0.258757174,-80.945983887,0.000000000,14.882999420,-23.422182083
1747313635.435785,18.198000000,0.000000000,57670.914062500,0.000000000,0.000000000,-0.258757174,-79.127410889,0.000000000,14.882999420,-23.422182083
1747313635.438160,18.200000000,0.000000000,57670.914062500,0.000000000,0.000000000,-0.272256732,-80.280181885,0.000000000,14.882999420,-23.422182083
1747313635.440504,18.202000000,0.000000000,57670.914062500,0.000000000,0.000000000,-0.272256732,-82.106689453,0.000000000,14.882999420,-23.422182083
1747313635.442875,18.205000000,0.000000000,57670.914062500,0.000000000,0.000000000,-0.258757174,-80.944793701,0.000000000,14.882999420,-23.422182083
1747313635.445219,18.207000000,0.000000000,57670.914062500,0.000000000,0.000000000,-0.272256732,-80.299713135,0.000000000,14.882999420,-23.422182083
1747313635.447566,18.210000000,0.000000000,57670.914062500,0.000000000,0.000000000,-0.258757174,-80.958168030,0.000000000,14.882999420,-23.422182083
1747313635.449931,18.212000000,0.000000000,57670.914062500,0.000000000,0.000000000,-0.272256732,-80.276733398,0.000000000,14.882999420,-23.422182083
1747313635.452321,18.214000000,0.000000000,57670.914062500,0.000000000,0.000000000,-0.258757174,-80.958343506,0.000000000,14.882999420,-23.422182083
1747313635.454630,18.217000000,0.000000000,57670.914062500,0.000000000,0.000000000,-0.272256732,-80.318176270,0.000000000,14.882999420,-23.422182083
1747313635.456951,18.219000000,0.000000000,57670.914062500,0.000000000,0.000000000,-0.272256732,-82.107307434,0.000000000,14.882999420,-23.422182083
1747313635.459289,18.221000000,0.000000000,57670.914062500,0.000000000,0.000000000,-0.258757174,-80.974380493,0.000000000,14.882999420,-23.422182083
1747313635.461659,18.224000000,0.000000000,57670.914062500,0.000000000,0.000000000,-0.272256732,-80.274826050,0.000000000,14.882999420,-23.422182083
1747313635.463996,18.226000000,0.000000000,57670.914062500,0.000000000,0.000000000,-0.258757174,-80.941749573,0.000000000,14.882999420,-23.422182083
1747313635.466379,18.228000000,0.000000000,57670.914062500,0.000000000,0.000000000,-0.272256732,-80.278907776,0.000000000,14.882999420,-23.422182083
1747313635.468732,18.231000000,0.000000000,57670.914062500,0.000000000,0.000000000,-0.258757174,-80.933525085,0.000000000,14.882999420,-23.422182083
1747313635.471106,18.233000000,0.000000000,57670.914062500,0.000000000,0.000000000,-0.272256732,-80.287635803,0.000000000,14.882999420,-23.422182083
1747313635.473456,18.235000000,0.000000000,57670.914062500,0.000000000,0.000000000,-0.272256732,-82.107933044,0.000000000,14.882999420,-23.422182083
1747313635.475831,18.238000000,0.000000000,57670.914062500,0.000000000,0.000000000,-0.258757174,-80.942192078,0.000000000,14.882999420,-23.422182083
1747313635.478235,18.240000000,0.000000000,57670.914062500,0.000000000,0.000000000,-0.272256732,-80.298667908,0.000000000,14.882999420,-23.422182083
1747313635.480625,18.243000000,0.000000000,57670.914062500,0.000000000,0.000000000,-0.258757174,-80.911445618,0.000000000,14.882999420,-23.422182083
1747313635.482977,18.245000000,0.000000000,57670.914062500,0.000000000,0.000000000,-0.272256732,-80.310989380,0.000000000,14.882999420,-23.422182083
1747313635.485371,18.247000000,0.000000000,57670.914062500,0.000000000,0.000000000,-0.272256732,-82.108375549,0.000000000,14.882999420,-23.422182083
1747313635.487720,18.250000000,0.000000000,57670.914062500,0.000000000,0.000000000,-0.258757174,-80.928176880,0.000000000,14.882999420,-23.422182083
1747313635.490099,18.252000000,0.000000000,57670.914062500,0.000000000,0.000000000,-0.272256732,-80.297584534,0.000000000,14.882999420,-23.422182083
1747313635.492478,18.254000000,0.000000000,57670.914062500,0.000000000,0.000000000,-0.272256732,-82.108642578,0.000000000,14.882999420,-23.422182083
1747313635.494835,18.257000000,0.000000000,57670.914062500,0.000000000,0.000000000,-0.258757174,-80.941375732,0.000000000,14.882999420,-23.422182083
1747313635.497229,18.259000000,0.000000000,57670.914062500,0.000000000,0.000000000,-0.272256732,-80.290939331,0.000000000,14.882999420,-23.422182083
1747313635.499572,18.262000000,0.000000000,57670.914062500,0.000000000,0.000000000,-0.258757174,-80.918861389,0.000000000,14.882999420,-23.422182083
1747313635.501979,18.264000000,0.000000000,57670.914062500,0.000000000,0.000000000,-0.272256732,-80.292655945,0.000000000,14.882999420,-23.422182083
1747313635.504385,18.266000000,0.000000000,57670.914062500,0.000000000,0.000000000,-0.272256732,-82.109092712,0.000000000,14.882999420,-23.422182083
1747313635.506746,18.269000000,0.000000000,57670.914062500,0.000000000,0.000000000,-0.258757174,-80.914657593,0.000000000,14.882999420,-23.422182083
1747313635.509106,18.271000000,0.000000000,57670.914062500,0.000000000,0.000000000,-0.272256732,-80.299835205,0.000000000,14.882999420,-23.422182083
1747313635.511476,18.273000000,0.000000000,57670.914062500,0.000000000,0.000000000,-0.272256732,-82.109367371,0.000000000,14.882999420,-23.422182083
1747313635.513861,18.276000000,0.000000000,57670.914062500,0.000000000,0.000000000,-0.258757174,-80.938270569,0.000000000,14.882999420,-23.422182083
1747313635.516228,18.278000000,0.000000000,57670.914062500,0.000000000,0.000000000,-0.272256732,-80.300865173,0.000000000,14.882999420,-23.422182083
1747313635.518681,18.281000000,0.000000000,57670.914062500,0.000000000,0.000000000,-0.272256732,-82.109634399,0.000000000,14.882999420,-23.422182083
1747313635.521079,18.283000000,0.000000000,57670.914062500,0.000000000,0.000000000,-0.258757174,-80.878799438,0.000000000,14.882999420,-23.422182083
1747313635.523508,18.285000000,0.000000000,57670.914062500,0.000000000,0.000000000,-0.272256732,-80.327468872,0.000000000,14.882999420,-23.422182083
1747313635.525905,18.288000000,0.000000000,57670.914062500,0.000000000,0.000000000,-0.258757174,-80.895538330,0.000000000,14.882999420,-23.422182083
1747313635.528292,18.290000000,0.000000000,57670.914062500,0.000000000,0.000000000,-0.272256732,-80.318710327,0.000000000,14.882999420,-23.422182083
1747313635.530671,18.293000000,0.000000000,57670.914062500,0.000000000,0.000000000,-0.272256732,-82.110092163,0.000000000,14.882999420,-23.422182083
1747313635.533084,18.295000000,0.000000000,57670.914062500,0.000000000,0.000000000,-0.258757174,-80.927619934,0.000000000,14.882999420,-23.422182083
1747313635.535439,18.297000000,0.000000000,57670.914062500,0.000000000,0.000000000,-0.272256732,-80.306915283,0.000000000,14.882999420,-23.422182083
1747313635.537880,18.300000000,0.000000000,57670.914062500,0.000000000,0.000000000,-0.258757174,-80.933853149,0.000000000,14.882999420,-23.422182083
1747313635.540382,18.302000000,0.000000000,57670.914062500,0.000000000,0.000000000,-0.272256732,-80.369384766,0.000000000,14.882999420,-23.422182083
1747313635.542852,18.305000000,0.000000000,57670.914062500,0.000000000,0.000000000,-0.258757174,-80.852920532,0.000000000,14.882999420,-23.422182083
1747313635.545342,18.307000000,0.000000000,57670.914062500,0.000000000,0.000000000,-0.258757174,-79.131530762,0.000000000,14.882999420,-23.422182083
1747313635.547878,18.310000000,0.000000000,57670.914062500,0.000000000,0.000000000,-0.258757174,-79.131622314,0.000000000,14.882999420,-23.422182083
1747313635.550366,18.312000000,0.000000000,57670.914062500,0.000000000,0.000000000,-0.272256732,-80.405097961,0.000000000,14.882999420,-23.422182083
1747313635.552753,18.315000000,0.000000000,57670.914062500,0.000000000,0.000000000,-0.272256732,-82.110916138,0.000000000,14.882999420,-23.422182083
1747313635.555148,18.317000000,0.000000000,57670.914062500,0.000000000,0.000000000,-0.258757174,-80.918708801,0.000000000,14.882999420,-23.422182083
1747313635.557492,18.319000000,0.000000000,57670.914062500,0.000000000,0.000000000,-0.272256732,-80.316055298,0.000000000,14.882999420,-23.422182083
1747313635.559865,18.322000000,0.000000000,57670.914062500,0.000000000,0.000000000,-0.258757174,-80.940002441,0.000000000,14.882999420,-23.422182083
1747313635.562244,18.324000000,0.000000000,57670.914062500,0.000000000,0.000000000,-0.272256732,-80.301063538,0.000000000,14.882999420,-23.422182083
1747313635.564617,18.327000000,0.000000000,57670.914062500,0.000000000,0.000000000,-0.258757174,-80.945533752,0.000000000,14.882999420,-23.422182083
1747313635.566983,18.329000000,0.000000000,57670.914062500,0.000000000,0.000000000,-0.258757174,-79.132347107,0.000000000,14.882999420,-23.422182083
1747313635.569344,18.331000000,0.000000000,57670.914062500,0.000000000,0.000000000,-0.258757174,-79.132438660,0.000000000,14.882999420,-23.422182083
1747313635.571794,18.334000000,0.000000000,57670.914062500,0.000000000,0.000000000,-0.272256732,-80.299880981,0.000000000,14.882999420,-23.422182083
1747313635.574258,18.336000000,0.000000000,57670.914062500,0.000000000,0.000000000,-0.258757174,-80.892265320,0.000000000,14.882999420,-23.422182083
1747313635.576622,18.339000000,0.000000000,57670.914062500,0.000000000,0.000000000,-0.258757174,-79.132705688,0.000000000,14.882999420,-23.422182083
1747313635.579002,18.341000000,0.000000000,57670.914062500,0.000000000,0.000000000,-0.272256732,-80.300918579,0.000000000,14.882999420,-23.422182083
1747313635.581423,18.343000000,0.000000000,57670.914062500,0.000000000,0.000000000,-0.258757174,-80.942321777,0.000000000,14.882999420,-23.422182083
1747313635.583797,18.346000000,0.000000000,57670.914062500,0.000000000,0.000000000,-0.258757174,-79.132972717,0.000000000,14.882999420,-23.422182083
1747313635.586199,18.348000000,0.000000000,57670.914062500,0.000000000,0.000000000,-0.258757174,-79.133056641,0.000000000,14.882999420,-23.422182083
1747313635.588671,18.351000000,0.000000000,57670.914062500,0.000000000,0.000000000,-0.258757174,-79.133148193,0.000000000,14.882999420,-23.422182083
1747313635.591069,18.353000000,0.000000000,57670.914062500,0.000000000,0.000000000,-0.258757174,-79.133232117,0.000000000,14.882999420,-23.422182083
1747313635.593451,18.355000000,0.000000000,57670.914062500,0.000000000,0.000000000,-0.272256732,-80.333038330,0.000000000,14.882999420,-23.422182083
1747313635.595802,18.358000000,0.000000000,57670.914062500,0.000000000,0.000000000,-0.258757174,-80.932220459,0.000000000,14.882999420,-23.422182083
1747313635.598203,18.360000000,0.000000000,57670.914062500,0.000000000,0.000000000,-0.258757174,-79.133499146,0.000000000,14.882999420,-23.422182083
1747313635.600612,18.363000000,0.000000000,57670.914062500,0.000000000,0.000000000,-0.258757174,-79.133590698,0.000000000,14.882999420,-23.422182083
1747313635.602951,18.365000000,0.000000000,57670.914062500,0.000000000,0.000000000,-0.258757174,-79.133674622,0.000000000,14.882999420,-23.422182083
1747313635.605327,18.367000000,0.000000000,57670.914062500,0.000000000,0.000000000,-0.258757174,-79.133758545,0.000000000,14.882999420,-23.422182083
1747313635.607715,18.370000000,0.000000000,57670.914062500,0.000000000,0.000000000,-0.258757174,-79.133842468,0.000000000,14.882999420,-23.422182083
1747313635.610094,18.372000000,0.000000000,57670.914062500,0.000000000,0.000000000,-0.258757174,-79.133934021,0.000000000,14.882999420,-23.422182083
1747313635.612479,18.374000000,0.000000000,57670.914062500,0.000000000,0.000000000,-0.258757174,-79.134017944,0.000000000,14.882999420,-23.422182083
1747313635.614871,18.377000000,0.000000000,57670.914062500,0.000000000,0.000000000,-0.258757174,-79.134109497,0.000000000,14.882999420,-23.422182083
1747313635.617244,18.379000000,0.000000000,57670.914062500,0.000000000,0.000000000,-0.258757174,-79.134193420,0.000000000,14.882999420,-23.422182083
1747313635.619618,18.382000000,0.000000000,57670.914062500,0.000000000,0.000000000,-0.258757174,-79.134277344,0.000000000,14.882999420,-23.422182083
1747313635.621988,18.384000000,0.000000000,57670.914062500,0.000000000,0.000000000,-0.258757174,-79.134368896,0.000000000,14.882999420,-23.422182083
1747313635.624377,18.386000000,0.000000000,57670.914062500,0.000000000,0.000000000,-0.258757174,-79.134452820,0.000000000,14.882999420,-23.422182083
1747313635.626764,18.389000000,0.000000000,57670.914062500,0.000000000,0.000000000,-0.258757174,-79.134544373,0.000000000,14.882999420,-23.422182083
1747313635.629162,18.391000000,0.000000000,57670.914062500,0.000000000,0.000000000,-0.258757174,-79.134628296,0.000000000,14.882999420,-23.422182083
1747313635.631660,18.393000000,0.000000000,57670.914062500,0.000000000,0.000000000,-0.258757174,-79.134712219,0.000000000,14.882999420,-23.422182083
1747313635.634164,18.396000000,0.000000000,57670.914062500,0.000000000,0.000000000,-0.258757174,-79.134803772,0.000000000,14.882999420,-23.422182083
1747313635.636540,18.398000000,0.000000000,57670.914062500,0.000000000,0.000000000,-0.258757174,-79.134895325,0.000000000,14.882999420,-23.422182083
1747313635.639017,18.401000000,0.000000000,57670.914062500,0.000000000,0.000000000,-0.258757174,-79.134986877,0.000000000,14.882999420,-23.422182083
1747313635.641429,18.403000000,0.000000000,57670.914062500,0.000000000,0.000000000,-0.258757174,-79.135078430,0.000000000,14.882999420,-23.422182083
1747313635.643797,18.406000000,0.000000000,57670.914062500,0.000000000,0.000000000,-0.258757174,-79.135162354,0.000000000,14.882999420,-23.422182083
1747313635.646212,18.408000000,0.000000000,57670.914062500,0.000000000,0.000000000,-0.258757174,-79.135253906,0.000000000,14.882999420,-23.422182083
1747313635.648592,18.411000000,0.000000000,57670.914062500,0.000000000,0.000000000,-0.258757174,-79.135337830,0.000000000,14.882999420,-23.422182083
1747313635.650974,18.413000000,0.000000000,57670.914062500,0.000000000,0.000000000,-0.258757174,-79.135429382,0.000000000,14.882999420,-23.422182083
1747313635.653450,18.415000000,0.000000000,57670.914062500,0.000000000,0.000000000,-0.258757174,-79.135513306,0.000000000,14.882999420,-23.422182083
1747313635.655829,18.418000000,0.000000000,57670.914062500,0.000000000,0.000000000,-0.258757174,-79.135604858,0.000000000,14.882999420,-23.422182083
1747313635.658227,18.420000000,0.000000000,57670.914062500,0.000000000,0.000000000,-0.258757174,-79.135688782,0.000000000,14.882999420,-23.422182083
1747313635.660629,18.423000000,0.000000000,57670.914062500,0.000000000,0.000000000,-0.258757174,-79.135780334,0.000000000,14.882999420,-23.422182083
1747313635.663030,18.425000000,0.000000000,57670.914062500,0.000000000,0.000000000,-0.258757174,-79.135864258,0.000000000,14.882999420,-23.422182083
1747313635.665434,18.427000000,0.000000000,57670.914062500,0.000000000,0.000000000,-0.258757174,-79.135955811,0.000000000,14.882999420,-23.422182083
1747313635.667817,18.430000000,0.000000000,57670.914062500,0.000000000,0.000000000,-0.258757174,-79.136047363,0.000000000,14.882999420,-23.422182083
1747313635.670203,18.432000000,0.000000000,57670.914062500,0.000000000,0.000000000,-0.258757174,-79.136131287,0.000000000,14.882999420,-23.422182083
1747313635.672605,18.435000000,0.000000000,57670.914062500,0.000000000,0.000000000,-0.258757174,-79.136222839,0.000000000,14.882999420,-23.422182083
1747313635.674993,18.437000000,0.000000000,57670.914062500,0.000000000,0.000000000,-0.258757174,-79.136306763,0.000000000,14.882999420,-23.422182083
1747313635.677443,18.439000000,0.000000000,57670.914062500,0.000000000,0.000000000,-0.258757174,-79.136390686,0.000000000,14.882999420,-23.422182083
1747313635.679876,18.442000000,0.000000000,57670.914062500,0.000000000,0.000000000,-0.258757174,-79.136482239,0.000000000,14.882999420,-23.422182083
1747313635.682249,18.444000000,0.000000000,57670.914062500,0.000000000,0.000000000,-0.258757174,-79.136573792,0.000000000,14.882999420,-23.422182083
1747313635.684667,18.447000000,0.000000000,57670.914062500,0.000000000,0.000000000,-0.258757174,-79.136657715,0.000000000,14.882999420,-23.422182083
1747313635.687103,18.449000000,0.000000000,57670.914062500,0.000000000,0.000000000,-0.258757174,-79.136749268,0.000000000,14.882999420,-23.422182083
1747313635.689487,18.451000000,0.000000000,57670.914062500,0.000000000,0.000000000,-0.258757174,-79.136833191,0.000000000,14.882999420,-23.422182083
1747313635.691857,18.454000000,0.000000000,57670.914062500,0.000000000,0.000000000,-0.258757174,-79.136924744,0.000000000,14.882999420,-23.422182083
1747313635.694232,18.456000000,0.000000000,57670.914062500,0.000000000,0.000000000,-0.258757174,-79.137008667,0.000000000,14.882999420,-23.422182083
1747313635.696657,18.459000000,0.000000000,57670.914062500,0.000000000,0.000000000,-0.258757174,-79.137100220,0.000000000,14.882999420,-23.422182083
1747313635.699038,18.461000000,0.000000000,57670.914062500,0.000000000,0.000000000,-0.258757174,-79.137184143,0.000000000,14.882999420,-23.422182083
1747313635.701472,18.463000000,0.000000000,57670.914062500,0.000000000,0.000000000,-0.258757174,-79.137275696,0.000000000,14.882999420,-23.422182083
1747313635.703873,18.466000000,0.000000000,57670.914062500,0.000000000,0.000000000,-0.258757174,-79.137359619,0.000000000,14.882999420,-23.422182083
1747313635.706295,18.468000000,0.000000000,57670.914062500,0.000000000,0.000000000,-0.258757174,-79.137451172,0.000000000,14.882999420,-23.422182083
1747313635.708666,18.471000000,0.000000000,57670.914062500,0.000000000,0.000000000,-0.258757174,-79.137535095,0.000000000,14.882999420,-23.422182083
1747313635.711078,18.473000000,0.000000000,57670.914062500,0.000000000,0.000000000,-0.258757174,-79.137626648,0.000000000,14.882999420,-23.422182083
1747313635.713453,18.475000000,0.000000000,57670.914062500,0.000000000,0.000000000,-0.258757174,-79.137710571,0.000000000,14.882999420,-23.422182083
1747313635.715853,18.478000000,0.000000000,57670.914062500,0.000000000,0.000000000,-0.258757174,-79.137794495,0.000000000,14.882999420,-23.422182083
1747313635.718267,18.480000000,0.000000000,57670.914062500,0.000000000,0.000000000,-0.258757174,-79.137886047,0.000000000,14.882999420,-23.422182083
1747313635.720628,18.483000000,0.000000000,57670.914062500,0.000000000,0.000000000,-0.258757174,-79.137969971,0.000000000,14.882999420,-23.422182083
1747313635.723003,18.485000000,0.000000000,57670.914062500,0.000000000,0.000000000,-0.258757174,-79.138061523,0.000000000,14.882999420,-23.422182083
1747313635.725379,18.487000000,0.000000000,57670.914062500,0.000000000,0.000000000,-0.258757174,-79.138145447,0.000000000,14.882999420,-23.422182083
1747313635.727760,18.490000000,0.000000000,57670.914062500,0.000000000,0.000000000,-0.258757174,-79.138229370,0.000000000,14.882999420,-23.422182083
1747313635.730235,18.492000000,0.000000000,57670.914062500,0.000000000,0.000000000,-0.258757174,-79.138320923,0.000000000,14.882999420,-23.422182083
1747313635.732728,18.495000000,0.000000000,57670.914062500,0.000000000,0.000000000,-0.258757174,-79.138412476,0.000000000,14.882999420,-23.422182083
1747313635.735220,18.497000000,0.000000000,57670.914062500,0.000000000,0.000000000,-0.258757174,-79.138496399,0.000000000,14.882999420,-23.422182083
1747313635.737707,18.500000000,0.000000000,57670.914062500,0.000000000,0.000000000,-0.258757174,-79.138595581,0.000000000,14.882999420,-23.422182083
1747313635.740114,18.502000000,0.000000000,57670.914062500,0.000000000,0.000000000,-0.258757174,-79.138679504,0.000000000,14.882999420,-23.422182083
1747313635.742553,18.504000000,0.000000000,57670.914062500,0.000000000,0.000000000,-0.258757174,-79.138771057,0.000000000,14.882999420,-23.422182083
1747313635.744996,18.507000000,0.000000000,57670.914062500,0.000000000,0.000000000,-0.258757174,-79.138862610,0.000000000,14.882999420,-23.422182083
1747313635.747465,18.509000000,0.000000000,57670.914062500,0.000000000,0.000000000,-0.258757174,-79.138954163,0.000000000,14.882999420,-23.422182083
1747313635.749999,18.512000000,0.000000000,57670.914062500,0.000000000,0.000000000,-0.258757174,-79.139038086,0.000000000,14.882999420,-23.422182083
1747313635.752442,18.514000000,0.000000000,57670.914062500,0.000000000,0.000000000,-0.258757174,-79.139129639,0.000000000,14.882999420,-23.422182083
1747313635.754906,18.517000000,0.000000000,57670.914062500,0.000000000,0.000000000,-0.258757174,-79.139221191,0.000000000,14.882999420,-23.422182083
1747313635.757333,18.519000000,0.000000000,57670.914062500,0.000000000,0.000000000,-0.258757174,-79.139312744,0.000000000,14.882999420,-23.422182083
1747313635.759789,18.522000000,0.000000000,57670.914062500,0.000000000,0.000000000,-0.258757174,-79.139404297,0.000000000,14.882999420,-23.422182083
1747313635.762204,18.524000000,0.000000000,57670.914062500,0.000000000,0.000000000,-0.258757174,-79.139495850,0.000000000,14.882999420,-23.422182083
1747313635.764620,18.527000000,0.000000000,57670.914062500,0.000000000,0.000000000,-0.258757174,-79.139579773,0.000000000,14.882999420,-23.422182083
1747313635.767049,18.529000000,0.000000000,57670.914062500,0.000000000,0.000000000,-0.258757174,-79.139671326,0.000000000,14.882999420,-23.422182083
1747313635.769451,18.531000000,0.000000000,57670.914062500,0.000000000,0.000000000,-0.258757174,-79.139755249,0.000000000,14.882999420,-23.422182083
1747313635.771832,18.534000000,0.000000000,57670.914062500,0.000000000,0.000000000,-0.258757174,-79.139846802,0.000000000,14.882999420,-23.422182083
1747313635.774255,18.536000000,0.000000000,57670.914062500,0.000000000,0.000000000,-0.258757174,-79.139930725,0.000000000,14.882999420,-23.422182083
1747313635.776745,18.539000000,0.000000000,57670.914062500,0.000000000,0.000000000,-0.258757174,-79.140022278,0.000000000,14.882999420,-23.422182083
1747313635.779204,18.541000000,0.000000000,57670.914062500,0.000000000,0.000000000,-0.258757174,-79.140113831,0.000000000,14.882999420,-23.422182083
1747313635.781647,18.544000000,0.000000000,57670.914062500,0.000000000,0.000000000,-0.258757174,-79.140205383,0.000000000,14.882999420,-23.422182083
1747313635.784055,18.546000000,0.000000000,57670.914062500,0.000000000,0.000000000,-0.258757174,-79.140289307,0.000000000,14.882999420,-23.422182083
1747313635.786578,18.548000000,0.000000000,57670.914062500,0.000000000,0.000000000,-0.258757174,-79.140380859,0.000000000,14.882999420,-23.422182083
1747313635.789093,18.551000000,0.000000000,57670.914062500,0.000000000,0.000000000,-0.258757174,-79.140472412,0.000000000,14.882999420,-23.422182083
1747313635.791597,18.553000000,0.000000000,57670.914062500,0.000000000,0.000000000,-0.258757174,-79.140563965,0.000000000,14.882999420,-23.422182083
1747313635.794091,18.556000000,0.000000000,57670.914062500,0.000000000,0.000000000,-0.258757174,-79.140655518,0.000000000,14.882999420,-23.422182083
1747313635.796581,18.558000000,0.000000000,57670.914062500,0.000000000,0.000000000,-0.258757174,-79.140747070,0.000000000,14.882999420,-23.422182083
1747313635.799088,18.561000000,0.000000000,57670.914062500,0.000000000,0.000000000,-0.258757174,-79.140838623,0.000000000,14.882999420,-23.422182083
1747313635.801601,18.563000000,0.000000000,57670.914062500,0.000000000,0.000000000,-0.258757174,-79.140930176,0.000000000,14.882999420,-23.422182083
1747313635.804167,18.566000000,0.000000000,57670.914062500,0.000000000,0.000000000,-0.258757174,-79.141021729,0.000000000,14.882999420,-23.422182083
1747313635.806660,18.569000000,0.000000000,57670.914062500,0.000000000,0.000000000,-0.258757174,-79.141113281,0.000000000,14.882999420,-23.422182083
1747313635.809172,18.571000000,0.000000000,57670.914062500,0.000000000,0.000000000,-0.258757174,-79.141204834,0.000000000,14.882999420,-23.422182083
1747313635.811649,18.574000000,0.000000000,57670.914062500,0.000000000,0.000000000,-0.258757174,-79.141296387,0.000000000,14.882999420,-23.422182083
1747313635.814195,18.576000000,0.000000000,57670.914062500,0.000000000,0.000000000,-0.258757174,-79.141387939,0.000000000,14.882999420,-23.422182083
1747313635.816656,18.579000000,0.000000000,57670.914062500,0.000000000,0.000000000,-0.258757174,-79.141479492,0.000000000,14.882999420,-23.422182083
1747313635.819330,18.581000000,0.000000000,57670.914062500,0.000000000,0.000000000,-0.258757174,-79.141571045,0.000000000,14.882999420,-23.422182083
1747313635.821800,18.584000000,0.000000000,57670.914062500,0.000000000,0.000000000,-0.258757174,-79.141670227,0.000000000,14.882999420,-23.422182083
1747313635.824226,18.586000000,0.000000000,57670.914062500,0.000000000,0.000000000,-0.258757174,-79.141754150,0.000000000,14.882999420,-23.422182083
1747313635.826631,18.589000000,0.000000000,57670.914062500,0.000000000,0.000000000,-0.258757174,-79.141845703,0.000000000,14.882999420,-23.422182083
1747313635.829076,18.591000000,0.000000000,57670.914062500,0.000000000,0.000000000,-0.258757174,-79.141937256,0.000000000,14.882999420,-23.422182083
1747313635.831430,18.593000000,0.000000000,57670.914062500,0.000000000,0.000000000,-0.258757174,-79.142021179,0.000000000,14.882999420,-23.422182083
1747313635.833835,18.596000000,0.000000000,57670.914062500,0.000000000,0.000000000,-0.258757174,-79.142112732,0.000000000,14.882999420,-23.422182083
1747313635.836273,18.598000000,0.000000000,57670.914062500,0.000000000,0.000000000,-0.258757174,-79.142196655,0.000000000,14.882999420,-23.422182083
1747313635.838680,18.601000000,0.000000000,57670.914062500,0.000000000,0.000000000,-0.258757174,-79.142288208,0.000000000,14.882999420,-23.422182083
1747313635.841069,18.603000000,0.000000000,57670.914062500,0.000000000,0.000000000,-0.258757174,-79.142379761,0.000000000,14.882999420,-23.422182083
1747313635.843461,18.605000000,0.000000000,57670.914062500,0.000000000,0.000000000,-0.258757174,-79.142463684,0.000000000,14.882999420,-23.422182083
1747313635.845844,18.608000000,0.000000000,57670.914062500,0.000000000,0.000000000,-0.258757174,-79.142555237,0.000000000,14.882999420,-23.422182083
1747313635.848232,18.610000000,0.000000000,57670.914062500,0.000000000,0.000000000,-0.258757174,-79.142639160,0.000000000,14.882999420,-23.422182083
1747313635.850637,18.613000000,0.000000000,57670.914062500,0.000000000,0.000000000,-0.258757174,-79.142730713,0.000000000,14.882999420,-23.422182083
1747313635.853013,18.615000000,0.000000000,57670.914062500,0.000000000,0.000000000,-0.258757174,-79.142814636,0.000000000,14.882999420,-23.422182083
1747313635.855410,18.617000000,0.000000000,57670.914062500,0.000000000,0.000000000,-0.258757174,-79.142906189,0.000000000,14.882999420,-23.422182083
1747313635.857788,18.620000000,0.000000000,57670.914062500,0.000000000,0.000000000,-0.258757174,-79.142990112,0.000000000,14.882999420,-23.422182083
1747313635.860178,18.622000000,0.000000000,57670.914062500,0.000000000,0.000000000,-0.258757174,-79.143081665,0.000000000,14.882999420,-23.422182083
1747313635.862568,18.624000000,0.000000000,57670.914062500,0.000000000,0.000000000,-0.258757174,-79.143165588,0.000000000,14.882999420,-23.422182083
1747313635.864955,18.627000000,0.000000000,57670.914062500,0.000000000,0.000000000,-0.258757174,-79.143249512,0.000000000,14.882999420,-23.422182083
1747313635.867335,18.629000000,0.000000000,57670.914062500,0.000000000,0.000000000,-0.258757174,-79.143341064,0.000000000,14.882999420,-23.422182083
1747313635.869709,18.632000000,0.000000000,57670.914062500,0.000000000,0.000000000,-0.258757174,-79.143424988,0.000000000,14.882999420,-23.422182083
1747313635.872110,18.634000000,0.000000000,57670.914062500,0.000000000,0.000000000,-0.258757174,-79.143508911,0.000000000,14.882999420,-23.422182083
1747313635.874489,18.636000000,0.000000000,57670.914062500,0.000000000,0.000000000,-0.258757174,-79.143600464,0.000000000,14.882999420,-23.422182083
1747313635.876936,18.639000000,0.000000000,57670.914062500,0.000000000,0.000000000,-0.272256732,-80.321708679,0.000000000,14.882999420,-23.422182083
1747313635.879350,18.641000000,0.000000000,57670.914062500,0.000000000,0.000000000,-0.258757174,-80.901985168,0.000000000,14.882999420,-23.422182083
1747313635.881807,18.644000000,0.000000000,57670.914062500,0.000000000,0.000000000,-0.258757174,-79.143867493,0.000000000,14.882999420,-23.422182083
1747313635.884194,18.646000000,0.000000000,57670.914062500,0.000000000,0.000000000,-0.258757174,-79.143959045,0.000000000,14.882999420,-23.422182083
1747313635.886602,18.649000000,0.000000000,57670.914062500,0.000000000,0.000000000,-0.258757174,-79.144050598,0.000000000,14.882999420,-23.422182083
1747313635.888971,18.651000000,0.000000000,57670.914062500,0.000000000,0.000000000,-0.258757174,-79.144134521,0.000000000,14.882999420,-23.422182083
1747313635.891386,18.653000000,0.000000000,57670.914062500,0.000000000,0.000000000,-0.258757174,-79.144218445,0.000000000,14.882999420,-23.422182083
1747313635.893788,18.656000000,0.000000000,57670.914062500,0.000000000,0.000000000,-0.258757174,-79.144309998,0.000000000,14.882999420,-23.422182083
1747313635.896186,18.658000000,0.000000000,57670.914062500,0.000000000,0.000000000,-0.258757174,-79.144401550,0.000000000,14.882999420,-23.422182083
1747313635.898581,18.661000000,0.000000000,57670.914062500,0.000000000,0.000000000,-0.258757174,-79.144485474,0.000000000,14.882999420,-23.422182083
1747313635.900956,18.663000000,0.000000000,57670.914062500,0.000000000,0.000000000,-0.258757174,-79.144577026,0.000000000,14.882999420,-23.422182083
1747313635.903390,18.665000000,0.000000000,57670.914062500,0.000000000,0.000000000,-0.258757174,-79.144660950,0.000000000,14.882999420,-23.422182083
1747313635.905780,18.668000000,0.000000000,57670.914062500,0.000000000,0.000000000,-0.258757174,-79.144752502,0.000000000,14.882999420,-23.422182083
1747313635.908181,18.670000000,0.000000000,57670.914062500,0.000000000,0.000000000,-0.272256732,-80.328895569,0.000000000,14.882999420,-23.422182083
1747313635.910597,18.673000000,0.000000000,57670.914062500,0.000000000,0.000000000,-0.272256732,-82.124031067,0.000000000,14.882999420,-23.422182083
1747313635.913016,18.675000000,0.000000000,57670.914062500,0.000000000,0.000000000,-0.258757174,-80.933319092,0.000000000,14.882999420,-23.422182083
1747313635.915425,18.677000000,0.000000000,57670.914062500,0.000000000,0.000000000,-0.272256732,-80.353652954,0.000000000,14.882999420,-23.422182083
1747313635.917870,18.680000000,0.000000000,57670.914062500,0.000000000,0.000000000,-0.258757174,-80.929779053,0.000000000,14.882999420,-23.422182083
1747313635.920332,18.682000000,0.000000000,57670.914062500,0.000000000,0.000000000,-0.272256732,-80.376228333,0.000000000,14.882999420,-23.422182083
1747313635.922789,18.685000000,0.000000000,57670.914062500,0.000000000,0.000000000,-0.272256732,-82.124488831,0.000000000,14.882999420,-23.422182083
1747313635.925251,18.687000000,0.000000000,57670.914062500,0.000000000,0.000000000,-0.258757174,-80.887969971,0.000000000,14.882999420,-23.422182083
1747313635.927634,18.690000000,0.000000000,57670.914062500,0.000000000,0.000000000,-0.272256732,-80.379356384,0.000000000,14.882999420,-23.422182083
1747313635.930028,18.692000000,0.000000000,57670.914062500,0.000000000,0.000000000,-0.258757174,-80.942207336,0.000000000,14.882999420,-23.422182083
1747313635.932460,18.694000000,0.000000000,57670.914062500,0.000000000,0.000000000,-0.272256732,-80.338050842,0.000000000,14.882999420,-23.422182083
1747313635.934855,18.697000000,0.000000000,57670.914062500,0.000000000,0.000000000,-0.258757174,-80.909851074,0.000000000,14.882999420,-23.422182083
1747313635.937264,18.699000000,0.000000000,57670.914062500,0.000000000,0.000000000,-0.258757174,-79.145935059,0.000000000,14.882999420,-23.422182083
1747313635.939637,18.702000000,0.000000000,57670.914062500,0.000000000,0.000000000,-0.258757174,-79.146026611,0.000000000,14.882999420,-23.422182083
1747313635.942051,18.704000000,0.000000000,57670.914062500,0.000000000,0.000000000,-0.272256732,-80.324134827,0.000000000,14.882999420,-23.422182083
1747313635.944445,18.706000000,0.000000000,57670.914062500,0.000000000,0.000000000,-0.258757174,-80.922637939,0.000000000,14.882999420,-23.422182083
1747313635.946844,18.709000000,0.000000000,57670.914062500,0.000000000,0.000000000,-0.258757174,-79.146293640,0.000000000,14.882999420,-23.422182083
1747313635.949265,18.711000000,0.000000000,57670.914062500,0.000000000,0.000000000,-0.272256732,-80.337928772,0.000000000,14.882999420,-23.422182083
1747313635.951682,18.714000000,0.000000000,57670.914062500,0.000000000,0.000000000,-0.258757174,-80.922912598,0.000000000,14.882999420,-23.422182083
1747313635.954077,18.716000000,0.000000000,57670.914062500,0.000000000,0.000000000,-0.258757174,-79.146560669,0.000000000,14.882999420,-23.422182083
1747313635.956477,18.718000000,0.000000000,57670.914062500,0.000000000,0.000000000,-0.258757174,-79.146652222,0.000000000,14.882999420,-23.422182083
1747313635.958873,18.721000000,0.000000000,57670.914062500,0.000000000,0.000000000,-0.272256732,-80.336799622,0.000000000,14.882999420,-23.422182083
1747313635.961277,18.723000000,0.000000000,57670.914062500,0.000000000,0.000000000,-0.272256732,-82.125930786,0.000000000,14.882999420,-23.422182083
1747313635.963700,18.726000000,0.000000000,57670.914062500,0.000000000,0.000000000,-0.258757174,-80.932243347,0.000000000,14.882999420,-23.422182083
1747313635.966080,18.728000000,0.000000000,57670.914062500,0.000000000,0.000000000,-0.272256732,-80.344505310,0.000000000,14.882999420,-23.422182083
1747313635.968483,18.730000000,0.000000000,57670.914062500,0.000000000,0.000000000,-0.258757174,-80.931678772,0.000000000,14.882999420,-23.422182083
1747313635.970876,18.733000000,0.000000000,57670.914062500,0.000000000,0.000000000,-0.272256732,-80.340232849,0.000000000,14.882999420,-23.422182083
1747313635.973283,18.735000000,0.000000000,57670.914062500,0.000000000,0.000000000,-0.258757174,-80.936332703,0.000000000,14.882999420,-23.422182083
1747313635.975687,18.738000000,0.000000000,57670.914062500,0.000000000,0.000000000,-0.258757174,-79.147377014,0.000000000,14.882999420,-23.422182083
1747313635.978082,18.740000000,0.000000000,57670.914062500,0.000000000,0.000000000,-0.258757174,-79.147460938,0.000000000,14.882999420,-23.422182083
1747313635.980490,18.742000000,0.000000000,57670.914062500,0.000000000,0.000000000,-0.272256732,-80.336112976,0.000000000,14.882999420,-23.422182083
1747313635.982872,18.745000000,0.000000000,57670.914062500,0.000000000,0.000000000,-0.272256732,-82.126747131,0.000000000,14.882999420,-23.422182083
1747313635.985271,18.747000000,0.000000000,57670.914062500,0.000000000,0.000000000,-0.258757174,-80.945037842,0.000000000,14.882999420,-23.422182083
1747313635.987673,18.750000000,0.000000000,57670.914062500,0.000000000,0.000000000,-0.272256732,-80.340866089,0.000000000,14.882999420,-23.422182083
1747313635.990055,18.752000000,0.000000000,57670.914062500,0.000000000,0.000000000,-0.258757174,-80.928779602,0.000000000,14.882999420,-23.422182083
1747313635.992432,18.754000000,0.000000000,57670.914062500,0.000000000,0.000000000,-0.272256732,-80.329055786,0.000000000,14.882999420,-23.422182083
1747313635.994818,18.757000000,0.000000000,57670.914062500,0.000000000,0.000000000,-0.258757174,-80.950691223,0.000000000,14.882999420,-23.422182083
1747313635.997292,18.759000000,0.000000000,57670.914062500,0.000000000,0.000000000,-0.272256732,-80.336746216,0.000000000,14.882999420,-23.422182083
1747313635.999809,18.762000000,0.000000000,57670.914062500,0.000000000,0.000000000,-0.258757174,-80.881599426,0.000000000,14.882999420,-23.422182083
1747313636.002289,18.764000000,0.000000000,57670.914062500,0.000000000,0.000000000,-0.258757174,-79.148376465,0.000000000,14.882999420,-23.422182083
1747313636.004766,18.767000000,0.000000000,57670.914062500,0.000000000,0.000000000,-0.258757174,-79.148460388,0.000000000,14.882999420,-23.422182083
1747313636.007242,18.769000000,0.000000000,57670.914062500,0.000000000,0.000000000,-0.272256732,-80.394332886,0.000000000,14.882999420,-23.422182083
1747313636.009705,18.772000000,0.000000000,57670.914062500,0.000000000,0.000000000,-0.272256732,-82.127746582,0.000000000,14.882999420,-23.422182083
1747313636.012147,18.774000000,0.000000000,57670.914062500,0.000000000,0.000000000,-0.258757174,-80.886985779,0.000000000,14.882999420,-23.422182083
1747313636.014557,18.776000000,0.000000000,57670.914062500,0.000000000,0.000000000,-0.272256732,-80.352233887,0.000000000,14.882999420,-23.422182083
1747313636.016967,18.779000000,0.000000000,57670.914062500,0.000000000,0.000000000,-0.258757174,-80.906410217,0.000000000,14.882999420,-23.422182083
1747313636.019417,18.781000000,0.000000000,57670.914062500,0.000000000,0.000000000,-0.272256732,-80.349464417,0.000000000,14.882999420,-23.422182083
1747313636.021953,18.784000000,0.000000000,57670.914062500,0.000000000,0.000000000,-0.258757174,-80.909484863,0.000000000,14.882999420,-23.422182083
