liamjosephnolan/thesis_matlab/roll_step_response/roll_step_response_roll_0_pitch_15.csv
__time,/psm_joint_telemetry/header/stamp,/psm_joint_telemetry/insertion/effort,/psm_joint_telemetry/insertion/position,/psm_joint_telemetry/insertion/velocity,/psm_joint_telemetry/pitch/effort,/psm_joint_telemetry/pitch/position,/psm_joint_telemetry/pitch/velocity,/psm_joint_telemetry/roll/effort,/psm_joint_telemetry/roll/position,/psm_joint_telemetry/roll/velocity
1747313277.314979,30.625000000,0.000000000,53670.621093750,0.000000000,0.000000000,14.956124306,-64.833122253,0.000000000,-0.084000528,-16.815948486
1747313277.317457,30.627000000,0.000000000,53670.621093750,0.000000000,0.000000000,14.956124306,-64.833137512,0.000000000,-0.084000528,-16.815948486
1747313277.319906,30.630000000,0.000000000,53670.621093750,0.000000000,0.000000000,14.956124306,-64.833152771,0.000000000,-0.084000528,-16.815948486
1747313277.322388,30.632000000,0.000000000,53670.621093750,0.000000000,0.000000000,14.956124306,-64.833168030,0.000000000,-0.084000528,-16.815948486
1747313277.324793,30.635000000,0.000000000,53670.621093750,0.000000000,0.000000000,14.956124306,-64.833183289,0.000000000,-0.084000528,-16.815948486
1747313277.327183,30.637000000,0.000000000,53670.621093750,0.000000000,0.000000000,14.956124306,-64.833198547,0.000000000,-0.084000528,-16.815948486
1747313277.329567,30.639000000,0.000000000,53670.621093750,0.000000000,0.000000000,14.956124306,-64.833213806,0.000000000,-0.084000528,-16.815948486
1747313277.331956,30.642000000,0.000000000,53670.621093750,0.000000000,0.000000000,14.956124306,-64.833229065,0.000000000,-0.084000528,-16.815948486
1747313277.334398,30.644000000,0.000000000,53670.621093750,0.000000000,0.000000000,14.956124306,-64.833244324,0.000000000,-0.084000528,-16.815948486
1747313277.336768,30.647000000,0.000000000,53670.621093750,0.000000000,0.000000000,14.956124306,-64.833259583,0.000000000,-0.084000528,-16.815948486
1747313277.339242,30.649000000,0.000000000,53670.621093750,0.000000000,0.000000000,14.956124306,-64.833274841,0.000000000,-0.084000528,-16.815948486
1747313277.341641,30.651000000,0.000000000,53670.621093750,0.000000000,0.000000000,14.956124306,-64.833290100,0.000000000,-0.084000528,-16.815948486
1747313277.344022,30.654000000,0.000000000,53670.621093750,0.000000000,0.000000000,14.956124306,-64.833305359,0.000000000,-0.084000528,-16.815948486
1747313277.346425,30.656000000,0.000000000,53670.621093750,0.000000000,0.000000000,14.956124306,-64.833320618,0.000000000,-0.084000528,-16.815948486
1747313277.348792,30.659000000,0.000000000,53670.621093750,0.000000000,0.000000000,14.956124306,-64.833335876,0.000000000,-0.084000528,-16.815948486
1747313277.351181,30.661000000,0.000000000,53670.621093750,0.000000000,0.000000000,14.956124306,-64.833351135,0.000000000,-0.084000528,-16.815948486
1747313277.353606,30.663000000,0.000000000,53670.621093750,0.000000000,0.000000000,14.956124306,-64.833366394,0.000000000,-0.084000528,-16.815948486
1747313277.356056,30.666000000,0.000000000,53670.621093750,0.000000000,0.000000000,14.956124306,-64.833374023,0.000000000,-0.084000528,-16.815948486
1747313277.358498,30.668000000,0.000000000,53670.621093750,0.000000000,0.000000000,14.956124306,-64.833389282,0.000000000,-0.084000528,-16.815948486
1747313277.360972,30.671000000,0.000000000,53670.621093750,0.000000000,0.000000000,14.956124306,-64.833404541,0.000000000,-0.084000528,-16.815948486
1747313277.363433,30.673000000,0.000000000,53670.621093750,0.000000000,0.000000000,14.956124306,-64.833419800,0.000000000,-0.084000528,-16.815948486
1747313277.365858,30.676000000,0.000000000,53670.621093750,0.000000000,0.000000000,14.956124306,-64.833435059,0.000000000,-0.084000528,-16.815948486
1747313277.368253,30.678000000,0.000000000,53670.621093750,0.000000000,0.000000000,14.956124306,-64.833450317,0.000000000,-0.084000528,-16.815948486
1747313277.370631,30.680000000,0.000000000,53670.621093750,0.000000000,0.000000000,14.956124306,-64.833465576,0.000000000,-0.084000528,-16.815948486
1747313277.373118,30.683000000,0.000000000,53670.621093750,0.000000000,0.000000000,14.956124306,-64.833480835,0.000000000,-0.084000528,-16.815948486
1747313277.375607,30.685000000,0.000000000,53670.621093750,0.000000000,0.000000000,14.956124306,-64.833496094,0.000000000,-0.084000528,-16.815948486
1747313277.378264,30.688000000,0.000000000,53670.621093750,0.000000000,0.000000000,14.956124306,-64.833511353,0.000000000,-0.084000528,-16.815948486
1747313277.380754,30.690000000,0.000000000,53670.621093750,0.000000000,0.000000000,14.956124306,-64.833526611,0.000000000,-0.084000528,-16.815948486
1747313277.383219,30.693000000,0.000000000,53670.621093750,0.000000000,0.000000000,14.956124306,-64.833541870,0.000000000,-0.084000528,-16.815948486
1747313277.385848,30.695000000,0.000000000,53670.621093750,0.000000000,0.000000000,14.956124306,-64.833557129,0.000000000,-0.084000528,-16.815948486
1747313277.388525,30.698000000,0.000000000,53670.621093750,0.000000000,0.000000000,14.956124306,-64.833580017,0.000000000,-0.084000528,-16.815948486
1747313277.391012,30.701000000,0.000000000,53670.621093750,0.000000000,0.000000000,14.956124306,-64.833595276,0.000000000,-0.084000528,-16.815948486
1747313277.393532,30.703000000,0.000000000,53670.621093750,0.000000000,0.000000000,14.956124306,-64.833610535,0.000000000,-0.084000528,-16.815948486
1747313277.396039,30.706000000,0.000000000,53670.621093750,0.000000000,0.000000000,14.956124306,-64.833625793,0.000000000,-0.084000528,-16.815948486
1747313277.398531,30.708000000,0.000000000,53670.621093750,0.000000000,0.000000000,14.956124306,-64.833641052,0.000000000,-0.084000528,-16.815948486
1747313277.401029,30.711000000,0.000000000,53670.621093750,0.000000000,0.000000000,14.956124306,-64.833656311,0.000000000,-0.084000528,-16.815948486
1747313277.403646,30.713000000,0.000000000,53670.621093750,0.000000000,0.000000000,14.956124306,-64.833671570,0.000000000,-0.084000528,-16.815948486
1747313277.406207,30.716000000,0.000000000,53670.621093750,0.000000000,0.000000000,14.956124306,-64.833686829,0.000000000,-0.084000528,-16.815948486
1747313277.408726,30.718000000,0.000000000,53670.621093750,0.000000000,0.000000000,14.956124306,-64.833702087,0.000000000,-0.084000528,-16.815948486
1747313277.411286,30.721000000,0.000000000,53670.621093750,0.000000000,0.000000000,14.956124306,-64.833717346,0.000000000,-0.084000528,-16.815948486
1747313277.413701,30.723000000,0.000000000,53670.621093750,0.000000000,0.000000000,14.956124306,-64.833732605,0.000000000,-0.084000528,-16.815948486
1747313277.416067,30.726000000,0.000000000,53670.621093750,0.000000000,0.000000000,14.956124306,-64.833747864,0.000000000,-0.084000528,-16.815948486
1747313277.418459,30.728000000,0.000000000,53670.621093750,0.000000000,0.000000000,14.956124306,-64.833763123,0.000000000,-0.084000528,-16.815948486
1747313277.420858,30.731000000,0.000000000,53670.621093750,0.000000000,0.000000000,14.956124306,-64.833778381,0.000000000,-0.084000528,-16.815948486
1747313277.423277,30.733000000,0.000000000,53670.621093750,0.000000000,0.000000000,14.956124306,-64.833793640,0.000000000,-0.084000528,-16.815948486
1747313277.425663,30.735000000,0.000000000,53670.621093750,0.000000000,0.000000000,14.956124306,-64.833808899,0.000000000,-0.084000528,-16.815948486
1747313277.428076,30.738000000,0.000000000,53670.621093750,0.000000000,0.000000000,14.956124306,-64.833824158,0.000000000,-0.084000528,-16.815948486
1747313277.430451,30.740000000,0.000000000,53670.621093750,0.000000000,0.000000000,14.956124306,-64.833839417,0.000000000,-0.084000528,-16.815948486
1747313277.432846,30.743000000,0.000000000,53670.621093750,0.000000000,0.000000000,14.956124306,-64.833854675,0.000000000,-0.084000528,-16.815948486
1747313277.435352,30.745000000,0.000000000,53670.621093750,0.000000000,0.000000000,14.956124306,-64.833869934,0.000000000,-0.084000528,-16.815948486
1747313277.437848,30.748000000,0.000000000,53670.621093750,0.000000000,0.000000000,14.956124306,-64.833885193,0.000000000,-0.084000528,-16.815948486
1747313277.440286,30.750000000,0.000000000,53670.621093750,0.000000000,0.000000000,14.956124306,-64.833900452,0.000000000,-0.084000528,-16.815948486
1747313277.442735,30.752000000,0.000000000,53670.621093750,0.000000000,0.000000000,14.956124306,-64.833915710,0.000000000,-0.084000528,-16.815948486
1747313277.445223,30.755000000,0.000000000,53670.621093750,0.000000000,0.000000000,14.956124306,-64.833930969,0.000000000,-0.084000528,-16.815948486
1747313277.447743,30.757000000,0.000000000,53670.621093750,0.000000000,0.000000000,14.956124306,-64.833946228,0.000000000,-0.084000528,-16.815948486
1747313277.450208,30.760000000,0.000000000,53670.621093750,0.000000000,0.000000000,14.956124306,-64.833961487,0.000000000,-0.084000528,-16.815948486
1747313277.452647,30.762000000,0.000000000,53670.621093750,0.000000000,0.000000000,14.956124306,-64.833976746,0.000000000,-0.084000528,-16.815948486
1747313277.455109,30.765000000,0.000000000,53670.621093750,0.000000000,0.000000000,14.956124306,-64.833992004,0.000000000,-0.084000528,-16.815948486
1747313277.457546,30.767000000,0.000000000,53670.621093750,0.000000000,0.000000000,14.956124306,-64.834007263,0.000000000,-0.084000528,-16.815948486
1747313277.459901,30.770000000,0.000000000,53670.621093750,0.000000000,0.000000000,14.956124306,-64.834014893,0.000000000,-0.084000528,-16.815948486
1747313277.462286,30.772000000,0.000000000,53670.621093750,0.000000000,0.000000000,14.956124306,-64.834030151,0.000000000,-0.084000528,-16.815948486
1747313277.464669,30.774000000,0.000000000,53670.621093750,0.000000000,0.000000000,14.956124306,-64.834045410,0.000000000,-0.084000528,-16.815948486
1747313277.467059,30.777000000,0.000000000,53670.621093750,0.000000000,0.000000000,14.956124306,-64.834060669,0.000000000,-0.084000528,-16.815948486
1747313277.469446,30.779000000,0.000000000,53670.621093750,0.000000000,0.000000000,14.956124306,-64.834075928,0.000000000,-0.084000528,-16.815948486
1747313277.471852,30.782000000,0.000000000,53670.621093750,0.000000000,0.000000000,14.956124306,-64.834091187,0.000000000,-0.084000528,-16.815948486
1747313277.474251,30.784000000,0.000000000,53670.621093750,0.000000000,0.000000000,14.956124306,-64.834106445,0.000000000,-0.084000528,-16.815948486
1747313277.476618,30.786000000,0.000000000,53670.621093750,0.000000000,0.000000000,14.956124306,-64.834121704,0.000000000,-0.084000528,-16.815948486
1747313277.479006,30.789000000,0.000000000,53670.621093750,0.000000000,0.000000000,14.956124306,-64.834136963,0.000000000,-0.084000528,-16.815948486
1747313277.481385,30.791000000,0.000000000,53670.621093750,0.000000000,0.000000000,14.956124306,-64.834152222,0.000000000,-0.084000528,-16.815948486
1747313277.483752,30.793000000,0.000000000,53670.621093750,0.000000000,0.000000000,14.956124306,-64.834167480,0.000000000,-0.084000528,-16.815948486
1747313277.486147,30.796000000,0.000000000,53670.621093750,0.000000000,0.000000000,14.956124306,-64.834182739,0.000000000,-0.084000528,-16.815948486
1747313277.488501,30.798000000,0.000000000,53670.621093750,0.000000000,0.000000000,14.956124306,-64.834197998,0.000000000,-0.084000528,-16.815948486
1747313277.490888,30.801000000,0.000000000,53670.621093750,0.000000000,0.000000000,14.956124306,-64.834213257,0.000000000,-0.084000528,-16.815948486
1747313277.493263,30.803000000,0.000000000,53670.621093750,0.000000000,0.000000000,14.956124306,-64.834228516,0.000000000,-0.084000528,-16.815948486
1747313277.495660,30.805000000,0.000000000,53670.621093750,0.000000000,0.000000000,14.956124306,-64.834243774,0.000000000,-0.084000528,-16.815948486
1747313277.498032,30.808000000,0.000000000,53670.621093750,0.000000000,0.000000000,14.956124306,-64.834259033,0.000000000,-0.084000528,-16.815948486
1747313277.500412,30.810000000,0.000000000,53670.621093750,0.000000000,0.000000000,14.956124306,-64.834274292,0.000000000,-0.084000528,-16.815948486
1747313277.502811,30.813000000,0.000000000,53670.621093750,0.000000000,0.000000000,14.956124306,-64.834289551,0.000000000,-0.084000528,-16.815948486
1747313277.505227,30.815000000,0.000000000,53670.621093750,0.000000000,0.000000000,14.956124306,-64.834304810,0.000000000,-0.084000528,-16.815948486
1747313277.507610,30.817000000,0.000000000,53670.621093750,0.000000000,0.000000000,14.956124306,-64.834320068,0.000000000,-0.084000528,-16.815948486
1747313277.509989,30.820000000,0.000000000,53670.621093750,0.000000000,0.000000000,14.956124306,-64.834335327,0.000000000,-0.084000528,-16.815948486
1747313277.512374,30.822000000,0.000000000,53670.621093750,0.000000000,0.000000000,14.956124306,-64.834350586,0.000000000,-0.084000528,-16.815948486
1747313277.514744,30.824000000,0.000000000,53670.621093750,0.000000000,0.000000000,14.956124306,-64.834365845,0.000000000,-0.084000528,-16.815948486
1747313277.517133,30.827000000,0.000000000,53670.621093750,0.000000000,0.000000000,14.956124306,-64.834381104,0.000000000,-0.084000528,-16.815948486
1747313277.519508,30.829000000,0.000000000,53670.621093750,0.000000000,0.000000000,14.956124306,-64.834396362,0.000000000,-0.084000528,-16.815948486
1747313277.521882,30.832000000,0.000000000,53670.621093750,0.000000000,0.000000000,14.956124306,-64.834411621,0.000000000,-0.084000528,-16.815948486
1747313277.524271,30.834000000,0.000000000,53670.621093750,0.000000000,0.000000000,14.956124306,-64.834426880,0.000000000,-0.084000528,-16.815948486
1747313277.526661,30.836000000,0.000000000,53670.621093750,0.000000000,0.000000000,14.956124306,-64.834442139,0.000000000,-0.084000528,-16.815948486
1747313277.529025,30.839000000,0.000000000,53670.621093750,0.000000000,0.000000000,14.956124306,-64.834457397,0.000000000,-0.084000528,-16.815948486
1747313277.531397,30.841000000,0.000000000,53670.621093750,0.000000000,0.000000000,14.956124306,-64.834472656,0.000000000,-0.084000528,-16.815948486
1747313277.533782,30.844000000,0.000000000,53670.621093750,0.000000000,0.000000000,14.956124306,-64.834487915,0.000000000,-0.084000528,-16.815948486
1747313277.536155,30.846000000,0.000000000,53670.621093750,0.000000000,0.000000000,14.956124306,-64.834503174,0.000000000,-0.084000528,-16.815948486
1747313277.538532,30.848000000,0.000000000,53670.621093750,0.000000000,0.000000000,14.956124306,-64.834518433,0.000000000,-0.084000528,-16.815948486
1747313277.540938,30.851000000,0.000000000,53670.621093750,0.000000000,0.000000000,14.956124306,-64.834533691,0.000000000,-0.084000528,-16.815948486
1747313277.543326,30.853000000,0.000000000,53670.621093750,0.000000000,0.000000000,14.956124306,-64.834548950,0.000000000,-0.084000528,-16.815948486
1747313277.545718,30.855000000,0.000000000,53670.621093750,0.000000000,0.000000000,14.956124306,-64.834564209,0.000000000,-0.084000528,-16.815948486
1747313277.548114,30.858000000,0.000000000,53670.621093750,0.000000000,0.000000000,14.956124306,-64.834579468,0.000000000,-0.084000528,-16.815948486
1747313277.550488,30.860000000,0.000000000,53670.621093750,0.000000000,0.000000000,14.956124306,-64.834594727,0.000000000,-0.084000528,-16.815948486
1747313277.552863,30.863000000,0.000000000,53670.621093750,0.000000000,0.000000000,14.956124306,-64.834609985,0.000000000,-0.084000528,-16.815948486
1747313277.555266,30.865000000,0.000000000,53670.621093750,0.000000000,0.000000000,14.956124306,-64.834625244,0.000000000,-0.084000528,-16.815948486
1747313277.557684,30.867000000,0.000000000,53670.621093750,0.000000000,0.000000000,14.956124306,-64.834640503,0.000000000,-0.084000528,-16.815948486
1747313277.560048,30.870000000,0.000000000,53670.621093750,0.000000000,0.000000000,14.956124306,-64.834655762,0.000000000,-0.084000528,-16.815948486
1747313277.562432,30.872000000,0.000000000,53670.621093750,0.000000000,0.000000000,14.956124306,-64.834671021,0.000000000,-0.084000528,-16.815948486
1747313277.564801,30.875000000,0.000000000,53670.621093750,0.000000000,0.000000000,14.956124306,-64.834686279,0.000000000,-0.084000528,-16.815948486
1747313277.567258,30.877000000,0.000000000,53670.621093750,0.000000000,0.000000000,14.956124306,-64.834701538,0.000000000,-0.084000528,-16.815948486
1747313277.569654,30.879000000,0.000000000,53670.621093750,0.000000000,0.000000000,14.956124306,-64.834716797,0.000000000,-0.084000528,-16.815948486
1747313277.572026,30.882000000,0.000000000,53670.621093750,0.000000000,0.000000000,14.956124306,-64.834732056,0.000000000,-0.084000528,-16.815948486
1747313277.574401,30.884000000,0.000000000,53670.621093750,0.000000000,0.000000000,14.956124306,-64.834747314,0.000000000,-0.084000528,-16.815948486
1747313277.576774,30.887000000,0.000000000,53670.621093750,0.000000000,0.000000000,14.956124306,-64.834754944,0.000000000,-0.084000528,-16.815948486
1747313277.579205,30.889000000,0.000000000,53670.621093750,0.000000000,0.000000000,14.956124306,-64.834770203,0.000000000,-0.084000528,-16.815948486
1747313277.581618,30.891000000,0.000000000,53670.621093750,0.000000000,0.000000000,14.956124306,-64.834785461,0.000000000,-0.084000528,-16.815948486
1747313277.584025,30.894000000,0.000000000,53670.621093750,0.000000000,0.000000000,14.956124306,-64.834800720,0.000000000,-0.084000528,-16.815948486
1747313277.586452,30.896000000,0.000000000,53670.621093750,0.000000000,0.000000000,14.956124306,-64.834815979,0.000000000,-0.084000528,-16.815948486
1747313277.588852,30.899000000,0.000000000,53670.621093750,0.000000000,0.000000000,14.956124306,-64.834831238,0.000000000,-0.084000528,-16.815948486
1747313277.591270,30.901000000,0.000000000,53670.621093750,0.000000000,0.000000000,14.956124306,-64.834846497,0.000000000,-0.084000528,-16.815948486
1747313277.593647,30.903000000,0.000000000,53670.621093750,0.000000000,0.000000000,14.956124306,-64.834861755,0.000000000,-0.084000528,-16.815948486
1747313277.596027,30.906000000,0.000000000,53670.621093750,0.000000000,0.000000000,14.956124306,-64.834877014,0.000000000,-0.084000528,-16.815948486
1747313277.598439,30.908000000,0.000000000,53670.621093750,0.000000000,0.000000000,14.956124306,-64.834892273,0.000000000,-0.084000528,-16.815948486
1747313277.600818,30.911000000,0.000000000,53670.621093750,0.000000000,0.000000000,14.956124306,-64.834907532,0.000000000,-0.084000528,-16.815948486
1747313277.603309,30.913000000,0.000000000,53670.621093750,0.000000000,0.000000000,14.956124306,-64.834922791,0.000000000,-0.084000528,-16.815948486
1747313277.605804,30.915000000,0.000000000,53670.621093750,0.000000000,0.000000000,14.956124306,-64.834938049,0.000000000,-0.084000528,-16.815948486
1747313277.608135,30.918000000,0.000000000,53670.621093750,0.000000000,0.000000000,14.956124306,-64.834953308,0.000000000,-0.084000528,-16.815948486
1747313277.610500,30.920000000,0.000000000,53670.621093750,0.000000000,0.000000000,14.956124306,-64.834968567,0.000000000,-0.084000528,-16.815948486
1747313277.612877,30.923000000,0.000000000,53670.621093750,0.000000000,0.000000000,14.956124306,-64.834983826,0.000000000,-0.084000528,-16.815948486
1747313277.615253,30.925000000,0.000000000,53670.621093750,0.000000000,0.000000000,14.956124306,-64.834999084,0.000000000,-0.084000528,-16.815948486
1747313277.617618,30.927000000,0.000000000,53670.621093750,0.000000000,0.000000000,14.956124306,-64.835014343,0.000000000,-0.084000528,-16.815948486
1747313277.620054,30.930000000,0.000000000,53670.621093750,0.000000000,0.000000000,14.956124306,-64.835029602,0.000000000,-0.084000528,-16.815948486
1747313277.622515,30.932000000,0.000000000,53670.621093750,0.000000000,0.000000000,14.956124306,-64.835044861,0.000000000,-0.084000528,-16.815948486
1747313277.624894,30.935000000,0.000000000,53670.621093750,0.000000000,0.000000000,14.956124306,-64.835060120,0.000000000,-0.084000528,-16.815948486
1747313277.627299,30.937000000,0.000000000,53670.621093750,0.000000000,0.000000000,14.956124306,-64.835075378,0.000000000,-0.084000528,-16.815948486
1747313277.629834,30.940000000,0.000000000,53670.621093750,0.000000000,0.000000000,14.956124306,-64.835090637,0.000000000,-0.084000528,-16.815948486
1747313277.632339,30.942000000,0.000000000,53670.621093750,0.000000000,0.000000000,14.956124306,-64.835105896,0.000000000,-0.084000528,-16.815948486
1747313277.634800,30.945000000,0.000000000,53670.621093750,0.000000000,0.000000000,14.956124306,-64.835121155,0.000000000,-0.084000528,-16.815948486
1747313277.637254,30.947000000,0.000000000,53670.621093750,0.000000000,0.000000000,14.956124306,-64.835136414,0.000000000,-0.084000528,-16.815948486
1747313277.639656,30.949000000,0.000000000,53670.621093750,0.000000000,0.000000000,14.956124306,-64.835151672,0.000000000,-0.084000528,-16.815948486
1747313277.642027,30.952000000,0.000000000,53670.621093750,0.000000000,0.000000000,14.956124306,-64.835166931,0.000000000,-0.084000528,-16.815948486
1747313277.644397,30.954000000,0.000000000,53670.621093750,0.000000000,0.000000000,14.956124306,-64.835182190,0.000000000,-0.084000528,-16.815948486
1747313277.646770,30.957000000,0.000000000,53670.621093750,0.000000000,0.000000000,14.956124306,-64.835197449,0.000000000,-0.084000528,-16.815948486
1747313277.649143,30.959000000,0.000000000,53670.621093750,0.000000000,0.000000000,14.956124306,-64.835212708,0.000000000,-0.084000528,-16.815948486
1747313277.651512,30.961000000,0.000000000,53670.621093750,0.000000000,0.000000000,14.956124306,-64.835227966,0.000000000,-0.084000528,-16.815948486
1747313277.653962,30.964000000,0.000000000,53670.621093750,0.000000000,0.000000000,14.956124306,-64.835243225,0.000000000,-0.084000528,-16.815948486
1747313277.656416,30.966000000,0.000000000,53670.621093750,0.000000000,0.000000000,14.956124306,-64.835258484,0.000000000,-0.084000528,-16.815948486
1747313277.658855,30.969000000,0.000000000,53670.621093750,0.000000000,0.000000000,14.956124306,-64.835273743,0.000000000,-0.084000528,-16.815948486
1747313277.661298,30.971000000,0.000000000,53670.621093750,0.000000000,0.000000000,14.956124306,-64.835289001,0.000000000,-0.084000528,-16.815948486
1747313277.663734,30.973000000,0.000000000,53670.621093750,0.000000000,0.000000000,14.956124306,-64.835304260,0.000000000,-0.084000528,-16.815948486
1747313277.666177,30.976000000,0.000000000,53670.621093750,0.000000000,0.000000000,14.956124306,-64.835319519,0.000000000,-0.084000528,-16.815948486
1747313277.668605,30.978000000,0.000000000,53670.621093750,0.000000000,0.000000000,14.956124306,-64.835334778,0.000000000,-0.084000528,-16.815948486
1747313277.671039,30.981000000,0.000000000,53670.621093750,0.000000000,0.000000000,14.956124306,-64.835350037,0.000000000,-0.084000528,-16.815948486
1747313277.673435,30.983000000,0.000000000,53670.621093750,0.000000000,0.000000000,14.956124306,-64.835365295,0.000000000,-0.084000528,-16.815948486
1747313277.675832,30.986000000,0.000000000,53670.621093750,0.000000000,0.000000000,14.956124306,-64.835380554,0.000000000,-0.084000528,-16.815948486
1747313277.678247,30.988000000,0.000000000,53670.621093750,0.000000000,0.000000000,14.956124306,-64.835395813,0.000000000,-0.084000528,-16.815948486
1747313277.680627,30.990000000,0.000000000,53670.621093750,0.000000000,0.000000000,14.956124306,-64.835411072,0.000000000,-0.084000528,-16.815948486
1747313277.682979,30.993000000,0.000000000,53670.621093750,0.000000000,0.000000000,14.956124306,-64.835426331,0.000000000,-0.084000528,-16.815948486
1747313277.685369,30.995000000,0.000000000,53670.621093750,0.000000000,0.000000000,14.956124306,-64.835441589,0.000000000,-0.084000528,-16.815948486
1747313277.687736,30.997000000,0.000000000,53670.621093750,0.000000000,0.000000000,14.956124306,-64.835456848,0.000000000,-0.084000528,-16.815948486
1747313277.690115,31.000000000,0.000000000,53670.621093750,0.000000000,0.000000000,14.956124306,-64.835472107,0.000000000,-0.084000528,-16.815948486
1747313277.692511,31.002000000,0.000000000,53670.621093750,0.000000000,0.000000000,14.956124306,-64.835487366,0.000000000,-0.084000528,-16.815948486
1747313277.694907,31.005000000,0.000000000,53670.621093750,0.000000000,0.000000000,14.956124306,-64.835494995,0.000000000,-0.084000528,-16.815948486
1747313277.697275,31.007000000,0.000000000,53670.621093750,0.000000000,0.000000000,14.956124306,-64.835510254,0.000000000,-0.084000528,-16.815948486
1747313277.699647,31.009000000,0.000000000,53670.621093750,0.000000000,0.000000000,14.956124306,-64.835525513,0.000000000,-0.084000528,-16.815948486
1747313277.702028,31.012000000,0.000000000,53670.621093750,0.000000000,0.000000000,14.956124306,-64.835540771,0.000000000,-0.084000528,-16.815948486
1747313277.704432,31.014000000,0.000000000,53670.621093750,0.000000000,0.000000000,14.956124306,-64.835556030,0.000000000,-0.084000528,-16.815948486
1747313277.706818,31.017000000,0.000000000,53670.621093750,0.000000000,0.000000000,14.956124306,-64.835571289,0.000000000,-0.084000528,-16.815948486
1747313277.709191,31.019000000,0.000000000,53670.621093750,0.000000000,0.000000000,14.956124306,-64.835586548,0.000000000,-0.084000528,-16.815948486
1747313277.711571,31.021000000,0.000000000,53670.621093750,0.000000000,0.000000000,14.956124306,-64.835601807,0.000000000,-0.084000528,-16.815948486
1747313277.713947,31.024000000,0.000000000,53670.621093750,0.000000000,0.000000000,14.956124306,-64.835617065,0.000000000,-0.084000528,-16.815948486
1747313277.716357,31.026000000,0.000000000,53670.621093750,0.000000000,0.000000000,14.956124306,-64.835632324,0.000000000,-0.084000528,-16.815948486
1747313277.718768,31.028000000,0.000000000,53670.621093750,0.000000000,0.000000000,14.956124306,-64.835647583,0.000000000,-0.084000528,-16.815948486
1747313277.721171,31.031000000,0.000000000,53670.621093750,0.000000000,0.000000000,14.956124306,-64.835662842,0.000000000,-0.084000528,-16.815948486
1747313277.723558,31.033000000,0.000000000,53670.621093750,0.000000000,0.000000000,14.956124306,-64.835678101,0.000000000,-0.084000528,-16.815948486
1747313277.725916,31.036000000,0.000000000,53670.621093750,0.000000000,0.000000000,14.956124306,-64.835693359,0.000000000,-0.084000528,-16.815948486
1747313277.728317,31.038000000,0.000000000,53670.621093750,0.000000000,0.000000000,14.956124306,-64.835708618,0.000000000,-0.084000528,-16.815948486
1747313277.730679,31.040000000,0.000000000,53670.621093750,0.000000000,0.000000000,14.956124306,-64.835723877,0.000000000,-0.084000528,-16.815948486
1747313277.733052,31.043000000,0.000000000,53670.621093750,0.000000000,0.000000000,14.956124306,-64.835739136,0.000000000,-0.084000528,-16.815948486
1747313277.735579,31.045000000,0.000000000,53670.621093750,0.000000000,0.000000000,14.956124306,-64.835754395,0.000000000,-0.084000528,-16.815948486
1747313277.737955,31.048000000,0.000000000,53670.621093750,0.000000000,0.000000000,14.956124306,-64.835769653,0.000000000,-0.084000528,-16.815948486
1747313277.740341,31.050000000,0.000000000,53670.621093750,0.000000000,0.000000000,14.956124306,-64.835784912,0.000000000,-0.084000528,-16.815948486
1747313277.742741,31.052000000,0.000000000,53670.621093750,0.000000000,0.000000000,14.956124306,-64.835800171,0.000000000,-0.084000528,-16.815948486
1747313277.745120,31.055000000,0.000000000,53670.621093750,0.000000000,0.000000000,14.956124306,-64.835815430,0.000000000,-0.084000528,-16.815948486
1747313277.747481,31.057000000,0.000000000,53670.621093750,0.000000000,0.000000000,14.956124306,-64.835830688,0.000000000,-0.084000528,-16.815948486
1747313277.749815,31.060000000,0.000000000,53670.621093750,0.000000000,0.000000000,14.956124306,-64.835845947,0.000000000,-0.084000528,-16.815948486
1747313277.752188,31.062000000,0.000000000,53670.621093750,0.000000000,0.000000000,14.956124306,-64.835861206,0.000000000,-0.084000528,-16.815948486
1747313277.754529,31.064000000,0.000000000,53670.621093750,0.000000000,0.000000000,14.956124306,-64.835876465,0.000000000,-0.084000528,-16.815948486
1747313277.756871,31.067000000,0.000000000,53670.621093750,0.000000000,0.000000000,14.956124306,-64.835891724,0.000000000,-0.084000528,-16.815948486
1747313277.759290,31.069000000,0.000000000,53670.621093750,0.000000000,0.000000000,14.956124306,-64.835906982,0.000000000,-0.084000528,-16.815948486
1747313277.761685,31.071000000,0.000000000,53670.621093750,0.000000000,0.000000000,14.956124306,-64.835922241,0.000000000,-0.084000528,-16.815948486
1747313277.764021,31.074000000,0.000000000,53670.621093750,0.000000000,0.000000000,14.956124306,-64.835937500,0.000000000,-0.084000528,-16.815948486
1747313277.766371,31.076000000,0.000000000,53670.621093750,0.000000000,0.000000000,14.956124306,-64.835952759,0.000000000,-0.084000528,-16.815948486
1747313277.768722,31.078000000,0.000000000,53670.621093750,0.000000000,0.000000000,14.956124306,-64.835968018,0.000000000,-0.084000528,-16.815948486
1747313277.771081,31.081000000,0.000000000,53670.621093750,0.000000000,0.000000000,14.956124306,-64.835983276,0.000000000,-0.084000528,-16.815948486
1747313277.773464,31.083000000,0.000000000,53670.621093750,0.000000000,0.000000000,14.956124306,-64.835998535,0.000000000,-0.084000528,-16.815948486
1747313277.775825,31.086000000,0.000000000,53670.621093750,0.000000000,0.000000000,14.956124306,-64.836013794,0.000000000,-0.084000528,-16.815948486
1747313277.778229,31.088000000,0.000000000,53670.621093750,0.000000000,0.000000000,14.956124306,-64.836029053,0.000000000,-0.084000528,-16.815948486
1747313277.780717,31.090000000,0.000000000,53670.621093750,0.000000000,0.000000000,14.956124306,-64.836044312,0.000000000,-0.084000528,-16.815948486
1747313277.783157,31.093000000,0.000000000,53670.621093750,0.000000000,0.000000000,14.956124306,-64.836059570,0.000000000,-0.084000528,-16.815948486
1747313277.785633,31.095000000,0.000000000,53670.621093750,0.000000000,0.000000000,14.956124306,-64.836074829,0.000000000,-0.084000528,-16.815948486
1747313277.788046,31.098000000,0.000000000,53670.621093750,0.000000000,0.000000000,14.956124306,-64.836090088,0.000000000,-0.084000528,-16.815948486
1747313277.790484,31.100000000,0.000000000,53670.621093750,0.000000000,0.000000000,14.956124306,-64.836105347,0.000000000,-0.084000528,-16.815948486
1747313277.792900,31.103000000,0.000000000,53670.621093750,0.000000000,0.000000000,14.956124306,-64.836120605,0.000000000,-0.084000528,-16.815948486
1747313277.795443,31.105000000,0.000000000,53670.621093750,0.000000000,0.000000000,14.956124306,-64.836135864,0.000000000,-0.084000528,-16.815948486
1747313277.797901,31.108000000,0.000000000,53670.621093750,0.000000000,0.000000000,14.956124306,-64.836151123,0.000000000,-0.084000528,-16.815948486
1747313277.800439,31.110000000,0.000000000,53670.621093750,0.000000000,0.000000000,14.956124306,-64.836166382,0.000000000,-0.084000528,-16.815948486
1747313277.802905,31.113000000,0.000000000,53670.621093750,0.000000000,0.000000000,14.956124306,-64.836181641,0.000000000,-0.084000528,-16.815948486
1747313277.805340,31.115000000,0.000000000,53670.621093750,0.000000000,0.000000000,14.956124306,-64.836196899,0.000000000,-0.084000528,-16.815948486
1747313277.807719,31.117000000,0.000000000,53670.621093750,0.000000000,0.000000000,14.956124306,-64.836212158,0.000000000,-0.084000528,-16.815948486
1747313277.810086,31.120000000,0.000000000,53670.621093750,0.000000000,0.000000000,14.956124306,-64.836227417,0.000000000,-0.084000528,-16.815948486
1747313277.812462,31.122000000,0.000000000,53670.621093750,0.000000000,0.000000000,14.956124306,-64.836235046,0.000000000,-0.084000528,-16.815948486
1747313277.814842,31.125000000,0.000000000,53670.621093750,0.000000000,0.000000000,14.956124306,-64.836250305,0.000000000,-0.084000528,-16.815948486
1747313277.817211,31.127000000,0.000000000,53670.621093750,0.000000000,0.000000000,14.956124306,-64.836265564,0.000000000,-0.084000528,-16.815948486
1747313277.819607,31.129000000,0.000000000,53670.621093750,0.000000000,0.000000000,14.956124306,-64.836280823,0.000000000,-0.084000528,-16.815948486
1747313277.822017,31.132000000,0.000000000,53670.621093750,0.000000000,0.000000000,14.956124306,-64.836296082,0.000000000,-0.084000528,-16.815948486
1747313277.824480,31.134000000,0.000000000,53670.621093750,0.000000000,0.000000000,14.956124306,-64.836311340,0.000000000,-0.084000528,-16.815948486
1747313277.826919,31.137000000,0.000000000,53670.621093750,0.000000000,0.000000000,14.956124306,-64.836326599,0.000000000,-0.084000528,-16.815948486
1747313277.829324,31.139000000,0.000000000,53670.621093750,0.000000000,0.000000000,14.956124306,-64.836341858,0.000000000,-0.084000528,-16.815948486
1747313277.831764,31.141000000,0.000000000,53670.621093750,0.000000000,0.000000000,14.956124306,-64.836357117,0.000000000,-0.084000528,-16.815948486
1747313277.834210,31.144000000,0.000000000,53670.621093750,0.000000000,0.000000000,14.956124306,-64.836372375,0.000000000,-0.084000528,-16.815948486
1747313277.836576,31.146000000,0.000000000,53670.621093750,0.000000000,0.000000000,14.956124306,-64.836387634,0.000000000,-0.084000528,-16.815948486
1747313277.838962,31.149000000,0.000000000,53670.621093750,0.000000000,0.000000000,14.956124306,-64.836402893,0.000000000,-0.084000528,-16.815948486
1747313277.841340,31.151000000,0.000000000,53670.621093750,0.000000000,0.000000000,14.956124306,-64.836418152,0.000000000,-0.084000528,-16.815948486
1747313277.843714,31.153000000,0.000000000,53670.621093750,0.000000000,0.000000000,14.956124306,-64.836433411,0.000000000,-0.084000528,-16.815948486
1747313277.846089,31.156000000,0.000000000,53670.621093750,0.000000000,0.000000000,14.956124306,-64.836448669,0.000000000,-0.084000528,-16.815948486
1747313277.848458,31.158000000,0.000000000,53670.621093750,0.000000000,0.000000000,14.956124306,-64.836463928,0.000000000,-0.084000528,-16.815948486
1747313277.850839,31.161000000,0.000000000,53670.621093750,0.000000000,0.000000000,14.956124306,-64.836479187,0.000000000,-0.084000528,-16.815948486
1747313277.853224,31.163000000,0.000000000,53670.621093750,0.000000000,0.000000000,14.956124306,-64.836494446,0.000000000,-0.084000528,-16.815948486
1747313277.855588,31.165000000,0.000000000,53670.621093750,0.000000000,0.000000000,14.956124306,-64.836509705,0.000000000,-0.084000528,-16.815948486
1747313277.857962,31.168000000,0.000000000,53670.621093750,0.000000000,0.000000000,14.956124306,-64.836524963,0.000000000,-0.084000528,-16.815948486
1747313277.860330,31.170000000,0.000000000,53670.621093750,0.000000000,0.000000000,14.956124306,-64.836540222,0.000000000,-0.084000528,-16.815948486
1747313277.862770,31.172000000,0.000000000,53670.621093750,0.000000000,0.000000000,14.956124306,-64.836555481,0.000000000,-0.084000528,-16.815948486
1747313277.865233,31.175000000,0.000000000,53670.621093750,0.000000000,0.000000000,14.956124306,-64.836570740,0.000000000,-0.084000528,-16.815948486
1747313277.867560,31.177000000,0.000000000,53670.621093750,0.000000000,0.000000000,14.956124306,-64.836585999,0.000000000,-0.084000528,-16.815948486
1747313277.869937,31.180000000,0.000000000,53670.621093750,0.000000000,0.000000000,14.956124306,-64.836601257,0.000000000,-0.084000528,-16.815948486
1747313277.872341,31.182000000,0.000000000,53670.621093750,0.000000000,0.000000000,14.956124306,-64.836616516,0.000000000,-0.084000528,-16.815948486
1747313277.874746,31.184000000,0.000000000,53670.621093750,0.000000000,0.000000000,14.956124306,-64.836631775,0.000000000,-0.084000528,-16.815948486
1747313277.877104,31.187000000,0.000000000,53670.621093750,0.000000000,0.000000000,14.956124306,-64.836647034,0.000000000,-0.084000528,-16.815948486
1747313277.879509,31.189000000,0.000000000,53670.621093750,0.000000000,0.000000000,14.956124306,-64.836662292,0.000000000,-0.084000528,-16.815948486
1747313277.881864,31.192000000,0.000000000,53670.621093750,0.000000000,0.000000000,14.956124306,-64.836677551,0.000000000,-0.084000528,-16.815948486
1747313277.884227,31.194000000,0.000000000,53670.621093750,0.000000000,0.000000000,14.956124306,-64.836692810,0.000000000,-0.084000528,-16.815948486
1747313277.886605,31.196000000,0.000000000,53670.621093750,0.000000000,0.000000000,14.956124306,-64.836708069,0.000000000,-0.084000528,-16.815948486
1747313277.888998,31.199000000,0.000000000,53670.621093750,0.000000000,0.000000000,14.956124306,-64.836723328,0.000000000,-0.084000528,-16.815948486
1747313277.891412,31.201000000,0.000000000,53670.621093750,0.000000000,0.000000000,14.956124306,-64.836738586,0.000000000,-0.084000528,-16.815948486
1747313277.893783,31.204000000,0.000000000,53670.621093750,0.000000000,0.000000000,14.956124306,-64.836753845,0.000000000,-0.084000528,-16.815948486
1747313277.896157,31.206000000,0.000000000,53670.621093750,0.000000000,0.000000000,14.956124306,-64.836769104,0.000000000,-0.084000528,-16.815948486
1747313277.898518,31.208000000,0.000000000,53670.621093750,0.000000000,0.000000000,14.956124306,-64.836784363,0.000000000,-0.084000528,-16.815948486
1747313277.900887,31.211000000,0.000000000,53670.621093750,0.000000000,0.000000000,14.956124306,-64.836799622,0.000000000,-0.084000528,-16.815948486
1747313277.903264,31.213000000,0.000000000,53670.621093750,0.000000000,0.000000000,14.956124306,-64.836814880,0.000000000,-0.084000528,-16.815948486
1747313277.905624,31.215000000,0.000000000,53670.621093750,0.000000000,0.000000000,14.956124306,-64.836830139,0.000000000,-0.084000528,-16.815948486
1747313277.908013,31.218000000,0.000000000,53670.621093750,0.000000000,0.000000000,14.956124306,-64.836845398,0.000000000,-0.084000528,-16.815948486
1747313277.910388,31.220000000,0.000000000,53670.621093750,0.000000000,0.000000000,14.956124306,-64.836860657,0.000000000,-0.084000528,-16.815948486
1747313277.912764,31.222000000,0.000000000,53670.621093750,0.000000000,0.000000000,14.956124306,-64.836875916,0.000000000,-0.084000528,-16.815948486
1747313277.915140,31.225000000,0.000000000,53670.621093750,0.000000000,0.000000000,14.956124306,-64.836891174,0.000000000,-0.084000528,-16.815948486
1747313277.917491,31.227000000,0.000000000,53670.621093750,0.000000000,0.000000000,14.956124306,-64.836906433,0.000000000,-0.084000528,-16.815948486
1747313277.919894,31.230000000,0.000000000,53670.621093750,0.000000000,0.000000000,14.956124306,-64.836921692,0.000000000,-0.084000528,-16.815948486
1747313277.922262,31.232000000,0.000000000,53670.621093750,0.000000000,0.000000000,14.956124306,-64.836936951,0.000000000,-0.084000528,-16.815948486
1747313277.924634,31.234000000,0.000000000,53670.621093750,0.000000000,0.000000000,14.956124306,-64.836952209,0.000000000,-0.084000528,-16.815948486
1747313277.927000,31.237000000,0.000000000,53670.621093750,0.000000000,0.000000000,14.956124306,-64.836967468,0.000000000,-0.084000528,-16.815948486
1747313277.929382,31.239000000,0.000000000,53670.621093750,0.000000000,0.000000000,14.956124306,-64.836975098,0.000000000,-0.084000528,-16.815948486
1747313277.931745,31.241000000,0.000000000,53670.621093750,0.000000000,0.000000000,14.956124306,-64.836990356,0.000000000,-0.084000528,-16.815948486
1747313277.934110,31.244000000,0.000000000,53670.621093750,0.000000000,0.000000000,14.956124306,-64.837005615,0.000000000,-0.084000528,-16.815948486
1747313277.936490,31.246000000,0.000000000,53670.621093750,0.000000000,0.000000000,14.956124306,-64.837020874,0.000000000,-0.084000528,-16.815948486
1747313277.938869,31.249000000,0.000000000,53670.621093750,0.000000000,0.000000000,14.956124306,-64.837036133,0.000000000,-0.084000528,-16.815948486
1747313277.941237,31.251000000,0.000000000,53670.621093750,0.000000000,0.000000000,14.956124306,-64.837051392,0.000000000,-0.084000528,-16.815948486
1747313277.943620,31.253000000,0.000000000,53670.621093750,0.000000000,0.000000000,14.956124306,-64.837066650,0.000000000,-0.084000528,-16.815948486
1747313277.946017,31.256000000,0.000000000,53670.621093750,0.000000000,0.000000000,14.956124306,-64.837081909,0.000000000,-0.084000528,-16.815948486
1747313277.948483,31.258000000,0.000000000,53670.621093750,0.000000000,0.000000000,14.956124306,-64.837097168,0.000000000,-0.084000528,-16.815948486
1747313277.950864,31.261000000,0.000000000,53670.621093750,0.000000000,0.000000000,14.956124306,-64.837112427,0.000000000,-0.084000528,-16.815948486
1747313277.953255,31.263000000,0.000000000,53670.621093750,0.000000000,0.000000000,14.956124306,-64.837127686,0.000000000,-0.084000528,-16.815948486
1747313277.955717,31.265000000,0.000000000,53670.621093750,0.000000000,0.000000000,14.956124306,-64.837142944,0.000000000,-0.084000528,-16.815948486
1747313277.958178,31.268000000,0.000000000,53670.621093750,0.000000000,0.000000000,14.956124306,-64.837158203,0.000000000,-0.084000528,-16.815948486
1747313277.960629,31.270000000,0.000000000,53670.621093750,0.000000000,0.000000000,14.956124306,-64.837173462,0.000000000,-0.084000528,-16.815948486
1747313277.963063,31.273000000,0.000000000,53670.621093750,0.000000000,0.000000000,14.956124306,-64.837188721,0.000000000,-0.084000528,-16.815948486
1747313277.965428,31.275000000,0.000000000,53670.621093750,0.000000000,0.000000000,14.956124306,-64.837203979,0.000000000,-0.084000528,-16.815948486
1747313277.967804,31.278000000,0.000000000,53670.621093750,0.000000000,0.000000000,14.956124306,-64.837219238,0.000000000,-0.084000528,-16.815948486
1747313277.970228,31.280000000,0.000000000,53670.621093750,0.000000000,0.000000000,14.956124306,-64.837234497,0.000000000,-0.084000528,-16.815948486
1747313277.972764,31.282000000,0.000000000,53670.621093750,0.000000000,0.000000000,14.956124306,-64.837249756,0.000000000,-0.084000528,-16.815948486
1747313277.975172,31.285000000,0.000000000,53670.621093750,0.000000000,0.000000000,14.956124306,-64.837265015,0.000000000,-0.084000528,-16.815948486
1747313277.977638,31.287000000,0.000000000,53670.621093750,0.000000000,0.000000000,14.956124306,-64.837280273,0.000000000,-0.084000528,-16.815948486
1747313277.979995,31.290000000,0.000000000,53670.621093750,0.000000000,0.000000000,14.956124306,-64.837295532,0.000000000,-0.084000528,-16.815948486
1747313277.982388,31.292000000,0.000000000,53670.621093750,0.000000000,0.000000000,14.956124306,-64.837310791,0.000000000,-0.084000528,-16.815948486
1747313277.984742,31.294000000,0.000000000,53670.621093750,0.000000000,0.000000000,14.956124306,-64.837326050,0.000000000,-0.084000528,-16.815948486
1747313277.987118,31.297000000,0.000000000,53670.621093750,0.000000000,0.000000000,14.956124306,-64.837341309,0.000000000,-0.084000528,-16.815948486
1747313277.989498,31.299000000,0.000000000,53670.621093750,0.000000000,0.000000000,14.956124306,-64.837356567,0.000000000,-0.084000528,-16.815948486
1747313277.991865,31.302000000,0.000000000,53670.621093750,0.000000000,0.000000000,14.956124306,-64.837371826,0.000000000,-0.084000528,-16.815948486
1747313277.994231,31.304000000,0.000000000,53670.621093750,0.000000000,0.000000000,14.956124306,-64.837387085,0.000000000,-0.084000528,-16.815948486
1747313277.996631,31.306000000,0.000000000,53670.621093750,0.000000000,0.000000000,14.956124306,-64.837402344,0.000000000,-0.084000528,-16.815948486
1747313277.999006,31.309000000,0.000000000,53670.621093750,0.000000000,0.000000000,14.956124306,-64.837417603,0.000000000,-0.084000528,-16.815948486
1747313278.001447,31.311000000,0.000000000,53670.621093750,0.000000000,0.000000000,14.956124306,-64.837432861,0.000000000,-0.084000528,-16.815948486
1747313278.003879,31.314000000,0.000000000,53670.621093750,0.000000000,0.000000000,14.956124306,-64.837448120,0.000000000,-0.084000528,-16.815948486
1747313278.006286,31.316000000,0.000000000,53670.621093750,0.000000000,0.000000000,14.956124306,-64.837463379,0.000000000,-0.084000528,-16.815948486
1747313278.008729,31.318000000,0.000000000,53670.621093750,0.000000000,0.000000000,14.956124306,-64.837478638,0.000000000,-0.084000528,-16.815948486
1747313278.011113,31.321000000,0.000000000,53670.621093750,0.000000000,0.000000000,14.956124306,-64.837493896,0.000000000,-0.084000528,-16.815948486
1747313278.013547,31.323000000,0.000000000,53670.621093750,0.000000000,0.000000000,14.956124306,-64.837509155,0.000000000,-0.084000528,-16.815948486
1747313278.015932,31.326000000,0.000000000,53670.621093750,0.000000000,0.000000000,14.956124306,-64.837524414,0.000000000,-0.084000528,-16.815948486
1747313278.018302,31.328000000,0.000000000,53670.621093750,0.000000000,0.000000000,14.956124306,-64.837539673,0.000000000,-0.084000528,-16.815948486
1747313278.020672,31.330000000,0.000000000,53670.621093750,0.000000000,0.000000000,14.956124306,-64.837554932,0.000000000,-0.084000528,-16.815948486
1747313278.023085,31.333000000,0.000000000,53670.621093750,0.000000000,0.000000000,14.956124306,-64.837570190,0.000000000,-0.084000528,-16.815948486
1747313278.025463,31.335000000,0.000000000,53670.621093750,0.000000000,0.000000000,14.956124306,-64.837585449,0.000000000,-0.084000528,-16.815948486
1747313278.027898,31.338000000,0.000000000,53670.621093750,0.000000000,0.000000000,14.956124306,-64.837600708,0.000000000,-0.084000528,-16.815948486
1747313278.030353,31.340000000,0.000000000,53670.621093750,0.000000000,0.000000000,14.956124306,-64.837615967,0.000000000,-0.084000528,-16.815948486
1747313278.032735,31.342000000,0.000000000,53670.621093750,0.000000000,0.000000000,14.956124306,-64.837631226,0.000000000,-0.084000528,-16.815948486
1747313278.035104,31.345000000,0.000000000,53670.621093750,0.000000000,0.000000000,14.956124306,-64.837646484,0.000000000,-0.084000528,-16.815948486
1747313278.037503,31.347000000,0.000000000,53670.621093750,0.000000000,0.000000000,14.956124306,-64.837661743,0.000000000,-0.084000528,-16.815948486
1747313278.039852,31.350000000,0.000000000,53670.621093750,0.000000000,0.000000000,14.956124306,-64.837677002,0.000000000,-0.084000528,-16.815948486
1747313278.042244,31.352000000,0.000000000,53670.621093750,0.000000000,0.000000000,14.956124306,-64.837692261,0.000000000,-0.084000528,-16.815948486
1747313278.044621,31.354000000,0.000000000,53670.621093750,0.000000000,0.000000000,14.956124306,-64.837707520,0.000000000,-0.084000528,-16.815948486
1747313278.047001,31.357000000,0.000000000,53670.621093750,0.000000000,0.000000000,14.956124306,-64.837715149,0.000000000,-0.084000528,-16.815948486
1747313278.049372,31.359000000,0.000000000,53670.621093750,0.000000000,0.000000000,14.956124306,-64.837730408,0.000000000,-0.084000528,-16.815948486
1747313278.051748,31.361000000,0.000000000,53670.621093750,0.000000000,0.000000000,14.956124306,-64.837745667,0.000000000,-0.084000528,-16.815948486
1747313278.054116,31.364000000,0.000000000,53670.621093750,0.000000000,0.000000000,14.956124306,-64.837760925,0.000000000,-0.084000528,-16.815948486
1747313278.056489,31.366000000,0.000000000,53670.621093750,0.000000000,0.000000000,14.956124306,-64.837776184,0.000000000,-0.084000528,-16.815948486
1747313278.058917,31.369000000,0.000000000,53670.621093750,0.000000000,0.000000000,14.956124306,-64.837791443,0.000000000,-0.084000528,-16.815948486
1747313278.061371,31.371000000,0.000000000,53670.621093750,0.000000000,0.000000000,14.956124306,-64.837806702,0.000000000,-0.084000528,-16.815948486
1747313278.063764,31.373000000,0.000000000,53670.621093750,0.000000000,0.000000000,14.956124306,-64.837821960,0.000000000,-0.084000528,-16.815948486
1747313278.066137,31.376000000,0.000000000,53670.621093750,0.000000000,0.000000000,14.956124306,-64.837837219,0.000000000,-0.084000528,-16.815948486
1747313278.068525,31.378000000,0.000000000,53670.621093750,0.000000000,0.000000000,14.956124306,-64.837852478,0.000000000,-0.084000528,-16.815948486
1747313278.070899,31.381000000,0.000000000,53670.621093750,0.000000000,0.000000000,14.956124306,-64.837867737,0.000000000,-0.084000528,-16.815948486
1747313278.073263,31.383000000,0.000000000,53670.621093750,0.000000000,0.000000000,14.956124306,-64.837882996,0.000000000,-0.084000528,-16.815948486
1747313278.075651,31.385000000,0.000000000,53670.621093750,0.000000000,0.000000000,14.956124306,-64.837898254,0.000000000,-0.084000528,-16.815948486
1747313278.077998,31.388000000,0.000000000,53670.621093750,0.000000000,0.000000000,14.956124306,-64.837913513,0.000000000,-0.084000528,-16.815948486
1747313278.080385,31.390000000,0.000000000,53670.621093750,0.000000000,0.000000000,14.956124306,-64.837928772,0.000000000,-0.084000528,-16.815948486
1747313278.082775,31.392000000,0.000000000,53670.621093750,0.000000000,0.000000000,14.956124306,-64.837944031,0.000000000,-0.084000528,-16.815948486
1747313278.085168,31.395000000,0.000000000,53670.621093750,0.000000000,0.000000000,14.956124306,-64.837959290,0.000000000,-0.084000528,-16.815948486
1747313278.087522,31.397000000,0.000000000,53670.621093750,0.000000000,0.000000000,14.956124306,-64.837974548,0.000000000,-0.084000528,-16.815948486
1747313278.089835,31.400000000,0.000000000,53670.621093750,0.000000000,0.000000000,14.956124306,-64.837989807,0.000000000,-0.084000528,-16.815948486
1747313278.092224,31.402000000,0.000000000,53670.621093750,0.000000000,0.000000000,14.956124306,-64.838005066,0.000000000,-0.084000528,-16.815948486
1747313278.094584,31.404000000,0.000000000,53670.621093750,0.000000000,0.000000000,14.956124306,-64.838020325,0.000000000,-0.084000528,-16.815948486
1747313278.096963,31.407000000,0.000000000,53670.621093750,0.000000000,0.000000000,14.956124306,-64.838035583,0.000000000,-0.084000528,-16.815948486
1747313278.099352,31.409000000,0.000000000,53670.621093750,0.000000000,0.000000000,14.956124306,-64.838050842,0.000000000,-0.084000528,-16.815948486
1747313278.101741,31.411000000,0.000000000,53670.621093750,0.000000000,0.000000000,14.956124306,-64.838066101,0.000000000,-0.084000528,-16.815948486
1747313278.104122,31.414000000,0.000000000,53670.621093750,0.000000000,0.000000000,14.956124306,-64.838081360,0.000000000,-0.084000528,-16.815948486
1747313278.106541,31.416000000,0.000000000,53670.621093750,0.000000000,0.000000000,14.956124306,-64.838096619,0.000000000,-0.084000528,-16.815948486
1747313278.108911,31.419000000,0.000000000,53670.621093750,0.000000000,0.000000000,14.956124306,-64.838111877,0.000000000,-0.084000528,-16.815948486
1747313278.111333,31.421000000,0.000000000,53670.621093750,0.000000000,0.000000000,14.956124306,-64.838127136,0.000000000,-0.084000528,-16.815948486
1747313278.113739,31.423000000,0.000000000,53670.621093750,0.000000000,0.000000000,14.956124306,-64.838142395,0.000000000,-0.084000528,-16.815948486
1747313278.116134,31.426000000,0.000000000,53670.621093750,0.000000000,0.000000000,14.956124306,-64.838157654,0.000000000,-0.084000528,-16.815948486
1747313278.118532,31.428000000,0.000000000,53670.621093750,0.000000000,0.000000000,14.956124306,-64.838172913,0.000000000,-0.084000528,-16.815948486
1747313278.120916,31.431000000,0.000000000,53670.621093750,0.000000000,0.000000000,14.956124306,-64.838188171,0.000000000,-0.084000528,-16.815948486
1747313278.123283,31.433000000,0.000000000,53670.621093750,0.000000000,0.000000000,14.956124306,-64.838203430,0.000000000,-0.084000528,-16.815948486
1747313278.125654,31.435000000,0.000000000,53670.621093750,0.000000000,0.000000000,14.956124306,-64.838218689,0.000000000,-0.084000528,-16.815948486
1747313278.128050,31.438000000,0.000000000,53670.621093750,0.000000000,0.000000000,14.956124306,-64.838233948,0.000000000,-0.084000528,-16.815948486
1747313278.130453,31.440000000,0.000000000,53670.621093750,0.000000000,0.000000000,14.956124306,-64.838249207,0.000000000,-0.084000528,-16.815948486
1747313278.132811,31.443000000,0.000000000,53670.621093750,0.000000000,0.000000000,14.956124306,-64.838264465,0.000000000,-0.084000528,-16.815948486
1747313278.135181,31.445000000,0.000000000,53670.621093750,0.000000000,0.000000000,14.956124306,-64.838279724,0.000000000,-0.084000528,-16.815948486
1747313278.137682,31.447000000,0.000000000,53670.621093750,0.000000000,0.000000000,14.956124306,-64.838294983,0.000000000,-0.084000528,-16.815948486
1747313278.140166,31.450000000,0.000000000,53670.621093750,0.000000000,0.000000000,14.956124306,-64.838310242,0.000000000,-0.084000528,-16.815948486
1747313278.142508,31.452000000,0.000000000,53670.621093750,0.000000000,0.000000000,14.956124306,-64.838325500,0.000000000,-0.084000528,-16.815948486
1747313278.144969,31.455000000,0.000000000,53670.621093750,0.000000000,0.000000000,14.956124306,-64.838340759,0.000000000,-0.084000528,-16.815948486
1747313278.147363,31.457000000,0.000000000,53670.621093750,0.000000000,0.000000000,14.956124306,-64.838356018,0.000000000,-0.084000528,-16.815948486
1747313278.149714,31.459000000,0.000000000,53670.621093750,0.000000000,0.000000000,14.956124306,-64.838371277,0.000000000,-0.084000528,-33.631896973
1747313278.152078,31.462000000,0.000000000,53670.621093750,0.000000000,0.000000000,14.956124306,-64.838386536,0.000000000,-0.074999034,-33.631896973
1747313278.154461,31.464000000,0.000000000,53670.621093750,0.000000000,0.000000000,14.956124306,-64.838401794,0.000000000,-0.056998730,-33.631896973
1747313278.156839,31.467000000,0.000000000,53670.621093750,0.000000000,0.000000000,14.956124306,-64.838417053,0.000000000,-0.047999918,-33.631896973
1747313278.159256,31.469000000,0.000000000,53670.621093750,0.000000000,0.000000000,14.956124306,-64.838432312,0.000000000,-0.039001107,-33.631896973
1747313278.161701,31.471000000,0.000000000,53670.621093750,0.000000000,0.000000000,14.956124306,-64.838447571,0.000000000,-0.029999614,-33.631896973
1747313278.164108,31.474000000,0.000000000,53670.621093750,0.000000000,0.000000000,14.956124306,-64.838455200,0.000000000,-0.029999614,-33.631896973
1747313278.166567,31.476000000,0.000000000,53670.621093750,0.000000000,0.000000000,14.956124306,-64.838470459,0.000000000,-0.021000803,-33.631896973
1747313278.169003,31.479000000,0.000000000,53670.621093750,0.000000000,0.000000000,14.956124306,-64.838485718,0.000000000,-0.003000498,-33.631896973
1747313278.171496,31.481000000,0.000000000,53670.621093750,0.000000000,0.000000000,14.956124306,-64.838500977,0.000000000,0.014999807,-33.631896973
1747313278.173858,31.484000000,0.000000000,53670.621093750,0.000000000,0.000000000,14.969623566,-63.598392487,0.000000000,0.014999807,-33.631896973
1747313278.176251,31.486000000,0.000000000,53670.621093750,0.000000000,0.000000000,14.969623566,-61.859497070,0.000000000,0.024001300,-33.631896973
1747313278.178733,31.488000000,0.000000000,53670.621093750,0.000000000,0.000000000,14.956124306,-63.051773071,0.000000000,0.051000416,-33.631896973
1747313278.181106,31.491000000,0.000000000,53670.621093750,0.000000000,0.000000000,14.969623566,-63.589302063,0.000000000,0.051000416,-33.631896973
1747313278.183465,31.493000000,0.000000000,53670.621093750,0.000000000,0.000000000,14.956124306,-63.038284302,0.000000000,0.077999532,-33.631896973
1747313278.185840,31.496000000,0.000000000,53670.621093750,0.000000000,0.000000000,14.969623566,-63.667423248,0.000000000,0.095999837,-33.631896973
1747313278.188207,31.498000000,0.000000000,53670.621093750,0.000000000,0.000000000,14.956124306,-63.036796570,0.000000000,0.105001330,-33.631896973
1747313278.190612,31.500000000,0.000000000,53670.621093750,0.000000000,0.000000000,14.969623566,-63.654571533,0.000000000,0.122998953,-33.631896973
1747313278.192983,31.503000000,0.000000000,53670.621093750,0.000000000,0.000000000,14.956124306,-63.047367096,0.000000000,0.140999258,-33.631896973
1747313278.195382,31.505000000,0.000000000,53670.621093750,0.000000000,0.000000000,14.969623566,-63.658367157,0.000000000,0.158999562,-33.631896973
1747313278.197732,31.507000000,0.000000000,53670.621093750,0.000000000,0.000000000,14.969623566,-61.859607697,0.000000000,0.176999867,-33.631896973
1747313278.200129,31.510000000,0.000000000,53670.621093750,0.000000000,0.000000000,14.956124306,-63.027721405,0.000000000,0.195000172,-33.631896973
1747313278.202529,31.512000000,0.000000000,53670.621093750,0.000000000,0.000000000,14.969623566,-63.654636383,0.000000000,0.195000172,-33.631896973
1747313278.204941,31.515000000,0.000000000,53670.621093750,0.000000000,0.000000000,14.969623566,-61.859645844,0.000000000,0.213000476,-33.631896973
1747313278.207312,31.517000000,0.000000000,53670.621093750,0.000000000,0.000000000,14.969623566,-61.859657288,0.000000000,0.239999592,-33.631896973
1747313278.209677,31.519000000,0.000000000,53670.621093750,0.000000000,0.000000000,14.969623566,-61.859668732,0.000000000,0.257999897,-33.631896973
1747313278.212066,31.522000000,0.000000000,53670.621093750,0.000000000,0.000000000,14.969623566,-61.859680176,0.000000000,0.266998708,-33.631896973
1747313278.214425,31.524000000,0.000000000,53670.621093750,0.000000000,0.000000000,14.969623566,-61.859687805,0.000000000,0.276000202,-33.631896973
1747313278.216790,31.527000000,0.000000000,53670.621093750,0.000000000,0.000000000,14.969623566,-61.859699249,0.000000000,0.302999318,-33.631896973
1747313278.219211,31.529000000,0.000000000,53670.621093750,0.000000000,0.000000000,14.969623566,-61.859710693,0.000000000,0.312000811,-33.631896973
1747313278.221652,31.531000000,0.000000000,53670.621093750,0.000000000,0.000000000,14.969623566,-61.859722137,0.000000000,0.320999622,-33.631896973
1747313278.224074,31.534000000,0.000000000,53670.621093750,0.000000000,0.000000000,14.956124306,-63.094905853,0.000000000,0.347998738,-33.631896973
1747313278.226500,31.536000000,0.000000000,53670.621093750,0.000000000,0.000000000,14.969623566,-63.626621246,0.000000000,0.365999043,-33.631896973
1747313278.228937,31.539000000,0.000000000,53670.621093750,0.000000000,0.000000000,14.969623566,-61.859760284,0.000000000,0.375000536,-33.631896973
1747313278.231375,31.541000000,0.000000000,53670.621093750,0.000000000,0.000000000,14.969623566,-61.859767914,0.000000000,0.383999348,-33.631896973
1747313278.233804,31.544000000,0.000000000,53670.621093750,0.000000000,0.000000000,14.969623566,-61.859779358,0.000000000,0.393000841,-33.631896973
1747313278.236269,31.546000000,0.000000000,53670.621093750,0.000000000,0.000000000,14.969623566,-61.859790802,0.000000000,0.419999957,-33.631896973
1747313278.238693,31.548000000,0.000000000,53670.621093750,0.000000000,0.000000000,14.969623566,-61.859802246,0.000000000,0.438000262,-33.631896973
1747313278.241082,31.551000000,0.000000000,53670.621093750,0.000000000,0.000000000,14.969623566,-61.859813690,0.000000000,0.446999073,-33.631896973
1747313278.243470,31.553000000,0.000000000,53670.621093750,0.000000000,0.000000000,14.969623566,-61.859821320,0.000000000,0.474000871,-33.631896973
1747313278.245880,31.556000000,0.000000000,53670.621093750,0.000000000,0.000000000,14.969623566,-61.859832764,0.000000000,0.482999682,-33.631896973
1747313278.248271,31.558000000,0.000000000,53670.621093750,0.000000000,0.000000000,14.969623566,-61.859844208,0.000000000,0.482999682,-33.631896973
1747313278.250698,31.560000000,0.000000000,53670.621093750,0.000000000,0.000000000,14.969623566,-61.859855652,0.000000000,0.500999987,-33.631896973
1747313278.253060,31.563000000,0.000000000,53670.621093750,0.000000000,0.000000000,14.969623566,-61.859867096,0.000000000,0.519000292,-33.631896973
1747313278.255439,31.565000000,0.000000000,53670.621093750,0.000000000,0.000000000,14.969623566,-61.859878540,0.000000000,0.545999408,-33.631896973
1747313278.257793,31.568000000,0.000000000,53670.621093750,0.000000000,0.000000000,14.969623566,-61.859886169,0.000000000,0.545999408,-33.631896973
1747313278.260185,31.570000000,0.000000000,53670.621093750,0.000000000,0.000000000,14.969623566,-61.859897614,0.000000000,0.555000901,-33.631896973
1747313278.262548,31.572000000,0.000000000,53670.621093750,0.000000000,0.000000000,14.969623566,-61.859909058,0.000000000,0.563999712,-33.631896973
1747313278.264929,31.575000000,0.000000000,53670.621093750,0.000000000,0.000000000,14.969623566,-61.859920502,0.000000000,0.573001206,-33.631896973
1747313278.267310,31.577000000,0.000000000,53670.621093750,0.000000000,0.000000000,14.969623566,-61.859931946,0.000000000,0.582000017,-33.631896973
1747313278.269685,31.579000000,0.000000000,53670.621093750,0.000000000,0.000000000,14.969623566,-61.859943390,0.000000000,0.590998828,-33.631896973
1747313278.272064,31.582000000,0.000000000,53670.621093750,0.000000000,0.000000000,14.969623566,-61.859951019,0.000000000,0.600000322,-33.631896973
1747313278.274418,31.584000000,0.000000000,53670.621093750,0.000000000,0.000000000,14.969623566,-61.859962463,0.000000000,0.608999133,-33.631896973
1747313278.276805,31.587000000,0.000000000,53670.621093750,0.000000000,0.000000000,14.969623566,-61.859973907,0.000000000,0.618000627,-33.631896973
1747313278.279200,31.589000000,0.000000000,53670.621093750,0.000000000,0.000000000,14.969623566,-61.859985352,0.000000000,0.626999438,-33.631896973
1747313278.281558,31.591000000,0.000000000,53670.621093750,0.000000000,0.000000000,14.969623566,-61.859996796,0.000000000,0.636000931,-33.631896973
1747313278.283932,31.594000000,0.000000000,53670.621093750,0.000000000,0.000000000,14.969623566,-61.860008240,0.000000000,0.644999743,-33.631896973
1747313278.286312,31.596000000,0.000000000,53670.621093750,0.000000000,0.000000000,14.969623566,-61.860015869,0.000000000,0.644999743,-33.631896973
1747313278.288709,31.598000000,0.000000000,53670.621093750,0.000000000,0.000000000,14.969623566,-61.860027313,0.000000000,0.663000047,-33.631896973
1747313278.291095,31.601000000,0.000000000,53670.621093750,0.000000000,0.000000000,14.969623566,-61.860038757,0.000000000,0.671998858,-33.631896973
1747313278.293457,31.603000000,0.000000000,53670.621093750,0.000000000,0.000000000,14.969623566,-61.860050201,0.000000000,0.681000352,-33.631896973
1747313278.295836,31.606000000,0.000000000,53670.621093750,0.000000000,0.000000000,14.956124306,-63.032741547,0.000000000,0.681000352,-33.631896973
1747313278.298211,31.608000000,0.000000000,53670.621093750,0.000000000,0.000000000,14.956124306,-64.839111328,0.000000000,0.689999163,-33.631896973
1747313278.300586,31.610000000,0.000000000,53670.621093750,0.000000000,0.000000000,14.956124306,-64.839126587,0.000000000,0.699000657,-33.631896973
1747313278.302956,31.613000000,0.000000000,53670.621093750,0.000000000,0.000000000,14.956124306,-64.839141846,0.000000000,0.725999773,-33.631896973
1747313278.305331,31.615000000,0.000000000,53670.621093750,0.000000000,0.000000000,14.956124306,-64.839157104,0.000000000,0.735001266,-33.631896973
1747313278.307690,31.617000000,0.000000000,53670.621093750,0.000000000,0.000000000,14.956124306,-64.839172363,0.000000000,0.735001266,-33.631896973
1747313278.310052,31.620000000,0.000000000,53670.621093750,0.000000000,0.000000000,14.956124306,-64.839187622,0.000000000,0.752998888,-33.631896973
1747313278.312471,31.622000000,0.000000000,53670.621093750,0.000000000,0.000000000,14.956124306,-64.839202881,0.000000000,0.752998888,-33.631896973
1747313278.314950,31.625000000,0.000000000,53670.621093750,0.000000000,0.000000000,14.956124306,-64.839218140,0.000000000,0.762000382,-33.631896973
1747313278.317385,31.627000000,0.000000000,53670.621093750,0.000000000,0.000000000,14.956124306,-64.839233398,0.000000000,0.780000687,-33.631896973
1747313278.319774,31.629000000,0.000000000,53670.621093750,0.000000000,0.000000000,14.956124306,-64.839248657,0.000000000,0.798000991,-33.631896973
1747313278.322153,31.632000000,0.000000000,53670.621093750,0.000000000,0.000000000,14.956124306,-64.839263916,0.000000000,0.816001296,-33.631896973
1747313278.324554,31.634000000,0.000000000,53670.621093750,0.000000000,0.000000000,14.956124306,-64.839279175,0.000000000,0.816001296,-33.631896973
1747313278.326943,31.637000000,0.000000000,53670.621093750,0.000000000,0.000000000,14.956124306,-64.839294434,0.000000000,0.833998919,-33.631896973
1747313278.329328,31.639000000,0.000000000,53670.621093750,0.000000000,0.000000000,14.956124306,-64.839309692,0.000000000,0.851999223,-33.631896973
1747313278.331692,31.641000000,0.000000000,53670.621093750,0.000000000,0.000000000,14.956124306,-64.839324951,0.000000000,0.851999223,-33.631896973
1747313278.334074,31.644000000,0.000000000,53670.621093750,0.000000000,0.000000000,14.956124306,-64.839340210,0.000000000,0.861000717,-33.631896973
1747313278.336461,31.646000000,0.000000000,53670.621093750,0.000000000,0.000000000,14.956124306,-64.839355469,0.000000000,0.897001326,-33.631896973
1747313278.338834,31.649000000,0.000000000,53670.621093750,0.000000000,0.000000000,14.956124306,-64.839370728,0.000000000,0.906000137,-33.631896973
1747313278.341300,31.651000000,0.000000000,53670.621093750,0.000000000,0.000000000,14.956124306,-64.839385986,0.000000000,0.914998949,-33.631896973
1747313278.343775,31.653000000,0.000000000,53670.621093750,0.000000000,0.000000000,14.956124306,-64.839401245,0.000000000,0.942000747,-33.631896973
1747313278.346289,31.656000000,0.000000000,53670.621093750,0.000000000,0.000000000,14.956124306,-64.839408875,0.000000000,0.950999558,-33.631896973
1747313278.348740,31.658000000,0.000000000,53670.621093750,0.000000000,0.000000000,14.956124306,-64.839424133,0.000000000,0.960001051,-33.631896973
1747313278.351192,31.661000000,0.000000000,53670.621093750,0.000000000,0.000000000,14.956124306,-64.839439392,0.000000000,0.987000167,-33.631896973
1747313278.353543,31.663000000,0.000000000,53670.621093750,0.000000000,0.000000000,14.956124306,-64.839454651,0.000000000,1.013999224,-33.631896973
1747313278.355942,31.666000000,0.000000000,53670.621093750,0.000000000,0.000000000,14.956124306,-64.839469910,0.000000000,1.023000717,-33.631896973
1747313278.358337,31.668000000,0.000000000,53670.621093750,0.000000000,0.000000000,14.956124306,-64.839485168,0.000000000,1.041001081,-33.631896973
1747313278.360710,31.670000000,0.000000000,53670.621093750,0.000000000,0.000000000,14.956124306,-64.839500427,0.000000000,1.068000197,-33.631896973
1747313278.363111,31.673000000,0.000000000,53670.621093750,0.000000000,0.000000000,14.956124306,-64.839515686,0.000000000,1.086000443,-33.631896973
1747313278.365488,31.675000000,0.000000000,53670.621093750,0.000000000,0.000000000,14.956124306,-64.839530945,0.000000000,1.104000807,-33.631896973
1747313278.367860,31.678000000,0.000000000,53670.621093750,0.000000000,0.000000000,14.956124306,-64.839546204,0.000000000,1.130999923,-33.631896973
1747313278.370255,31.680000000,0.000000000,53670.621093750,0.000000000,0.000000000,14.956124306,-64.839561462,0.000000000,1.157999039,-33.631896973
1747313278.372653,31.682000000,0.000000000,53670.621093750,0.000000000,0.000000000,14.956124306,-64.839576721,0.000000000,1.175999403,-33.631896973
1747313278.375035,31.685000000,0.000000000,53670.621093750,0.000000000,0.000000000,14.969623566,-63.650310516,0.000000000,1.203001142,-33.631896973
1747313278.377439,31.687000000,0.000000000,53670.621093750,0.000000000,0.000000000,14.969623566,-61.860569000,0.000000000,1.220998764,-33.631896973
1747313278.379834,31.690000000,0.000000000,53670.621093750,0.000000000,0.000000000,14.956124306,-63.058048248,0.000000000,1.256999373,-33.631896973
1747313278.382214,31.692000000,0.000000000,53670.621093750,0.000000000,0.000000000,14.969623566,-63.651844025,0.000000000,1.274999619,-33.631896973
1747313278.384601,31.694000000,0.000000000,53670.621093750,0.000000000,0.000000000,14.969623566,-61.860607147,0.000000000,1.301998854,-33.631896973
1747313278.387022,31.697000000,0.000000000,53670.621093750,0.000000000,0.000000000,14.956124306,-63.037097931,0.000000000,1.329000592,-33.631896973
1747313278.389467,31.699000000,0.000000000,53670.621093750,0.000000000,0.000000000,14.969623566,-63.626777649,0.000000000,1.355999708,-33.631896973
1747313278.391876,31.702000000,0.000000000,53670.621093750,0.000000000,0.000000000,14.969623566,-61.860641479,0.000000000,1.382998824,-33.631896973
1747313278.394252,31.704000000,0.000000000,53670.621093750,0.000000000,0.000000000,14.969623566,-61.860652924,0.000000000,1.410000563,-33.631896973
1747313278.396648,31.706000000,0.000000000,53670.621093750,0.000000000,0.000000000,14.956124306,-63.046199799,0.000000000,1.436999798,-33.631896973
1747313278.399028,31.709000000,0.000000000,53670.621093750,0.000000000,0.000000000,14.969623566,-63.654930115,0.000000000,1.463998795,-33.631896973
1747313278.401414,31.711000000,0.000000000,53670.621093750,0.000000000,0.000000000,14.969623566,-61.860691071,0.000000000,1.491000652,-33.631896973
1747313278.403825,31.714000000,0.000000000,53670.621093750,0.000000000,0.000000000,14.969623566,-61.860702515,0.000000000,1.517999768,-33.631896973
1747313278.406230,31.716000000,0.000000000,53670.621093750,0.000000000,0.000000000,14.969623566,-61.860713959,0.000000000,1.536000013,-33.631896973
1747313278.408622,31.718000000,0.000000000,53670.621093750,0.000000000,0.000000000,14.969623566,-61.860721588,0.000000000,1.562999249,-33.631896973
1747313278.410998,31.721000000,0.000000000,53670.621093750,0.000000000,0.000000000,14.969623566,-61.860733032,0.000000000,1.590000987,-33.631896973
1747313278.413398,31.723000000,0.000000000,53670.621093750,0.000000000,0.000000000,14.969623566,-61.860744476,0.000000000,1.617000103,-33.631896973
1747313278.415793,31.726000000,0.000000000,53670.621093750,0.000000000,0.000000000,14.969623566,-61.860755920,0.000000000,1.643999219,-33.631896973
1747313278.418200,31.728000000,0.000000000,53670.621093750,0.000000000,0.000000000,14.969623566,-61.860767365,0.000000000,1.661999464,-33.631896973
1747313278.420580,31.730000000,0.000000000,53670.621093750,0.000000000,0.000000000,14.969623566,-61.860774994,0.000000000,1.689001322,-33.631896973
1747313278.422965,31.733000000,0.000000000,53670.621093750,0.000000000,0.000000000,14.969623566,-61.860786438,0.000000000,1.716000438,-33.631896973
1747313278.425360,31.735000000,0.000000000,53670.621093750,0.000000000,0.000000000,14.969623566,-61.860797882,0.000000000,1.734000683,-33.631896973
1747313278.427759,31.737000000,0.000000000,53670.621093750,0.000000000,0.000000000,14.969623566,-61.860809326,0.000000000,1.760999918,-33.631896973
1747313278.430153,31.740000000,0.000000000,53670.621093750,0.000000000,0.000000000,14.969623566,-61.860820770,0.000000000,1.787998915,-33.631896973
1747313278.432530,31.742000000,0.000000000,53670.621093750,0.000000000,0.000000000,14.969623566,-61.860832214,0.000000000,1.805999279,-33.631896973
1747313278.434910,31.745000000,0.000000000,53670.621093750,0.000000000,0.000000000,14.969623566,-61.860839844,0.000000000,1.833001137,-33.631896973
1747313278.437318,31.747000000,0.000000000,53670.621093750,0.000000000,0.000000000,14.969623566,-61.860851288,0.000000000,1.860000134,-33.631896973
1747313278.439795,31.749000000,0.000000000,53670.621093750,0.000000000,0.000000000,14.969623566,-61.860862732,0.000000000,1.886999369,-33.631896973
1747313278.442341,31.752000000,0.000000000,53670.621093750,0.000000000,0.000000000,14.969623566,-61.860874176,0.000000000,1.896000862,-33.631896973
1747313278.444740,31.754000000,0.000000000,53670.621093750,0.000000000,0.000000000,14.956124306,-63.130836487,0.000000000,1.904999614,-33.631896973
1747313278.447129,31.757000000,0.000000000,53670.621093750,0.000000000,0.000000000,14.969623566,-63.618350983,0.000000000,1.949999094,-33.631896973
1747313278.449509,31.759000000,0.000000000,53670.621093750,0.000000000,0.000000000,14.969623566,-61.860912323,0.000000000,1.959000587,-33.631896973
1747313278.451880,31.762000000,0.000000000,53670.621093750,0.000000000,0.000000000,14.956124306,-63.042694092,0.000000000,1.967999339,-33.631896973
1747313278.454262,31.764000000,0.000000000,53670.621093750,0.000000000,0.000000000,14.969623566,-63.660461426,0.000000000,1.995001078,-33.631896973
1747313278.456633,31.766000000,0.000000000,53670.621093750,0.000000000,0.000000000,14.956124306,-63.034389496,0.000000000,2.022000313,-33.631896973
1747313278.458995,31.769000000,0.000000000,53670.621093750,0.000000000,0.000000000,14.969623566,-63.663513184,0.000000000,2.030999184,-33.631896973
1747313278.461378,31.771000000,0.000000000,53670.621093750,0.000000000,0.000000000,14.956124306,-63.030605316,0.000000000,2.040000439,-33.631896973
1747313278.463758,31.773000000,0.000000000,53670.621093750,0.000000000,0.000000000,14.969623566,-63.669628143,0.000000000,2.066999674,-33.631896973
1747313278.466120,31.776000000,0.000000000,53670.621093750,0.000000000,0.000000000,14.956124306,-63.047283173,0.000000000,2.085000038,-33.631896973
1747313278.468500,31.778000000,0.000000000,53670.621093750,0.000000000,0.000000000,14.956124306,-64.840049744,0.000000000,2.093998909,-33.631896973
1747313278.470863,31.781000000,0.000000000,53670.621093750,0.000000000,0.000000000,14.969623566,-63.668903351,0.000000000,2.111999035,-33.631896973
1747313278.473238,31.783000000,0.000000000,53670.621093750,0.000000000,0.000000000,14.956124306,-63.029140472,0.000000000,2.129999399,-33.631896973
1747313278.475616,31.785000000,0.000000000,53670.621093750,0.000000000,0.000000000,14.956124306,-64.840087891,0.000000000,2.139000893,-33.631896973
1747313278.478145,31.788000000,0.000000000,53670.621093750,0.000000000,0.000000000,14.956124306,-64.840103149,0.000000000,2.147999763,-33.631896973
1747313278.480574,31.790000000,0.000000000,53670.621093750,0.000000000,0.000000000,14.956124306,-64.840118408,0.000000000,2.174998760,-33.631896973
1747313278.483045,31.793000000,0.000000000,53670.621093750,0.000000000,0.000000000,14.956124306,-64.840133667,0.000000000,2.184000254,-33.631896973
1747313278.485526,31.795000000,0.000000000,53670.621093750,0.000000000,0.000000000,14.956124306,-64.840148926,0.000000000,2.202000618,-33.631896973
1747313278.487912,31.798000000,0.000000000,53670.621093750,0.000000000,0.000000000,14.956124306,-64.840164185,0.000000000,2.220000982,-33.631896973
1747313278.490331,31.800000000,0.000000000,53670.621093750,0.000000000,0.000000000,14.956124306,-64.840179443,0.000000000,2.228999615,-33.631896973
1747313278.492699,31.802000000,0.000000000,53670.621093750,0.000000000,0.000000000,14.956124306,-64.840194702,0.000000000,2.246999979,-33.631896973
1747313278.495083,31.805000000,0.000000000,53670.621093750,0.000000000,0.000000000,14.956124306,-64.840209961,0.000000000,2.265000343,-33.631896973
1747313278.497449,31.807000000,0.000000000,53670.621093750,0.000000000,0.000000000,14.956124306,-64.840225220,0.000000000,2.273999214,-33.631896973
1747313278.499819,31.810000000,0.000000000,53670.621093750,0.000000000,0.000000000,14.956124306,-64.840240479,0.000000000,2.291999340,-33.631896973
1747313278.502221,31.812000000,0.000000000,53670.621093750,0.000000000,0.000000000,14.956124306,-64.840255737,0.000000000,2.309999704,-33.631896973
1747313278.504611,31.814000000,0.000000000,53670.621093750,0.000000000,0.000000000,14.956124306,-64.840270996,0.000000000,2.328000069,-33.631896973
1747313278.507025,31.817000000,0.000000000,53670.621093750,0.000000000,0.000000000,14.956124306,-64.840286255,0.000000000,2.336998940,-33.631896973
1747313278.509447,31.819000000,0.000000000,53670.621093750,0.000000000,0.000000000,14.956124306,-64.840301514,0.000000000,2.354999065,-33.631896973
1747313278.511826,31.822000000,0.000000000,53670.621093750,0.000000000,0.000000000,14.956124306,-64.840316772,0.000000000,2.382000923,-33.631896973
1747313278.514208,31.824000000,0.000000000,53670.621093750,0.000000000,0.000000000,14.956124306,-64.840332031,0.000000000,2.390999794,-33.631896973
1747313278.516569,31.826000000,0.000000000,53670.621093750,0.000000000,0.000000000,14.956124306,-64.840347290,0.000000000,2.409000158,-33.631896973
1747313278.518939,31.829000000,0.000000000,53670.621093750,0.000000000,0.000000000,14.956124306,-64.840362549,0.000000000,2.435999155,-33.631896973
1747313278.521330,31.831000000,0.000000000,53670.621093750,0.000000000,0.000000000,14.956124306,-64.840377808,0.000000000,2.445000648,-33.631896973
1747313278.523862,31.833000000,0.000000000,53670.621093750,0.000000000,0.000000000,14.956124306,-64.840393066,0.000000000,2.463001013,-33.631896973
1747313278.526291,31.836000000,0.000000000,53670.621093750,0.000000000,0.000000000,14.956124306,-64.840408325,0.000000000,2.490000248,-33.631896973
1747313278.528703,31.838000000,0.000000000,53670.621093750,0.000000000,0.000000000,14.956124306,-64.840423584,0.000000000,2.508000374,-33.631896973
1747313278.531158,31.841000000,0.000000000,53670.621093750,0.000000000,0.000000000,14.956124306,-64.840438843,0.000000000,2.526000738,-33.631896973
1747313278.533588,31.843000000,0.000000000,53670.621093750,0.000000000,0.000000000,14.956124306,-64.840454102,0.000000000,2.544001102,-33.631896973
1747313278.535972,31.846000000,0.000000000,53670.621093750,0.000000000,0.000000000,14.956124306,-64.840469360,0.000000000,2.561998606,-33.631896973
1747313278.538340,31.848000000,0.000000000,53670.621093750,0.000000000,0.000000000,14.956124306,-64.840484619,0.000000000,2.589000463,-33.631896973
1747313278.540665,31.850000000,0.000000000,53670.621093750,0.000000000,0.000000000,14.956124306,-64.840499878,0.000000000,2.607000828,-33.631896973
1747313278.543004,31.853000000,0.000000000,53670.621093750,0.000000000,0.000000000,14.956124306,-64.840515137,0.000000000,2.625000954,-33.631896973
1747313278.545432,31.855000000,0.000000000,53670.621093750,0.000000000,0.000000000,14.956124306,-64.840530396,0.000000000,2.642998695,-33.631896973
1747313278.547785,31.858000000,0.000000000,53670.621093750,0.000000000,0.000000000,14.956124306,-64.840545654,0.000000000,2.660999060,-33.631896973
1747313278.550155,31.860000000,0.000000000,53670.621093750,0.000000000,0.000000000,14.956124306,-64.840560913,0.000000000,2.678999424,-33.631896973
1747313278.552529,31.862000000,0.000000000,53670.621093750,0.000000000,0.000000000,14.956124306,-64.840576172,0.000000000,2.706001043,-33.631896973
1747313278.554895,31.865000000,0.000000000,53670.621093750,0.000000000,0.000000000,14.956124306,-64.840591431,0.000000000,2.723998785,-33.631896973
1747313278.557287,31.867000000,0.000000000,53670.621093750,0.000000000,0.000000000,14.956124306,-64.840606689,0.000000000,2.751000404,-33.631896973
1747313278.559635,31.869000000,0.000000000,53670.621093750,0.000000000,0.000000000,14.956124306,-64.840621948,0.000000000,2.769000769,-33.631896973
1747313278.562020,31.872000000,0.000000000,53670.621093750,0.000000000,0.000000000,14.956124306,-64.840637207,0.000000000,2.796000004,-33.631896973
1747313278.564399,31.874000000,0.000000000,53670.621093750,0.000000000,0.000000000,14.956124306,-64.840652466,0.000000000,2.814000130,-33.631896973
1747313278.566772,31.877000000,0.000000000,53670.621093750,0.000000000,0.000000000,14.956124306,-64.840667725,0.000000000,2.840999365,-33.631896973
1747313278.569161,31.879000000,0.000000000,53670.621093750,0.000000000,0.000000000,14.956124306,-64.840675354,0.000000000,2.858999729,-33.631896973
1747313278.571567,31.881000000,0.000000000,53670.621093750,0.000000000,0.000000000,14.956124306,-64.840690613,0.000000000,2.885998726,-33.631896973
1747313278.573968,31.884000000,0.000000000,53670.621093750,0.000000000,0.000000000,14.956124306,-64.840705872,0.000000000,2.913000584,-33.631896973
1747313278.576372,31.886000000,0.000000000,53670.621093750,0.000000000,0.000000000,14.956124306,-64.840721130,0.000000000,2.939999580,-33.631896973
1747313278.578808,31.889000000,0.000000000,53670.621093750,0.000000000,0.000000000,14.956124306,-64.840736389,0.000000000,2.957999945,-33.631896973
1747313278.581205,31.891000000,0.000000000,53670.621093750,0.000000000,0.000000000,14.956124306,-64.840751648,0.000000000,2.984999180,-33.631896973
1747313278.583552,31.893000000,0.000000000,53670.621093750,0.000000000,0.000000000,14.956124306,-64.840766907,0.000000000,3.012001038,-33.631896973
1747313278.585950,31.896000000,0.000000000,53670.621093750,0.000000000,0.000000000,14.956124306,-64.840782166,0.000000000,3.039000034,-33.631896973
1747313278.588322,31.898000000,0.000000000,53670.621093750,0.000000000,0.000000000,14.956124306,-64.840797424,0.000000000,3.065999031,-33.631896973
1747313278.590719,31.900000000,0.000000000,53670.621093750,0.000000000,0.000000000,14.956124306,-64.840812683,0.000000000,3.093000889,-33.631896973
1747313278.593098,31.903000000,0.000000000,53670.621093750,0.000000000,0.000000000,14.956124306,-64.840827942,0.000000000,3.111001253,-33.631896973
1747313278.595485,31.905000000,0.000000000,53670.621093750,0.000000000,0.000000000,14.956124306,-64.840843201,0.000000000,3.138000488,-33.631896973
1747313278.597873,31.908000000,0.000000000,53670.621093750,0.000000000,0.000000000,14.956124306,-64.840858459,0.000000000,3.164999485,-33.631896973
1747313278.600246,31.910000000,0.000000000,53670.621093750,0.000000000,0.000000000,14.956124306,-64.840873718,0.000000000,3.182999849,-33.631896973
1747313278.602644,31.912000000,0.000000000,53670.621093750,0.000000000,0.000000000,14.956124306,-64.840888977,0.000000000,3.201000214,-33.631896973
1747313278.605009,31.915000000,0.000000000,53670.621093750,0.000000000,0.000000000,14.956124306,-64.840904236,0.000000000,3.227999210,-33.631896973
1747313278.607407,31.917000000,0.000000000,53670.621093750,0.000000000,0.000000000,14.956124306,-64.840919495,0.000000000,3.263999939,-33.631896973
1747313278.609767,31.920000000,0.000000000,53670.621093750,0.000000000,0.000000000,14.956124306,-64.840934753,0.000000000,3.273001194,-33.631896973
1747313278.612154,31.922000000,0.000000000,53670.621093750,0.000000000,0.000000000,14.956124306,-64.840950012,0.000000000,3.300000429,-33.631896973
1747313278.614537,31.924000000,0.000000000,53670.621093750,0.000000000,0.000000000,14.956124306,-64.840965271,0.000000000,3.326999664,-33.631896973
1747313278.616899,31.927000000,0.000000000,53670.621093750,0.000000000,0.000000000,14.956124306,-64.840980530,0.000000000,3.344999790,-33.631896973
1747313278.619332,31.929000000,0.000000000,53670.621093750,0.000000000,0.000000000,14.956124306,-64.840995789,0.000000000,3.363000154,-33.631896973
1747313278.621759,31.931000000,0.000000000,53670.621093750,0.000000000,0.000000000,14.956124306,-64.841011047,0.000000000,3.389999390,-33.631896973
1747313278.624249,31.934000000,0.000000000,53670.621093750,0.000000000,0.000000000,14.956124306,-64.841026306,0.000000000,3.407999516,-33.631896973
1747313278.626717,31.936000000,0.000000000,53670.621093750,0.000000000,0.000000000,14.956124306,-64.841041565,0.000000000,3.425999880,-33.631896973
1747313278.629118,31.939000000,0.000000000,53670.621093750,0.000000000,0.000000000,14.956124306,-64.841056824,0.000000000,3.452999115,-33.631896973
1747313278.631496,31.941000000,0.000000000,53670.621093750,0.000000000,0.000000000,14.956124306,-64.841072083,0.000000000,3.470999241,-33.631896973
1747313278.633870,31.944000000,0.000000000,53670.621093750,0.000000000,0.000000000,14.956124306,-64.841087341,0.000000000,3.488999605,-33.631896973
1747313278.636274,31.946000000,0.000000000,53670.621093750,0.000000000,0.000000000,14.956124306,-64.841102600,0.000000000,3.506999969,-33.631896973
1747313278.638640,31.948000000,0.000000000,53670.621093750,0.000000000,0.000000000,14.956124306,-64.841117859,0.000000000,3.525000095,-33.631896973
1747313278.641013,31.951000000,0.000000000,53670.621093750,0.000000000,0.000000000,14.956124306,-64.841133118,0.000000000,3.543000460,-33.631896973
1747313278.643395,31.953000000,0.000000000,53670.621093750,0.000000000,0.000000000,14.956124306,-64.841148376,0.000000000,3.551999331,-33.631896973
1747313278.645774,31.956000000,0.000000000,53670.621093750,0.000000000,0.000000000,14.956124306,-64.841163635,0.000000000,3.579001188,-33.631896973
1747313278.648209,31.958000000,0.000000000,53670.621093750,0.000000000,0.000000000,14.956124306,-64.841178894,0.000000000,3.596998692,-33.631896973
1747313278.650590,31.960000000,0.000000000,53670.621093750,0.000000000,0.000000000,14.956124306,-64.841194153,0.000000000,3.596998692,-33.631896973
1747313278.653000,31.963000000,0.000000000,53670.621093750,0.000000000,0.000000000,14.956124306,-64.841209412,0.000000000,3.624000549,-33.631896973
1747313278.655391,31.965000000,0.000000000,53670.621093750,0.000000000,0.000000000,14.956124306,-64.841224670,0.000000000,3.650999546,-33.631896973
1747313278.657770,31.967000000,0.000000000,53670.621093750,0.000000000,0.000000000,14.956124306,-64.841239929,0.000000000,3.668999910,-33.631896973
1747313278.660198,31.970000000,0.000000000,53670.621093750,0.000000000,0.000000000,14.956124306,-64.841255188,0.000000000,3.668999910,-33.631896973
1747313278.662583,31.972000000,0.000000000,53670.621093750,0.000000000,0.000000000,14.956124306,-64.841270447,0.000000000,3.695999146,-33.631896973
1747313278.664961,31.975000000,0.000000000,53670.621093750,0.000000000,0.000000000,14.956124306,-64.841285706,0.000000000,3.713999271,-33.631896973
1747313278.667393,31.977000000,0.000000000,53670.621093750,0.000000000,0.000000000,14.956124306,-64.841300964,0.000000000,3.723001003,-33.631896973
1747313278.669813,31.980000000,0.000000000,53670.621093750,0.000000000,0.000000000,14.956124306,-64.841316223,0.000000000,3.731999636,-33.631896973
1747313278.672213,31.982000000,0.000000000,53670.621093750,0.000000000,0.000000000,14.956124306,-64.841331482,0.000000000,3.750000000,-33.631896973
1747313278.674618,31.984000000,0.000000000,53670.621093750,0.000000000,0.000000000,14.956124306,-64.841346741,0.000000000,3.768000364,-33.631896973
1747313278.677000,31.987000000,0.000000000,53670.621093750,0.000000000,0.000000000,14.956124306,-64.841362000,0.000000000,3.786000729,-33.631896973
1747313278.679394,31.989000000,0.000000000,53670.621093750,0.000000000,0.000000000,14.956124306,-64.841377258,0.000000000,3.794999361,-33.631896973
1747313278.681757,31.991000000,0.000000000,53670.621093750,0.000000000,0.000000000,14.956124306,-64.841392517,0.000000000,3.812999725,-33.631896973
1747313278.684121,31.994000000,0.000000000,53670.621093750,0.000000000,0.000000000,14.956124306,-64.841407776,0.000000000,3.822001219,-33.631896973
1747313278.686522,31.996000000,0.000000000,53670.621093750,0.000000000,0.000000000,14.956124306,-64.841415405,0.000000000,3.831000090,-33.631896973
1747313278.688936,31.999000000,0.000000000,53670.621093750,0.000000000,0.000000000,14.956124306,-64.841430664,0.000000000,3.849000454,-33.631896973
1747313278.691309,32.001000000,0.000000000,53670.621093750,0.000000000,0.000000000,14.956124306,-64.841445923,0.000000000,3.857999086,-33.631896973
1747313278.693737,32.003000000,0.000000000,53670.621093750,0.000000000,0.000000000,14.956124306,-64.841461182,0.000000000,3.867000580,-33.631896973
1747313278.696117,32.006000000,0.000000000,53670.621093750,0.000000000,0.000000000,14.956124306,-64.841476440,0.000000000,3.903001308,-33.631896973
1747313278.698495,32.008000000,0.000000000,53670.621093750,0.000000000,0.000000000,14.956124306,-64.841491699,0.000000000,3.903001308,-33.631896973
1747313278.700879,32.011000000,0.000000000,53670.621093750,0.000000000,0.000000000,14.956124306,-64.841506958,0.000000000,3.912000179,-33.631896973
1747313278.703275,32.013000000,0.000000000,53670.621093750,0.000000000,0.000000000,14.956124306,-64.841522217,0.000000000,3.920998812,-33.631896973
1747313278.705669,32.015000000,0.000000000,53670.621093750,0.000000000,0.000000000,14.956124306,-64.841537476,0.000000000,3.938999176,-33.631896973
1747313278.708032,32.018000000,0.000000000,53670.621093750,0.000000000,0.000000000,14.956124306,-64.841552734,0.000000000,3.956999540,-33.631896973
1747313278.710444,32.020000000,0.000000000,53670.621093750,0.000000000,0.000000000,14.956124306,-64.841567993,0.000000000,3.974999905,-33.631896973
1747313278.712837,32.023000000,0.000000000,53670.621093750,0.000000000,0.000000000,14.956124306,-64.841583252,0.000000000,3.993000031,-33.631896973
1747313278.715251,32.025000000,0.000000000,53670.621093750,0.000000000,0.000000000,14.956124306,-64.841598511,0.000000000,4.001998901,-33.631896973
1747313278.717583,32.027000000,0.000000000,53670.621093750,0.000000000,0.000000000,14.956124306,-64.841613770,0.000000000,4.019999027,-33.631896973
1747313278.719930,32.030000000,0.000000000,53670.621093750,0.000000000,0.000000000,14.956124306,-64.841629028,0.000000000,4.037999630,-33.631896973
1747313278.722298,32.032000000,0.000000000,53670.621093750,0.000000000,0.000000000,14.956124306,-64.841644287,0.000000000,4.047000885,-33.631896973
1747313278.724667,32.034000000,0.000000000,53670.621093750,0.000000000,0.000000000,14.956124306,-64.841659546,0.000000000,4.074000359,-33.631896973
1747313278.727028,32.037000000,0.000000000,53670.621093750,0.000000000,0.000000000,14.956124306,-64.841674805,0.000000000,4.092000484,-33.631896973
1747313278.729422,32.039000000,0.000000000,53670.621093750,0.000000000,0.000000000,14.956124306,-64.841690063,0.000000000,4.100999355,-33.631896973
1747313278.731795,32.042000000,0.000000000,53670.621093750,0.000000000,0.000000000,14.956124306,-64.841705322,0.000000000,4.118999481,-33.631896973
1747313278.734189,32.044000000,0.000000000,53670.621093750,0.000000000,0.000000000,14.956124306,-64.841720581,0.000000000,4.155000210,-33.631896973
1747313278.736655,32.046000000,0.000000000,53670.621093750,0.000000000,0.000000000,14.956124306,-64.841735840,0.000000000,4.163999081,-33.631896973
1747313278.739140,32.049000000,0.000000000,53670.621093750,0.000000000,0.000000000,14.956124306,-64.841751099,0.000000000,4.181999207,-33.631896973
1747313278.741661,32.051000000,0.000000000,53670.621093750,0.000000000,0.000000000,14.956124306,-64.841766357,0.000000000,4.217999935,-33.631896973
1747313278.744044,32.054000000,0.000000000,53670.621093750,0.000000000,0.000000000,14.956124306,-64.841781616,0.000000000,4.236000061,-33.631896973
1747313278.746410,32.056000000,0.000000000,53670.621093750,0.000000000,0.000000000,14.956124306,-64.841796875,0.000000000,4.244998932,-33.631896973
1747313278.748751,32.058000000,0.000000000,53670.621093750,0.000000000,0.000000000,14.956124306,-64.841812134,0.000000000,4.262999535,-33.631896973
1747313278.751102,32.061000000,0.000000000,53670.621093750,0.000000000,0.000000000,14.956124306,-64.841827393,0.000000000,4.290000916,-33.631896973
1747313278.753508,32.063000000,0.000000000,53670.621093750,0.000000000,0.000000000,14.956124306,-64.841842651,0.000000000,4.307998657,-33.631896973
1747313278.755878,32.066000000,0.000000000,53670.621093750,0.000000000,0.000000000,14.956124306,-64.841857910,0.000000000,4.325999260,-33.631896973
1747313278.758202,32.068000000,0.000000000,53670.621093750,0.000000000,0.000000000,14.956124306,-64.841873169,0.000000000,4.343999386,-33.631896973
1747313278.760560,32.070000000,0.000000000,53670.621093750,0.000000000,0.000000000,14.956124306,-64.841888428,0.000000000,4.361999512,-33.631896973
1747313278.762949,32.073000000,0.000000000,53670.621093750,0.000000000,0.000000000,14.956124306,-64.841903687,0.000000000,4.380000114,-33.631896973
1747313278.765322,32.075000000,0.000000000,53670.621093750,0.000000000,0.000000000,14.956124306,-64.841918945,0.000000000,4.406999111,-33.631896973
1747313278.767628,32.077000000,0.000000000,53670.621093750,0.000000000,0.000000000,14.956124306,-64.841934204,0.000000000,4.434000969,-33.631896973
1747313278.770021,32.080000000,0.000000000,53670.621093750,0.000000000,0.000000000,14.956124306,-64.841949463,0.000000000,4.452001095,-33.631896973
1747313278.772463,32.082000000,0.000000000,53670.621093750,0.000000000,0.000000000,14.956124306,-64.841964722,0.000000000,4.460999966,-33.631896973
1747313278.774832,32.085000000,0.000000000,53670.621093750,0.000000000,0.000000000,14.956124306,-64.841979980,0.000000000,4.487998962,-33.631896973
1747313278.777211,32.087000000,0.000000000,53670.621093750,0.000000000,0.000000000,14.956124306,-64.841995239,0.000000000,4.497000694,-33.631896973
1747313278.779556,32.089000000,0.000000000,53670.621093750,0.000000000,0.000000000,14.956124306,-64.842010498,0.000000000,4.523999691,-33.631896973
1747313278.781933,32.092000000,0.000000000,53670.621093750,0.000000000,0.000000000,14.956124306,-64.842025757,0.000000000,4.541999817,-33.631896973
1747313278.784309,32.094000000,0.000000000,53670.621093750,0.000000000,0.000000000,14.969623566,-63.664039612,0.000000000,4.560000420,-33.631896973
1747313278.786709,32.096000000,0.000000000,53670.621093750,0.000000000,0.000000000,14.956124306,-63.043277740,0.000000000,4.578000546,-33.631896973
1747313278.789146,32.099000000,0.000000000,53670.621093750,0.000000000,0.000000000,14.969623566,-63.655776978,0.000000000,4.596000671,-33.631896973
1747313278.791536,32.101000000,0.000000000,53670.621093750,0.000000000,0.000000000,14.956124306,-63.093231201,0.000000000,4.614001274,-33.631896973
1747313278.793912,32.104000000,0.000000000,53670.621093750,0.000000000,0.000000000,14.969623566,-63.664848328,0.000000000,4.631999016,-33.631896973
1747313278.796311,32.106000000,0.000000000,53670.621093750,0.000000000,0.000000000,14.969623566,-61.863067627,0.000000000,4.649999142,-33.631896973
1747313278.798690,32.108000000,0.000000000,53670.621093750,0.000000000,0.000000000,14.969623566,-61.863075256,0.000000000,4.667999268,-33.631896973
1747313278.801062,32.111000000,0.000000000,53670.621093750,0.000000000,0.000000000,14.969623566,-61.863086700,0.000000000,4.677000999,-33.631896973
1747313278.803450,32.113000000,0.000000000,53670.621093750,0.000000000,0.000000000,14.969623566,-61.863098145,0.000000000,4.685999870,-33.631896973
1747313278.805829,32.116000000,0.000000000,53670.621093750,0.000000000,0.000000000,14.969623566,-61.863109589,0.000000000,4.712998867,-33.631896973
1747313278.808220,32.118000000,0.000000000,53670.621093750,0.000000000,0.000000000,14.969623566,-61.863121033,0.000000000,4.730998993,-33.631896973
1747313278.810618,32.120000000,0.000000000,53670.621093750,0.000000000,0.000000000,14.969623566,-61.863132477,0.000000000,4.730998993,-33.631896973
1747313278.813015,32.123000000,0.000000000,53670.621093750,0.000000000,0.000000000,14.969623566,-61.863140106,0.000000000,4.748999596,-33.631896973
1747313278.815402,32.125000000,0.000000000,53670.621093750,0.000000000,0.000000000,14.969623566,-61.863151550,0.000000000,4.766999722,-33.631896973
1747313278.817764,32.127000000,0.000000000,53670.621093750,0.000000000,0.000000000,14.969623566,-61.863162994,0.000000000,4.776001453,-33.631896973
1747313278.820159,32.130000000,0.000000000,53670.621093750,0.000000000,0.000000000,14.969623566,-61.863174438,0.000000000,4.784999847,-33.631896973
1747313278.822526,32.132000000,0.000000000,53670.621093750,0.000000000,0.000000000,14.969623566,-61.863185883,0.000000000,4.803000450,-33.631896973
1747313278.824911,32.135000000,0.000000000,53670.621093750,0.000000000,0.000000000,14.969623566,-61.863197327,0.000000000,4.811999321,-33.631896973
1747313278.827280,32.137000000,0.000000000,53670.621093750,0.000000000,0.000000000,14.969623566,-61.863204956,0.000000000,4.821000576,-33.631896973
1747313278.829664,32.139000000,0.000000000,53670.621093750,0.000000000,0.000000000,14.969623566,-61.863216400,0.000000000,4.829999447,-33.631896973
1747313278.832026,32.142000000,0.000000000,53670.621093750,0.000000000,0.000000000,14.969623566,-61.863227844,0.000000000,4.839001179,-33.631896973
1747313278.834400,32.144000000,0.000000000,53670.621093750,0.000000000,0.000000000,14.969623566,-61.863239288,0.000000000,4.857001305,-33.631896973
1747313278.836780,32.147000000,0.000000000,53670.621093750,0.000000000,0.000000000,14.969623566,-61.863250732,0.000000000,4.866000175,-33.631896973
1747313278.839154,32.149000000,0.000000000,53670.621093750,0.000000000,0.000000000,14.969623566,-61.863258362,0.000000000,4.874999046,-33.631896973
1747313278.841519,32.151000000,0.000000000,53670.621093750,0.000000000,0.000000000,14.969623566,-61.863269806,0.000000000,4.892999172,-33.631896973
1747313278.843884,32.154000000,0.000000000,53670.621093750,0.000000000,0.000000000,14.969623566,-61.863281250,0.000000000,4.902000904,-33.631896973
1747313278.846255,32.156000000,0.000000000,53670.621093750,0.000000000,0.000000000,14.969623566,-61.863292694,0.000000000,4.910999298,-33.631896973
1747313278.848622,32.158000000,0.000000000,53670.621093750,0.000000000,0.000000000,14.969623566,-61.863304138,0.000000000,4.920001030,-33.631896973
1747313278.850990,32.161000000,0.000000000,53670.621093750,0.000000000,0.000000000,14.969623566,-61.863315582,0.000000000,4.938001156,-33.631896973
1747313278.853374,32.163000000,0.000000000,53670.621093750,0.000000000,0.000000000,14.969623566,-61.863323212,0.000000000,4.947000027,-33.631896973
1747313278.855795,32.165000000,0.000000000,53670.621093750,0.000000000,0.000000000,14.969623566,-61.863334656,0.000000000,4.955998898,-33.631896973
1747313278.858208,32.168000000,0.000000000,53670.621093750,0.000000000,0.000000000,14.969623566,-61.863346100,0.000000000,4.973999023,-33.631896973
1747313278.860599,32.170000000,0.000000000,53670.621093750,0.000000000,0.000000000,14.969623566,-61.863357544,0.000000000,4.983000755,-33.631896973
1747313278.862975,32.173000000,0.000000000,53670.621093750,0.000000000,0.000000000,14.969623566,-61.863368988,0.000000000,4.991999626,-33.631896973
1747313278.865402,32.175000000,0.000000000,53670.621093750,0.000000000,0.000000000,14.969623566,-61.863380432,0.000000000,5.001000881,-33.631896973
1747313278.867779,32.178000000,0.000000000,53670.621093750,0.000000000,0.000000000,14.969623566,-61.863388062,0.000000000,5.009999752,-33.631896973
1747313278.870160,32.180000000,0.000000000,53670.621093750,0.000000000,0.000000000,14.969623566,-61.863399506,0.000000000,5.018998623,-33.631896973
1747313278.872533,32.182000000,0.000000000,53670.621093750,0.000000000,0.000000000,14.969623566,-61.863410950,0.000000000,5.028000355,-33.631896973
1747313278.874907,32.185000000,0.000000000,53670.621093750,0.000000000,0.000000000,14.969623566,-61.863422394,0.000000000,5.036998749,-33.631896973
1747313278.877306,32.187000000,0.000000000,53670.621093750,0.000000000,0.000000000,14.969623566,-61.863433838,0.000000000,5.046000481,-33.631896973
1747313278.879771,32.189000000,0.000000000,53670.621093750,0.000000000,0.000000000,14.969623566,-61.863445282,0.000000000,5.054999352,-33.631896973
1747313278.882133,32.192000000,0.000000000,53670.621093750,0.000000000,0.000000000,14.969623566,-61.863452911,0.000000000,5.064000607,-33.631896973
1747313278.884493,32.194000000,0.000000000,53670.621093750,0.000000000,0.000000000,14.969623566,-61.863464355,0.000000000,5.072999477,-33.631896973
1747313278.886866,32.197000000,0.000000000,53670.621093750,0.000000000,0.000000000,14.956124306,-63.034633636,0.000000000,5.082001209,-33.631896973
1747313278.889337,32.199000000,0.000000000,53670.621093750,0.000000000,0.000000000,14.969623566,-63.672130585,0.000000000,5.091000080,-33.631896973
1747313278.891713,32.201000000,0.000000000,53670.621093750,0.000000000,0.000000000,14.969623566,-61.863502502,0.000000000,5.099998474,-33.631896973
1747313278.894189,32.204000000,0.000000000,53670.621093750,0.000000000,0.000000000,14.956124306,-63.057270050,0.000000000,5.099998474,-33.631896973
1747313278.896542,32.206000000,0.000000000,53670.621093750,0.000000000,0.000000000,14.956124306,-64.842559814,0.000000000,5.109000206,-33.631896973
1747313278.898903,32.209000000,0.000000000,53670.621093750,0.000000000,0.000000000,14.956124306,-64.842575073,0.000000000,5.127000332,-33.631896973
1747313278.901283,32.211000000,0.000000000,53670.621093750,0.000000000,0.000000000,14.956124306,-64.842590332,0.000000000,5.127000332,-33.631896973
1747313278.903743,32.213000000,0.000000000,53670.621093750,0.000000000,0.000000000,14.956124306,-64.842605591,0.000000000,5.145000935,-33.631896973
1747313278.906198,32.216000000,0.000000000,53670.621093750,0.000000000,0.000000000,14.956124306,-64.842620850,0.000000000,5.153999805,-33.631896973
1747313278.908636,32.218000000,0.000000000,53670.621093750,0.000000000,0.000000000,14.956124306,-64.842636108,0.000000000,5.163001060,-33.631896973
1747313278.911009,32.221000000,0.000000000,53670.621093750,0.000000000,0.000000000,14.956124306,-64.842651367,0.000000000,5.171999931,-33.631896973
1747313278.913432,32.223000000,0.000000000,53670.621093750,0.000000000,0.000000000,14.956124306,-64.842666626,0.000000000,5.190000057,-33.631896973
1747313278.915808,32.226000000,0.000000000,53670.621093750,0.000000000,0.000000000,14.956124306,-64.842681885,0.000000000,5.198998928,-33.631896973
1747313278.918205,32.228000000,0.000000000,53670.621093750,0.000000000,0.000000000,14.956124306,-64.842697144,0.000000000,5.216999531,-33.631896973
1747313278.920629,32.230000000,0.000000000,53670.621093750,0.000000000,0.000000000,14.956124306,-64.842712402,0.000000000,5.234999657,-33.631896973
