liamjosephnolan/thesis_matlab/roll_step_response/roll_step_response_roll_0_pitch_0.csv
__time,/psm_joint_telemetry/header/stamp,/psm_joint_telemetry/insertion/effort,/psm_joint_telemetry/insertion/position,/psm_joint_telemetry/insertion/velocity,/psm_joint_telemetry/pitch/effort,/psm_joint_telemetry/pitch/position,/psm_joint_telemetry/pitch/velocity,/psm_joint_telemetry/roll/effort,/psm_joint_telemetry/roll/position,/psm_joint_telemetry/roll/velocity
1747312925.311991,44.879000000,0.000000000,59004.347656250,0.000000000,0.000000000,0.024749637,-86.419174194,0.000000000,-0.084000528,-16.815948486
1747312925.314355,44.882000000,0.000000000,59004.347656250,0.000000000,0.000000000,0.024749637,-86.419166565,0.000000000,-0.084000528,-16.815948486
1747312925.316745,44.884000000,0.000000000,59004.347656250,0.000000000,0.000000000,0.024749637,-86.419158936,0.000000000,-0.084000528,-16.815948486
1747312925.319116,44.886000000,0.000000000,59004.347656250,0.000000000,0.000000000,0.024749637,-86.419151306,0.000000000,-0.084000528,-16.815948486
1747312925.321578,44.889000000,0.000000000,59004.347656250,0.000000000,0.000000000,0.024749637,-86.419143677,0.000000000,-0.084000528,-16.815948486
1747312925.324002,44.891000000,0.000000000,59004.347656250,0.000000000,0.000000000,0.024749637,-86.419128418,0.000000000,-0.084000528,-16.815948486
1747312925.326424,44.894000000,0.000000000,59004.347656250,0.000000000,0.000000000,0.024749637,-86.419120789,0.000000000,-0.084000528,-16.815948486
1747312925.328790,44.896000000,0.000000000,59004.347656250,0.000000000,0.000000000,0.024749637,-86.419113159,0.000000000,-0.084000528,-16.815948486
1747312925.331176,44.898000000,0.000000000,59004.347656250,0.000000000,0.000000000,0.024749637,-86.419105530,0.000000000,-0.084000528,-16.815948486
1747312925.333571,44.901000000,0.000000000,59004.347656250,0.000000000,0.000000000,0.038251877,-85.237068176,0.000000000,-0.084000528,-16.815948486
1747312925.335931,44.903000000,0.000000000,59004.347656250,0.000000000,0.000000000,0.024749637,-84.621429443,0.000000000,-0.084000528,-16.815948486
1747312925.338376,44.906000000,0.000000000,59004.347656250,0.000000000,0.000000000,0.038251877,-85.245384216,0.000000000,-0.084000528,-16.815948486
1747312925.340842,44.908000000,0.000000000,59004.347656250,0.000000000,0.000000000,0.038251877,-83.439376831,0.000000000,-0.084000528,-16.815948486
1747312925.343277,44.911000000,0.000000000,59004.347656250,0.000000000,0.000000000,0.024749637,-84.670539856,0.000000000,-0.084000528,-16.815948486
1747312925.345700,44.913000000,0.000000000,59004.347656250,0.000000000,0.000000000,0.038251877,-85.188575745,0.000000000,-0.084000528,-16.815948486
1747312925.348174,44.915000000,0.000000000,59004.347656250,0.000000000,0.000000000,0.038251877,-83.439331055,0.000000000,-0.084000528,-16.815948486
1747312925.350621,44.918000000,0.000000000,59004.347656250,0.000000000,0.000000000,0.024749637,-84.677597046,0.000000000,-0.084000528,-16.815948486
1747312925.353045,44.920000000,0.000000000,59004.347656250,0.000000000,0.000000000,0.024749637,-86.418998718,0.000000000,-0.084000528,-16.815948486
1747312925.355427,44.923000000,0.000000000,59004.347656250,0.000000000,0.000000000,0.038251877,-85.205833435,0.000000000,-0.084000528,-16.815948486
1747312925.357804,44.925000000,0.000000000,59004.347656250,0.000000000,0.000000000,0.024749637,-84.619056702,0.000000000,-0.084000528,-16.815948486
1747312925.360195,44.927000000,0.000000000,59004.347656250,0.000000000,0.000000000,0.038251877,-85.236183167,0.000000000,-0.084000528,-16.815948486
1747312925.362572,44.930000000,0.000000000,59004.347656250,0.000000000,0.000000000,0.038251877,-83.439262390,0.000000000,-0.084000528,-16.815948486
1747312925.365007,44.932000000,0.000000000,59004.347656250,0.000000000,0.000000000,0.038251877,-83.439254761,0.000000000,-0.084000528,-16.815948486
1747312925.367373,44.935000000,0.000000000,59004.347656250,0.000000000,0.000000000,0.038251877,-83.439239502,0.000000000,-0.084000528,-16.815948486
1747312925.369746,44.937000000,0.000000000,59004.347656250,0.000000000,0.000000000,0.038251877,-83.439231873,0.000000000,-0.084000528,-16.815948486
1747312925.372146,44.939000000,0.000000000,59004.347656250,0.000000000,0.000000000,0.038251877,-83.439216614,0.000000000,-0.084000528,-16.815948486
1747312925.374535,44.942000000,0.000000000,59004.347656250,0.000000000,0.000000000,0.038251877,-83.439208984,0.000000000,-0.084000528,-16.815948486
1747312925.376938,44.944000000,0.000000000,59004.347656250,0.000000000,0.000000000,0.038251877,-83.439201355,0.000000000,-0.084000528,-16.815948486
1747312925.379345,44.947000000,0.000000000,59004.347656250,0.000000000,0.000000000,0.038251877,-83.439186096,0.000000000,-0.084000528,-16.815948486
1747312925.381728,44.949000000,0.000000000,59004.347656250,0.000000000,0.000000000,0.038251877,-83.439170837,0.000000000,-0.084000528,-16.815948486
1747312925.384107,44.951000000,0.000000000,59004.347656250,0.000000000,0.000000000,0.038251877,-83.439163208,0.000000000,-0.084000528,-16.815948486
1747312925.386485,44.954000000,0.000000000,59004.347656250,0.000000000,0.000000000,0.038251877,-83.439147949,0.000000000,-0.084000528,-16.815948486
1747312925.388902,44.956000000,0.000000000,59004.347656250,0.000000000,0.000000000,0.024749637,-84.616638184,0.000000000,-0.084000528,-16.815948486
1747312925.391395,44.959000000,0.000000000,59004.347656250,0.000000000,0.000000000,0.038251877,-85.209304810,0.000000000,-0.084000528,-16.815948486
1747312925.393797,44.961000000,0.000000000,59004.347656250,0.000000000,0.000000000,0.038251877,-83.439109802,0.000000000,-0.084000528,-16.815948486
1747312925.396174,44.963000000,0.000000000,59004.347656250,0.000000000,0.000000000,0.038251877,-83.439094543,0.000000000,-0.084000528,-16.815948486
1747312925.398564,44.966000000,0.000000000,59004.347656250,0.000000000,0.000000000,0.038251877,-83.439079285,0.000000000,-0.084000528,-16.815948486
1747312925.400969,44.968000000,0.000000000,59004.347656250,0.000000000,0.000000000,0.038251877,-83.439071655,0.000000000,-0.084000528,-16.815948486
1747312925.403320,44.971000000,0.000000000,59004.347656250,0.000000000,0.000000000,0.024749637,-84.626358032,0.000000000,-0.084000528,-16.815948486
1747312925.405755,44.973000000,0.000000000,59004.347656250,0.000000000,0.000000000,0.038251877,-85.238220215,0.000000000,-0.084000528,-16.815948486
1747312925.408308,44.975000000,0.000000000,59004.347656250,0.000000000,0.000000000,0.038251877,-83.439041138,0.000000000,-0.084000528,-16.815948486
1747312925.410738,44.978000000,0.000000000,59004.347656250,0.000000000,0.000000000,0.024749637,-84.725471497,0.000000000,-0.084000528,-16.815948486
1747312925.413225,44.980000000,0.000000000,59004.347656250,0.000000000,0.000000000,0.038251877,-85.203361511,0.000000000,-0.084000528,-16.815948486
1747312925.415577,44.983000000,0.000000000,59004.347656250,0.000000000,0.000000000,0.038251877,-83.438995361,0.000000000,-0.084000528,-16.815948486
1747312925.417936,44.985000000,0.000000000,59004.347656250,0.000000000,0.000000000,0.024749637,-84.621017456,0.000000000,-0.084000528,-16.815948486
1747312925.420319,44.988000000,0.000000000,59004.347656250,0.000000000,0.000000000,0.038251877,-85.241172791,0.000000000,-0.084000528,-16.815948486
1747312925.422692,44.990000000,0.000000000,59004.347656250,0.000000000,0.000000000,0.038251877,-83.438972473,0.000000000,-0.084000528,-16.815948486
1747312925.425096,44.992000000,0.000000000,59004.347656250,0.000000000,0.000000000,0.024749637,-84.620239258,0.000000000,-0.084000528,-16.815948486
1747312925.427469,44.995000000,0.000000000,59004.347656250,0.000000000,0.000000000,0.038251877,-85.242660522,0.000000000,-0.084000528,-16.815948486
1747312925.429836,44.997000000,0.000000000,59004.347656250,0.000000000,0.000000000,0.038251877,-83.438941956,0.000000000,-0.084000528,-16.815948486
1747312925.432301,45.000000000,0.000000000,59004.347656250,0.000000000,0.000000000,0.024749637,-84.616432190,0.000000000,-0.084000528,-16.815948486
1747312925.434726,45.002000000,0.000000000,59004.347656250,0.000000000,0.000000000,0.038251877,-85.214233398,0.000000000,-0.084000528,-16.815948486
1747312925.437117,45.004000000,0.000000000,59004.347656250,0.000000000,0.000000000,0.038251877,-83.438903809,0.000000000,-0.084000528,-16.815948486
1747312925.439515,45.007000000,0.000000000,59004.347656250,0.000000000,0.000000000,0.024749637,-84.641792297,0.000000000,-0.084000528,-16.815948486
1747312925.441890,45.009000000,0.000000000,59004.347656250,0.000000000,0.000000000,0.024749637,-86.418571472,0.000000000,-0.084000528,-16.815948486
1747312925.444266,45.012000000,0.000000000,59004.347656250,0.000000000,0.000000000,0.038251877,-85.241065979,0.000000000,-0.084000528,-16.815948486
1747312925.446622,45.014000000,0.000000000,59004.347656250,0.000000000,0.000000000,0.038251877,-83.438865662,0.000000000,-0.084000528,-16.815948486
1747312925.448994,45.016000000,0.000000000,59004.347656250,0.000000000,0.000000000,0.024749637,-84.606445313,0.000000000,-0.084000528,-16.815948486
1747312925.451431,45.019000000,0.000000000,59004.347656250,0.000000000,0.000000000,0.024749637,-86.418533325,0.000000000,-0.084000528,-16.815948486
1747312925.453886,45.021000000,0.000000000,59004.347656250,0.000000000,0.000000000,0.038251877,-85.195228577,0.000000000,-0.084000528,-16.815948486
1747312925.456323,45.024000000,0.000000000,59004.347656250,0.000000000,0.000000000,0.038251877,-83.438812256,0.000000000,-0.084000528,-16.815948486
1747312925.458738,45.026000000,0.000000000,59004.347656250,0.000000000,0.000000000,0.038251877,-83.438796997,0.000000000,-0.084000528,-16.815948486
1747312925.461128,45.028000000,0.000000000,59004.347656250,0.000000000,0.000000000,0.038251877,-83.438781738,0.000000000,-0.084000528,-16.815948486
1747312925.463541,45.031000000,0.000000000,59004.347656250,0.000000000,0.000000000,0.038251877,-83.438766479,0.000000000,-0.084000528,-16.815948486
1747312925.465921,45.033000000,0.000000000,59004.347656250,0.000000000,0.000000000,0.038251877,-83.438751221,0.000000000,-0.084000528,-16.815948486
1747312925.468323,45.036000000,0.000000000,59004.347656250,0.000000000,0.000000000,0.038251877,-83.438743591,0.000000000,-0.084000528,-16.815948486
1747312925.470710,45.038000000,0.000000000,59004.347656250,0.000000000,0.000000000,0.038251877,-83.438728333,0.000000000,-0.084000528,-16.815948486
1747312925.473133,45.040000000,0.000000000,59004.347656250,0.000000000,0.000000000,0.038251877,-83.438720703,0.000000000,-0.084000528,-16.815948486
1747312925.475570,45.043000000,0.000000000,59004.347656250,0.000000000,0.000000000,0.024749637,-84.650405884,0.000000000,-0.084000528,-16.815948486
1747312925.477961,45.045000000,0.000000000,59004.347656250,0.000000000,0.000000000,0.038251877,-85.196533203,0.000000000,-0.084000528,-16.815948486
1747312925.480350,45.048000000,0.000000000,59004.347656250,0.000000000,0.000000000,0.038251877,-83.438682556,0.000000000,-0.084000528,-16.815948486
1747312925.482734,45.050000000,0.000000000,59004.347656250,0.000000000,0.000000000,0.024749637,-84.619201660,0.000000000,-0.084000528,-16.815948486
1747312925.485161,45.052000000,0.000000000,59004.347656250,0.000000000,0.000000000,0.038251877,-85.240104675,0.000000000,-0.084000528,-16.815948486
1747312925.487535,45.055000000,0.000000000,59004.347656250,0.000000000,0.000000000,0.038251877,-83.438652039,0.000000000,-0.084000528,-16.815948486
1747312925.489895,45.057000000,0.000000000,59004.347656250,0.000000000,0.000000000,0.024749637,-84.621429443,0.000000000,-0.084000528,-16.815948486
1747312925.492313,45.060000000,0.000000000,59004.347656250,0.000000000,0.000000000,0.038251877,-85.231025696,0.000000000,-0.084000528,-16.815948486
1747312925.494702,45.062000000,0.000000000,59004.347656250,0.000000000,0.000000000,0.024749637,-84.642257690,0.000000000,-0.084000528,-16.815948486
1747312925.497099,45.064000000,0.000000000,59004.347656250,0.000000000,0.000000000,0.024749637,-86.418304443,0.000000000,-0.084000528,-16.815948486
1747312925.499490,45.067000000,0.000000000,59004.347656250,0.000000000,0.000000000,0.038251877,-85.232498169,0.000000000,-0.084000528,-16.815948486
1747312925.501873,45.069000000,0.000000000,59004.347656250,0.000000000,0.000000000,0.024749637,-84.626640320,0.000000000,-0.084000528,-16.815948486
1747312925.504302,45.072000000,0.000000000,59004.347656250,0.000000000,0.000000000,0.024749637,-86.418273926,0.000000000,-0.084000528,-16.815948486
1747312925.506756,45.074000000,0.000000000,59004.347656250,0.000000000,0.000000000,0.038251877,-85.206565857,0.000000000,-0.084000528,-16.815948486
1747312925.509220,45.076000000,0.000000000,59004.347656250,0.000000000,0.000000000,0.024749637,-84.671157837,0.000000000,-0.084000528,-16.815948486
1747312925.511667,45.079000000,0.000000000,59004.347656250,0.000000000,0.000000000,0.024749637,-86.418243408,0.000000000,-0.084000528,-16.815948486
1747312925.514105,45.081000000,0.000000000,59004.347656250,0.000000000,0.000000000,0.038251877,-85.184913635,0.000000000,-0.084000528,-16.815948486
1747312925.516543,45.084000000,0.000000000,59004.347656250,0.000000000,0.000000000,0.024749637,-84.652412415,0.000000000,-0.084000528,-16.815948486
1747312925.518977,45.086000000,0.000000000,59004.347656250,0.000000000,0.000000000,0.024749637,-86.418205261,0.000000000,-0.084000528,-16.815948486
1747312925.521444,45.089000000,0.000000000,59004.347656250,0.000000000,0.000000000,0.038251877,-85.199234009,0.000000000,-0.084000528,-16.815948486
1747312925.523888,45.091000000,0.000000000,59004.347656250,0.000000000,0.000000000,0.024749637,-84.683113098,0.000000000,-0.084000528,-16.815948486
1747312925.526352,45.094000000,0.000000000,59004.347656250,0.000000000,0.000000000,0.024749637,-86.418174744,0.000000000,-0.084000528,-16.815948486
1747312925.528779,45.096000000,0.000000000,59004.347656250,0.000000000,0.000000000,0.038251877,-85.183425903,0.000000000,-0.084000528,-16.815948486
1747312925.531173,45.098000000,0.000000000,59004.347656250,0.000000000,0.000000000,0.024749637,-84.653068542,0.000000000,-0.084000528,-16.815948486
1747312925.533638,45.101000000,0.000000000,59004.347656250,0.000000000,0.000000000,0.024749637,-86.418136597,0.000000000,-0.084000528,-16.815948486
1747312925.536120,45.103000000,0.000000000,59004.347656250,0.000000000,0.000000000,0.038251877,-85.195556641,0.000000000,-0.084000528,-16.815948486
1747312925.538499,45.106000000,0.000000000,59004.347656250,0.000000000,0.000000000,0.024749637,-84.682342529,0.000000000,-0.084000528,-16.815948486
1747312925.540893,45.108000000,0.000000000,59004.347656250,0.000000000,0.000000000,0.024749637,-86.418106079,0.000000000,-0.084000528,-16.815948486
1747312925.543265,45.111000000,0.000000000,59004.347656250,0.000000000,0.000000000,0.038251877,-85.233802795,0.000000000,-0.084000528,-16.815948486
1747312925.545641,45.113000000,0.000000000,59004.347656250,0.000000000,0.000000000,0.024749637,-84.619674683,0.000000000,-0.084000528,-16.815948486
1747312925.548000,45.115000000,0.000000000,59004.347656250,0.000000000,0.000000000,0.024749637,-86.418075562,0.000000000,-0.084000528,-16.815948486
1747312925.550370,45.118000000,0.000000000,59004.347656250,0.000000000,0.000000000,0.038251877,-85.248184204,0.000000000,-0.084000528,-16.815948486
1747312925.552734,45.120000000,0.000000000,59004.347656250,0.000000000,0.000000000,0.024749637,-84.609786987,0.000000000,-0.084000528,-16.815948486
1747312925.555211,45.122000000,0.000000000,59004.347656250,0.000000000,0.000000000,0.024749637,-86.418052673,0.000000000,-0.084000528,-16.815948486
1747312925.557619,45.125000000,0.000000000,59004.347656250,0.000000000,0.000000000,0.038251877,-85.155342102,0.000000000,-0.084000528,-16.815948486
1747312925.559998,45.127000000,0.000000000,59004.347656250,0.000000000,0.000000000,0.024749637,-84.625633240,0.000000000,-0.084000528,-16.815948486
1747312925.562356,45.130000000,0.000000000,59004.347656250,0.000000000,0.000000000,0.024749637,-86.418014526,0.000000000,-0.084000528,-16.815948486
1747312925.564764,45.132000000,0.000000000,59004.347656250,0.000000000,0.000000000,0.038251877,-85.251953125,0.000000000,-0.084000528,-16.815948486
1747312925.567091,45.134000000,0.000000000,59004.347656250,0.000000000,0.000000000,0.024749637,-84.612014771,0.000000000,-0.084000528,-16.815948486
1747312925.569456,45.137000000,0.000000000,59004.347656250,0.000000000,0.000000000,0.024749637,-86.417991638,0.000000000,-0.084000528,-16.815948486
1747312925.571836,45.139000000,0.000000000,59004.347656250,0.000000000,0.000000000,0.038251877,-85.251930237,0.000000000,-0.084000528,-16.815948486
1747312925.574217,45.142000000,0.000000000,59004.347656250,0.000000000,0.000000000,0.024749637,-84.611984253,0.000000000,-0.084000528,-16.815948486
1747312925.576613,45.144000000,0.000000000,59004.347656250,0.000000000,0.000000000,0.024749637,-86.417968750,0.000000000,-0.084000528,-16.815948486
1747312925.578985,45.146000000,0.000000000,59004.347656250,0.000000000,0.000000000,0.038251877,-85.228408813,0.000000000,-0.084000528,-16.815948486
1747312925.581355,45.149000000,0.000000000,59004.347656250,0.000000000,0.000000000,0.024749637,-84.613471985,0.000000000,-0.084000528,-16.815948486
1747312925.583782,45.151000000,0.000000000,59004.347656250,0.000000000,0.000000000,0.024749637,-86.417930603,0.000000000,-0.084000528,-16.815948486
1747312925.586144,45.153000000,0.000000000,59004.347656250,0.000000000,0.000000000,0.038251877,-85.213546753,0.000000000,-0.084000528,-16.815948486
1747312925.588514,45.156000000,0.000000000,59004.347656250,0.000000000,0.000000000,0.038251877,-83.438217163,0.000000000,-0.084000528,-16.815948486
1747312925.590875,45.158000000,0.000000000,59004.347656250,0.000000000,0.000000000,0.024749637,-84.610382080,0.000000000,-0.084000528,-16.815948486
1747312925.593240,45.161000000,0.000000000,59004.347656250,0.000000000,0.000000000,0.024749637,-86.417892456,0.000000000,-0.084000528,-16.815948486
1747312925.595599,45.163000000,0.000000000,59004.347656250,0.000000000,0.000000000,0.038251877,-85.242660522,0.000000000,-0.084000528,-16.815948486
1747312925.597965,45.165000000,0.000000000,59004.347656250,0.000000000,0.000000000,0.038251877,-83.438186646,0.000000000,-0.084000528,-16.815948486
1747312925.600349,45.168000000,0.000000000,59004.347656250,0.000000000,0.000000000,0.038251877,-83.438179016,0.000000000,-0.084000528,-16.815948486
1747312925.602723,45.170000000,0.000000000,59004.347656250,0.000000000,0.000000000,0.024749637,-84.623207092,0.000000000,-0.084000528,-16.815948486
1747312925.605113,45.172000000,0.000000000,59004.347656250,0.000000000,0.000000000,0.024749637,-86.417846680,0.000000000,-0.084000528,-16.815948486
1747312925.607486,45.175000000,0.000000000,59004.347656250,0.000000000,0.000000000,0.038251877,-85.236557007,0.000000000,-0.084000528,-16.815948486
1747312925.609868,45.177000000,0.000000000,59004.347656250,0.000000000,0.000000000,0.024749637,-84.614120483,0.000000000,-0.084000528,-16.815948486
1747312925.612228,45.180000000,0.000000000,59004.347656250,0.000000000,0.000000000,0.024749637,-86.417816162,0.000000000,-0.084000528,-16.815948486
1747312925.614609,45.182000000,0.000000000,59004.347656250,0.000000000,0.000000000,0.038251877,-85.249458313,0.000000000,-0.084000528,-16.815948486
1747312925.616974,45.184000000,0.000000000,59004.347656250,0.000000000,0.000000000,0.024749637,-84.607238770,0.000000000,-0.084000528,-16.815948486
1747312925.619345,45.187000000,0.000000000,59004.347656250,0.000000000,0.000000000,0.024749637,-86.417793274,0.000000000,-0.084000528,-16.815948486
1747312925.621722,45.189000000,0.000000000,59004.347656250,0.000000000,0.000000000,0.038251877,-85.246376038,0.000000000,-0.084000528,-16.815948486
1747312925.624157,45.191000000,0.000000000,59004.347656250,0.000000000,0.000000000,0.024749637,-84.614830017,0.000000000,-0.084000528,-16.815948486
1747312925.626563,45.194000000,0.000000000,59004.347656250,0.000000000,0.000000000,0.024749637,-86.417770386,0.000000000,-0.084000528,-16.815948486
1747312925.628918,45.196000000,0.000000000,59004.347656250,0.000000000,0.000000000,0.038251877,-85.224479675,0.000000000,-0.084000528,-16.815948486
1747312925.631291,45.199000000,0.000000000,59004.347656250,0.000000000,0.000000000,0.038251877,-83.438056946,0.000000000,-0.084000528,-16.815948486
1747312925.633662,45.201000000,0.000000000,59004.347656250,0.000000000,0.000000000,0.024749637,-84.625343323,0.000000000,-0.084000528,-16.815948486
1747312925.636031,45.203000000,0.000000000,59004.347656250,0.000000000,0.000000000,0.038251877,-85.246315002,0.000000000,-0.084000528,-16.815948486
1747312925.638419,45.206000000,0.000000000,59004.347656250,0.000000000,0.000000000,0.038251877,-83.438026428,0.000000000,-0.084000528,-16.815948486
1747312925.640761,45.208000000,0.000000000,59004.347656250,0.000000000,0.000000000,0.024749637,-84.619300842,0.000000000,-0.084000528,-16.815948486
1747312925.643201,45.210000000,0.000000000,59004.347656250,0.000000000,0.000000000,0.024749637,-86.417701721,0.000000000,-0.084000528,-16.815948486
1747312925.645628,45.213000000,0.000000000,59004.347656250,0.000000000,0.000000000,0.024749637,-86.417686462,0.000000000,-0.084000528,-16.815948486
1747312925.648053,45.215000000,0.000000000,59004.347656250,0.000000000,0.000000000,0.024749637,-86.417678833,0.000000000,-0.084000528,-16.815948486
1747312925.650492,45.218000000,0.000000000,59004.347656250,0.000000000,0.000000000,0.038251877,-85.203056335,0.000000000,-0.084000528,-16.815948486
1747312925.652963,45.220000000,0.000000000,59004.347656250,0.000000000,0.000000000,0.024749637,-84.657653809,0.000000000,-0.084000528,-16.815948486
1747312925.655397,45.223000000,0.000000000,59004.347656250,0.000000000,0.000000000,0.024749637,-86.417648315,0.000000000,-0.084000528,-16.815948486
1747312925.657755,45.225000000,0.000000000,59004.347656250,0.000000000,0.000000000,0.038251877,-85.205932617,0.000000000,-0.084000528,-16.815948486
1747312925.660146,45.227000000,0.000000000,59004.347656250,0.000000000,0.000000000,0.024749637,-84.607818604,0.000000000,-0.084000528,-16.815948486
1747312925.662508,45.230000000,0.000000000,59004.347656250,0.000000000,0.000000000,0.024749637,-86.417610168,0.000000000,-0.084000528,-16.815948486
1747312925.664878,45.232000000,0.000000000,59004.347656250,0.000000000,0.000000000,0.038251877,-85.241622925,0.000000000,-0.084000528,-16.815948486
1747312925.667259,45.235000000,0.000000000,59004.347656250,0.000000000,0.000000000,0.024749637,-84.610847473,0.000000000,-0.084000528,-16.815948486
1747312925.669629,45.237000000,0.000000000,59004.347656250,0.000000000,0.000000000,0.024749637,-86.417587280,0.000000000,-0.084000528,-16.815948486
1747312925.672020,45.239000000,0.000000000,59004.347656250,0.000000000,0.000000000,0.038251877,-85.247695923,0.000000000,-0.084000528,-16.815948486
1747312925.674385,45.242000000,0.000000000,59004.347656250,0.000000000,0.000000000,0.024749637,-84.610054016,0.000000000,-0.084000528,-16.815948486
1747312925.676811,45.244000000,0.000000000,59004.347656250,0.000000000,0.000000000,0.024749637,-86.417564392,0.000000000,-0.084000528,-16.815948486
1747312925.679188,45.246000000,0.000000000,59004.347656250,0.000000000,0.000000000,0.038251877,-85.209503174,0.000000000,-0.084000528,-16.815948486
1747312925.681545,45.249000000,0.000000000,59004.347656250,0.000000000,0.000000000,0.024749637,-84.619125366,0.000000000,-0.084000528,-16.815948486
1747312925.683908,45.251000000,0.000000000,59004.347656250,0.000000000,0.000000000,0.024749637,-86.417526245,0.000000000,-0.084000528,-16.815948486
1747312925.686289,45.254000000,0.000000000,59004.347656250,0.000000000,0.000000000,0.038251877,-85.246109009,0.000000000,-0.084000528,-16.815948486
1747312925.688678,45.256000000,0.000000000,59004.347656250,0.000000000,0.000000000,0.024749637,-84.614562988,0.000000000,-0.084000528,-16.815948486
1747312925.691139,45.258000000,0.000000000,59004.347656250,0.000000000,0.000000000,0.024749637,-86.417503357,0.000000000,-0.084000528,-16.815948486
1747312925.693509,45.261000000,0.000000000,59004.347656250,0.000000000,0.000000000,0.038251877,-85.202873230,0.000000000,-0.084000528,-16.815948486
1747312925.695884,45.263000000,0.000000000,59004.347656250,0.000000000,0.000000000,0.024749637,-84.625083923,0.000000000,-0.084000528,-16.815948486
1747312925.698252,45.266000000,0.000000000,59004.347656250,0.000000000,0.000000000,0.024749637,-86.417465210,0.000000000,-0.084000528,-16.815948486
1747312925.700627,45.268000000,0.000000000,59004.347656250,0.000000000,0.000000000,0.024749637,-86.417457581,0.000000000,-0.084000528,-16.815948486
1747312925.703006,45.270000000,0.000000000,59004.347656250,0.000000000,0.000000000,0.024749637,-86.417449951,0.000000000,-0.084000528,-16.815948486
1747312925.705445,45.273000000,0.000000000,59004.347656250,0.000000000,0.000000000,0.024749637,-86.417442322,0.000000000,-0.084000528,-16.815948486
1747312925.707883,45.275000000,0.000000000,59004.347656250,0.000000000,0.000000000,0.024749637,-86.417434692,0.000000000,-0.084000528,-16.815948486
1747312925.710317,45.278000000,0.000000000,59004.347656250,0.000000000,0.000000000,0.024749637,-86.417419434,0.000000000,-0.084000528,-16.815948486
1747312925.712760,45.280000000,0.000000000,59004.347656250,0.000000000,0.000000000,0.038251877,-85.194114685,0.000000000,-0.084000528,-16.815948486
1747312925.715212,45.282000000,0.000000000,59004.347656250,0.000000000,0.000000000,0.038251877,-83.437698364,0.000000000,-0.084000528,-16.815948486
1747312925.717651,45.285000000,0.000000000,59004.347656250,0.000000000,0.000000000,0.024749637,-84.673843384,0.000000000,-0.084000528,-16.815948486
1747312925.720065,45.287000000,0.000000000,59004.347656250,0.000000000,0.000000000,0.038251877,-85.197677612,0.000000000,-0.084000528,-16.815948486
1747312925.722555,45.290000000,0.000000000,59004.347656250,0.000000000,0.000000000,0.038251877,-83.437660217,0.000000000,-0.084000528,-16.815948486
1747312925.724968,45.292000000,0.000000000,59004.347656250,0.000000000,0.000000000,0.024749637,-84.708557129,0.000000000,-0.084000528,-16.815948486
1747312925.727393,45.295000000,0.000000000,59004.347656250,0.000000000,0.000000000,0.038251877,-85.201980591,0.000000000,-0.084000528,-16.815948486
1747312925.729745,45.297000000,0.000000000,59004.347656250,0.000000000,0.000000000,0.038251877,-83.437614441,0.000000000,-0.084000528,-16.815948486
1747312925.732134,45.299000000,0.000000000,59004.347656250,0.000000000,0.000000000,0.038251877,-83.437606812,0.000000000,-0.084000528,-16.815948486
1747312925.734500,45.302000000,0.000000000,59004.347656250,0.000000000,0.000000000,0.038251877,-83.437599182,0.000000000,-0.084000528,-16.815948486
1747312925.736862,45.304000000,0.000000000,59004.347656250,0.000000000,0.000000000,0.038251877,-83.437591553,0.000000000,-0.084000528,-16.815948486
1747312925.739263,45.307000000,0.000000000,59004.347656250,0.000000000,0.000000000,0.038251877,-83.437583923,0.000000000,-0.084000528,-16.815948486
1747312925.741757,45.309000000,0.000000000,59004.347656250,0.000000000,0.000000000,0.038251877,-83.437568665,0.000000000,-0.084000528,-16.815948486
1747312925.744146,45.311000000,0.000000000,59004.347656250,0.000000000,0.000000000,0.038251877,-83.437553406,0.000000000,-0.084000528,-16.815948486
1747312925.746525,45.314000000,0.000000000,59004.347656250,0.000000000,0.000000000,0.024749637,-84.624092102,0.000000000,-0.084000528,-16.815948486
1747312925.748923,45.316000000,0.000000000,59004.347656250,0.000000000,0.000000000,0.038251877,-85.226181030,0.000000000,-0.084000528,-16.815948486
1747312925.751366,45.319000000,0.000000000,59004.347656250,0.000000000,0.000000000,0.038251877,-83.437515259,0.000000000,-0.084000528,-16.815948486
1747312925.753756,45.321000000,0.000000000,59004.347656250,0.000000000,0.000000000,0.024749637,-84.664382935,0.000000000,-0.084000528,-16.815948486
1747312925.756151,45.323000000,0.000000000,59004.347656250,0.000000000,0.000000000,0.038251877,-85.235900879,0.000000000,-0.084000528,-16.815948486
1747312925.758564,45.326000000,0.000000000,59004.347656250,0.000000000,0.000000000,0.038251877,-83.437477112,0.000000000,-0.084000528,-16.815948486
1747312925.760964,45.328000000,0.000000000,59004.347656250,0.000000000,0.000000000,0.038251877,-83.437469482,0.000000000,-0.084000528,-16.815948486
1747312925.763312,45.331000000,0.000000000,59004.347656250,0.000000000,0.000000000,0.038251877,-83.437454224,0.000000000,-0.084000528,-16.815948486
1747312925.765660,45.333000000,0.000000000,59004.347656250,0.000000000,0.000000000,0.038251877,-83.437438965,0.000000000,-0.084000528,-16.815948486
1747312925.768029,45.335000000,0.000000000,59004.347656250,0.000000000,0.000000000,0.038251877,-83.437431335,0.000000000,-0.084000528,-16.815948486
1747312925.770363,45.338000000,0.000000000,59004.347656250,0.000000000,0.000000000,0.038251877,-83.437423706,0.000000000,-0.084000528,-16.815948486
1747312925.772719,45.340000000,0.000000000,59004.347656250,0.000000000,0.000000000,0.038251877,-83.437416077,0.000000000,-0.084000528,-16.815948486
1747312925.775117,45.342000000,0.000000000,59004.347656250,0.000000000,0.000000000,0.024749637,-84.595756531,0.000000000,-0.084000528,-16.815948486
1747312925.777447,45.345000000,0.000000000,59004.347656250,0.000000000,0.000000000,0.038251877,-85.229789734,0.000000000,-0.084000528,-16.815948486
1747312925.779861,45.347000000,0.000000000,59004.347656250,0.000000000,0.000000000,0.038251877,-83.437393188,0.000000000,-0.084000528,-16.815948486
1747312925.782246,45.350000000,0.000000000,59004.347656250,0.000000000,0.000000000,0.024749637,-84.626174927,0.000000000,-0.084000528,-16.815948486
1747312925.784614,45.352000000,0.000000000,59004.347656250,0.000000000,0.000000000,0.038251877,-85.232017517,0.000000000,-0.084000528,-16.815948486
1747312925.786983,45.354000000,0.000000000,59004.347656250,0.000000000,0.000000000,0.038251877,-83.437362671,0.000000000,-0.084000528,-16.815948486
1747312925.789382,45.357000000,0.000000000,59004.347656250,0.000000000,0.000000000,0.038251877,-83.437355042,0.000000000,-0.084000528,-16.815948486
1747312925.791826,45.359000000,0.000000000,59004.347656250,0.000000000,0.000000000,0.038251877,-83.437339783,0.000000000,-0.084000528,-16.815948486
1747312925.794240,45.362000000,0.000000000,59004.347656250,0.000000000,0.000000000,0.038251877,-83.437324524,0.000000000,-0.084000528,-16.815948486
1747312925.796623,45.364000000,0.000000000,59004.347656250,0.000000000,0.000000000,0.024749637,-84.653373718,0.000000000,-0.084000528,-16.815948486
1747312925.798998,45.366000000,0.000000000,59004.347656250,0.000000000,0.000000000,0.024749637,-86.416992188,0.000000000,-0.084000528,-16.815948486
1747312925.801384,45.369000000,0.000000000,59004.347656250,0.000000000,0.000000000,0.038251877,-85.244049072,0.000000000,-0.084000528,-16.815948486
1747312925.803782,45.371000000,0.000000000,59004.347656250,0.000000000,0.000000000,0.038251877,-83.437286377,0.000000000,-0.084000528,-16.815948486
1747312925.806193,45.373000000,0.000000000,59004.347656250,0.000000000,0.000000000,0.024749637,-84.633522034,0.000000000,-0.084000528,-16.815948486
1747312925.808614,45.376000000,0.000000000,59004.347656250,0.000000000,0.000000000,0.024749637,-86.416954041,0.000000000,-0.084000528,-16.815948486
1747312925.810988,45.378000000,0.000000000,59004.347656250,0.000000000,0.000000000,0.038251877,-85.201606750,0.000000000,-0.084000528,-16.815948486
1747312925.813378,45.381000000,0.000000000,59004.347656250,0.000000000,0.000000000,0.038251877,-83.437240601,0.000000000,-0.084000528,-16.815948486
1747312925.815759,45.383000000,0.000000000,59004.347656250,0.000000000,0.000000000,0.024749637,-84.619270325,0.000000000,-0.084000528,-16.815948486
1747312925.818197,45.385000000,0.000000000,59004.347656250,0.000000000,0.000000000,0.024749637,-86.416915894,0.000000000,-0.084000528,-16.815948486
1747312925.820576,45.388000000,0.000000000,59004.347656250,0.000000000,0.000000000,0.038251877,-85.214736938,0.000000000,-0.084000528,-16.815948486
1747312925.822969,45.390000000,0.000000000,59004.347656250,0.000000000,0.000000000,0.038251877,-83.437194824,0.000000000,-0.084000528,-16.815948486
1747312925.825373,45.393000000,0.000000000,59004.347656250,0.000000000,0.000000000,0.024749637,-84.617706299,0.000000000,-0.084000528,-16.815948486
1747312925.827749,45.395000000,0.000000000,59004.347656250,0.000000000,0.000000000,0.024749637,-86.416862488,0.000000000,-0.084000528,-16.815948486
1747312925.830113,45.397000000,0.000000000,59004.347656250,0.000000000,0.000000000,0.038251877,-85.241630554,0.000000000,-0.084000528,-16.815948486
1747312925.832513,45.400000000,0.000000000,59004.347656250,0.000000000,0.000000000,0.038251877,-83.437156677,0.000000000,-0.084000528,-16.815948486
1747312925.834853,45.402000000,0.000000000,59004.347656250,0.000000000,0.000000000,0.024749637,-84.613883972,0.000000000,-0.084000528,-16.815948486
1747312925.837228,45.405000000,0.000000000,59004.347656250,0.000000000,0.000000000,0.024749637,-86.416824341,0.000000000,-0.084000528,-16.815948486
1747312925.839623,45.407000000,0.000000000,59004.347656250,0.000000000,0.000000000,0.038251877,-85.240837097,0.000000000,-0.084000528,-16.815948486
1747312925.842016,45.409000000,0.000000000,59004.347656250,0.000000000,0.000000000,0.038251877,-83.437126160,0.000000000,-0.084000528,-16.815948486
1747312925.844432,45.412000000,0.000000000,59004.347656250,0.000000000,0.000000000,0.024749637,-84.625160217,0.000000000,-0.084000528,-16.815948486
1747312925.846797,45.414000000,0.000000000,59004.347656250,0.000000000,0.000000000,0.024749637,-86.416793823,0.000000000,-0.084000528,-16.815948486
1747312925.849185,45.416000000,0.000000000,59004.347656250,0.000000000,0.000000000,0.038251877,-85.243087769,0.000000000,-0.084000528,-16.815948486
1747312925.851576,45.419000000,0.000000000,59004.347656250,0.000000000,0.000000000,0.038251877,-83.437088013,0.000000000,-0.084000528,-16.815948486
1747312925.853966,45.421000000,0.000000000,59004.347656250,0.000000000,0.000000000,0.024749637,-84.631095886,0.000000000,-0.084000528,-16.815948486
1747312925.856386,45.424000000,0.000000000,59004.347656250,0.000000000,0.000000000,0.038251877,-85.233222961,0.000000000,-0.084000528,-16.815948486
1747312925.858811,45.426000000,0.000000000,59004.347656250,0.000000000,0.000000000,0.038251877,-83.437057495,0.000000000,-0.084000528,-16.815948486
1747312925.861185,45.428000000,0.000000000,59004.347656250,0.000000000,0.000000000,0.024749637,-84.622840881,0.000000000,-0.084000528,-16.815948486
1747312925.863597,45.431000000,0.000000000,59004.347656250,0.000000000,0.000000000,0.024749637,-86.416725159,0.000000000,-0.084000528,-16.815948486
1747312925.866011,45.433000000,0.000000000,59004.347656250,0.000000000,0.000000000,0.024749637,-86.416717529,0.000000000,-0.084000528,-16.815948486
1747312925.868397,45.436000000,0.000000000,59004.347656250,0.000000000,0.000000000,0.038251877,-85.216011047,0.000000000,-0.084000528,-16.815948486
1747312925.870787,45.438000000,0.000000000,59004.347656250,0.000000000,0.000000000,0.024749637,-84.626541138,0.000000000,-0.084000528,-16.815948486
1747312925.873232,45.440000000,0.000000000,59004.347656250,0.000000000,0.000000000,0.024749637,-86.416679382,0.000000000,-0.084000528,-16.815948486
1747312925.875617,45.443000000,0.000000000,59004.347656250,0.000000000,0.000000000,0.038251877,-85.196258545,0.000000000,-0.084000528,-16.815948486
1747312925.878019,45.445000000,0.000000000,59004.347656250,0.000000000,0.000000000,0.038251877,-83.436965942,0.000000000,-0.084000528,-16.815948486
1747312925.880418,45.448000000,0.000000000,59004.347656250,0.000000000,0.000000000,0.024749637,-84.623504639,0.000000000,-0.084000528,-16.815948486
1747312925.882781,45.450000000,0.000000000,59004.347656250,0.000000000,0.000000000,0.024749637,-86.416633606,0.000000000,-0.084000528,-16.815948486
1747312925.885161,45.452000000,0.000000000,59004.347656250,0.000000000,0.000000000,0.038251877,-85.245216370,0.000000000,-0.084000528,-16.815948486
1747312925.887579,45.455000000,0.000000000,59004.347656250,0.000000000,0.000000000,0.024749637,-84.616699219,0.000000000,-0.084000528,-16.815948486
1747312925.889975,45.457000000,0.000000000,59004.347656250,0.000000000,0.000000000,0.038251877,-85.209297180,0.000000000,-0.084000528,-16.815948486
1747312925.892437,45.460000000,0.000000000,59004.347656250,0.000000000,0.000000000,0.038251877,-83.436904907,0.000000000,-0.084000528,-16.815948486
1747312925.894923,45.462000000,0.000000000,59004.347656250,0.000000000,0.000000000,0.024749637,-84.708488464,0.000000000,-0.084000528,-16.815948486
1747312925.897414,45.465000000,0.000000000,59004.347656250,0.000000000,0.000000000,0.038251877,-85.164253235,0.000000000,-0.084000528,-16.815948486
1747312925.899854,45.467000000,0.000000000,59004.347656250,0.000000000,0.000000000,0.038251877,-83.436866760,0.000000000,-0.084000528,-16.815948486
1747312925.902296,45.470000000,0.000000000,59004.347656250,0.000000000,0.000000000,0.038251877,-83.436843872,0.000000000,-0.084000528,-16.815948486
1747312925.904740,45.472000000,0.000000000,59004.347656250,0.000000000,0.000000000,0.024749637,-84.662284851,0.000000000,-0.084000528,-16.815948486
1747312925.907190,45.474000000,0.000000000,59004.347656250,0.000000000,0.000000000,0.038251877,-85.195381165,0.000000000,-0.084000528,-16.815948486
1747312925.909680,45.477000000,0.000000000,59004.347656250,0.000000000,0.000000000,0.038251877,-83.436805725,0.000000000,-0.084000528,-16.815948486
1747312925.912218,45.479000000,0.000000000,59004.347656250,0.000000000,0.000000000,0.024749637,-84.702239990,0.000000000,-0.084000528,-16.815948486
1747312925.914694,45.482000000,0.000000000,59004.347656250,0.000000000,0.000000000,0.038251877,-85.144874573,0.000000000,-0.084000528,-16.815948486
1747312925.917145,45.484000000,0.000000000,59004.347656250,0.000000000,0.000000000,0.038251877,-83.436759949,0.000000000,-0.084000528,-16.815948486
1747312925.919589,45.487000000,0.000000000,59004.347656250,0.000000000,0.000000000,0.024749637,-84.672904968,0.000000000,-0.084000528,-16.815948486
1747312925.922048,45.489000000,0.000000000,59004.347656250,0.000000000,0.000000000,0.024749637,-86.416427612,0.000000000,-0.084000528,-16.815948486
1747312925.924479,45.492000000,0.000000000,59004.347656250,0.000000000,0.000000000,0.038251877,-85.166191101,0.000000000,-0.084000528,-16.815948486
1747312925.926940,45.494000000,0.000000000,59004.347656250,0.000000000,0.000000000,0.038251877,-83.436706543,0.000000000,-0.084000528,-16.815948486
1747312925.929393,45.497000000,0.000000000,59004.347656250,0.000000000,0.000000000,0.024749637,-84.672142029,0.000000000,-0.084000528,-16.815948486
1747312925.931836,45.499000000,0.000000000,59004.347656250,0.000000000,0.000000000,0.024749637,-86.416381836,0.000000000,-0.084000528,-16.815948486
1747312925.934300,45.502000000,0.000000000,59004.347656250,0.000000000,0.000000000,0.038251877,-85.189483643,0.000000000,-0.084000528,-16.815948486
1747312925.936757,45.504000000,0.000000000,59004.347656250,0.000000000,0.000000000,0.038251877,-83.436660767,0.000000000,-0.084000528,-16.815948486
1747312925.939229,45.507000000,0.000000000,59004.347656250,0.000000000,0.000000000,0.024749637,-84.674926758,0.000000000,-0.084000528,-16.815948486
1747312925.941703,45.509000000,0.000000000,59004.347656250,0.000000000,0.000000000,0.024749637,-86.416328430,0.000000000,-0.084000528,-16.815948486
1747312925.944181,45.511000000,0.000000000,59004.347656250,0.000000000,0.000000000,0.024749637,-86.416320801,0.000000000,-0.084000528,-16.815948486
1747312925.946595,45.514000000,0.000000000,59004.347656250,0.000000000,0.000000000,0.024749637,-86.416305542,0.000000000,-0.084000528,-16.815948486
1747312925.949043,45.516000000,0.000000000,59004.347656250,0.000000000,0.000000000,0.024749637,-86.416297913,0.000000000,-0.084000528,-16.815948486
1747312925.951555,45.519000000,0.000000000,59004.347656250,0.000000000,0.000000000,0.024749637,-86.416290283,0.000000000,-0.084000528,-16.815948486
1747312925.954040,45.521000000,0.000000000,59004.347656250,0.000000000,0.000000000,0.038251877,-85.142646790,0.000000000,-0.084000528,-16.815948486
1747312925.956484,45.524000000,0.000000000,59004.347656250,0.000000000,0.000000000,0.038251877,-83.436569214,0.000000000,-0.084000528,-16.815948486
1747312925.958940,45.526000000,0.000000000,59004.347656250,0.000000000,0.000000000,0.024749637,-84.664878845,0.000000000,-0.084000528,-16.815948486
1747312925.961390,45.529000000,0.000000000,59004.347656250,0.000000000,0.000000000,0.024749637,-86.416236877,0.000000000,-0.084000528,-16.815948486
1747312925.963818,45.531000000,0.000000000,59004.347656250,0.000000000,0.000000000,0.024749637,-86.416229248,0.000000000,-0.084000528,-16.815948486
1747312925.966330,45.534000000,0.000000000,59004.347656250,0.000000000,0.000000000,0.024749637,-86.416221619,0.000000000,-0.084000528,-16.815948486
1747312925.968878,45.536000000,0.000000000,59004.347656250,0.000000000,0.000000000,0.024749637,-86.416213989,0.000000000,-0.084000528,-16.815948486
1747312925.971451,45.539000000,0.000000000,59004.347656250,0.000000000,0.000000000,0.024749637,-86.416206360,0.000000000,-0.084000528,-16.815948486
1747312925.973985,45.541000000,0.000000000,59004.347656250,0.000000000,0.000000000,0.024749637,-86.416198730,0.000000000,-0.084000528,-16.815948486
1747312925.976511,45.544000000,0.000000000,59004.347656250,0.000000000,0.000000000,0.024749637,-86.416191101,0.000000000,-0.084000528,-16.815948486
1747312925.978989,45.546000000,0.000000000,59004.347656250,0.000000000,0.000000000,0.024749637,-86.416183472,0.000000000,-0.084000528,-16.815948486
1747312925.981505,45.549000000,0.000000000,59004.347656250,0.000000000,0.000000000,0.024749637,-86.416168213,0.000000000,-0.084000528,-16.815948486
1747312925.983974,45.551000000,0.000000000,59004.347656250,0.000000000,0.000000000,0.024749637,-86.416160583,0.000000000,-0.084000528,-16.815948486
1747312925.986449,45.554000000,0.000000000,59004.347656250,0.000000000,0.000000000,0.024749637,-86.416152954,0.000000000,-0.084000528,-16.815948486
1747312925.988873,45.556000000,0.000000000,59004.347656250,0.000000000,0.000000000,0.024749637,-86.416145325,0.000000000,-0.084000528,-16.815948486
1747312925.991267,45.559000000,0.000000000,59004.347656250,0.000000000,0.000000000,0.024749637,-86.416137695,0.000000000,-0.084000528,-16.815948486
1747312925.993675,45.561000000,0.000000000,59004.347656250,0.000000000,0.000000000,0.024749637,-86.416130066,0.000000000,-0.084000528,-16.815948486
1747312925.996040,45.563000000,0.000000000,59004.347656250,0.000000000,0.000000000,0.024749637,-86.416122437,0.000000000,-0.084000528,-16.815948486
1747312925.998412,45.566000000,0.000000000,59004.347656250,0.000000000,0.000000000,0.024749637,-86.416107178,0.000000000,-0.084000528,-16.815948486
1747312926.000813,45.568000000,0.000000000,59004.347656250,0.000000000,0.000000000,0.024749637,-86.416099548,0.000000000,-0.084000528,-16.815948486
1747312926.003238,45.571000000,0.000000000,59004.347656250,0.000000000,0.000000000,0.024749637,-86.416091919,0.000000000,-0.084000528,-16.815948486
1747312926.005713,45.573000000,0.000000000,59004.347656250,0.000000000,0.000000000,0.024749637,-86.416084290,0.000000000,-0.084000528,-16.815948486
1747312926.008182,45.575000000,0.000000000,59004.347656250,0.000000000,0.000000000,0.024749637,-86.416076660,0.000000000,-0.084000528,-16.815948486
1747312926.010594,45.578000000,0.000000000,59004.347656250,0.000000000,0.000000000,0.024749637,-86.416069031,0.000000000,-0.084000528,-16.815948486
1747312926.012964,45.580000000,0.000000000,59004.347656250,0.000000000,0.000000000,0.024749637,-86.416061401,0.000000000,-0.084000528,-16.815948486
1747312926.015326,45.583000000,0.000000000,59004.347656250,0.000000000,0.000000000,0.024749637,-86.416053772,0.000000000,-0.084000528,-16.815948486
1747312926.017692,45.585000000,0.000000000,59004.347656250,0.000000000,0.000000000,0.024749637,-86.416038513,0.000000000,-0.084000528,-16.815948486
1747312926.020056,45.587000000,0.000000000,59004.347656250,0.000000000,0.000000000,0.024749637,-86.416030884,0.000000000,-0.084000528,-16.815948486
1747312926.022440,45.590000000,0.000000000,59004.347656250,0.000000000,0.000000000,0.024749637,-86.416023254,0.000000000,-0.084000528,-16.815948486
1747312926.024807,45.592000000,0.000000000,59004.347656250,0.000000000,0.000000000,0.024749637,-86.416015625,0.000000000,-0.084000528,-16.815948486
1747312926.027190,45.594000000,0.000000000,59004.347656250,0.000000000,0.000000000,0.024749637,-86.416007996,0.000000000,-0.084000528,-16.815948486
1747312926.029563,45.597000000,0.000000000,59004.347656250,0.000000000,0.000000000,0.024749637,-86.416000366,0.000000000,-0.084000528,-16.815948486
1747312926.031925,45.599000000,0.000000000,59004.347656250,0.000000000,0.000000000,0.024749637,-86.415992737,0.000000000,-0.084000528,-16.815948486
1747312926.034297,45.602000000,0.000000000,59004.347656250,0.000000000,0.000000000,0.024749637,-86.415985107,0.000000000,-0.084000528,-16.815948486
1747312926.036666,45.604000000,0.000000000,59004.347656250,0.000000000,0.000000000,0.024749637,-86.415969849,0.000000000,-0.084000528,-16.815948486
1747312926.039106,45.606000000,0.000000000,59004.347656250,0.000000000,0.000000000,0.024749637,-86.415962219,0.000000000,-0.084000528,-16.815948486
1747312926.041548,45.609000000,0.000000000,59004.347656250,0.000000000,0.000000000,0.024749637,-86.415954590,0.000000000,-0.084000528,-16.815948486
1747312926.044007,45.611000000,0.000000000,59004.347656250,0.000000000,0.000000000,0.024749637,-86.415946960,0.000000000,-0.084000528,-16.815948486
1747312926.046449,45.614000000,0.000000000,59004.347656250,0.000000000,0.000000000,0.024749637,-86.415939331,0.000000000,-0.084000528,-16.815948486
1747312926.048896,45.616000000,0.000000000,59004.347656250,0.000000000,0.000000000,0.024749637,-86.415931702,0.000000000,-0.084000528,-16.815948486
1747312926.051265,45.619000000,0.000000000,59004.347656250,0.000000000,0.000000000,0.024749637,-86.415924072,0.000000000,-0.084000528,-16.815948486
1747312926.053674,45.621000000,0.000000000,59004.347656250,0.000000000,0.000000000,0.024749637,-86.415908813,0.000000000,-0.084000528,-16.815948486
1747312926.056072,45.623000000,0.000000000,59004.347656250,0.000000000,0.000000000,0.024749637,-86.415901184,0.000000000,-0.084000528,-16.815948486
1747312926.058489,45.626000000,0.000000000,59004.347656250,0.000000000,0.000000000,0.024749637,-86.415893555,0.000000000,-0.084000528,-16.815948486
1747312926.060894,45.628000000,0.000000000,59004.347656250,0.000000000,0.000000000,0.024749637,-86.415885925,0.000000000,-0.084000528,-16.815948486
1747312926.063262,45.631000000,0.000000000,59004.347656250,0.000000000,0.000000000,0.024749637,-86.415878296,0.000000000,-0.084000528,-16.815948486
1747312926.065623,45.633000000,0.000000000,59004.347656250,0.000000000,0.000000000,0.024749637,-86.415870667,0.000000000,-0.084000528,-16.815948486
1747312926.067998,45.635000000,0.000000000,59004.347656250,0.000000000,0.000000000,0.024749637,-86.415863037,0.000000000,-0.084000528,-16.815948486
1747312926.070379,45.638000000,0.000000000,59004.347656250,0.000000000,0.000000000,0.024749637,-86.415855408,0.000000000,-0.084000528,-16.815948486
1747312926.072766,45.640000000,0.000000000,59004.347656250,0.000000000,0.000000000,0.024749637,-86.415840149,0.000000000,-0.084000528,-16.815948486
1747312926.075246,45.643000000,0.000000000,59004.347656250,0.000000000,0.000000000,0.024749637,-86.415832520,0.000000000,-0.084000528,-16.815948486
1747312926.077702,45.645000000,0.000000000,59004.347656250,0.000000000,0.000000000,0.024749637,-86.415824890,0.000000000,-0.084000528,-16.815948486
1747312926.080052,45.647000000,0.000000000,59004.347656250,0.000000000,0.000000000,0.024749637,-86.415817261,0.000000000,-0.084000528,-16.815948486
1747312926.082419,45.650000000,0.000000000,59004.347656250,0.000000000,0.000000000,0.024749637,-86.415809631,0.000000000,-0.084000528,-16.815948486
1747312926.084794,45.652000000,0.000000000,59004.347656250,0.000000000,0.000000000,0.024749637,-86.415802002,0.000000000,-0.084000528,-16.815948486
1747312926.087214,45.654000000,0.000000000,59004.347656250,0.000000000,0.000000000,0.024749637,-86.415794373,0.000000000,-0.084000528,-16.815948486
1747312926.089634,45.657000000,0.000000000,59004.347656250,0.000000000,0.000000000,0.024749637,-86.415779114,0.000000000,-0.084000528,-16.815948486
1747312926.092037,45.659000000,0.000000000,59004.347656250,0.000000000,0.000000000,0.024749637,-86.415771484,0.000000000,-0.084000528,-16.815948486
1747312926.094434,45.662000000,0.000000000,59004.347656250,0.000000000,0.000000000,0.024749637,-86.415763855,0.000000000,-0.084000528,-16.815948486
1747312926.096801,45.664000000,0.000000000,59004.347656250,0.000000000,0.000000000,0.024749637,-86.415756226,0.000000000,-0.084000528,-16.815948486
1747312926.099210,45.667000000,0.000000000,59004.347656250,0.000000000,0.000000000,0.024749637,-86.415748596,0.000000000,-0.084000528,-16.815948486
1747312926.101686,45.669000000,0.000000000,59004.347656250,0.000000000,0.000000000,0.024749637,-86.415740967,0.000000000,-0.084000528,-16.815948486
1747312926.104062,45.671000000,0.000000000,59004.347656250,0.000000000,0.000000000,0.024749637,-86.415733337,0.000000000,-0.084000528,-16.815948486
1747312926.106438,45.674000000,0.000000000,59004.347656250,0.000000000,0.000000000,0.024749637,-86.415725708,0.000000000,-0.084000528,-16.815948486
1747312926.108876,45.676000000,0.000000000,59004.347656250,0.000000000,0.000000000,0.024749637,-86.415710449,0.000000000,-0.084000528,-16.815948486
1747312926.111277,45.679000000,0.000000000,59004.347656250,0.000000000,0.000000000,0.024749637,-86.415702820,0.000000000,-0.084000528,-16.815948486
1747312926.113661,45.681000000,0.000000000,59004.347656250,0.000000000,0.000000000,0.024749637,-86.415695190,0.000000000,-0.084000528,-16.815948486
1747312926.116087,45.683000000,0.000000000,59004.347656250,0.000000000,0.000000000,0.024749637,-86.415687561,0.000000000,-0.084000528,-16.815948486
1747312926.118472,45.686000000,0.000000000,59004.347656250,0.000000000,0.000000000,0.024749637,-86.415679932,0.000000000,-0.084000528,-16.815948486
1747312926.120896,45.688000000,0.000000000,59004.347656250,0.000000000,0.000000000,0.024749637,-86.415672302,0.000000000,-0.084000528,-16.815948486
1747312926.123369,45.691000000,0.000000000,59004.347656250,0.000000000,0.000000000,0.024749637,-86.415664673,0.000000000,-0.084000528,-16.815948486
1747312926.125786,45.693000000,0.000000000,59004.347656250,0.000000000,0.000000000,0.024749637,-86.415657043,0.000000000,-0.084000528,-16.815948486
1747312926.128246,45.695000000,0.000000000,59004.347656250,0.000000000,0.000000000,0.024749637,-86.415641785,0.000000000,-0.084000528,-16.815948486
1747312926.130687,45.698000000,0.000000000,59004.347656250,0.000000000,0.000000000,0.024749637,-86.415634155,0.000000000,-0.084000528,-16.815948486
1747312926.133223,45.700000000,0.000000000,59004.347656250,0.000000000,0.000000000,0.024749637,-86.415626526,0.000000000,-0.084000528,-16.815948486
1747312926.135592,45.703000000,0.000000000,59004.347656250,0.000000000,0.000000000,0.024749637,-86.415618896,0.000000000,-0.084000528,-16.815948486
1747312926.138026,45.705000000,0.000000000,59004.347656250,0.000000000,0.000000000,0.024749637,-86.415611267,0.000000000,-0.084000528,-16.815948486
1747312926.140477,45.708000000,0.000000000,59004.347656250,0.000000000,0.000000000,0.024749637,-86.415603638,0.000000000,-0.084000528,-16.815948486
1747312926.142980,45.710000000,0.000000000,59004.347656250,0.000000000,0.000000000,0.024749637,-86.415596008,0.000000000,-0.084000528,-16.815948486
1747312926.145495,45.713000000,0.000000000,59004.347656250,0.000000000,0.000000000,0.024749637,-86.415580750,0.000000000,-0.084000528,-16.815948486
1747312926.148007,45.715000000,0.000000000,59004.347656250,0.000000000,0.000000000,0.024749637,-86.415573120,0.000000000,-0.084000528,-16.815948486
1747312926.150470,45.718000000,0.000000000,59004.347656250,0.000000000,0.000000000,0.024749637,-86.415565491,0.000000000,-0.084000528,-16.815948486
1747312926.152862,45.720000000,0.000000000,59004.347656250,0.000000000,0.000000000,0.024749637,-86.415557861,0.000000000,-0.084000528,-16.815948486
1747312926.155279,45.723000000,0.000000000,59004.347656250,0.000000000,0.000000000,0.024749637,-86.415550232,0.000000000,-0.084000528,-16.815948486
1747312926.157660,45.725000000,0.000000000,59004.347656250,0.000000000,0.000000000,0.024749637,-86.415542603,0.000000000,-0.084000528,-16.815948486
1747312926.160031,45.727000000,0.000000000,59004.347656250,0.000000000,0.000000000,0.024749637,-86.415534973,0.000000000,-0.084000528,-16.815948486
1747312926.162415,45.730000000,0.000000000,59004.347656250,0.000000000,0.000000000,0.024749637,-86.415527344,0.000000000,-0.084000528,-16.815948486
1747312926.164782,45.732000000,0.000000000,59004.347656250,0.000000000,0.000000000,0.024749637,-86.415512085,0.000000000,-0.084000528,-16.815948486
1747312926.167191,45.734000000,0.000000000,59004.347656250,0.000000000,0.000000000,0.024749637,-86.415504456,0.000000000,-0.084000528,-16.815948486
1747312926.169580,45.737000000,0.000000000,59004.347656250,0.000000000,0.000000000,0.024749637,-86.415496826,0.000000000,-0.084000528,-16.815948486
1747312926.171981,45.739000000,0.000000000,59004.347656250,0.000000000,0.000000000,0.024749637,-86.415489197,0.000000000,-0.084000528,-16.815948486
1747312926.174369,45.742000000,0.000000000,59004.347656250,0.000000000,0.000000000,0.024749637,-86.415481567,0.000000000,-0.084000528,-16.815948486
1747312926.176754,45.744000000,0.000000000,59004.347656250,0.000000000,0.000000000,0.024749637,-86.415473938,0.000000000,-0.084000528,-16.815948486
1747312926.179149,45.746000000,0.000000000,59004.347656250,0.000000000,0.000000000,0.024749637,-86.415466309,0.000000000,-0.084000528,-16.815948486
1747312926.181511,45.749000000,0.000000000,59004.347656250,0.000000000,0.000000000,0.024749637,-86.415458679,0.000000000,-0.084000528,-16.815948486
1747312926.183879,45.751000000,0.000000000,59004.347656250,0.000000000,0.000000000,0.024749637,-86.415443420,0.000000000,-0.084000528,-16.815948486
1747312926.186266,45.754000000,0.000000000,59004.347656250,0.000000000,0.000000000,0.024749637,-86.415435791,0.000000000,-0.084000528,-16.815948486
1747312926.188665,45.756000000,0.000000000,59004.347656250,0.000000000,0.000000000,0.024749637,-86.415428162,0.000000000,-0.084000528,-16.815948486
1747312926.191046,45.758000000,0.000000000,59004.347656250,0.000000000,0.000000000,0.024749637,-86.415420532,0.000000000,-0.084000528,-16.815948486
1747312926.193513,45.761000000,0.000000000,59004.347656250,0.000000000,0.000000000,0.024749637,-86.415412903,0.000000000,-0.084000528,-16.815948486
1747312926.195966,45.763000000,0.000000000,59004.347656250,0.000000000,0.000000000,0.024749637,-86.415405273,0.000000000,-0.084000528,-16.815948486
1747312926.198444,45.766000000,0.000000000,59004.347656250,0.000000000,0.000000000,0.024749637,-86.415397644,0.000000000,-0.084000528,-16.815948486
1747312926.200899,45.768000000,0.000000000,59004.347656250,0.000000000,0.000000000,0.024749637,-86.415382385,0.000000000,-0.084000528,-16.815948486
1747312926.203361,45.771000000,0.000000000,59004.347656250,0.000000000,0.000000000,0.024749637,-86.415374756,0.000000000,-0.084000528,-16.815948486
1747312926.205829,45.773000000,0.000000000,59004.347656250,0.000000000,0.000000000,0.024749637,-86.415367126,0.000000000,-0.084000528,-16.815948486
1747312926.208263,45.776000000,0.000000000,59004.347656250,0.000000000,0.000000000,0.024749637,-86.415359497,0.000000000,-0.084000528,-16.815948486
1747312926.210642,45.778000000,0.000000000,59004.347656250,0.000000000,0.000000000,0.024749637,-86.415351868,0.000000000,-0.084000528,-16.815948486
1747312926.213012,45.780000000,0.000000000,59004.347656250,0.000000000,0.000000000,0.024749637,-86.415344238,0.000000000,-0.084000528,-16.815948486
1747312926.215426,45.783000000,0.000000000,59004.347656250,0.000000000,0.000000000,0.024749637,-86.415336609,0.000000000,-0.084000528,-16.815948486
1747312926.217797,45.785000000,0.000000000,59004.347656250,0.000000000,0.000000000,0.024749637,-86.415328979,0.000000000,-0.084000528,-16.815948486
1747312926.220163,45.787000000,0.000000000,59004.347656250,0.000000000,0.000000000,0.024749637,-86.415313721,0.000000000,-0.084000528,-16.815948486
1747312926.222546,45.790000000,0.000000000,59004.347656250,0.000000000,0.000000000,0.024749637,-86.415306091,0.000000000,-0.084000528,-16.815948486
1747312926.224922,45.792000000,0.000000000,59004.347656250,0.000000000,0.000000000,0.024749637,-86.415298462,0.000000000,-0.084000528,-16.815948486
1747312926.227336,45.795000000,0.000000000,59004.347656250,0.000000000,0.000000000,0.024749637,-86.415290833,0.000000000,-0.084000528,-16.815948486
1747312926.229701,45.797000000,0.000000000,59004.347656250,0.000000000,0.000000000,0.024749637,-86.415283203,0.000000000,-0.084000528,-16.815948486
1747312926.232078,45.799000000,0.000000000,59004.347656250,0.000000000,0.000000000,0.024749637,-86.415275574,0.000000000,-0.084000528,-16.815948486
1747312926.234472,45.802000000,0.000000000,59004.347656250,0.000000000,0.000000000,0.024749637,-86.415267944,0.000000000,-0.084000528,-16.815948486
1747312926.236862,45.804000000,0.000000000,59004.347656250,0.000000000,0.000000000,0.024749637,-86.415252686,0.000000000,-0.084000528,-16.815948486
1747312926.239250,45.807000000,0.000000000,59004.347656250,0.000000000,0.000000000,0.024749637,-86.415245056,0.000000000,-0.084000528,-16.815948486
1747312926.241629,45.809000000,0.000000000,59004.347656250,0.000000000,0.000000000,0.024749637,-86.415237427,0.000000000,-0.084000528,-16.815948486
1747312926.243999,45.811000000,0.000000000,59004.347656250,0.000000000,0.000000000,0.024749637,-86.415229797,0.000000000,-0.084000528,-16.815948486
1747312926.246389,45.814000000,0.000000000,59004.347656250,0.000000000,0.000000000,0.024749637,-86.415222168,0.000000000,-0.084000528,-16.815948486
1747312926.248836,45.816000000,0.000000000,59004.347656250,0.000000000,0.000000000,0.024749637,-86.415214539,0.000000000,-0.084000528,-16.815948486
1747312926.251284,45.819000000,0.000000000,59004.347656250,0.000000000,0.000000000,0.024749637,-86.415206909,0.000000000,-0.084000528,-16.815948486
1747312926.253685,45.821000000,0.000000000,59004.347656250,0.000000000,0.000000000,0.024749637,-86.415199280,0.000000000,-0.084000528,-16.815948486
1747312926.256059,45.823000000,0.000000000,59004.347656250,0.000000000,0.000000000,0.024749637,-86.415184021,0.000000000,-0.084000528,-16.815948486
1747312926.258523,45.826000000,0.000000000,59004.347656250,0.000000000,0.000000000,0.024749637,-86.415176392,0.000000000,-0.084000528,-16.815948486
1747312926.260953,45.828000000,0.000000000,59004.347656250,0.000000000,0.000000000,0.024749637,-86.415168762,0.000000000,-0.084000528,-16.815948486
1747312926.263329,45.831000000,0.000000000,59004.347656250,0.000000000,0.000000000,0.024749637,-86.415161133,0.000000000,-0.084000528,-16.815948486
1747312926.265676,45.833000000,0.000000000,59004.347656250,0.000000000,0.000000000,0.024749637,-86.415153503,0.000000000,-0.084000528,-16.815948486
1747312926.268048,45.835000000,0.000000000,59004.347656250,0.000000000,0.000000000,0.024749637,-86.415145874,0.000000000,-0.084000528,-16.815948486
1747312926.270419,45.838000000,0.000000000,59004.347656250,0.000000000,0.000000000,0.024749637,-86.415138245,0.000000000,-0.084000528,-16.815948486
1747312926.272806,45.840000000,0.000000000,59004.347656250,0.000000000,0.000000000,0.024749637,-86.415130615,0.000000000,-0.084000528,-16.815948486
1747312926.275272,45.843000000,0.000000000,59004.347656250,0.000000000,0.000000000,0.024749637,-86.415115356,0.000000000,-0.084000528,-16.815948486
1747312926.277749,45.845000000,0.000000000,59004.347656250,0.000000000,0.000000000,0.024749637,-86.415107727,0.000000000,-0.084000528,-16.815948486
1747312926.280110,45.847000000,0.000000000,59004.347656250,0.000000000,0.000000000,0.024749637,-86.415100098,0.000000000,-0.084000528,-16.815948486
1747312926.282502,45.850000000,0.000000000,59004.347656250,0.000000000,0.000000000,0.024749637,-86.415092468,0.000000000,-0.084000528,-16.815948486
1747312926.284884,45.852000000,0.000000000,59004.347656250,0.000000000,0.000000000,0.024749637,-86.415084839,0.000000000,-0.084000528,-16.815948486
1747312926.287264,45.855000000,0.000000000,59004.347656250,0.000000000,0.000000000,0.024749637,-86.415077209,0.000000000,-0.084000528,-16.815948486
1747312926.289647,45.857000000,0.000000000,59004.347656250,0.000000000,0.000000000,0.024749637,-86.415069580,0.000000000,-0.084000528,-16.815948486
1747312926.292032,45.859000000,0.000000000,59004.347656250,0.000000000,0.000000000,0.024749637,-86.415054321,0.000000000,-0.084000528,-16.815948486
1747312926.294396,45.862000000,0.000000000,59004.347656250,0.000000000,0.000000000,0.024749637,-86.415046692,0.000000000,-0.084000528,-16.815948486
1747312926.296812,45.864000000,0.000000000,59004.347656250,0.000000000,0.000000000,0.024749637,-86.415039063,0.000000000,-0.084000528,-16.815948486
1747312926.299192,45.866000000,0.000000000,59004.347656250,0.000000000,0.000000000,0.024749637,-86.415031433,0.000000000,-0.084000528,-16.815948486
1747312926.301567,45.869000000,0.000000000,59004.347656250,0.000000000,0.000000000,0.024749637,-86.415023804,0.000000000,-0.084000528,-16.815948486
1747312926.303956,45.871000000,0.000000000,59004.347656250,0.000000000,0.000000000,0.024749637,-86.415016174,0.000000000,-0.084000528,-16.815948486
1747312926.306440,45.874000000,0.000000000,59004.347656250,0.000000000,0.000000000,0.024749637,-86.415008545,0.000000000,-0.084000528,-16.815948486
1747312926.308942,45.876000000,0.000000000,59004.347656250,0.000000000,0.000000000,0.024749637,-86.415000916,0.000000000,-0.084000528,-16.815948486
1747312926.311422,45.879000000,0.000000000,59004.347656250,0.000000000,0.000000000,0.024749637,-86.414985657,0.000000000,-0.084000528,-16.815948486
1747312926.313914,45.881000000,0.000000000,59004.347656250,0.000000000,0.000000000,0.024749637,-86.414978027,0.000000000,-0.084000528,-16.815948486
1747312926.316397,45.884000000,0.000000000,59004.347656250,0.000000000,0.000000000,0.024749637,-86.414970398,0.000000000,-0.084000528,-16.815948486
1747312926.318909,45.886000000,0.000000000,59004.347656250,0.000000000,0.000000000,0.024749637,-86.414962769,0.000000000,-0.084000528,-16.815948486
1747312926.321453,45.889000000,0.000000000,59004.347656250,0.000000000,0.000000000,0.024749637,-86.414955139,0.000000000,-0.084000528,-16.815948486
1747312926.323918,45.891000000,0.000000000,59004.347656250,0.000000000,0.000000000,0.024749637,-86.414947510,0.000000000,-0.084000528,-16.815948486
1747312926.326443,45.894000000,0.000000000,59004.347656250,0.000000000,0.000000000,0.024749637,-86.414939880,0.000000000,-0.084000528,-16.815948486
1747312926.328958,45.896000000,0.000000000,59004.347656250,0.000000000,0.000000000,0.024749637,-86.414932251,0.000000000,-0.084000528,-16.815948486
1747312926.331468,45.899000000,0.000000000,59004.347656250,0.000000000,0.000000000,0.024749637,-86.414916992,0.000000000,-0.084000528,-16.815948486
1747312926.333997,45.901000000,0.000000000,59004.347656250,0.000000000,0.000000000,0.024749637,-86.414909363,0.000000000,-0.084000528,-16.815948486
1747312926.336511,45.904000000,0.000000000,59004.347656250,0.000000000,0.000000000,0.024749637,-86.414901733,0.000000000,-0.084000528,-16.815948486
1747312926.338937,45.906000000,0.000000000,59004.347656250,0.000000000,0.000000000,0.024749637,-86.414894104,0.000000000,-0.084000528,-16.815948486
1747312926.341487,45.909000000,0.000000000,59004.347656250,0.000000000,0.000000000,0.024749637,-86.414886475,0.000000000,-0.084000528,-16.815948486
1747312926.343958,45.911000000,0.000000000,59004.347656250,0.000000000,0.000000000,0.024749637,-86.414878845,0.000000000,-0.084000528,-16.815948486
1747312926.346419,45.914000000,0.000000000,59004.347656250,0.000000000,0.000000000,0.024749637,-86.414871216,0.000000000,-0.084000528,-16.815948486
1747312926.348858,45.916000000,0.000000000,59004.347656250,0.000000000,0.000000000,0.024749637,-86.414855957,0.000000000,-0.084000528,-16.815948486
1747312926.351306,45.919000000,0.000000000,59004.347656250,0.000000000,0.000000000,0.024749637,-86.414848328,0.000000000,-0.084000528,-16.815948486
1747312926.353743,45.921000000,0.000000000,59004.347656250,0.000000000,0.000000000,0.024749637,-86.414840698,0.000000000,-0.084000528,-16.815948486
1747312926.356149,45.923000000,0.000000000,59004.347656250,0.000000000,0.000000000,0.024749637,-86.414833069,0.000000000,-0.084000528,-16.815948486
1747312926.358538,45.926000000,0.000000000,59004.347656250,0.000000000,0.000000000,0.024749637,-86.414825439,0.000000000,-0.084000528,-16.815948486
1747312926.360921,45.928000000,0.000000000,59004.347656250,0.000000000,0.000000000,0.024749637,-86.414817810,0.000000000,-0.084000528,-16.815948486
1747312926.363308,45.931000000,0.000000000,59004.347656250,0.000000000,0.000000000,0.024749637,-86.414810181,0.000000000,-0.084000528,-16.815948486
1747312926.365731,45.933000000,0.000000000,59004.347656250,0.000000000,0.000000000,0.024749637,-86.414802551,0.000000000,-0.084000528,-16.815948486
1747312926.368096,45.935000000,0.000000000,59004.347656250,0.000000000,0.000000000,0.024749637,-86.414787292,0.000000000,-0.084000528,-16.815948486
1747312926.370540,45.938000000,0.000000000,59004.347656250,0.000000000,0.000000000,0.024749637,-86.414779663,0.000000000,-0.084000528,-16.815948486
1747312926.372980,45.940000000,0.000000000,59004.347656250,0.000000000,0.000000000,0.024749637,-86.414772034,0.000000000,-0.084000528,-16.815948486
1747312926.375590,45.943000000,0.000000000,59004.347656250,0.000000000,0.000000000,0.024749637,-86.414764404,0.000000000,-0.084000528,-16.815948486
1747312926.378057,45.945000000,0.000000000,59004.347656250,0.000000000,0.000000000,0.024749637,-86.414756775,0.000000000,-0.084000528,-16.815948486
1747312926.380513,45.948000000,0.000000000,59004.347656250,0.000000000,0.000000000,0.024749637,-86.414749146,0.000000000,-0.084000528,-16.815948486
1747312926.382855,45.950000000,0.000000000,59004.347656250,0.000000000,0.000000000,0.024749637,-86.414741516,0.000000000,-0.084000528,-16.815948486
1747312926.385262,45.953000000,0.000000000,59004.347656250,0.000000000,0.000000000,0.024749637,-86.414726257,0.000000000,-0.084000528,-16.815948486
1747312926.387675,45.955000000,0.000000000,59004.347656250,0.000000000,0.000000000,0.024749637,-86.414718628,0.000000000,-0.084000528,-16.815948486
1747312926.390088,45.957000000,0.000000000,59004.347656250,0.000000000,0.000000000,0.024749637,-86.414710999,0.000000000,-0.084000528,-16.815948486
1747312926.392489,45.960000000,0.000000000,59004.347656250,0.000000000,0.000000000,0.024749637,-86.414703369,0.000000000,-0.084000528,-16.815948486
1747312926.394863,45.962000000,0.000000000,59004.347656250,0.000000000,0.000000000,0.024749637,-86.414695740,0.000000000,-0.084000528,-16.815948486
1747312926.397234,45.965000000,0.000000000,59004.347656250,0.000000000,0.000000000,0.024749637,-86.414688110,0.000000000,-0.084000528,-16.815948486
1747312926.399623,45.967000000,0.000000000,59004.347656250,0.000000000,0.000000000,0.024749637,-86.414680481,0.000000000,-0.084000528,-16.815948486
1747312926.402006,45.969000000,0.000000000,59004.347656250,0.000000000,0.000000000,0.024749637,-86.414672852,0.000000000,-0.084000528,-16.815948486
1747312926.404465,45.972000000,0.000000000,59004.347656250,0.000000000,0.000000000,0.024749637,-86.414657593,0.000000000,-0.084000528,-16.815948486
1747312926.406912,45.974000000,0.000000000,59004.347656250,0.000000000,0.000000000,0.024749637,-86.414649963,0.000000000,-0.084000528,-16.815948486
1747312926.409350,45.977000000,0.000000000,59004.347656250,0.000000000,0.000000000,0.024749637,-86.414642334,0.000000000,-0.084000528,-16.815948486
1747312926.411845,45.979000000,0.000000000,59004.347656250,0.000000000,0.000000000,0.024749637,-86.414634705,0.000000000,-0.084000528,-16.815948486
1747312926.414312,45.982000000,0.000000000,59004.347656250,0.000000000,0.000000000,0.024749637,-86.414627075,0.000000000,-0.084000528,-16.815948486
1747312926.416756,45.984000000,0.000000000,59004.347656250,0.000000000,0.000000000,0.024749637,-86.414619446,0.000000000,-0.084000528,-16.815948486
1747312926.419277,45.986000000,0.000000000,59004.347656250,0.000000000,0.000000000,0.024749637,-86.414611816,0.000000000,-0.084000528,-16.815948486
1747312926.421715,45.989000000,0.000000000,59004.347656250,0.000000000,0.000000000,0.024749637,-86.414604187,0.000000000,-0.084000528,-16.815948486
1747312926.424104,45.991000000,0.000000000,59004.347656250,0.000000000,0.000000000,0.024749637,-86.414588928,0.000000000,-0.084000528,-16.815948486
1747312926.426502,45.994000000,0.000000000,59004.347656250,0.000000000,0.000000000,0.024749637,-86.414581299,0.000000000,-0.084000528,-16.815948486
1747312926.428864,45.996000000,0.000000000,59004.347656250,0.000000000,0.000000000,0.024749637,-86.414573669,0.000000000,-0.084000528,-16.815948486
1747312926.431237,45.999000000,0.000000000,59004.347656250,0.000000000,0.000000000,0.024749637,-86.414566040,0.000000000,-0.084000528,-16.815948486
1747312926.433619,46.001000000,0.000000000,59004.347656250,0.000000000,0.000000000,0.024749637,-86.414558411,0.000000000,-0.084000528,-16.815948486
1747312926.435989,46.003000000,0.000000000,59004.347656250,0.000000000,0.000000000,0.024749637,-86.414550781,0.000000000,-0.084000528,-16.815948486
1747312926.438401,46.006000000,0.000000000,59004.347656250,0.000000000,0.000000000,0.024749637,-86.414543152,0.000000000,-0.084000528,-16.815948486
1747312926.440903,46.008000000,0.000000000,59004.347656250,0.000000000,0.000000000,0.024749637,-86.414527893,0.000000000,-0.084000528,-16.815948486
1747312926.443346,46.011000000,0.000000000,59004.347656250,0.000000000,0.000000000,0.024749637,-86.414520264,0.000000000,-0.084000528,-16.815948486
1747312926.445765,46.013000000,0.000000000,59004.347656250,0.000000000,0.000000000,0.024749637,-86.414512634,0.000000000,-0.084000528,-16.815948486
1747312926.448237,46.015000000,0.000000000,59004.347656250,0.000000000,0.000000000,0.024749637,-86.414505005,0.000000000,-0.084000528,-16.815948486
1747312926.450710,46.018000000,0.000000000,59004.347656250,0.000000000,0.000000000,0.024749637,-86.414497375,0.000000000,-0.084000528,-16.815948486
1747312926.453214,46.020000000,0.000000000,59004.347656250,0.000000000,0.000000000,0.024749637,-86.414489746,0.000000000,-0.084000528,-16.815948486
1747312926.455765,46.023000000,0.000000000,59004.347656250,0.000000000,0.000000000,0.024749637,-86.414482117,0.000000000,-0.084000528,-16.815948486
1747312926.458260,46.025000000,0.000000000,59004.347656250,0.000000000,0.000000000,0.024749637,-86.414474487,0.000000000,-0.084000528,-16.815948486
1747312926.460870,46.028000000,0.000000000,59004.347656250,0.000000000,0.000000000,0.024749637,-86.414459229,0.000000000,-0.084000528,-16.815948486
1747312926.463399,46.031000000,0.000000000,59004.347656250,0.000000000,0.000000000,0.024749637,-86.414451599,0.000000000,-0.084000528,-16.815948486
1747312926.465901,46.033000000,0.000000000,59004.347656250,0.000000000,0.000000000,0.024749637,-86.414443970,0.000000000,-0.084000528,-16.815948486
1747312926.468382,46.036000000,0.000000000,59004.347656250,0.000000000,0.000000000,0.024749637,-86.414436340,0.000000000,-0.084000528,-16.815948486
1747312926.470820,46.038000000,0.000000000,59004.347656250,0.000000000,0.000000000,0.024749637,-86.414428711,0.000000000,-0.084000528,-16.815948486
1747312926.473245,46.041000000,0.000000000,59004.347656250,0.000000000,0.000000000,0.024749637,-86.414421082,0.000000000,-0.084000528,-16.815948486
1747312926.475737,46.043000000,0.000000000,59004.347656250,0.000000000,0.000000000,0.024749637,-86.414413452,0.000000000,-0.084000528,-16.815948486
1747312926.478211,46.045000000,0.000000000,59004.347656250,0.000000000,0.000000000,0.024749637,-86.414405823,0.000000000,-0.084000528,-16.815948486
1747312926.480683,46.048000000,0.000000000,59004.347656250,0.000000000,0.000000000,0.024749637,-86.414390564,0.000000000,-0.084000528,-16.815948486
1747312926.483151,46.050000000,0.000000000,59004.347656250,0.000000000,0.000000000,0.024749637,-86.414382935,0.000000000,-0.084000528,-16.815948486
1747312926.485621,46.053000000,0.000000000,59004.347656250,0.000000000,0.000000000,0.024749637,-86.414375305,0.000000000,-0.084000528,-16.815948486
1747312926.488087,46.055000000,0.000000000,59004.347656250,0.000000000,0.000000000,0.024749637,-86.414367676,0.000000000,-0.084000528,-16.815948486
1747312926.490621,46.058000000,0.000000000,59004.347656250,0.000000000,0.000000000,0.024749637,-86.414360046,0.000000000,-0.084000528,-16.815948486
1747312926.493069,46.060000000,0.000000000,59004.347656250,0.000000000,0.000000000,0.024749637,-86.414352417,0.000000000,-0.084000528,-16.815948486
1747312926.495493,46.063000000,0.000000000,59004.347656250,0.000000000,0.000000000,0.024749637,-86.414344788,0.000000000,-0.084000528,-16.815948486
1747312926.497960,46.065000000,0.000000000,59004.347656250,0.000000000,0.000000000,0.024749637,-86.414329529,0.000000000,-0.084000528,-16.815948486
1747312926.500439,46.068000000,0.000000000,59004.347656250,0.000000000,0.000000000,0.024749637,-86.414321899,0.000000000,-0.084000528,-16.815948486
1747312926.502965,46.070000000,0.000000000,59004.347656250,0.000000000,0.000000000,0.024749637,-86.414314270,0.000000000,-0.084000528,-16.815948486
1747312926.505492,46.073000000,0.000000000,59004.347656250,0.000000000,0.000000000,0.024749637,-86.414306641,0.000000000,-0.084000528,-16.815948486
1747312926.507943,46.075000000,0.000000000,59004.347656250,0.000000000,0.000000000,0.024749637,-86.414299011,0.000000000,-0.084000528,-16.815948486
1747312926.510406,46.078000000,0.000000000,59004.347656250,0.000000000,0.000000000,0.024749637,-86.414291382,0.000000000,-0.084000528,-16.815948486
1747312926.512824,46.080000000,0.000000000,59004.347656250,0.000000000,0.000000000,0.024749637,-86.414283752,0.000000000,-0.084000528,-16.815948486
1747312926.515294,46.083000000,0.000000000,59004.347656250,0.000000000,0.000000000,0.024749637,-86.414276123,0.000000000,-0.084000528,-16.815948486
1747312926.517764,46.085000000,0.000000000,59004.347656250,0.000000000,0.000000000,0.024749637,-86.414260864,0.000000000,-0.084000528,-16.815948486
1747312926.520324,46.088000000,0.000000000,59004.347656250,0.000000000,0.000000000,0.024749637,-86.414253235,0.000000000,-0.084000528,-16.815948486
1747312926.522757,46.090000000,0.000000000,59004.347656250,0.000000000,0.000000000,0.024749637,-86.414245605,0.000000000,-0.084000528,-16.815948486
1747312926.525200,46.092000000,0.000000000,59004.347656250,0.000000000,0.000000000,0.024749637,-86.414237976,0.000000000,-0.084000528,-16.815948486
1747312926.527635,46.095000000,0.000000000,59004.347656250,0.000000000,0.000000000,0.024749637,-86.414230347,0.000000000,-0.084000528,-16.815948486
1747312926.529993,46.097000000,0.000000000,59004.347656250,0.000000000,0.000000000,0.024749637,-86.414222717,0.000000000,-0.084000528,-16.815948486
1747312926.532375,46.100000000,0.000000000,59004.347656250,0.000000000,0.000000000,0.024749637,-86.414215088,0.000000000,-0.084000528,-16.815948486
1747312926.534769,46.102000000,0.000000000,59004.347656250,0.000000000,0.000000000,0.024749637,-86.414199829,0.000000000,-0.084000528,-16.815948486
1747312926.537177,46.104000000,0.000000000,59004.347656250,0.000000000,0.000000000,0.024749637,-86.414192200,0.000000000,-0.084000528,-16.815948486
1747312926.539628,46.107000000,0.000000000,59004.347656250,0.000000000,0.000000000,0.024749637,-86.414184570,0.000000000,-0.084000528,-16.815948486
1747312926.542165,46.109000000,0.000000000,59004.347656250,0.000000000,0.000000000,0.024749637,-86.414176941,0.000000000,-0.084000528,-16.815948486
1747312926.544653,46.112000000,0.000000000,59004.347656250,0.000000000,0.000000000,0.024749637,-86.414169312,0.000000000,-0.084000528,-16.815948486
1747312926.547241,46.114000000,0.000000000,59004.347656250,0.000000000,0.000000000,0.024749637,-86.414161682,0.000000000,-0.084000528,-16.815948486
1747312926.549814,46.117000000,0.000000000,59004.347656250,0.000000000,0.000000000,0.024749637,-86.414154053,0.000000000,-0.084000528,-16.815948486
1747312926.552387,46.120000000,0.000000000,59004.347656250,0.000000000,0.000000000,0.024749637,-86.414146423,0.000000000,-0.084000528,-16.815948486
1747312926.554957,46.122000000,0.000000000,59004.347656250,0.000000000,0.000000000,0.024749637,-86.414131165,0.000000000,-0.084000528,-16.815948486
1747312926.557516,46.125000000,0.000000000,59004.347656250,0.000000000,0.000000000,0.024749637,-86.414123535,0.000000000,-0.084000528,-16.815948486
1747312926.559937,46.127000000,0.000000000,59004.347656250,0.000000000,0.000000000,0.024749637,-86.414115906,0.000000000,-0.084000528,-16.815948486
1747312926.562401,46.130000000,0.000000000,59004.347656250,0.000000000,0.000000000,0.024749637,-86.414108276,0.000000000,-0.084000528,-16.815948486
1747312926.564869,46.132000000,0.000000000,59004.347656250,0.000000000,0.000000000,0.024749637,-86.414100647,0.000000000,-0.084000528,-16.815948486
1747312926.567382,46.135000000,0.000000000,59004.347656250,0.000000000,0.000000000,0.024749637,-86.414093018,0.000000000,-0.084000528,-16.815948486
1747312926.569842,46.137000000,0.000000000,59004.347656250,0.000000000,0.000000000,0.024749637,-86.414085388,0.000000000,-0.084000528,-16.815948486
1747312926.572346,46.140000000,0.000000000,59004.347656250,0.000000000,0.000000000,0.024749637,-86.414077759,0.000000000,-0.084000528,-16.815948486
1747312926.574901,46.142000000,0.000000000,59004.347656250,0.000000000,0.000000000,0.024749637,-86.414062500,0.000000000,-0.084000528,-16.815948486
1747312926.577430,46.145000000,0.000000000,59004.347656250,0.000000000,0.000000000,0.024749637,-86.414054871,0.000000000,-0.084000528,-16.815948486
1747312926.579962,46.147000000,0.000000000,59004.347656250,0.000000000,0.000000000,0.024749637,-86.414047241,0.000000000,-0.084000528,-16.815948486
1747312926.582512,46.150000000,0.000000000,59004.347656250,0.000000000,0.000000000,0.024749637,-86.414039612,0.000000000,-0.084000528,-16.815948486
1747312926.585061,46.152000000,0.000000000,59004.347656250,0.000000000,0.000000000,0.024749637,-86.414031982,0.000000000,-0.084000528,-16.815948486
1747312926.587702,46.155000000,0.000000000,59004.347656250,0.000000000,0.000000000,0.024749637,-86.414024353,0.000000000,-0.084000528,-16.815948486
1747312926.590144,46.157000000,0.000000000,59004.347656250,0.000000000,0.000000000,0.024749637,-86.414016724,0.000000000,-0.084000528,-16.815948486
1747312926.592702,46.160000000,0.000000000,59004.347656250,0.000000000,0.000000000,0.024749637,-86.414001465,0.000000000,-0.084000528,-16.815948486
1747312926.595181,46.162000000,0.000000000,59004.347656250,0.000000000,0.000000000,0.024749637,-86.413993835,0.000000000,-0.084000528,-16.815948486
1747312926.597632,46.165000000,0.000000000,59004.347656250,0.000000000,0.000000000,0.024749637,-86.413986206,0.000000000,-0.084000528,-16.815948486
1747312926.600157,46.167000000,0.000000000,59004.347656250,0.000000000,0.000000000,0.024749637,-86.413978577,0.000000000,-0.084000528,-16.815948486
1747312926.602627,46.170000000,0.000000000,59004.347656250,0.000000000,0.000000000,0.024749637,-86.413970947,0.000000000,-0.084000528,-16.815948486
1747312926.605087,46.172000000,0.000000000,59004.347656250,0.000000000,0.000000000,0.024749637,-86.413963318,0.000000000,-0.084000528,-16.815948486
1747312926.607502,46.175000000,0.000000000,59004.347656250,0.000000000,0.000000000,0.024749637,-86.413955688,0.000000000,-0.084000528,-16.815948486
1747312926.609902,46.177000000,0.000000000,59004.347656250,0.000000000,0.000000000,0.024749637,-86.413948059,0.000000000,-0.084000528,-16.815948486
1747312926.612273,46.180000000,0.000000000,59004.347656250,0.000000000,0.000000000,0.024749637,-86.413932800,0.000000000,-0.084000528,-16.815948486
1747312926.614640,46.182000000,0.000000000,59004.347656250,0.000000000,0.000000000,0.024749637,-86.413925171,0.000000000,-0.084000528,-16.815948486
1747312926.617085,46.184000000,0.000000000,59004.347656250,0.000000000,0.000000000,0.024749637,-86.413917542,0.000000000,-0.084000528,-16.815948486
1747312926.619505,46.187000000,0.000000000,59004.347656250,0.000000000,0.000000000,0.024749637,-86.413909912,0.000000000,-0.084000528,-16.815948486
1747312926.621933,46.189000000,0.000000000,59004.347656250,0.000000000,0.000000000,0.024749637,-86.413902283,0.000000000,-0.084000528,-16.815948486
1747312926.624380,46.192000000,0.000000000,59004.347656250,0.000000000,0.000000000,0.024749637,-86.413894653,0.000000000,-0.084000528,-16.815948486
1747312926.626799,46.194000000,0.000000000,59004.347656250,0.000000000,0.000000000,0.024749637,-86.413887024,0.000000000,-0.084000528,-16.815948486
1747312926.629179,46.196000000,0.000000000,59004.347656250,0.000000000,0.000000000,0.024749637,-86.413871765,0.000000000,-0.084000528,-16.815948486
1747312926.631548,46.199000000,0.000000000,59004.347656250,0.000000000,0.000000000,0.024749637,-86.413864136,0.000000000,-0.084000528,-16.815948486
1747312926.633924,46.201000000,0.000000000,59004.347656250,0.000000000,0.000000000,0.024749637,-86.413856506,0.000000000,-0.084000528,-16.815948486
1747312926.636330,46.204000000,0.000000000,59004.347656250,0.000000000,0.000000000,0.024749637,-86.413848877,0.000000000,-0.084000528,-16.815948486
1747312926.638803,46.206000000,0.000000000,59004.347656250,0.000000000,0.000000000,0.024749637,-86.413841248,0.000000000,-0.084000528,-16.815948486
1747312926.641214,46.208000000,0.000000000,59004.347656250,0.000000000,0.000000000,0.024749637,-86.413833618,0.000000000,-0.084000528,-16.815948486
1747312926.643623,46.211000000,0.000000000,59004.347656250,0.000000000,0.000000000,0.024749637,-86.413825989,0.000000000,-0.084000528,-16.815948486
1747312926.645977,46.213000000,0.000000000,59004.347656250,0.000000000,0.000000000,0.024749637,-86.413818359,0.000000000,-0.084000528,-16.815948486
1747312926.648376,46.216000000,0.000000000,59004.347656250,0.000000000,0.000000000,0.024749637,-86.413803101,0.000000000,-0.084000528,-16.815948486
1747312926.650764,46.218000000,0.000000000,59004.347656250,0.000000000,0.000000000,0.024749637,-86.413795471,0.000000000,-0.084000528,-16.815948486
1747312926.653145,46.220000000,0.000000000,59004.347656250,0.000000000,0.000000000,0.024749637,-86.413787842,0.000000000,-0.084000528,-16.815948486
1747312926.655495,46.223000000,0.000000000,59004.347656250,0.000000000,0.000000000,0.024749637,-86.413780212,0.000000000,-0.084000528,-16.815948486
1747312926.657878,46.225000000,0.000000000,59004.347656250,0.000000000,0.000000000,0.024749637,-86.413772583,0.000000000,-0.084000528,-16.815948486
1747312926.660254,46.228000000,0.000000000,59004.347656250,0.000000000,0.000000000,0.024749637,-86.413764954,0.000000000,-0.084000528,-16.815948486
1747312926.662682,46.230000000,0.000000000,59004.347656250,0.000000000,0.000000000,0.024749637,-86.413757324,0.000000000,-0.084000528,-16.815948486
1747312926.665070,46.232000000,0.000000000,59004.347656250,0.000000000,0.000000000,0.024749637,-86.413749695,0.000000000,-0.084000528,-16.815948486
1747312926.667449,46.235000000,0.000000000,59004.347656250,0.000000000,0.000000000,0.024749637,-86.413734436,0.000000000,-0.084000528,-16.815948486
1747312926.669836,46.237000000,0.000000000,59004.347656250,0.000000000,0.000000000,0.024749637,-86.413726807,0.000000000,-0.084000528,-16.815948486
1747312926.672277,46.240000000,0.000000000,59004.347656250,0.000000000,0.000000000,0.024749637,-86.413719177,0.000000000,-0.084000528,-16.815948486
1747312926.674782,46.242000000,0.000000000,59004.347656250,0.000000000,0.000000000,0.024749637,-86.413711548,0.000000000,-0.084000528,-16.815948486
1747312926.677245,46.245000000,0.000000000,59004.347656250,0.000000000,0.000000000,0.024749637,-86.413703918,0.000000000,-0.084000528,-16.815948486
1747312926.679736,46.247000000,0.000000000,59004.347656250,0.000000000,0.000000000,0.024749637,-86.413696289,0.000000000,-0.084000528,-16.815948486
1747312926.682142,46.249000000,0.000000000,59004.347656250,0.000000000,0.000000000,0.024749637,-86.413688660,0.000000000,-0.084000528,-16.815948486
1747312926.684479,46.252000000,0.000000000,59004.347656250,0.000000000,0.000000000,0.024749637,-86.413673401,0.000000000,-0.084000528,-16.815948486
1747312926.686853,46.254000000,0.000000000,59004.347656250,0.000000000,0.000000000,0.024749637,-86.413665771,0.000000000,-0.084000528,-16.815948486
1747312926.689230,46.257000000,0.000000000,59004.347656250,0.000000000,0.000000000,0.024749637,-86.413658142,0.000000000,-0.084000528,-16.815948486
1747312926.691628,46.259000000,0.000000000,59004.347656250,0.000000000,0.000000000,0.024749637,-86.413650513,0.000000000,-0.084000528,-16.815948486
1747312926.694005,46.261000000,0.000000000,59004.347656250,0.000000000,0.000000000,0.024749637,-86.413642883,0.000000000,-0.084000528,-16.815948486
1747312926.696356,46.264000000,0.000000000,59004.347656250,0.000000000,0.000000000,0.024749637,-86.413635254,0.000000000,-0.084000528,-16.815948486
1747312926.698722,46.266000000,0.000000000,59004.347656250,0.000000000,0.000000000,0.024749637,-86.413627625,0.000000000,-0.084000528,-16.815948486
1747312926.701090,46.268000000,0.000000000,59004.347656250,0.000000000,0.000000000,0.024749637,-86.413619995,0.000000000,-0.084000528,-16.815948486
1747312926.703481,46.271000000,0.000000000,59004.347656250,0.000000000,0.000000000,0.024749637,-86.413604736,0.000000000,-0.084000528,-16.815948486
1747312926.705858,46.273000000,0.000000000,59004.347656250,0.000000000,0.000000000,0.024749637,-86.413597107,0.000000000,-0.084000528,-16.815948486
1747312926.708229,46.276000000,0.000000000,59004.347656250,0.000000000,0.000000000,0.024749637,-86.413589478,0.000000000,-0.084000528,-16.815948486
1747312926.710619,46.278000000,0.000000000,59004.347656250,0.000000000,0.000000000,0.024749637,-86.413581848,0.000000000,-0.084000528,-16.815948486
1747312926.712971,46.280000000,0.000000000,59004.347656250,0.000000000,0.000000000,0.024749637,-86.413574219,0.000000000,-0.084000528,-16.815948486
1747312926.715416,46.283000000,0.000000000,59004.347656250,0.000000000,0.000000000,0.024749637,-86.413566589,0.000000000,-0.084000528,-16.815948486
1747312926.717799,46.285000000,0.000000000,59004.347656250,0.000000000,0.000000000,0.024749637,-86.413558960,0.000000000,-0.084000528,-16.815948486
1747312926.720186,46.287000000,0.000000000,59004.347656250,0.000000000,0.000000000,0.024749637,-86.413551331,0.000000000,-0.084000528,-16.815948486
1747312926.722571,46.290000000,0.000000000,59004.347656250,0.000000000,0.000000000,0.024749637,-86.413536072,0.000000000,-0.084000528,-16.815948486
1747312926.724937,46.292000000,0.000000000,59004.347656250,0.000000000,0.000000000,0.024749637,-86.413528442,0.000000000,-0.084000528,-16.815948486
1747312926.727324,46.295000000,0.000000000,59004.347656250,0.000000000,0.000000000,0.024749637,-86.413520813,0.000000000,-0.084000528,-16.815948486
1747312926.729685,46.297000000,0.000000000,59004.347656250,0.000000000,0.000000000,0.024749637,-86.413513184,0.000000000,-0.084000528,-16.815948486
1747312926.732057,46.299000000,0.000000000,59004.347656250,0.000000000,0.000000000,0.024749637,-86.413505554,0.000000000,-0.084000528,-16.815948486
1747312926.734460,46.302000000,0.000000000,59004.347656250,0.000000000,0.000000000,0.024749637,-86.413497925,0.000000000,-0.084000528,-16.815948486
1747312926.736827,46.304000000,0.000000000,59004.347656250,0.000000000,0.000000000,0.024749637,-86.413490295,0.000000000,-0.084000528,-16.815948486
1747312926.739224,46.307000000,0.000000000,59004.347656250,0.000000000,0.000000000,0.024749637,-86.413475037,0.000000000,-0.084000528,-16.815948486
1747312926.741657,46.309000000,0.000000000,59004.347656250,0.000000000,0.000000000,0.024749637,-86.413467407,0.000000000,-0.084000528,-16.815948486
1747312926.744024,46.311000000,0.000000000,59004.347656250,0.000000000,0.000000000,0.024749637,-86.413459778,0.000000000,-0.084000528,-16.815948486
1747312926.746396,46.314000000,0.000000000,59004.347656250,0.000000000,0.000000000,0.024749637,-86.413452148,0.000000000,-0.084000528,-16.815948486
1747312926.748757,46.316000000,0.000000000,59004.347656250,0.000000000,0.000000000,0.024749637,-86.413444519,0.000000000,-0.084000528,-16.815948486
1747312926.751133,46.318000000,0.000000000,59004.347656250,0.000000000,0.000000000,0.024749637,-86.413436890,0.000000000,-0.084000528,-16.815948486
1747312926.753473,46.321000000,0.000000000,59004.347656250,0.000000000,0.000000000,0.024749637,-86.413429260,0.000000000,-0.084000528,-16.815948486
1747312926.755834,46.323000000,0.000000000,59004.347656250,0.000000000,0.000000000,0.024749637,-86.413421631,0.000000000,-0.084000528,-16.815948486
1747312926.758247,46.326000000,0.000000000,59004.347656250,0.000000000,0.000000000,0.024749637,-86.413406372,0.000000000,-0.084000528,-16.815948486
1747312926.760676,46.328000000,0.000000000,59004.347656250,0.000000000,0.000000000,0.024749637,-86.413398743,0.000000000,-0.084000528,-16.815948486
1747312926.763047,46.330000000,0.000000000,59004.347656250,0.000000000,0.000000000,0.024749637,-86.413391113,0.000000000,-0.084000528,-16.815948486
1747312926.765434,46.333000000,0.000000000,59004.347656250,0.000000000,0.000000000,0.024749637,-86.413383484,0.000000000,-0.084000528,-16.815948486
1747312926.767827,46.335000000,0.000000000,59004.347656250,0.000000000,0.000000000,0.024749637,-86.413375854,0.000000000,-0.084000528,-16.815948486
1747312926.770203,46.338000000,0.000000000,59004.347656250,0.000000000,0.000000000,0.024749637,-86.413368225,0.000000000,-0.084000528,-16.815948486
1747312926.772543,46.340000000,0.000000000,59004.347656250,0.000000000,0.000000000,0.024749637,-86.413360596,0.000000000,-0.084000528,-16.815948486
1747312926.774910,46.342000000,0.000000000,59004.347656250,0.000000000,0.000000000,0.024749637,-86.413345337,0.000000000,-0.084000528,-16.815948486
1747312926.777292,46.345000000,0.000000000,59004.347656250,0.000000000,0.000000000,0.024749637,-86.413337708,0.000000000,-0.084000528,-16.815948486
1747312926.779691,46.347000000,0.000000000,59004.347656250,0.000000000,0.000000000,0.024749637,-86.413330078,0.000000000,-0.084000528,-16.815948486
1747312926.782087,46.349000000,0.000000000,59004.347656250,0.000000000,0.000000000,0.024749637,-86.413322449,0.000000000,-0.084000528,-16.815948486
1747312926.784465,46.352000000,0.000000000,59004.347656250,0.000000000,0.000000000,0.024749637,-86.413314819,0.000000000,-0.084000528,-16.815948486
1747312926.786842,46.354000000,0.000000000,59004.347656250,0.000000000,0.000000000,0.024749637,-86.413307190,0.000000000,-0.084000528,-16.815948486
1747312926.789188,46.357000000,0.000000000,59004.347656250,0.000000000,0.000000000,0.024749637,-86.413299561,0.000000000,-0.084000528,-16.815948486
1747312926.791568,46.359000000,0.000000000,59004.347656250,0.000000000,0.000000000,0.024749637,-86.413291931,0.000000000,-0.084000528,-16.815948486
1747312926.794002,46.361000000,0.000000000,59004.347656250,0.000000000,0.000000000,0.024749637,-86.413276672,0.000000000,-0.084000528,-16.815948486
1747312926.796454,46.364000000,0.000000000,59004.347656250,0.000000000,0.000000000,0.024749637,-86.413269043,0.000000000,-0.084000528,-16.815948486
1747312926.798875,46.366000000,0.000000000,59004.347656250,0.000000000,0.000000000,0.024749637,-86.413261414,0.000000000,-0.084000528,-16.815948486
1747312926.801355,46.369000000,0.000000000,59004.347656250,0.000000000,0.000000000,0.024749637,-86.413253784,0.000000000,-0.084000528,-16.815948486
1747312926.803808,46.371000000,0.000000000,59004.347656250,0.000000000,0.000000000,0.024749637,-86.413246155,0.000000000,-0.084000528,-16.815948486
1747312926.806237,46.374000000,0.000000000,59004.347656250,0.000000000,0.000000000,0.024749637,-86.413238525,0.000000000,-0.084000528,-16.815948486
1747312926.808641,46.376000000,0.000000000,59004.347656250,0.000000000,0.000000000,0.024749637,-86.413230896,0.000000000,-0.084000528,-16.815948486
1747312926.811028,46.378000000,0.000000000,59004.347656250,0.000000000,0.000000000,0.024749637,-86.413223267,0.000000000,-0.084000528,-16.815948486
1747312926.813414,46.381000000,0.000000000,59004.347656250,0.000000000,0.000000000,0.024749637,-86.413208008,0.000000000,-0.084000528,-16.815948486
1747312926.815788,46.383000000,0.000000000,59004.347656250,0.000000000,0.000000000,0.024749637,-86.413200378,0.000000000,-0.084000528,-16.815948486
1747312926.818183,46.385000000,0.000000000,59004.347656250,0.000000000,0.000000000,0.024749637,-86.413192749,0.000000000,-0.084000528,-16.815948486
1747312926.820554,46.388000000,0.000000000,59004.347656250,0.000000000,0.000000000,0.024749637,-86.413185120,0.000000000,-0.084000528,-16.815948486
1747312926.822947,46.390000000,0.000000000,59004.347656250,0.000000000,0.000000000,0.024749637,-86.413177490,0.000000000,-0.084000528,-16.815948486
1747312926.825370,46.393000000,0.000000000,59004.347656250,0.000000000,0.000000000,0.024749637,-86.413169861,0.000000000,-0.084000528,-16.815948486
1747312926.827857,46.395000000,0.000000000,59004.347656250,0.000000000,0.000000000,0.024749637,-86.413162231,0.000000000,-0.084000528,-16.815948486
1747312926.830283,46.398000000,0.000000000,59004.347656250,0.000000000,0.000000000,0.024749637,-86.413146973,0.000000000,-0.084000528,-16.815948486
1747312926.832662,46.400000000,0.000000000,59004.347656250,0.000000000,0.000000000,0.024749637,-86.413139343,0.000000000,-0.084000528,-16.815948486
1747312926.835051,46.402000000,0.000000000,59004.347656250,0.000000000,0.000000000,0.024749637,-86.413131714,0.000000000,-0.084000528,-16.815948486
1747312926.837483,46.405000000,0.000000000,59004.347656250,0.000000000,0.000000000,0.024749637,-86.413124084,0.000000000,-0.084000528,-16.815948486
1747312926.839871,46.407000000,0.000000000,59004.347656250,0.000000000,0.000000000,0.024749637,-86.413116455,0.000000000,-0.084000528,-16.815948486
1747312926.842377,46.410000000,0.000000000,59004.347656250,0.000000000,0.000000000,0.024749637,-86.413108826,0.000000000,-0.084000528,-16.815948486
1747312926.844885,46.412000000,0.000000000,59004.347656250,0.000000000,0.000000000,0.024749637,-86.413101196,0.000000000,-0.084000528,-16.815948486
1747312926.847499,46.415000000,0.000000000,59004.347656250,0.000000000,0.000000000,0.024749637,-86.413093567,0.000000000,-0.084000528,-16.815948486
1747312926.849920,46.417000000,0.000000000,59004.347656250,0.000000000,0.000000000,0.024749637,-86.413078308,0.000000000,-0.084000528,-16.815948486
1747312926.852456,46.420000000,0.000000000,59004.347656250,0.000000000,0.000000000,0.024749637,-86.413070679,0.000000000,-0.084000528,-16.815948486
1747312926.855062,46.422000000,0.000000000,59004.347656250,0.000000000,0.000000000,0.024749637,-86.413063049,0.000000000,-0.084000528,-16.815948486
1747312926.857662,46.425000000,0.000000000,59004.347656250,0.000000000,0.000000000,0.024749637,-86.413055420,0.000000000,-0.084000528,-16.815948486
1747312926.860271,46.427000000,0.000000000,59004.347656250,0.000000000,0.000000000,0.024749637,-86.413047791,0.000000000,-0.084000528,-16.815948486
1747312926.862803,46.430000000,0.000000000,59004.347656250,0.000000000,0.000000000,0.024749637,-86.413040161,0.000000000,-0.084000528,-16.815948486
1747312926.865304,46.433000000,0.000000000,59004.347656250,0.000000000,0.000000000,0.024749637,-86.413032532,0.000000000,-0.084000528,-16.815948486
1747312926.867808,46.435000000,0.000000000,59004.347656250,0.000000000,0.000000000,0.024749637,-86.413024902,0.000000000,-0.084000528,-16.815948486
1747312926.870307,46.438000000,0.000000000,59004.347656250,0.000000000,0.000000000,0.024749637,-86.413009644,0.000000000,-0.084000528,-16.815948486
1747312926.872849,46.440000000,0.000000000,59004.347656250,0.000000000,0.000000000,0.024749637,-86.413002014,0.000000000,-0.084000528,-16.815948486
1747312926.875336,46.443000000,0.000000000,59004.347656250,0.000000000,0.000000000,0.024749637,-86.412994385,0.000000000,-0.084000528,-16.815948486
1747312926.877868,46.445000000,0.000000000,59004.347656250,0.000000000,0.000000000,0.024749637,-86.412986755,0.000000000,-0.084000528,-16.815948486
1747312926.880389,46.448000000,0.000000000,59004.347656250,0.000000000,0.000000000,0.024749637,-86.412979126,0.000000000,-0.084000528,-16.815948486
1747312926.882862,46.450000000,0.000000000,59004.347656250,0.000000000,0.000000000,0.024749637,-86.412971497,0.000000000,-0.084000528,-16.815948486
1747312926.885304,46.453000000,0.000000000,59004.347656250,0.000000000,0.000000000,0.024749637,-86.412963867,0.000000000,-0.084000528,-16.815948486
1747312926.887813,46.455000000,0.000000000,59004.347656250,0.000000000,0.000000000,0.024749637,-86.412948608,0.000000000,-0.084000528,-16.815948486
1747312926.890418,46.458000000,0.000000000,59004.347656250,0.000000000,0.000000000,0.024749637,-86.412940979,0.000000000,-0.084000528,-16.815948486
1747312926.892936,46.460000000,0.000000000,59004.347656250,0.000000000,0.000000000,0.024749637,-86.412933350,0.000000000,-0.084000528,-16.815948486
1747312926.895335,46.463000000,0.000000000,59004.347656250,0.000000000,0.000000000,0.024749637,-86.412925720,0.000000000,-0.084000528,-16.815948486
1747312926.897757,46.465000000,0.000000000,59004.347656250,0.000000000,0.000000000,0.024749637,-86.412918091,0.000000000,-0.084000528,-16.815948486
1747312926.900211,46.467000000,0.000000000,59004.347656250,0.000000000,0.000000000,0.024749637,-86.412910461,0.000000000,-0.084000528,-16.815948486
1747312926.902653,46.470000000,0.000000000,59004.347656250,0.000000000,0.000000000,0.024749637,-86.412902832,0.000000000,-0.084000528,-16.815948486
1747312926.905105,46.472000000,0.000000000,59004.347656250,0.000000000,0.000000000,0.024749637,-86.412895203,0.000000000,-0.084000528,-16.815948486
1747312926.907553,46.475000000,0.000000000,59004.347656250,0.000000000,0.000000000,0.024749637,-86.412879944,0.000000000,-0.084000528,-16.815948486
1747312926.909987,46.477000000,0.000000000,59004.347656250,0.000000000,0.000000000,0.024749637,-86.412872314,0.000000000,-0.084000528,-16.815948486
1747312926.912458,46.480000000,0.000000000,59004.347656250,0.000000000,0.000000000,0.024749637,-86.412864685,0.000000000,-0.084000528,-16.815948486
1747312926.914932,46.482000000,0.000000000,59004.347656250,0.000000000,0.000000000,0.024749637,-86.412857056,0.000000000,-0.084000528,-16.815948486
1747312926.917329,46.485000000,0.000000000,59004.347656250,0.000000000,0.000000000,0.024749637,-86.412849426,0.000000000,-0.084000528,-16.815948486
1747312926.919811,46.487000000,0.000000000,59004.347656250,0.000000000,0.000000000,0.024749637,-86.412841797,0.000000000,-0.084000528,-16.815948486
1747312926.922219,46.489000000,0.000000000,59004.347656250,0.000000000,0.000000000,0.024749637,-86.412834167,0.000000000,-0.084000528,-16.815948486
1747312926.924685,46.492000000,0.000000000,59004.347656250,0.000000000,0.000000000,0.024749637,-86.412818909,0.000000000,-0.084000528,-16.815948486
1747312926.927180,46.494000000,0.000000000,59004.347656250,0.000000000,0.000000000,0.024749637,-86.412811279,0.000000000,-0.084000528,-16.815948486
1747312926.929583,46.497000000,0.000000000,59004.347656250,0.000000000,0.000000000,0.024749637,-86.412803650,0.000000000,-0.084000528,-16.815948486
1747312926.932023,46.499000000,0.000000000,59004.347656250,0.000000000,0.000000000,0.024749637,-86.412796021,0.000000000,-0.084000528,-16.815948486
1747312926.934478,46.502000000,0.000000000,59004.347656250,0.000000000,0.000000000,0.024749637,-86.412788391,0.000000000,-0.084000528,-16.815948486
1747312926.936921,46.504000000,0.000000000,59004.347656250,0.000000000,0.000000000,0.024749637,-86.412780762,0.000000000,-0.084000528,-16.815948486
1747312926.939380,46.507000000,0.000000000,59004.347656250,0.000000000,0.000000000,0.024749637,-86.412773132,0.000000000,-0.084000528,-16.815948486
