liamjosephnolan/thesis_matlab/roll_step_response/roll_step_response_roll_15_pitch_15.csv
__time,/psm_joint_telemetry/header/stamp,/psm_joint_telemetry/insertion/effort,/psm_joint_telemetry/insertion/position,/psm_joint_telemetry/insertion/velocity,/psm_joint_telemetry/pitch/effort,/psm_joint_telemetry/pitch/position,/psm_joint_telemetry/pitch/velocity,/psm_joint_telemetry/roll/effort,/psm_joint_telemetry/roll/position,/psm_joint_telemetry/roll/velocity
1747313926.656816,18.523000000,0.000000000,56337.484375000,0.000000000,0.000000000,14.915622711,-59.225616455,0.000000000,14.918999672,-16.215341568
1747313926.659268,18.526000000,0.000000000,56337.484375000,0.000000000,0.000000000,14.915622711,-59.225643158,0.000000000,14.918999672,-16.215341568
1747313926.661683,18.528000000,0.000000000,56337.484375000,0.000000000,0.000000000,14.915622711,-59.225673676,0.000000000,14.918999672,-16.215341568
1747313926.664110,18.531000000,0.000000000,56337.484375000,0.000000000,0.000000000,14.915622711,-59.225700378,0.000000000,14.918999672,-16.215341568
1747313926.666532,18.533000000,0.000000000,56337.484375000,0.000000000,0.000000000,14.915622711,-59.225730896,0.000000000,14.918999672,-16.215341568
1747313926.668939,18.536000000,0.000000000,56337.484375000,0.000000000,0.000000000,14.915622711,-59.225761414,0.000000000,14.918999672,-16.215341568
1747313926.671387,18.538000000,0.000000000,56337.484375000,0.000000000,0.000000000,14.915622711,-59.225788116,0.000000000,14.918999672,-16.215341568
1747313926.673707,18.540000000,0.000000000,56337.484375000,0.000000000,0.000000000,14.915622711,-59.225818634,0.000000000,14.918999672,-16.215341568
1747313926.676050,18.543000000,0.000000000,56337.484375000,0.000000000,0.000000000,14.915622711,-59.225845337,0.000000000,14.918999672,-16.215341568
1747313926.678450,18.545000000,0.000000000,56337.484375000,0.000000000,0.000000000,14.915622711,-59.225875854,0.000000000,14.918999672,-16.215341568
1747313926.680830,18.547000000,0.000000000,56337.484375000,0.000000000,0.000000000,14.915622711,-59.225902557,0.000000000,14.918999672,-16.215341568
1747313926.683335,18.550000000,0.000000000,56337.484375000,0.000000000,0.000000000,14.915622711,-59.225933075,0.000000000,14.918999672,-16.215341568
1747313926.685909,18.552000000,0.000000000,56337.484375000,0.000000000,0.000000000,14.915622711,-59.225959778,0.000000000,14.918999672,-16.215341568
1747313926.688202,18.555000000,0.000000000,56337.484375000,0.000000000,0.000000000,14.915622711,-59.225990295,0.000000000,14.918999672,-16.215341568
1747313926.690566,18.557000000,0.000000000,56337.484375000,0.000000000,0.000000000,14.915622711,-59.226020813,0.000000000,14.918999672,-16.215341568
1747313926.692924,18.560000000,0.000000000,56337.484375000,0.000000000,0.000000000,14.915622711,-59.226047516,0.000000000,14.918999672,-16.215341568
1747313926.695291,18.562000000,0.000000000,56337.484375000,0.000000000,0.000000000,14.915622711,-59.226078033,0.000000000,14.918999672,-16.215341568
1747313926.697631,18.564000000,0.000000000,56337.484375000,0.000000000,0.000000000,14.915622711,-59.226104736,0.000000000,14.918999672,-16.215341568
1747313926.700083,18.567000000,0.000000000,56337.484375000,0.000000000,0.000000000,14.915622711,-59.226131439,0.000000000,14.918999672,-16.215341568
1747313926.702566,18.569000000,0.000000000,56337.484375000,0.000000000,0.000000000,14.915622711,-59.226161957,0.000000000,14.918999672,-16.215341568
1747313926.704959,18.572000000,0.000000000,56337.484375000,0.000000000,0.000000000,14.915622711,-59.226192474,0.000000000,14.918999672,-16.215341568
1747313926.707335,18.574000000,0.000000000,56337.484375000,0.000000000,0.000000000,14.915622711,-59.226219177,0.000000000,14.918999672,-16.215341568
1747313926.709670,18.576000000,0.000000000,56337.484375000,0.000000000,0.000000000,14.915622711,-59.226249695,0.000000000,14.918999672,-16.215341568
1747313926.712056,18.579000000,0.000000000,56337.484375000,0.000000000,0.000000000,14.915622711,-59.226276398,0.000000000,14.918999672,-16.215341568
1747313926.714417,18.581000000,0.000000000,56337.484375000,0.000000000,0.000000000,14.915622711,-59.226303101,0.000000000,14.918999672,-16.215341568
1747313926.716800,18.583000000,0.000000000,56337.484375000,0.000000000,0.000000000,14.915622711,-59.226333618,0.000000000,14.918999672,-16.215341568
1747313926.719192,18.586000000,0.000000000,56337.484375000,0.000000000,0.000000000,14.915622711,-59.226360321,0.000000000,14.918999672,-16.215341568
1747313926.721555,18.588000000,0.000000000,56337.484375000,0.000000000,0.000000000,14.915622711,-59.226387024,0.000000000,14.918999672,-16.215341568
1747313926.723920,18.591000000,0.000000000,56337.484375000,0.000000000,0.000000000,14.915622711,-59.226417542,0.000000000,14.918999672,-16.215341568
1747313926.726296,18.593000000,0.000000000,56337.484375000,0.000000000,0.000000000,14.915622711,-59.226444244,0.000000000,14.918999672,-16.215341568
1747313926.728665,18.595000000,0.000000000,56337.484375000,0.000000000,0.000000000,14.915622711,-59.226470947,0.000000000,14.918999672,-16.215341568
1747313926.731027,18.598000000,0.000000000,56337.484375000,0.000000000,0.000000000,14.915622711,-59.226501465,0.000000000,14.918999672,-16.215341568
1747313926.733383,18.600000000,0.000000000,56337.484375000,0.000000000,0.000000000,14.915622711,-59.226528168,0.000000000,14.918999672,-16.215341568
1747313926.735743,18.602000000,0.000000000,56337.484375000,0.000000000,0.000000000,14.915622711,-59.226554871,0.000000000,14.918999672,-16.215341568
1747313926.738074,18.605000000,0.000000000,56337.484375000,0.000000000,0.000000000,14.915622711,-59.226585388,0.000000000,14.918999672,-16.215341568
1747313926.740408,18.607000000,0.000000000,56337.484375000,0.000000000,0.000000000,14.915622711,-59.226612091,0.000000000,14.918999672,-16.215341568
1747313926.742775,18.609000000,0.000000000,56337.484375000,0.000000000,0.000000000,14.915622711,-59.226642609,0.000000000,14.918999672,-16.215341568
1747313926.745117,18.612000000,0.000000000,56337.484375000,0.000000000,0.000000000,14.915622711,-59.226669312,0.000000000,14.918999672,-16.215341568
1747313926.747461,18.614000000,0.000000000,56337.484375000,0.000000000,0.000000000,14.915622711,-59.226696014,0.000000000,14.918999672,-16.215341568
1747313926.749795,18.616000000,0.000000000,56337.484375000,0.000000000,0.000000000,14.915622711,-59.226726532,0.000000000,14.918999672,-16.215341568
1747313926.752196,18.619000000,0.000000000,56337.484375000,0.000000000,0.000000000,14.915622711,-59.226753235,0.000000000,14.918999672,-16.215341568
1747313926.754552,18.621000000,0.000000000,56337.484375000,0.000000000,0.000000000,14.915622711,-59.226779938,0.000000000,14.918999672,-16.215341568
1747313926.756907,18.624000000,0.000000000,56337.484375000,0.000000000,0.000000000,14.915622711,-59.226810455,0.000000000,14.918999672,-16.215341568
1747313926.759250,18.626000000,0.000000000,56337.484375000,0.000000000,0.000000000,14.915622711,-59.226837158,0.000000000,14.918999672,-16.215341568
1747313926.761597,18.628000000,0.000000000,56337.484375000,0.000000000,0.000000000,14.915622711,-59.226863861,0.000000000,14.918999672,-16.215341568
1747313926.763945,18.631000000,0.000000000,56337.484375000,0.000000000,0.000000000,14.915622711,-59.226894379,0.000000000,14.918999672,-16.215341568
1747313926.766297,18.633000000,0.000000000,56337.484375000,0.000000000,0.000000000,14.915622711,-59.226921082,0.000000000,14.918999672,-16.215341568
1747313926.768656,18.635000000,0.000000000,56337.484375000,0.000000000,0.000000000,14.915622711,-59.226947784,0.000000000,14.918999672,-16.215341568
1747313926.770997,18.638000000,0.000000000,56337.484375000,0.000000000,0.000000000,14.915622711,-59.226978302,0.000000000,14.918999672,-16.215341568
1747313926.773335,18.640000000,0.000000000,56337.484375000,0.000000000,0.000000000,14.915622711,-59.227005005,0.000000000,14.918999672,-16.215341568
1747313926.775665,18.642000000,0.000000000,56337.484375000,0.000000000,0.000000000,14.915622711,-59.227031708,0.000000000,14.918999672,-16.215341568
1747313926.778030,18.645000000,0.000000000,56337.484375000,0.000000000,0.000000000,14.915622711,-59.227062225,0.000000000,14.918999672,-16.215341568
1747313926.780371,18.647000000,0.000000000,56337.484375000,0.000000000,0.000000000,14.915622711,-59.227088928,0.000000000,14.918999672,-16.215341568
1747313926.782727,18.649000000,0.000000000,56337.484375000,0.000000000,0.000000000,14.915622711,-59.227115631,0.000000000,14.918999672,-16.215341568
1747313926.785140,18.652000000,0.000000000,56337.484375000,0.000000000,0.000000000,14.915622711,-59.227146149,0.000000000,14.918999672,-16.215341568
1747313926.787533,18.654000000,0.000000000,56337.484375000,0.000000000,0.000000000,14.915622711,-59.227172852,0.000000000,14.918999672,-16.215341568
1747313926.789922,18.657000000,0.000000000,56337.484375000,0.000000000,0.000000000,14.915622711,-59.227203369,0.000000000,14.918999672,-16.215341568
1747313926.792315,18.659000000,0.000000000,56337.484375000,0.000000000,0.000000000,14.915622711,-59.227230072,0.000000000,14.918999672,-16.215341568
1747313926.794719,18.661000000,0.000000000,56337.484375000,0.000000000,0.000000000,14.915622711,-59.227260590,0.000000000,14.918999672,-16.215341568
1747313926.797119,18.664000000,0.000000000,56337.484375000,0.000000000,0.000000000,14.915622711,-59.227291107,0.000000000,14.918999672,-16.215341568
1747313926.799558,18.666000000,0.000000000,56337.484375000,0.000000000,0.000000000,14.915622711,-59.227317810,0.000000000,14.918999672,-16.215341568
1747313926.801951,18.669000000,0.000000000,56337.484375000,0.000000000,0.000000000,14.915622711,-59.227348328,0.000000000,14.918999672,-16.215341568
1747313926.804330,18.671000000,0.000000000,56337.484375000,0.000000000,0.000000000,14.915622711,-59.227375031,0.000000000,14.918999672,-16.215341568
1747313926.806672,18.673000000,0.000000000,56337.484375000,0.000000000,0.000000000,14.915622711,-59.227405548,0.000000000,14.918999672,-16.215341568
1747313926.808996,18.676000000,0.000000000,56337.484375000,0.000000000,0.000000000,14.915622711,-59.227432251,0.000000000,14.918999672,-16.215341568
1747313926.811342,18.678000000,0.000000000,56337.484375000,0.000000000,0.000000000,14.915622711,-59.227458954,0.000000000,14.918999672,-16.215341568
1747313926.813688,18.680000000,0.000000000,56337.484375000,0.000000000,0.000000000,14.915622711,-59.227489471,0.000000000,14.918999672,-16.215341568
1747313926.816071,18.683000000,0.000000000,56337.484375000,0.000000000,0.000000000,14.915622711,-59.227516174,0.000000000,14.918999672,-16.215341568
1747313926.818428,18.685000000,0.000000000,56337.484375000,0.000000000,0.000000000,14.915622711,-59.227542877,0.000000000,14.918999672,-16.215341568
1747313926.820771,18.687000000,0.000000000,56337.484375000,0.000000000,0.000000000,14.915622711,-59.227573395,0.000000000,14.918999672,-16.215341568
1747313926.823107,18.690000000,0.000000000,56337.484375000,0.000000000,0.000000000,14.915622711,-59.227600098,0.000000000,14.918999672,-16.215341568
1747313926.825456,18.692000000,0.000000000,56337.484375000,0.000000000,0.000000000,14.915622711,-59.227630615,0.000000000,14.918999672,-16.215341568
1747313926.827811,18.694000000,0.000000000,56337.484375000,0.000000000,0.000000000,14.915622711,-59.227657318,0.000000000,14.918999672,-16.215341568
1747313926.830163,18.697000000,0.000000000,56337.484375000,0.000000000,0.000000000,14.915622711,-59.227684021,0.000000000,14.918999672,-16.215341568
1747313926.832549,18.699000000,0.000000000,56337.484375000,0.000000000,0.000000000,14.915622711,-59.227714539,0.000000000,14.918999672,-16.215341568
1747313926.834864,18.702000000,0.000000000,56337.484375000,0.000000000,0.000000000,14.915622711,-59.227741241,0.000000000,14.918999672,-16.215341568
1747313926.837197,18.704000000,0.000000000,56337.484375000,0.000000000,0.000000000,14.915622711,-59.227767944,0.000000000,14.918999672,-16.215341568
1747313926.839527,18.706000000,0.000000000,56337.484375000,0.000000000,0.000000000,14.915622711,-59.227798462,0.000000000,14.918999672,-16.215341568
1747313926.841863,18.709000000,0.000000000,56337.484375000,0.000000000,0.000000000,14.915622711,-59.227825165,0.000000000,14.918999672,-16.215341568
1747313926.844242,18.711000000,0.000000000,56337.484375000,0.000000000,0.000000000,14.915622711,-59.227851868,0.000000000,14.918999672,-16.215341568
1747313926.846586,18.713000000,0.000000000,56337.484375000,0.000000000,0.000000000,14.915622711,-59.227882385,0.000000000,14.918999672,-16.215341568
1747313926.848942,18.716000000,0.000000000,56337.484375000,0.000000000,0.000000000,14.915622711,-59.227909088,0.000000000,14.918999672,-16.215341568
1747313926.851310,18.718000000,0.000000000,56337.484375000,0.000000000,0.000000000,14.915622711,-59.227935791,0.000000000,14.918999672,-16.215341568
1747313926.853661,18.720000000,0.000000000,56337.484375000,0.000000000,0.000000000,14.915622711,-59.227966309,0.000000000,14.918999672,-16.215341568
1747313926.855989,18.723000000,0.000000000,56337.484375000,0.000000000,0.000000000,14.915622711,-59.227993011,0.000000000,14.918999672,-16.215341568
1747313926.858331,18.725000000,0.000000000,56337.484375000,0.000000000,0.000000000,14.915622711,-59.228019714,0.000000000,14.918999672,-16.215341568
1747313926.860668,18.727000000,0.000000000,56337.484375000,0.000000000,0.000000000,14.915622711,-59.228050232,0.000000000,14.918999672,-16.215341568
1747313926.863024,18.730000000,0.000000000,56337.484375000,0.000000000,0.000000000,14.915622711,-59.228076935,0.000000000,14.918999672,-16.215341568
1747313926.865378,18.732000000,0.000000000,56337.484375000,0.000000000,0.000000000,14.915622711,-59.228107452,0.000000000,14.918999672,-16.215341568
1747313926.867736,18.734000000,0.000000000,56337.484375000,0.000000000,0.000000000,14.915622711,-59.228134155,0.000000000,14.918999672,-16.215341568
1747313926.870077,18.737000000,0.000000000,56337.484375000,0.000000000,0.000000000,14.915622711,-59.228160858,0.000000000,14.918999672,-16.215341568
1747313926.872425,18.739000000,0.000000000,56337.484375000,0.000000000,0.000000000,14.915622711,-59.228191376,0.000000000,14.918999672,-16.215341568
1747313926.874783,18.741000000,0.000000000,56337.484375000,0.000000000,0.000000000,14.915622711,-59.228218079,0.000000000,14.918999672,-16.215341568
1747313926.877110,18.744000000,0.000000000,56337.484375000,0.000000000,0.000000000,14.915622711,-59.228244781,0.000000000,14.918999672,-16.215341568
1747313926.879443,18.746000000,0.000000000,56337.484375000,0.000000000,0.000000000,14.915622711,-59.228275299,0.000000000,14.918999672,-16.215341568
1747313926.881810,18.748000000,0.000000000,56337.484375000,0.000000000,0.000000000,14.915622711,-59.228302002,0.000000000,14.918999672,-16.215341568
1747313926.884191,18.751000000,0.000000000,56337.484375000,0.000000000,0.000000000,14.915622711,-59.228328705,0.000000000,14.918999672,-16.215341568
1747313926.886587,18.753000000,0.000000000,56337.484375000,0.000000000,0.000000000,14.915622711,-59.228359222,0.000000000,14.918999672,-16.215341568
1747313926.888971,18.756000000,0.000000000,56337.484375000,0.000000000,0.000000000,14.915622711,-59.228385925,0.000000000,14.918999672,-16.215341568
1747313926.891309,18.758000000,0.000000000,56337.484375000,0.000000000,0.000000000,14.915622711,-59.228416443,0.000000000,14.918999672,-16.215341568
1747313926.893651,18.760000000,0.000000000,56337.484375000,0.000000000,0.000000000,14.915622711,-59.228443146,0.000000000,14.918999672,-16.215341568
1747313926.895988,18.763000000,0.000000000,56337.484375000,0.000000000,0.000000000,14.915622711,-59.228469849,0.000000000,14.918999672,-16.215341568
1747313926.898385,18.765000000,0.000000000,56337.484375000,0.000000000,0.000000000,14.915622711,-59.228500366,0.000000000,14.918999672,-16.215341568
1747313926.900736,18.767000000,0.000000000,56337.484375000,0.000000000,0.000000000,14.915622711,-59.228527069,0.000000000,14.918999672,-16.215341568
1747313926.903073,18.770000000,0.000000000,56337.484375000,0.000000000,0.000000000,14.915622711,-59.228553772,0.000000000,14.918999672,-16.215341568
1747313926.905397,18.772000000,0.000000000,56337.484375000,0.000000000,0.000000000,14.915622711,-59.228584290,0.000000000,14.918999672,-16.215341568
1747313926.907769,18.774000000,0.000000000,56337.484375000,0.000000000,0.000000000,14.915622711,-59.228610992,0.000000000,14.918999672,-16.215341568
1747313926.910084,18.777000000,0.000000000,56337.484375000,0.000000000,0.000000000,14.915622711,-59.228641510,0.000000000,14.918999672,-16.215341568
1747313926.912457,18.779000000,0.000000000,56337.484375000,0.000000000,0.000000000,14.915622711,-59.228668213,0.000000000,14.918999672,-16.215341568
1747313926.914816,18.781000000,0.000000000,56337.484375000,0.000000000,0.000000000,14.915622711,-59.228694916,0.000000000,14.918999672,-16.215341568
1747313926.917166,18.784000000,0.000000000,56337.484375000,0.000000000,0.000000000,14.915622711,-59.228725433,0.000000000,14.918999672,-16.215341568
1747313926.919540,18.786000000,0.000000000,56337.484375000,0.000000000,0.000000000,14.915622711,-59.228752136,0.000000000,14.918999672,-16.215341568
1747313926.921883,18.789000000,0.000000000,56337.484375000,0.000000000,0.000000000,14.915622711,-59.228778839,0.000000000,14.918999672,-16.215341568
1747313926.924222,18.791000000,0.000000000,56337.484375000,0.000000000,0.000000000,14.915622711,-59.228809357,0.000000000,14.918999672,-16.215341568
1747313926.926564,18.793000000,0.000000000,56337.484375000,0.000000000,0.000000000,14.915622711,-59.228836060,0.000000000,14.918999672,-16.215341568
1747313926.928921,18.796000000,0.000000000,56337.484375000,0.000000000,0.000000000,14.915622711,-59.228862762,0.000000000,14.918999672,-16.215341568
1747313926.931292,18.798000000,0.000000000,56337.484375000,0.000000000,0.000000000,14.915622711,-59.228893280,0.000000000,14.918999672,-16.215341568
1747313926.933767,18.800000000,0.000000000,56337.484375000,0.000000000,0.000000000,14.915622711,-59.228919983,0.000000000,14.918999672,-16.215341568
1747313926.936105,18.803000000,0.000000000,56337.484375000,0.000000000,0.000000000,14.915622711,-59.228950500,0.000000000,14.918999672,-16.215341568
1747313926.938459,18.805000000,0.000000000,56337.484375000,0.000000000,0.000000000,14.915622711,-59.228977203,0.000000000,14.918999672,-16.215341568
1747313926.940790,18.807000000,0.000000000,56337.484375000,0.000000000,0.000000000,14.915622711,-59.229003906,0.000000000,14.918999672,-16.215341568
1747313926.943160,18.810000000,0.000000000,56337.484375000,0.000000000,0.000000000,14.915622711,-59.229034424,0.000000000,14.918999672,-16.215341568
1747313926.945496,18.812000000,0.000000000,56337.484375000,0.000000000,0.000000000,14.915622711,-59.229061127,0.000000000,14.918999672,-16.215341568
1747313926.947836,18.815000000,0.000000000,56337.484375000,0.000000000,0.000000000,14.915622711,-59.229087830,0.000000000,14.918999672,-16.215341568
1747313926.950185,18.817000000,0.000000000,56337.484375000,0.000000000,0.000000000,14.915622711,-59.229118347,0.000000000,14.918999672,-16.215341568
1747313926.952531,18.819000000,0.000000000,56337.484375000,0.000000000,0.000000000,14.915622711,-59.229145050,0.000000000,14.918999672,-16.215341568
1747313926.954860,18.822000000,0.000000000,56337.484375000,0.000000000,0.000000000,14.915622711,-59.229175568,0.000000000,14.918999672,-16.215341568
1747313926.957200,18.824000000,0.000000000,56337.484375000,0.000000000,0.000000000,14.915622711,-59.229202271,0.000000000,14.918999672,-16.215341568
1747313926.959539,18.826000000,0.000000000,56337.484375000,0.000000000,0.000000000,14.915622711,-59.229228973,0.000000000,14.918999672,-16.215341568
1747313926.961872,18.829000000,0.000000000,56337.484375000,0.000000000,0.000000000,14.915622711,-59.229259491,0.000000000,14.918999672,-16.215341568
1747313926.964205,18.831000000,0.000000000,56337.484375000,0.000000000,0.000000000,14.915622711,-59.229286194,0.000000000,14.918999672,-16.215341568
1747313926.966549,18.833000000,0.000000000,56337.484375000,0.000000000,0.000000000,14.915622711,-59.229312897,0.000000000,14.918999672,-16.215341568
1747313926.968876,18.836000000,0.000000000,56337.484375000,0.000000000,0.000000000,14.915622711,-59.229343414,0.000000000,14.918999672,-16.215341568
1747313926.971214,18.838000000,0.000000000,56337.484375000,0.000000000,0.000000000,14.915622711,-59.229370117,0.000000000,14.918999672,-16.215341568
1747313926.973546,18.840000000,0.000000000,56337.484375000,0.000000000,0.000000000,14.915622711,-59.229396820,0.000000000,14.918999672,-16.215341568
1747313926.975903,18.843000000,0.000000000,56337.484375000,0.000000000,0.000000000,14.915622711,-59.229427338,0.000000000,14.918999672,-16.215341568
1747313926.978309,18.845000000,0.000000000,56337.484375000,0.000000000,0.000000000,14.915622711,-59.229454041,0.000000000,14.918999672,-16.215341568
1747313926.980666,18.847000000,0.000000000,56337.484375000,0.000000000,0.000000000,14.915622711,-59.229484558,0.000000000,14.918999672,-16.215341568
1747313926.983098,18.850000000,0.000000000,56337.484375000,0.000000000,0.000000000,14.915622711,-59.229511261,0.000000000,14.918999672,-16.215341568
1747313926.985470,18.852000000,0.000000000,56337.484375000,0.000000000,0.000000000,14.915622711,-59.229541779,0.000000000,14.918999672,-16.215341568
1747313926.987866,18.855000000,0.000000000,56337.484375000,0.000000000,0.000000000,14.915622711,-59.229568481,0.000000000,14.918999672,-16.215341568
1747313926.990219,18.857000000,0.000000000,56337.484375000,0.000000000,0.000000000,14.915622711,-59.229595184,0.000000000,14.918999672,-16.215341568
1747313926.992569,18.859000000,0.000000000,56337.484375000,0.000000000,0.000000000,14.915622711,-59.229625702,0.000000000,14.918999672,-16.215341568
1747313926.994903,18.862000000,0.000000000,56337.484375000,0.000000000,0.000000000,14.915622711,-59.229652405,0.000000000,14.918999672,-16.215341568
1747313926.997236,18.864000000,0.000000000,56337.484375000,0.000000000,0.000000000,14.915622711,-59.229679108,0.000000000,14.918999672,-16.215341568
1747313926.999591,18.866000000,0.000000000,56337.484375000,0.000000000,0.000000000,14.915622711,-59.229709625,0.000000000,14.918999672,-16.215341568
1747313927.001934,18.869000000,0.000000000,56337.484375000,0.000000000,0.000000000,14.915622711,-59.229736328,0.000000000,14.918999672,-16.215341568
1747313927.004284,18.871000000,0.000000000,56337.484375000,0.000000000,0.000000000,14.915622711,-59.229763031,0.000000000,14.918999672,-16.215341568
1747313927.006629,18.873000000,0.000000000,56337.484375000,0.000000000,0.000000000,14.915622711,-59.229793549,0.000000000,14.918999672,-16.215341568
1747313927.008966,18.876000000,0.000000000,56337.484375000,0.000000000,0.000000000,14.915622711,-59.229820251,0.000000000,14.918999672,-16.215341568
1747313927.011340,18.878000000,0.000000000,56337.484375000,0.000000000,0.000000000,14.915622711,-59.229850769,0.000000000,14.918999672,-16.215341568
1747313927.013676,18.880000000,0.000000000,56337.484375000,0.000000000,0.000000000,14.915622711,-59.229877472,0.000000000,14.918999672,-16.215341568
1747313927.016030,18.883000000,0.000000000,56337.484375000,0.000000000,0.000000000,14.915622711,-59.229904175,0.000000000,14.918999672,-16.215341568
1747313927.018374,18.885000000,0.000000000,56337.484375000,0.000000000,0.000000000,14.915622711,-59.229934692,0.000000000,14.918999672,-16.215341568
1747313927.020717,18.887000000,0.000000000,56337.484375000,0.000000000,0.000000000,14.915622711,-59.229961395,0.000000000,14.918999672,-16.215341568
1747313927.023097,18.890000000,0.000000000,56337.484375000,0.000000000,0.000000000,14.915622711,-59.229988098,0.000000000,14.918999672,-16.215341568
1747313927.025474,18.892000000,0.000000000,56337.484375000,0.000000000,0.000000000,14.915622711,-59.230018616,0.000000000,14.918999672,-16.215341568
1747313927.027795,18.894000000,0.000000000,56337.484375000,0.000000000,0.000000000,14.915622711,-59.230045319,0.000000000,14.918999672,-16.215341568
1747313927.030174,18.897000000,0.000000000,56337.484375000,0.000000000,0.000000000,14.915622711,-59.230072021,0.000000000,14.918999672,-16.215341568
1747313927.032490,18.899000000,0.000000000,56337.484375000,0.000000000,0.000000000,14.915622711,-59.230102539,0.000000000,14.918999672,-16.215341568
1747313927.034866,18.902000000,0.000000000,56337.484375000,0.000000000,0.000000000,14.915622711,-59.230129242,0.000000000,14.918999672,-16.215341568
1747313927.037204,18.904000000,0.000000000,56337.484375000,0.000000000,0.000000000,14.915622711,-59.230155945,0.000000000,14.918999672,-16.215341568
1747313927.039548,18.906000000,0.000000000,56337.484375000,0.000000000,0.000000000,14.915622711,-59.230186462,0.000000000,14.918999672,-16.215341568
1747313927.041883,18.909000000,0.000000000,56337.484375000,0.000000000,0.000000000,14.915622711,-59.230213165,0.000000000,14.918999672,-16.215341568
1747313927.044208,18.911000000,0.000000000,56337.484375000,0.000000000,0.000000000,14.915622711,-59.230239868,0.000000000,14.918999672,-16.215341568
1747313927.046540,18.913000000,0.000000000,56337.484375000,0.000000000,0.000000000,14.915622711,-59.230270386,0.000000000,14.918999672,-16.215341568
1747313927.048885,18.916000000,0.000000000,56337.484375000,0.000000000,0.000000000,14.915622711,-59.230297089,0.000000000,14.918999672,-16.215341568
1747313927.051244,18.918000000,0.000000000,56337.484375000,0.000000000,0.000000000,14.915622711,-59.230327606,0.000000000,14.918999672,-16.215341568
1747313927.053573,18.920000000,0.000000000,56337.484375000,0.000000000,0.000000000,14.915622711,-59.230354309,0.000000000,14.918999672,-16.215341568
1747313927.055905,18.923000000,0.000000000,56337.484375000,0.000000000,0.000000000,14.915622711,-59.230381012,0.000000000,14.918999672,-16.215341568
1747313927.058249,18.925000000,0.000000000,56337.484375000,0.000000000,0.000000000,14.915622711,-59.230411530,0.000000000,14.918999672,-16.215341568
1747313927.060586,18.927000000,0.000000000,56337.484375000,0.000000000,0.000000000,14.915622711,-59.230438232,0.000000000,14.918999672,-16.215341568
1747313927.062939,18.930000000,0.000000000,56337.484375000,0.000000000,0.000000000,14.915622711,-59.230464935,0.000000000,14.918999672,-16.215341568
1747313927.065294,18.932000000,0.000000000,56337.484375000,0.000000000,0.000000000,14.915622711,-59.230495453,0.000000000,14.918999672,-16.215341568
1747313927.067668,18.934000000,0.000000000,56337.484375000,0.000000000,0.000000000,14.915622711,-59.230522156,0.000000000,14.918999672,-16.215341568
1747313927.070009,18.937000000,0.000000000,56337.484375000,0.000000000,0.000000000,14.915622711,-59.230548859,0.000000000,14.918999672,-16.215341568
1747313927.072420,18.939000000,0.000000000,56337.484375000,0.000000000,0.000000000,14.915622711,-59.230579376,0.000000000,14.918999672,-16.215341568
1747313927.074848,18.941000000,0.000000000,56337.484375000,0.000000000,0.000000000,14.915622711,-59.230606079,0.000000000,14.918999672,-16.215341568
1747313927.077276,18.944000000,0.000000000,56337.484375000,0.000000000,0.000000000,14.915622711,-59.230636597,0.000000000,14.918999672,-16.215341568
1747313927.079676,18.946000000,0.000000000,56337.484375000,0.000000000,0.000000000,14.915622711,-59.230663300,0.000000000,14.918999672,-16.215341568
1747313927.082094,18.949000000,0.000000000,56337.484375000,0.000000000,0.000000000,14.915622711,-59.230693817,0.000000000,14.918999672,-16.215341568
1747313927.084521,18.951000000,0.000000000,56337.484375000,0.000000000,0.000000000,14.915622711,-59.230724335,0.000000000,14.918999672,-16.215341568
1747313927.086884,18.954000000,0.000000000,56337.484375000,0.000000000,0.000000000,14.915622711,-59.230751038,0.000000000,14.918999672,-16.215341568
1747313927.089222,18.956000000,0.000000000,56337.484375000,0.000000000,0.000000000,14.915622711,-59.230781555,0.000000000,14.918999672,-16.215341568
1747313927.091580,18.958000000,0.000000000,56337.484375000,0.000000000,0.000000000,14.915622711,-59.230808258,0.000000000,14.918999672,-16.215341568
1747313927.093928,18.961000000,0.000000000,56337.484375000,0.000000000,0.000000000,14.915622711,-59.230834961,0.000000000,14.918999672,-16.215341568
1747313927.096283,18.963000000,0.000000000,56337.484375000,0.000000000,0.000000000,14.915622711,-59.230865479,0.000000000,14.918999672,-16.215341568
1747313927.098628,18.965000000,0.000000000,56337.484375000,0.000000000,0.000000000,14.915622711,-59.230892181,0.000000000,14.918999672,-16.215341568
1747313927.100982,18.968000000,0.000000000,56337.484375000,0.000000000,0.000000000,14.915622711,-59.230918884,0.000000000,14.918999672,-16.215341568
1747313927.103342,18.970000000,0.000000000,56337.484375000,0.000000000,0.000000000,14.915622711,-59.230949402,0.000000000,14.918999672,-16.215341568
1747313927.105673,18.972000000,0.000000000,56337.484375000,0.000000000,0.000000000,14.915622711,-59.230976105,0.000000000,14.918999672,-16.215341568
1747313927.108029,18.975000000,0.000000000,56337.484375000,0.000000000,0.000000000,14.915622711,-59.231002808,0.000000000,14.918999672,-16.215341568
1747313927.110373,18.977000000,0.000000000,56337.484375000,0.000000000,0.000000000,14.915622711,-59.231033325,0.000000000,14.918999672,-16.215341568
1747313927.112716,18.979000000,0.000000000,56337.484375000,0.000000000,0.000000000,14.915622711,-59.231060028,0.000000000,14.918999672,-16.215341568
1747313927.115069,18.982000000,0.000000000,56337.484375000,0.000000000,0.000000000,14.915622711,-59.231086731,0.000000000,14.918999672,-16.215341568
1747313927.117433,18.984000000,0.000000000,56337.484375000,0.000000000,0.000000000,14.915622711,-59.231117249,0.000000000,14.918999672,-16.215341568
1747313927.119792,18.986000000,0.000000000,56337.484375000,0.000000000,0.000000000,14.915622711,-59.231143951,0.000000000,14.918999672,-16.215341568
1747313927.122179,18.989000000,0.000000000,56337.484375000,0.000000000,0.000000000,14.915622711,-59.231174469,0.000000000,14.918999672,-16.215341568
1747313927.124500,18.991000000,0.000000000,56337.484375000,0.000000000,0.000000000,14.915622711,-59.231201172,0.000000000,14.918999672,-16.215341568
1747313927.126842,18.994000000,0.000000000,56337.484375000,0.000000000,0.000000000,14.915622711,-59.231227875,0.000000000,14.918999672,-16.215341568
1747313927.129179,18.996000000,0.000000000,56337.484375000,0.000000000,0.000000000,14.915622711,-59.231258392,0.000000000,14.918999672,-16.215341568
1747313927.131512,18.998000000,0.000000000,56337.484375000,0.000000000,0.000000000,14.915622711,-59.231285095,0.000000000,14.918999672,-16.215341568
1747313927.133897,19.001000000,0.000000000,56337.484375000,0.000000000,0.000000000,14.915622711,-59.231311798,0.000000000,14.918999672,-16.215341568
1747313927.136218,19.003000000,0.000000000,56337.484375000,0.000000000,0.000000000,14.915622711,-59.231342316,0.000000000,14.918999672,-16.215341568
1747313927.138567,19.005000000,0.000000000,56337.484375000,0.000000000,0.000000000,14.915622711,-59.231369019,0.000000000,14.918999672,-16.215341568
1747313927.140916,19.008000000,0.000000000,56337.484375000,0.000000000,0.000000000,14.915622711,-59.231395721,0.000000000,14.918999672,-16.215341568
1747313927.143263,19.010000000,0.000000000,56337.484375000,0.000000000,0.000000000,14.915622711,-59.231426239,0.000000000,14.918999672,-16.215341568
1747313927.145605,19.012000000,0.000000000,56337.484375000,0.000000000,0.000000000,14.915622711,-59.231452942,0.000000000,14.918999672,-16.215341568
1747313927.147943,19.015000000,0.000000000,56337.484375000,0.000000000,0.000000000,14.915622711,-59.231479645,0.000000000,14.918999672,-16.215341568
1747313927.150298,19.017000000,0.000000000,56337.484375000,0.000000000,0.000000000,14.915622711,-59.231510162,0.000000000,14.918999672,-16.215341568
1747313927.152642,19.019000000,0.000000000,56337.484375000,0.000000000,0.000000000,14.915622711,-59.231536865,0.000000000,14.918999672,-16.215341568
1747313927.154984,19.022000000,0.000000000,56337.484375000,0.000000000,0.000000000,14.915622711,-59.231563568,0.000000000,14.918999672,-16.215341568
1747313927.157338,19.024000000,0.000000000,56337.484375000,0.000000000,0.000000000,14.915622711,-59.231594086,0.000000000,14.918999672,-16.215341568
1747313927.159693,19.026000000,0.000000000,56337.484375000,0.000000000,0.000000000,14.915622711,-59.231620789,0.000000000,14.918999672,-16.215341568
1747313927.162046,19.029000000,0.000000000,56337.484375000,0.000000000,0.000000000,14.915622711,-59.231651306,0.000000000,14.918999672,-16.215341568
1747313927.164385,19.031000000,0.000000000,56337.484375000,0.000000000,0.000000000,14.915622711,-59.231678009,0.000000000,14.918999672,-16.215341568
1747313927.166752,19.033000000,0.000000000,56337.484375000,0.000000000,0.000000000,14.915622711,-59.231704712,0.000000000,14.918999672,-16.215341568
1747313927.169117,19.036000000,0.000000000,56337.484375000,0.000000000,0.000000000,14.915622711,-59.231735229,0.000000000,14.918999672,-16.215341568
1747313927.171521,19.038000000,0.000000000,56337.484375000,0.000000000,0.000000000,14.915622711,-59.231761932,0.000000000,14.918999672,-16.215341568
1747313927.173851,19.041000000,0.000000000,56337.484375000,0.000000000,0.000000000,14.915622711,-59.231788635,0.000000000,14.918999672,-16.215341568
1747313927.176206,19.043000000,0.000000000,56337.484375000,0.000000000,0.000000000,14.915622711,-59.231819153,0.000000000,14.918999672,-16.215341568
1747313927.178540,19.045000000,0.000000000,56337.484375000,0.000000000,0.000000000,14.915622711,-59.231845856,0.000000000,14.918999672,-16.215341568
1747313927.180871,19.048000000,0.000000000,56337.484375000,0.000000000,0.000000000,14.915622711,-59.231872559,0.000000000,14.918999672,-16.215341568
1747313927.183217,19.050000000,0.000000000,56337.484375000,0.000000000,0.000000000,14.915622711,-59.231903076,0.000000000,14.918999672,-16.215341568
1747313927.185561,19.052000000,0.000000000,56337.484375000,0.000000000,0.000000000,14.915622711,-59.231929779,0.000000000,14.918999672,-16.215341568
1747313927.187898,19.055000000,0.000000000,56337.484375000,0.000000000,0.000000000,14.915622711,-59.231956482,0.000000000,14.918999672,-16.215341568
1747313927.190238,19.057000000,0.000000000,56337.484375000,0.000000000,0.000000000,14.915622711,-59.231987000,0.000000000,14.918999672,-16.215341568
1747313927.192575,19.059000000,0.000000000,56337.484375000,0.000000000,0.000000000,14.915622711,-59.232013702,0.000000000,14.918999672,-16.215341568
1747313927.194913,19.062000000,0.000000000,56337.484375000,0.000000000,0.000000000,14.915622711,-59.232040405,0.000000000,14.918999672,-16.215341568
1747313927.197251,19.064000000,0.000000000,56337.484375000,0.000000000,0.000000000,14.915622711,-59.232070923,0.000000000,14.918999672,-16.215341568
1747313927.199592,19.066000000,0.000000000,56337.484375000,0.000000000,0.000000000,14.915622711,-59.232097626,0.000000000,14.918999672,-16.215341568
1747313927.201936,19.069000000,0.000000000,56337.484375000,0.000000000,0.000000000,14.915622711,-59.232128143,0.000000000,14.918999672,-16.215341568
1747313927.204289,19.071000000,0.000000000,56337.484375000,0.000000000,0.000000000,14.915622711,-59.232154846,0.000000000,14.918999672,-16.215341568
1747313927.206631,19.073000000,0.000000000,56337.484375000,0.000000000,0.000000000,14.915622711,-59.232181549,0.000000000,14.918999672,-16.215341568
1747313927.209019,19.076000000,0.000000000,56337.484375000,0.000000000,0.000000000,14.915622711,-59.232212067,0.000000000,14.918999672,-16.215341568
1747313927.211468,19.078000000,0.000000000,56337.484375000,0.000000000,0.000000000,14.915622711,-59.232238770,0.000000000,14.918999672,-16.215341568
1747313927.213938,19.081000000,0.000000000,56337.484375000,0.000000000,0.000000000,14.915622711,-59.232269287,0.000000000,14.918999672,-16.215341568
1747313927.216284,19.083000000,0.000000000,56337.484375000,0.000000000,0.000000000,14.915622711,-59.232295990,0.000000000,14.918999672,-16.215341568
1747313927.218640,19.085000000,0.000000000,56337.484375000,0.000000000,0.000000000,14.915622711,-59.232326508,0.000000000,14.918999672,-16.215341568
1747313927.221061,19.088000000,0.000000000,56337.484375000,0.000000000,0.000000000,14.915622711,-59.232353210,0.000000000,14.918999672,-16.215341568
1747313927.223398,19.090000000,0.000000000,56337.484375000,0.000000000,0.000000000,14.915622711,-59.232379913,0.000000000,14.918999672,-16.215341568
1747313927.225756,19.092000000,0.000000000,56337.484375000,0.000000000,0.000000000,14.915622711,-59.232410431,0.000000000,14.918999672,-16.215341568
1747313927.228107,19.095000000,0.000000000,56337.484375000,0.000000000,0.000000000,14.915622711,-59.232437134,0.000000000,14.918999672,-16.215341568
1747313927.230466,19.097000000,0.000000000,56337.484375000,0.000000000,0.000000000,14.915622711,-59.232463837,0.000000000,14.918999672,-16.215341568
1747313927.232835,19.100000000,0.000000000,56337.484375000,0.000000000,0.000000000,14.915622711,-59.232494354,0.000000000,14.918999672,-16.215341568
1747313927.235202,19.102000000,0.000000000,56337.484375000,0.000000000,0.000000000,14.915622711,-59.232521057,0.000000000,14.918999672,-16.215341568
1747313927.237532,19.104000000,0.000000000,56337.484375000,0.000000000,0.000000000,14.915622711,-59.232547760,0.000000000,14.918999672,-16.215341568
1747313927.239857,19.107000000,0.000000000,56337.484375000,0.000000000,0.000000000,14.915622711,-59.232578278,0.000000000,14.918999672,-16.215341568
1747313927.242190,19.109000000,0.000000000,56337.484375000,0.000000000,0.000000000,14.915622711,-59.232604980,0.000000000,14.918999672,-16.215341568
1747313927.244529,19.111000000,0.000000000,56337.484375000,0.000000000,0.000000000,14.915622711,-59.232631683,0.000000000,14.918999672,-16.215341568
1747313927.246859,19.114000000,0.000000000,56337.484375000,0.000000000,0.000000000,14.915622711,-59.232662201,0.000000000,14.918999672,-16.215341568
1747313927.249227,19.116000000,0.000000000,56337.484375000,0.000000000,0.000000000,14.915622711,-59.232688904,0.000000000,14.918999672,-16.215341568
1747313927.251589,19.118000000,0.000000000,56337.484375000,0.000000000,0.000000000,14.915622711,-59.232719421,0.000000000,14.918999672,-16.215341568
1747313927.253930,19.121000000,0.000000000,56337.484375000,0.000000000,0.000000000,14.915622711,-59.232746124,0.000000000,14.918999672,-16.215341568
1747313927.256253,19.123000000,0.000000000,56337.484375000,0.000000000,0.000000000,14.915622711,-59.232772827,0.000000000,14.918999672,-16.215341568
1747313927.258583,19.125000000,0.000000000,56337.484375000,0.000000000,0.000000000,14.915622711,-59.232803345,0.000000000,14.918999672,-16.215341568
1747313927.260916,19.128000000,0.000000000,56337.484375000,0.000000000,0.000000000,14.915622711,-59.232830048,0.000000000,14.918999672,-16.215341568
1747313927.263253,19.130000000,0.000000000,56337.484375000,0.000000000,0.000000000,14.915622711,-59.232856750,0.000000000,14.918999672,-16.215341568
1747313927.265615,19.132000000,0.000000000,56337.484375000,0.000000000,0.000000000,14.915622711,-59.232887268,0.000000000,14.918999672,-16.215341568
1747313927.267987,19.135000000,0.000000000,56337.484375000,0.000000000,0.000000000,14.915622711,-59.232913971,0.000000000,14.918999672,-16.215341568
1747313927.270394,19.137000000,0.000000000,56337.484375000,0.000000000,0.000000000,14.915622711,-59.232940674,0.000000000,14.918999672,-16.215341568
1747313927.272713,19.139000000,0.000000000,56337.484375000,0.000000000,0.000000000,14.915622711,-59.232971191,0.000000000,14.918999672,-16.215341568
1747313927.275044,19.142000000,0.000000000,56337.484375000,0.000000000,0.000000000,14.915622711,-59.232997894,0.000000000,14.918999672,-16.215341568
1747313927.277378,19.144000000,0.000000000,56337.484375000,0.000000000,0.000000000,14.915622711,-59.233024597,0.000000000,14.918999672,-16.215341568
1747313927.279714,19.146000000,0.000000000,56337.484375000,0.000000000,0.000000000,14.915622711,-59.233055115,0.000000000,14.918999672,-16.215341568
1747313927.282066,19.149000000,0.000000000,56337.484375000,0.000000000,0.000000000,14.915622711,-59.233081818,0.000000000,14.918999672,-16.215341568
1747313927.284404,19.151000000,0.000000000,56337.484375000,0.000000000,0.000000000,14.915622711,-59.233108521,0.000000000,14.918999672,-16.215341568
1747313927.286742,19.153000000,0.000000000,56337.484375000,0.000000000,0.000000000,14.915622711,-59.233139038,0.000000000,14.918999672,-16.215341568
1747313927.289075,19.156000000,0.000000000,56337.484375000,0.000000000,0.000000000,14.915622711,-59.233165741,0.000000000,14.918999672,-16.215341568
1747313927.291402,19.158000000,0.000000000,56337.484375000,0.000000000,0.000000000,14.915622711,-59.233196259,0.000000000,14.918999672,-16.215341568
1747313927.293740,19.160000000,0.000000000,56337.484375000,0.000000000,0.000000000,14.915622711,-59.233222961,0.000000000,14.918999672,-16.215341568
1747313927.296071,19.163000000,0.000000000,56337.484375000,0.000000000,0.000000000,14.915622711,-59.233249664,0.000000000,14.918999672,-16.215341568
1747313927.298400,19.165000000,0.000000000,56337.484375000,0.000000000,0.000000000,14.915622711,-59.233280182,0.000000000,14.918999672,-16.215341568
1747313927.300742,19.167000000,0.000000000,56337.484375000,0.000000000,0.000000000,14.915622711,-59.233306885,0.000000000,14.918999672,-16.215341568
1747313927.303094,19.170000000,0.000000000,56337.484375000,0.000000000,0.000000000,14.915622711,-59.233333588,0.000000000,14.918999672,-16.215341568
1747313927.305440,19.172000000,0.000000000,56337.484375000,0.000000000,0.000000000,14.915622711,-59.233364105,0.000000000,14.918999672,-16.215341568
1747313927.307782,19.174000000,0.000000000,56337.484375000,0.000000000,0.000000000,14.915622711,-59.233390808,0.000000000,14.918999672,-16.215341568
1747313927.310109,19.177000000,0.000000000,56337.484375000,0.000000000,0.000000000,14.915622711,-59.233417511,0.000000000,14.918999672,-16.215341568
1747313927.312463,19.179000000,0.000000000,56337.484375000,0.000000000,0.000000000,14.915622711,-59.233448029,0.000000000,14.918999672,-16.215341568
1747313927.314815,19.181000000,0.000000000,56337.484375000,0.000000000,0.000000000,14.915622711,-59.233474731,0.000000000,14.918999672,-16.215341568
1747313927.317194,19.184000000,0.000000000,56337.484375000,0.000000000,0.000000000,14.915622711,-59.233501434,0.000000000,14.918999672,-16.215341568
1747313927.319585,19.186000000,0.000000000,56337.484375000,0.000000000,0.000000000,14.915622711,-59.233531952,0.000000000,14.918999672,-16.215341568
1747313927.321900,19.189000000,0.000000000,56337.484375000,0.000000000,0.000000000,14.915622711,-59.233558655,0.000000000,14.918999672,-16.215341568
1747313927.324232,19.191000000,0.000000000,56337.484375000,0.000000000,0.000000000,14.915622711,-59.233585358,0.000000000,14.918999672,-16.215341568
1747313927.326584,19.193000000,0.000000000,56337.484375000,0.000000000,0.000000000,14.915622711,-59.233615875,0.000000000,14.918999672,-16.215341568
1747313927.328921,19.196000000,0.000000000,56337.484375000,0.000000000,0.000000000,14.915622711,-59.233642578,0.000000000,14.918999672,-16.215341568
1747313927.331257,19.198000000,0.000000000,56337.484375000,0.000000000,0.000000000,14.915622711,-59.233673096,0.000000000,14.918999672,-16.215341568
1747313927.333605,19.200000000,0.000000000,56337.484375000,0.000000000,0.000000000,14.915622711,-59.233699799,0.000000000,14.918999672,-16.215341568
1747313927.335945,19.203000000,0.000000000,56337.484375000,0.000000000,0.000000000,14.915622711,-59.233726501,0.000000000,14.918999672,-16.215341568
1747313927.338289,19.205000000,0.000000000,56337.484375000,0.000000000,0.000000000,14.915622711,-59.233757019,0.000000000,14.918999672,-16.215341568
1747313927.340648,19.207000000,0.000000000,56337.484375000,0.000000000,0.000000000,14.915622711,-59.233783722,0.000000000,14.918999672,-16.215341568
1747313927.342981,19.210000000,0.000000000,56337.484375000,0.000000000,0.000000000,14.915622711,-59.233810425,0.000000000,14.918999672,-16.215341568
1747313927.345329,19.212000000,0.000000000,56337.484375000,0.000000000,0.000000000,14.915622711,-59.233840942,0.000000000,14.918999672,-16.215341568
1747313927.347665,19.214000000,0.000000000,56337.484375000,0.000000000,0.000000000,14.915622711,-59.233867645,0.000000000,14.918999672,-16.215341568
1747313927.350011,19.217000000,0.000000000,56337.484375000,0.000000000,0.000000000,14.915622711,-59.233894348,0.000000000,14.918999672,-16.215341568
1747313927.352355,19.219000000,0.000000000,56337.484375000,0.000000000,0.000000000,14.915622711,-59.233924866,0.000000000,14.918999672,-16.215341568
1747313927.354673,19.221000000,0.000000000,56337.484375000,0.000000000,0.000000000,14.915622711,-59.233951569,0.000000000,14.918999672,-16.215341568
1747313927.357011,19.224000000,0.000000000,56337.484375000,0.000000000,0.000000000,14.915622711,-59.233978271,0.000000000,14.918999672,-16.215341568
1747313927.359354,19.226000000,0.000000000,56337.484375000,0.000000000,0.000000000,14.915622711,-59.234008789,0.000000000,14.918999672,-16.215341568
1747313927.361777,19.228000000,0.000000000,56337.484375000,0.000000000,0.000000000,14.915622711,-59.234035492,0.000000000,14.918999672,-16.215341568
1747313927.364167,19.231000000,0.000000000,56337.484375000,0.000000000,0.000000000,14.915622711,-59.234066010,0.000000000,14.918999672,-16.215341568
1747313927.366537,19.233000000,0.000000000,56337.484375000,0.000000000,0.000000000,14.915622711,-59.234092712,0.000000000,14.918999672,-16.215341568
1747313927.368934,19.236000000,0.000000000,56337.484375000,0.000000000,0.000000000,14.915622711,-59.234123230,0.000000000,14.918999672,-16.215341568
1747313927.371249,19.238000000,0.000000000,56337.484375000,0.000000000,0.000000000,14.915622711,-59.234149933,0.000000000,14.918999672,-16.215341568
1747313927.373589,19.240000000,0.000000000,56337.484375000,0.000000000,0.000000000,14.915622711,-59.234176636,0.000000000,14.918999672,-16.215341568
1747313927.375920,19.243000000,0.000000000,56337.484375000,0.000000000,0.000000000,14.915622711,-59.234207153,0.000000000,14.918999672,-16.215341568
1747313927.378256,19.245000000,0.000000000,56337.484375000,0.000000000,0.000000000,14.915622711,-59.234233856,0.000000000,14.918999672,-16.215341568
1747313927.380601,19.247000000,0.000000000,56337.484375000,0.000000000,0.000000000,14.915622711,-59.234260559,0.000000000,14.918999672,-16.215341568
1747313927.382974,19.250000000,0.000000000,56337.484375000,0.000000000,0.000000000,14.915622711,-59.234291077,0.000000000,14.918999672,-16.215341568
1747313927.385298,19.252000000,0.000000000,56337.484375000,0.000000000,0.000000000,14.915622711,-59.234317780,0.000000000,14.918999672,-16.215341568
1747313927.387619,19.254000000,0.000000000,56337.484375000,0.000000000,0.000000000,14.915622711,-59.234348297,0.000000000,14.918999672,-16.215341568
1747313927.389946,19.257000000,0.000000000,56337.484375000,0.000000000,0.000000000,14.915622711,-59.234375000,0.000000000,14.918999672,-16.215341568
1747313927.392297,19.259000000,0.000000000,56337.484375000,0.000000000,0.000000000,14.915622711,-59.234401703,0.000000000,14.918999672,-16.215341568
1747313927.394629,19.261000000,0.000000000,56337.484375000,0.000000000,0.000000000,14.915622711,-59.234432220,0.000000000,14.918999672,-16.215341568
1747313927.396960,19.264000000,0.000000000,56337.484375000,0.000000000,0.000000000,14.915622711,-59.234458923,0.000000000,14.918999672,-16.215341568
1747313927.399321,19.266000000,0.000000000,56337.484375000,0.000000000,0.000000000,14.915622711,-59.234485626,0.000000000,14.918999672,-16.215341568
1747313927.401675,19.268000000,0.000000000,56337.484375000,0.000000000,0.000000000,14.915622711,-59.234516144,0.000000000,14.918999672,-16.215341568
1747313927.404008,19.271000000,0.000000000,56337.484375000,0.000000000,0.000000000,14.915622711,-59.234542847,0.000000000,14.918999672,-16.215341568
1747313927.406356,19.273000000,0.000000000,56337.484375000,0.000000000,0.000000000,14.915622711,-59.234569550,0.000000000,14.918999672,-16.215341568
1747313927.408676,19.275000000,0.000000000,56337.484375000,0.000000000,0.000000000,14.915622711,-59.234600067,0.000000000,14.918999672,-16.215341568
1747313927.411023,19.278000000,0.000000000,56337.484375000,0.000000000,0.000000000,14.915622711,-59.234626770,0.000000000,14.918999672,-16.215341568
1747313927.413403,19.280000000,0.000000000,56337.484375000,0.000000000,0.000000000,14.915622711,-59.234653473,0.000000000,14.918999672,-16.215341568
1747313927.415729,19.282000000,0.000000000,56337.484375000,0.000000000,0.000000000,14.915622711,-59.234683990,0.000000000,14.918999672,-16.215341568
1747313927.418075,19.285000000,0.000000000,56337.484375000,0.000000000,0.000000000,14.915622711,-59.234710693,0.000000000,14.918999672,-16.215341568
1747313927.420435,19.287000000,0.000000000,56337.484375000,0.000000000,0.000000000,14.915622711,-59.234737396,0.000000000,14.918999672,-16.215341568
1747313927.422787,19.289000000,0.000000000,56337.484375000,0.000000000,0.000000000,14.915622711,-59.234767914,0.000000000,14.918999672,-16.215341568
1747313927.425138,19.292000000,0.000000000,56337.484375000,0.000000000,0.000000000,14.915622711,-59.234794617,0.000000000,14.918999672,-16.215341568
1747313927.427459,19.294000000,0.000000000,56337.484375000,0.000000000,0.000000000,14.915622711,-59.234825134,0.000000000,14.918999672,-16.215341568
1747313927.429777,19.296000000,0.000000000,56337.484375000,0.000000000,0.000000000,14.915622711,-59.234851837,0.000000000,14.918999672,-16.215341568
1747313927.432130,19.299000000,0.000000000,56337.484375000,0.000000000,0.000000000,14.915622711,-59.234878540,0.000000000,14.918999672,-16.215341568
1747313927.434477,19.301000000,0.000000000,56337.484375000,0.000000000,0.000000000,14.915622711,-59.234909058,0.000000000,14.918999672,-16.215341568
1747313927.436819,19.303000000,0.000000000,56337.484375000,0.000000000,0.000000000,14.915622711,-59.234935760,0.000000000,14.918999672,-16.215341568
1747313927.439179,19.306000000,0.000000000,56337.484375000,0.000000000,0.000000000,14.915622711,-59.234962463,0.000000000,14.918999672,-16.215341568
1747313927.441540,19.308000000,0.000000000,56337.484375000,0.000000000,0.000000000,14.915622711,-59.234992981,0.000000000,14.918999672,-16.215341568
1747313927.443892,19.311000000,0.000000000,56337.484375000,0.000000000,0.000000000,14.915622711,-59.235019684,0.000000000,14.918999672,-16.215341568
1747313927.446241,19.313000000,0.000000000,56337.484375000,0.000000000,0.000000000,14.915622711,-59.235046387,0.000000000,14.918999672,-16.215341568
1747313927.448615,19.315000000,0.000000000,56337.484375000,0.000000000,0.000000000,14.915622711,-59.235076904,0.000000000,14.918999672,-16.215341568
1747313927.450979,19.318000000,0.000000000,56337.484375000,0.000000000,0.000000000,14.915622711,-59.235103607,0.000000000,14.918999672,-16.215341568
1747313927.453324,19.320000000,0.000000000,56337.484375000,0.000000000,0.000000000,14.915622711,-59.235130310,0.000000000,14.918999672,-16.215341568
1747313927.455662,19.322000000,0.000000000,56337.484375000,0.000000000,0.000000000,14.915622711,-59.235160828,0.000000000,14.918999672,-16.215341568
1747313927.458026,19.325000000,0.000000000,56337.484375000,0.000000000,0.000000000,14.915622711,-59.235187531,0.000000000,14.918999672,-16.215341568
1747313927.460394,19.327000000,0.000000000,56337.484375000,0.000000000,0.000000000,14.915622711,-59.235214233,0.000000000,14.918999672,-16.215341568
1747313927.462750,19.329000000,0.000000000,56337.484375000,0.000000000,0.000000000,14.915622711,-59.235244751,0.000000000,14.918999672,-16.215341568
1747313927.465101,19.332000000,0.000000000,56337.484375000,0.000000000,0.000000000,14.915622711,-59.235271454,0.000000000,14.918999672,-16.215341568
1747313927.467455,19.334000000,0.000000000,56337.484375000,0.000000000,0.000000000,14.915622711,-59.235301971,0.000000000,14.918999672,-16.215341568
1747313927.469791,19.336000000,0.000000000,56337.484375000,0.000000000,0.000000000,14.915622711,-59.235328674,0.000000000,14.918999672,-16.215341568
1747313927.472135,19.339000000,0.000000000,56337.484375000,0.000000000,0.000000000,14.915622711,-59.235355377,0.000000000,14.918999672,-16.215341568
1747313927.474463,19.341000000,0.000000000,56337.484375000,0.000000000,0.000000000,14.915622711,-59.235385895,0.000000000,14.918999672,-16.215341568
1747313927.476807,19.343000000,0.000000000,56337.484375000,0.000000000,0.000000000,14.915622711,-59.235412598,0.000000000,14.918999672,-16.215341568
1747313927.479162,19.346000000,0.000000000,56337.484375000,0.000000000,0.000000000,14.915622711,-59.235439301,0.000000000,14.918999672,-16.215341568
1747313927.481487,19.348000000,0.000000000,56337.484375000,0.000000000,0.000000000,14.915622711,-59.235469818,0.000000000,14.918999672,-16.215341568
1747313927.483850,19.351000000,0.000000000,56337.484375000,0.000000000,0.000000000,14.915622711,-59.235496521,0.000000000,14.918999672,-16.215341568
1747313927.486191,19.353000000,0.000000000,56337.484375000,0.000000000,0.000000000,14.915622711,-59.235523224,0.000000000,14.918999672,-16.215341568
1747313927.488538,19.355000000,0.000000000,56337.484375000,0.000000000,0.000000000,14.915622711,-59.235553741,0.000000000,14.918999672,-16.215341568
1747313927.490879,19.358000000,0.000000000,56337.484375000,0.000000000,0.000000000,14.915622711,-59.235580444,0.000000000,14.918999672,-16.215341568
1747313927.493221,19.360000000,0.000000000,56337.484375000,0.000000000,0.000000000,14.915622711,-59.235607147,0.000000000,14.918999672,-16.215341568
1747313927.495579,19.362000000,0.000000000,56337.484375000,0.000000000,0.000000000,14.915622711,-59.235637665,0.000000000,14.918999672,-16.215341568
1747313927.497920,19.365000000,0.000000000,56337.484375000,0.000000000,0.000000000,14.915622711,-59.235664368,0.000000000,14.918999672,-16.215341568
1747313927.500303,19.367000000,0.000000000,56337.484375000,0.000000000,0.000000000,14.915622711,-59.235691071,0.000000000,14.918999672,-16.215341568
1747313927.502668,19.369000000,0.000000000,56337.484375000,0.000000000,0.000000000,14.915622711,-59.235721588,0.000000000,14.918999672,-16.215341568
1747313927.505008,19.372000000,0.000000000,56337.484375000,0.000000000,0.000000000,14.915622711,-59.235748291,0.000000000,14.918999672,-16.215341568
1747313927.507337,19.374000000,0.000000000,56337.484375000,0.000000000,0.000000000,14.915622711,-59.235778809,0.000000000,14.918999672,-16.215341568
1747313927.509686,19.376000000,0.000000000,56337.484375000,0.000000000,0.000000000,14.915622711,-59.235805511,0.000000000,14.918999672,-16.215341568
1747313927.512030,19.379000000,0.000000000,56337.484375000,0.000000000,0.000000000,14.915622711,-59.235832214,0.000000000,14.918999672,-16.215341568
1747313927.514379,19.381000000,0.000000000,56337.484375000,0.000000000,0.000000000,14.915622711,-59.235862732,0.000000000,14.918999672,-16.215341568
1747313927.516728,19.383000000,0.000000000,56337.484375000,0.000000000,0.000000000,14.915622711,-59.235889435,0.000000000,14.918999672,-16.215341568
1747313927.519088,19.386000000,0.000000000,56337.484375000,0.000000000,0.000000000,14.915622711,-59.235916138,0.000000000,14.918999672,-16.215341568
1747313927.521430,19.388000000,0.000000000,56337.484375000,0.000000000,0.000000000,14.915622711,-59.235946655,0.000000000,14.918999672,-16.215341568
1747313927.523780,19.390000000,0.000000000,56337.484375000,0.000000000,0.000000000,14.915622711,-59.235973358,0.000000000,14.918999672,-16.215341568
1747313927.526137,19.393000000,0.000000000,56337.484375000,0.000000000,0.000000000,14.915622711,-59.236000061,0.000000000,14.918999672,-16.215341568
1747313927.528487,19.395000000,0.000000000,56337.484375000,0.000000000,0.000000000,14.915622711,-59.236030579,0.000000000,14.918999672,-16.215341568
1747313927.530830,19.398000000,0.000000000,56337.484375000,0.000000000,0.000000000,14.915622711,-59.236057281,0.000000000,14.918999672,-16.215341568
1747313927.533205,19.400000000,0.000000000,56337.484375000,0.000000000,0.000000000,14.915622711,-59.236083984,0.000000000,14.918999672,-16.215341568
1747313927.535550,19.402000000,0.000000000,56337.484375000,0.000000000,0.000000000,14.915622711,-59.236114502,0.000000000,14.918999672,-16.215341568
1747313927.537886,19.405000000,0.000000000,56337.484375000,0.000000000,0.000000000,14.915622711,-59.236141205,0.000000000,14.918999672,-16.215341568
1747313927.540202,19.407000000,0.000000000,56337.484375000,0.000000000,0.000000000,14.915622711,-59.236167908,0.000000000,14.918999672,-16.215341568
1747313927.542532,19.409000000,0.000000000,56337.484375000,0.000000000,0.000000000,14.915622711,-59.236198425,0.000000000,14.918999672,-16.215341568
1747313927.544868,19.412000000,0.000000000,56337.484375000,0.000000000,0.000000000,14.915622711,-59.236225128,0.000000000,14.918999672,-16.215341568
1747313927.547207,19.414000000,0.000000000,56337.484375000,0.000000000,0.000000000,14.915622711,-59.236255646,0.000000000,14.918999672,-16.215341568
1747313927.549581,19.416000000,0.000000000,56337.484375000,0.000000000,0.000000000,14.915622711,-59.236282349,0.000000000,14.918999672,-16.215341568
1747313927.551954,19.419000000,0.000000000,56337.484375000,0.000000000,0.000000000,14.915622711,-59.236309052,0.000000000,14.918999672,-16.215341568
1747313927.554303,19.421000000,0.000000000,56337.484375000,0.000000000,0.000000000,14.915622711,-59.236339569,0.000000000,14.918999672,-16.215341568
1747313927.556628,19.423000000,0.000000000,56337.484375000,0.000000000,0.000000000,14.915622711,-59.236366272,0.000000000,14.918999672,-16.215341568
1747313927.558962,19.426000000,0.000000000,56337.484375000,0.000000000,0.000000000,14.915622711,-59.236392975,0.000000000,14.918999672,-16.215341568
1747313927.561296,19.428000000,0.000000000,56337.484375000,0.000000000,0.000000000,14.915622711,-59.236423492,0.000000000,14.918999672,-16.215341568
1747313927.563662,19.430000000,0.000000000,56337.484375000,0.000000000,0.000000000,14.915622711,-59.236450195,0.000000000,14.918999672,-16.215341568
1747313927.566000,19.433000000,0.000000000,56337.484375000,0.000000000,0.000000000,14.915622711,-59.236476898,0.000000000,14.918999672,-16.215341568
1747313927.568358,19.435000000,0.000000000,56337.484375000,0.000000000,0.000000000,14.915622711,-59.236507416,0.000000000,14.918999672,-16.215341568
1747313927.570708,19.437000000,0.000000000,56337.484375000,0.000000000,0.000000000,14.915622711,-59.236534119,0.000000000,14.918999672,-16.215341568
1747313927.573040,19.440000000,0.000000000,56337.484375000,0.000000000,0.000000000,14.915622711,-59.236560822,0.000000000,14.918999672,-16.215341568
1747313927.575371,19.442000000,0.000000000,56337.484375000,0.000000000,0.000000000,14.915622711,-59.236591339,0.000000000,14.918999672,-16.215341568
1747313927.577699,19.444000000,0.000000000,56337.484375000,0.000000000,0.000000000,14.915622711,-59.236618042,0.000000000,14.918999672,-16.215341568
1747313927.580030,19.447000000,0.000000000,56337.484375000,0.000000000,0.000000000,14.915622711,-59.236644745,0.000000000,14.918999672,-16.215341568
1747313927.582416,19.449000000,0.000000000,56337.484375000,0.000000000,0.000000000,14.915622711,-59.236675262,0.000000000,14.918999672,-16.215341568
1747313927.584743,19.451000000,0.000000000,56337.484375000,0.000000000,0.000000000,14.915622711,-59.236701965,0.000000000,14.918999672,-16.215341568
1747313927.587091,19.454000000,0.000000000,56337.484375000,0.000000000,0.000000000,14.915622711,-59.236732483,0.000000000,14.918999672,-16.215341568
1747313927.589414,19.456000000,0.000000000,56337.484375000,0.000000000,0.000000000,14.915622711,-59.236759186,0.000000000,14.918999672,-16.215341568
1747313927.591732,19.458000000,0.000000000,56337.484375000,0.000000000,0.000000000,14.915622711,-59.236785889,0.000000000,14.918999672,-16.215341568
1747313927.594083,19.461000000,0.000000000,56337.484375000,0.000000000,0.000000000,14.915622711,-59.236816406,0.000000000,14.918999672,-16.215341568
1747313927.596458,19.463000000,0.000000000,56337.484375000,0.000000000,0.000000000,14.915622711,-59.236843109,0.000000000,14.918999672,-16.215341568
1747313927.598845,19.465000000,0.000000000,56337.484375000,0.000000000,0.000000000,14.915622711,-59.236869812,0.000000000,14.918999672,-16.215341568
1747313927.601199,19.468000000,0.000000000,56337.484375000,0.000000000,0.000000000,14.915622711,-59.236900330,0.000000000,14.918999672,-16.215341568
1747313927.603540,19.470000000,0.000000000,56337.484375000,0.000000000,0.000000000,14.915622711,-59.236927032,0.000000000,14.918999672,-16.215341568
1747313927.605870,19.473000000,0.000000000,56337.484375000,0.000000000,0.000000000,14.915622711,-59.236957550,0.000000000,14.918999672,-16.215341568
1747313927.608198,19.475000000,0.000000000,56337.484375000,0.000000000,0.000000000,14.915622711,-59.236984253,0.000000000,14.918999672,-16.215341568
1747313927.610527,19.477000000,0.000000000,56337.484375000,0.000000000,0.000000000,14.915622711,-59.237010956,0.000000000,14.918999672,-16.215341568
1747313927.612863,19.480000000,0.000000000,56337.484375000,0.000000000,0.000000000,14.915622711,-59.237041473,0.000000000,14.918999672,-16.215341568
1747313927.615226,19.482000000,0.000000000,56337.484375000,0.000000000,0.000000000,14.915622711,-59.237068176,0.000000000,14.918999672,-16.215341568
1747313927.617573,19.484000000,0.000000000,56337.484375000,0.000000000,0.000000000,14.915622711,-59.237094879,0.000000000,14.918999672,-16.215341568
1747313927.619913,19.487000000,0.000000000,56337.484375000,0.000000000,0.000000000,14.915622711,-59.237125397,0.000000000,14.918999672,-16.215341568
1747313927.622242,19.489000000,0.000000000,56337.484375000,0.000000000,0.000000000,14.915622711,-59.237152100,0.000000000,14.918999672,-16.215341568
1747313927.624585,19.491000000,0.000000000,56337.484375000,0.000000000,0.000000000,14.915622711,-59.237178802,0.000000000,14.918999672,-16.215341568
1747313927.626914,19.494000000,0.000000000,56337.484375000,0.000000000,0.000000000,14.915622711,-59.237209320,0.000000000,14.918999672,-16.215341568
1747313927.629251,19.496000000,0.000000000,56337.484375000,0.000000000,0.000000000,14.915622711,-59.237236023,0.000000000,14.918999672,-16.215341568
1747313927.631577,19.498000000,0.000000000,56337.484375000,0.000000000,0.000000000,14.915622711,-59.237266541,0.000000000,14.918999672,-16.215341568
1747313927.633925,19.501000000,0.000000000,56337.484375000,0.000000000,0.000000000,14.915622711,-59.237293243,0.000000000,14.918999672,-16.215341568
1747313927.636257,19.503000000,0.000000000,56337.484375000,0.000000000,0.000000000,14.915622711,-59.237319946,0.000000000,14.918999672,-16.215341568
1747313927.638610,19.505000000,0.000000000,56337.484375000,0.000000000,0.000000000,14.915622711,-59.237350464,0.000000000,14.918999672,-16.215341568
1747313927.640951,19.508000000,0.000000000,56337.484375000,0.000000000,0.000000000,14.915622711,-59.237377167,0.000000000,14.918999672,-16.215341568
1747313927.643300,19.510000000,0.000000000,56337.484375000,0.000000000,0.000000000,14.915622711,-59.237403870,0.000000000,14.918999672,-16.215341568
1747313927.645610,19.512000000,0.000000000,56337.484375000,0.000000000,0.000000000,14.915622711,-59.237434387,0.000000000,14.918999672,-16.215341568
1747313927.647957,19.515000000,0.000000000,56337.484375000,0.000000000,0.000000000,14.915622711,-59.237461090,0.000000000,14.918999672,-16.215341568
1747313927.650319,19.517000000,0.000000000,56337.484375000,0.000000000,0.000000000,14.915622711,-59.237487793,0.000000000,14.918999672,-16.215341568
1747313927.652677,19.519000000,0.000000000,56337.484375000,0.000000000,0.000000000,14.915622711,-59.237518311,0.000000000,14.918999672,-16.215341568
1747313927.654988,19.522000000,0.000000000,56337.484375000,0.000000000,0.000000000,14.915622711,-59.237545013,0.000000000,14.918999672,-16.215341568
1747313927.657338,19.524000000,0.000000000,56337.484375000,0.000000000,0.000000000,14.915622711,-59.237571716,0.000000000,14.918999672,-16.215341568
1747313927.659666,19.526000000,0.000000000,56337.484375000,0.000000000,0.000000000,14.915622711,-59.237602234,0.000000000,14.918999672,-16.215341568
1747313927.662118,19.529000000,0.000000000,56337.484375000,0.000000000,0.000000000,14.915622711,-59.237628937,0.000000000,14.918999672,-16.215341568
1747313927.664438,19.531000000,0.000000000,56337.484375000,0.000000000,0.000000000,14.915622711,-59.237659454,0.000000000,14.918999672,-16.215341568
1747313927.666789,19.533000000,0.000000000,56337.484375000,0.000000000,0.000000000,14.915622711,-59.237686157,0.000000000,14.918999672,-16.215341568
1747313927.669152,19.536000000,0.000000000,56337.484375000,0.000000000,0.000000000,14.915622711,-59.237712860,0.000000000,14.918999672,-16.215341568
1747313927.671468,19.538000000,0.000000000,56337.484375000,0.000000000,0.000000000,14.915622711,-59.237743378,0.000000000,14.918999672,-16.215341568
1747313927.673851,19.540000000,0.000000000,56337.484375000,0.000000000,0.000000000,14.915622711,-59.237770081,0.000000000,14.918999672,-16.215341568
1747313927.676231,19.543000000,0.000000000,56337.484375000,0.000000000,0.000000000,14.915622711,-59.237800598,0.000000000,14.918999672,-16.215341568
1747313927.678580,19.545000000,0.000000000,56337.484375000,0.000000000,0.000000000,14.915622711,-59.237827301,0.000000000,14.918999672,-16.215341568
1747313927.680957,19.548000000,0.000000000,56337.484375000,0.000000000,0.000000000,14.915622711,-59.237854004,0.000000000,14.918999672,-16.215341568
1747313927.683362,19.550000000,0.000000000,56337.484375000,0.000000000,0.000000000,14.915622711,-59.237884521,0.000000000,14.918999672,-16.215341568
1747313927.685705,19.552000000,0.000000000,56337.484375000,0.000000000,0.000000000,14.915622711,-59.237911224,0.000000000,14.918999672,-16.215341568
1747313927.688089,19.555000000,0.000000000,56337.484375000,0.000000000,0.000000000,14.915622711,-59.237937927,0.000000000,14.918999672,-16.215341568
1747313927.690484,19.557000000,0.000000000,56337.484375000,0.000000000,0.000000000,14.915622711,-59.237968445,0.000000000,14.918999672,-16.215341568
1747313927.692814,19.559000000,0.000000000,56337.484375000,0.000000000,0.000000000,14.915622711,-59.237995148,0.000000000,14.918999672,-16.215341568
1747313927.695299,19.562000000,0.000000000,56337.484375000,0.000000000,0.000000000,14.915622711,-59.238021851,0.000000000,14.918999672,-16.215341568
1747313927.697760,19.564000000,0.000000000,56337.484375000,0.000000000,0.000000000,14.915622711,-59.238052368,0.000000000,14.918999672,-16.215341568
1747313927.700149,19.567000000,0.000000000,56337.484375000,0.000000000,0.000000000,14.915622711,-59.238082886,0.000000000,14.918999672,-16.215341568
1747313927.702526,19.569000000,0.000000000,56337.484375000,0.000000000,0.000000000,14.915622711,-59.238109589,0.000000000,14.918999672,-16.215341568
1747313927.704911,19.572000000,0.000000000,56337.484375000,0.000000000,0.000000000,14.915622711,-59.238136292,0.000000000,14.918999672,-16.215341568
1747313927.707284,19.574000000,0.000000000,56337.484375000,0.000000000,0.000000000,14.915622711,-59.238166809,0.000000000,14.918999672,-16.215341568
1747313927.709667,19.576000000,0.000000000,56337.484375000,0.000000000,0.000000000,14.915622711,-59.238193512,0.000000000,14.918999672,-16.215341568
1747313927.712076,19.579000000,0.000000000,56337.484375000,0.000000000,0.000000000,14.915622711,-59.238220215,0.000000000,14.918999672,-16.215341568
1747313927.714487,19.581000000,0.000000000,56337.484375000,0.000000000,0.000000000,14.915622711,-59.238250732,0.000000000,14.918999672,-16.215341568
1747313927.716891,19.584000000,0.000000000,56337.484375000,0.000000000,0.000000000,14.915622711,-59.238281250,0.000000000,14.918999672,-16.215341568
1747313927.719283,19.586000000,0.000000000,56337.484375000,0.000000000,0.000000000,14.915622711,-59.238307953,0.000000000,14.918999672,-16.215341568
1747313927.721627,19.588000000,0.000000000,56337.484375000,0.000000000,0.000000000,14.915622711,-59.238338470,0.000000000,14.918999672,-16.215341568
1747313927.723988,19.591000000,0.000000000,56337.484375000,0.000000000,0.000000000,14.915622711,-59.238365173,0.000000000,14.918999672,-16.215341568
1747313927.726428,19.593000000,0.000000000,56337.484375000,0.000000000,0.000000000,14.915622711,-59.238391876,0.000000000,14.918999672,-16.215341568
1747313927.728788,19.595000000,0.000000000,56337.484375000,0.000000000,0.000000000,14.915622711,-59.238422394,0.000000000,14.918999672,-16.215341568
1747313927.731215,19.598000000,0.000000000,56337.484375000,0.000000000,0.000000000,14.915622711,-59.238449097,0.000000000,14.918999672,-16.215341568
1747313927.733563,19.600000000,0.000000000,56337.484375000,0.000000000,0.000000000,14.915622711,-59.238479614,0.000000000,14.918999672,-16.215341568
1747313927.735942,19.603000000,0.000000000,56337.484375000,0.000000000,0.000000000,14.915622711,-59.238506317,0.000000000,14.918999672,-16.215341568
1747313927.738311,19.605000000,0.000000000,56337.484375000,0.000000000,0.000000000,14.915622711,-59.238533020,0.000000000,14.918999672,-16.215341568
1747313927.740742,19.607000000,0.000000000,56337.484375000,0.000000000,0.000000000,14.915622711,-59.238563538,0.000000000,14.918999672,-16.215341568
1747313927.743117,19.610000000,0.000000000,56337.484375000,0.000000000,0.000000000,14.915622711,-59.238590240,0.000000000,14.918999672,-16.215341568
1747313927.745513,19.612000000,0.000000000,56337.484375000,0.000000000,0.000000000,14.915622711,-59.238620758,0.000000000,14.918999672,-16.215341568
1747313927.747926,19.615000000,0.000000000,56337.484375000,0.000000000,0.000000000,14.915622711,-59.238647461,0.000000000,14.918999672,-16.215341568
1747313927.750265,19.617000000,0.000000000,56337.484375000,0.000000000,0.000000000,14.915622711,-59.238674164,0.000000000,14.918999672,-16.215341568
1747313927.752640,19.619000000,0.000000000,56337.484375000,0.000000000,0.000000000,14.915622711,-59.238704681,0.000000000,14.918999672,-16.215341568
1747313927.755013,19.622000000,0.000000000,56337.484375000,0.000000000,0.000000000,14.915622711,-59.238731384,0.000000000,14.918999672,-16.215341568
1747313927.757386,19.624000000,0.000000000,56337.484375000,0.000000000,0.000000000,14.915622711,-59.238758087,0.000000000,14.918999672,-16.215341568
1747313927.759760,19.626000000,0.000000000,56337.484375000,0.000000000,0.000000000,14.915622711,-59.238788605,0.000000000,14.918999672,-16.215341568
1747313927.762143,19.629000000,0.000000000,56337.484375000,0.000000000,0.000000000,14.915622711,-59.238815308,0.000000000,14.918999672,-16.215341568
1747313927.764505,19.631000000,0.000000000,56337.484375000,0.000000000,0.000000000,14.915622711,-59.238845825,0.000000000,14.918999672,-16.215341568
1747313927.766892,19.634000000,0.000000000,56337.484375000,0.000000000,0.000000000,14.915622711,-59.238872528,0.000000000,14.918999672,-16.215341568
1747313927.769267,19.636000000,0.000000000,56337.484375000,0.000000000,0.000000000,14.915622711,-59.238899231,0.000000000,14.918999672,-16.215341568
1747313927.771638,19.638000000,0.000000000,56337.484375000,0.000000000,0.000000000,14.915622711,-59.238929749,0.000000000,14.918999672,-16.215341568
1747313927.774024,19.641000000,0.000000000,56337.484375000,0.000000000,0.000000000,14.915622711,-59.238956451,0.000000000,14.918999672,-16.215341568
1747313927.776414,19.643000000,0.000000000,56337.484375000,0.000000000,0.000000000,14.915622711,-59.238983154,0.000000000,14.918999672,-16.215341568
1747313927.778812,19.645000000,0.000000000,56337.484375000,0.000000000,0.000000000,14.915622711,-59.239013672,0.000000000,14.918999672,-16.215341568
1747313927.781198,19.648000000,0.000000000,56337.484375000,0.000000000,0.000000000,14.915622711,-59.239040375,0.000000000,14.918999672,-16.215341568
1747313927.783597,19.650000000,0.000000000,56337.484375000,0.000000000,0.000000000,14.915622711,-59.239070892,0.000000000,14.918999672,-16.215341568
1747313927.786005,19.653000000,0.000000000,56337.484375000,0.000000000,0.000000000,14.915622711,-59.239097595,0.000000000,14.918999672,-16.215341568
1747313927.788387,19.655000000,0.000000000,56337.484375000,0.000000000,0.000000000,14.915622711,-59.239128113,0.000000000,14.918999672,-16.215341568
1747313927.790752,19.657000000,0.000000000,56337.484375000,0.000000000,0.000000000,14.915622711,-59.239154816,0.000000000,14.918999672,-16.215341568
1747313927.793146,19.660000000,0.000000000,56337.484375000,0.000000000,0.000000000,14.915622711,-59.239185333,0.000000000,14.918999672,-16.215341568
1747313927.795498,19.662000000,0.000000000,56337.484375000,0.000000000,0.000000000,14.915622711,-59.239212036,0.000000000,14.918999672,-16.215341568
1747313927.797869,19.665000000,0.000000000,56337.484375000,0.000000000,0.000000000,14.915622711,-59.239238739,0.000000000,14.918999672,-16.215341568
1747313927.800282,19.667000000,0.000000000,56337.484375000,0.000000000,0.000000000,14.915622711,-59.239269257,0.000000000,14.918999672,-16.215341568
1747313927.802662,19.669000000,0.000000000,56337.484375000,0.000000000,0.000000000,14.915622711,-59.239295959,0.000000000,14.918999672,-16.215341568
1747313927.805041,19.672000000,0.000000000,56337.484375000,0.000000000,0.000000000,14.915622711,-59.239322662,0.000000000,14.918999672,-16.215341568
1747313927.807469,19.674000000,0.000000000,56337.484375000,0.000000000,0.000000000,14.915622711,-59.239353180,0.000000000,14.918999672,-16.215341568
1747313927.809865,19.676000000,0.000000000,56337.484375000,0.000000000,0.000000000,14.915622711,-59.239379883,0.000000000,14.918999672,-16.215341568
1747313927.812247,19.679000000,0.000000000,56337.484375000,0.000000000,0.000000000,14.915622711,-59.239410400,0.000000000,14.918999672,-16.215341568
1747313927.814608,19.681000000,0.000000000,56337.484375000,0.000000000,0.000000000,14.915622711,-59.239437103,0.000000000,14.918999672,-16.215341568
1747313927.817039,19.684000000,0.000000000,56337.484375000,0.000000000,0.000000000,14.915622711,-59.239463806,0.000000000,14.918999672,-16.215341568
1747313927.819470,19.686000000,0.000000000,56337.484375000,0.000000000,0.000000000,14.915622711,-59.239494324,0.000000000,14.918999672,-16.215341568
1747313927.821899,19.689000000,0.000000000,56337.484375000,0.000000000,0.000000000,14.915622711,-59.239524841,0.000000000,14.918999672,-16.215341568
1747313927.824274,19.691000000,0.000000000,56337.484375000,0.000000000,0.000000000,14.915622711,-59.239551544,0.000000000,14.918999672,-16.215341568
1747313927.826654,19.693000000,0.000000000,56337.484375000,0.000000000,0.000000000,14.915622711,-59.239582062,0.000000000,14.918999672,-16.215341568
1747313927.829046,19.696000000,0.000000000,56337.484375000,0.000000000,0.000000000,14.915622711,-59.239608765,0.000000000,14.918999672,-16.215341568
1747313927.831451,19.698000000,0.000000000,56337.484375000,0.000000000,0.000000000,14.915622711,-59.239635468,0.000000000,14.918999672,-16.215341568
1747313927.833819,19.700000000,0.000000000,56337.484375000,0.000000000,0.000000000,14.915622711,-59.239665985,0.000000000,14.918999672,-16.215341568
1747313927.836221,19.703000000,0.000000000,56337.484375000,0.000000000,0.000000000,14.915622711,-59.239692688,0.000000000,14.918999672,-16.215341568
1747313927.838602,19.705000000,0.000000000,56337.484375000,0.000000000,0.000000000,14.915622711,-59.239723206,0.000000000,14.918999672,-16.215341568
1747313927.840974,19.708000000,0.000000000,56337.484375000,0.000000000,0.000000000,14.915622711,-59.239749908,0.000000000,14.918999672,-16.215341568
1747313927.843360,19.710000000,0.000000000,56337.484375000,0.000000000,0.000000000,14.915622711,-59.239780426,0.000000000,14.918999672,-16.215341568
1747313927.845753,19.712000000,0.000000000,56337.484375000,0.000000000,0.000000000,14.915622711,-59.239807129,0.000000000,14.918999672,-16.215341568
1747313927.848141,19.715000000,0.000000000,56337.484375000,0.000000000,0.000000000,14.915622711,-59.239833832,0.000000000,14.918999672,-16.215341568
1747313927.850515,19.717000000,0.000000000,56337.484375000,0.000000000,0.000000000,14.915622711,-59.239864349,0.000000000,14.918999672,-16.215341568
1747313927.852895,19.720000000,0.000000000,56337.484375000,0.000000000,0.000000000,14.915622711,-59.239891052,0.000000000,14.918999672,-16.215341568
1747313927.855275,19.722000000,0.000000000,56337.484375000,0.000000000,0.000000000,14.915622711,-59.239917755,0.000000000,14.918999672,-16.215341568
1747313927.857648,19.724000000,0.000000000,56337.484375000,0.000000000,0.000000000,14.915622711,-59.239948273,0.000000000,14.918999672,-16.215341568
1747313927.860059,19.727000000,0.000000000,56337.484375000,0.000000000,0.000000000,14.915622711,-59.239974976,0.000000000,14.918999672,-16.215341568
1747313927.862431,19.729000000,0.000000000,56337.484375000,0.000000000,0.000000000,14.915622711,-59.240005493,0.000000000,14.918999672,-16.215341568
1747313927.864802,19.731000000,0.000000000,56337.484375000,0.000000000,0.000000000,14.915622711,-59.240032196,0.000000000,14.918999672,-16.215341568
1747313927.867178,19.734000000,0.000000000,56337.484375000,0.000000000,0.000000000,14.915622711,-59.240058899,0.000000000,14.918999672,-16.215341568
1747313927.869563,19.736000000,0.000000000,56337.484375000,0.000000000,0.000000000,14.915622711,-59.240089417,0.000000000,14.918999672,-16.215341568
1747313927.871943,19.739000000,0.000000000,56337.484375000,0.000000000,0.000000000,14.915622711,-59.240116119,0.000000000,14.918999672,-16.215341568
1747313927.874316,19.741000000,0.000000000,56337.484375000,0.000000000,0.000000000,14.915622711,-59.240142822,0.000000000,14.918999672,-16.215341568
1747313927.876699,19.743000000,0.000000000,56337.484375000,0.000000000,0.000000000,14.915622711,-59.240173340,0.000000000,14.918999672,-16.215341568
1747313927.879159,19.746000000,0.000000000,56337.484375000,0.000000000,0.000000000,14.915622711,-59.240200043,0.000000000,14.918999672,-16.215341568
1747313927.881553,19.748000000,0.000000000,56337.484375000,0.000000000,0.000000000,14.915622711,-59.240230560,0.000000000,14.918999672,-16.215341568
1747313927.883959,19.751000000,0.000000000,56337.484375000,0.000000000,0.000000000,14.915622711,-59.240257263,0.000000000,14.918999672,-16.215341568
1747313927.886343,19.753000000,0.000000000,56337.484375000,0.000000000,0.000000000,14.915622711,-59.240287781,0.000000000,14.918999672,-16.215341568
1747313927.888726,19.755000000,0.000000000,56337.484375000,0.000000000,0.000000000,14.915622711,-59.240314484,0.000000000,14.918999672,-16.215341568
1747313927.891099,19.758000000,0.000000000,56337.484375000,0.000000000,0.000000000,14.915622711,-59.240345001,0.000000000,14.918999672,-16.215341568
1747313927.893492,19.760000000,0.000000000,56337.484375000,0.000000000,0.000000000,14.915622711,-59.240371704,0.000000000,14.918999672,-16.215341568
1747313927.895869,19.762000000,0.000000000,56337.484375000,0.000000000,0.000000000,14.915622711,-59.240398407,0.000000000,14.918999672,-16.215341568
1747313927.898261,19.765000000,0.000000000,56337.484375000,0.000000000,0.000000000,14.915622711,-59.240428925,0.000000000,14.918999672,-16.215341568
1747313927.900657,19.767000000,0.000000000,56337.484375000,0.000000000,0.000000000,14.915622711,-59.240455627,0.000000000,14.918999672,-16.215341568
1747313927.903069,19.770000000,0.000000000,56337.484375000,0.000000000,0.000000000,14.915622711,-59.240482330,0.000000000,14.918999672,-16.215341568
1747313927.905460,19.772000000,0.000000000,56337.484375000,0.000000000,0.000000000,14.915622711,-59.240512848,0.000000000,14.918999672,-16.215341568
1747313927.907841,19.774000000,0.000000000,56337.484375000,0.000000000,0.000000000,14.915622711,-59.240539551,0.000000000,14.918999672,-16.215341568
1747313927.910237,19.777000000,0.000000000,56337.484375000,0.000000000,0.000000000,14.915622711,-59.240570068,0.000000000,14.918999672,-16.215341568
1747313927.912736,19.779000000,0.000000000,56337.484375000,0.000000000,0.000000000,14.915622711,-59.240596771,0.000000000,14.918999672,-16.215341568
1747313927.915207,19.782000000,0.000000000,56337.484375000,0.000000000,0.000000000,14.915622711,-59.240627289,0.000000000,14.918999672,-16.215341568
1747313927.917658,19.784000000,0.000000000,56337.484375000,0.000000000,0.000000000,14.915622711,-59.240657806,0.000000000,14.918999672,-16.215341568
1747313927.920160,19.787000000,0.000000000,56337.484375000,0.000000000,0.000000000,14.915622711,-59.240684509,0.000000000,14.918999672,-16.215341568
1747313927.922611,19.789000000,0.000000000,56337.484375000,0.000000000,0.000000000,14.915622711,-59.240715027,0.000000000,14.918999672,-16.215341568
1747313927.925060,19.792000000,0.000000000,56337.484375000,0.000000000,0.000000000,14.915622711,-59.240745544,0.000000000,14.918999672,-16.215341568
1747313927.927532,19.794000000,0.000000000,56337.484375000,0.000000000,0.000000000,14.915622711,-59.240772247,0.000000000,14.918999672,-16.215341568
1747313927.929925,19.797000000,0.000000000,56337.484375000,0.000000000,0.000000000,14.915622711,-59.240802765,0.000000000,14.918999672,-16.215341568
1747313927.932301,19.799000000,0.000000000,56337.484375000,0.000000000,0.000000000,14.915622711,-59.240829468,0.000000000,14.918999672,-16.215341568
1747313927.934720,19.801000000,0.000000000,56337.484375000,0.000000000,0.000000000,14.915622711,-59.240859985,0.000000000,14.918999672,-16.215341568
1747313927.937129,19.804000000,0.000000000,56337.484375000,0.000000000,0.000000000,14.915622711,-59.240886688,0.000000000,14.918999672,-16.215341568
1747313927.939545,19.806000000,0.000000000,56337.484375000,0.000000000,0.000000000,14.915622711,-59.240917206,0.000000000,14.918999672,-16.215341568
1747313927.941958,19.809000000,0.000000000,56337.484375000,0.000000000,0.000000000,14.915622711,-59.240947723,0.000000000,14.918999672,-16.215341568
1747313927.944389,19.811000000,0.000000000,56337.484375000,0.000000000,0.000000000,14.915622711,-59.240974426,0.000000000,14.918999672,-16.215341568
1747313927.946807,19.813000000,0.000000000,56337.484375000,0.000000000,0.000000000,14.915622711,-59.241004944,0.000000000,14.918999672,-16.215341568
1747313927.949297,19.816000000,0.000000000,56337.484375000,0.000000000,0.000000000,14.915622711,-59.241035461,0.000000000,14.918999672,-16.215341568
1747313927.951764,19.818000000,0.000000000,56337.484375000,0.000000000,0.000000000,14.915622711,-59.241062164,0.000000000,14.918999672,-16.215341568
1747313927.954248,19.821000000,0.000000000,56337.484375000,0.000000000,0.000000000,14.915622711,-59.241092682,0.000000000,14.918999672,-16.215341568
1747313927.956646,19.823000000,0.000000000,56337.484375000,0.000000000,0.000000000,14.915622711,-59.241123199,0.000000000,14.918999672,-16.215341568
1747313927.959044,19.826000000,0.000000000,56337.484375000,0.000000000,0.000000000,14.915622711,-59.241149902,0.000000000,14.918999672,-16.215341568
1747313927.961455,19.828000000,0.000000000,56337.484375000,0.000000000,0.000000000,14.915622711,-59.241180420,0.000000000,14.918999672,-16.215341568
1747313927.963851,19.830000000,0.000000000,56337.484375000,0.000000000,0.000000000,14.915622711,-59.241207123,0.000000000,14.918999672,-16.215341568
1747313927.966271,19.833000000,0.000000000,56337.484375000,0.000000000,0.000000000,14.915622711,-59.241237640,0.000000000,14.918999672,-16.215341568
1747313927.968711,19.835000000,0.000000000,56337.484375000,0.000000000,0.000000000,14.915622711,-59.241268158,0.000000000,14.918999672,-16.215341568
1747313927.971155,19.838000000,0.000000000,56337.484375000,0.000000000,0.000000000,14.915622711,-59.241294861,0.000000000,14.918999672,-16.215341568
1747313927.973492,19.840000000,0.000000000,56337.484375000,0.000000000,0.000000000,14.915622711,-59.241325378,0.000000000,14.918999672,-16.215341568
1747313927.975866,19.842000000,0.000000000,56337.484375000,0.000000000,0.000000000,14.915622711,-59.241352081,0.000000000,14.918999672,-16.215341568
1747313927.978274,19.845000000,0.000000000,56337.484375000,0.000000000,0.000000000,14.915622711,-59.241382599,0.000000000,14.918999672,-16.215341568
1747313927.980649,19.847000000,0.000000000,56337.484375000,0.000000000,0.000000000,14.915622711,-59.241409302,0.000000000,14.918999672,-16.215341568
1747313927.983034,19.850000000,0.000000000,56337.484375000,0.000000000,0.000000000,14.915622711,-59.241439819,0.000000000,14.918999672,-16.215341568
1747313927.985445,19.852000000,0.000000000,56337.484375000,0.000000000,0.000000000,14.915622711,-59.241466522,0.000000000,14.918999672,-16.215341568
1747313927.987851,19.854000000,0.000000000,56337.484375000,0.000000000,0.000000000,14.915622711,-59.241497040,0.000000000,14.918999672,-16.215341568
1747313927.990252,19.857000000,0.000000000,56337.484375000,0.000000000,0.000000000,14.915622711,-59.241523743,0.000000000,14.918999672,-16.215341568
1747313927.992616,19.859000000,0.000000000,56337.484375000,0.000000000,0.000000000,14.915622711,-59.241554260,0.000000000,14.918999672,-16.215341568
1747313927.994988,19.862000000,0.000000000,56337.484375000,0.000000000,0.000000000,14.915622711,-59.241580963,0.000000000,14.918999672,-16.215341568
1747313927.997365,19.864000000,0.000000000,56337.484375000,0.000000000,0.000000000,14.915622711,-59.241607666,0.000000000,14.918999672,-16.215341568
1747313927.999798,19.866000000,0.000000000,56337.484375000,0.000000000,0.000000000,14.915622711,-59.241638184,0.000000000,14.918999672,-16.215341568
1747313928.002274,19.869000000,0.000000000,56337.484375000,0.000000000,0.000000000,14.915622711,-59.241664886,0.000000000,14.918999672,-16.215341568
1747313928.004678,19.871000000,0.000000000,56337.484375000,0.000000000,0.000000000,14.915622711,-59.241695404,0.000000000,14.918999672,-16.215341568
1747313928.007061,19.874000000,0.000000000,56337.484375000,0.000000000,0.000000000,14.915622711,-59.241725922,0.000000000,14.918999672,-16.215341568
1747313928.009432,19.876000000,0.000000000,56337.484375000,0.000000000,0.000000000,14.915622711,-59.241752625,0.000000000,14.918999672,-16.215341568
1747313928.011810,19.878000000,0.000000000,56337.484375000,0.000000000,0.000000000,14.915622711,-59.241779327,0.000000000,14.918999672,-16.215341568
1747313928.014186,19.881000000,0.000000000,56337.484375000,0.000000000,0.000000000,14.915622711,-59.241809845,0.000000000,14.918999672,-16.215341568
1747313928.016619,19.883000000,0.000000000,56337.484375000,0.000000000,0.000000000,14.915622711,-59.241836548,0.000000000,14.918999672,-16.215341568
1747313928.019034,19.886000000,0.000000000,56337.484375000,0.000000000,0.000000000,14.915622711,-59.241867065,0.000000000,14.918999672,-16.215341568
1747313928.021454,19.888000000,0.000000000,56337.484375000,0.000000000,0.000000000,14.915622711,-59.241893768,0.000000000,14.918999672,-16.215341568
1747313928.023813,19.890000000,0.000000000,56337.484375000,0.000000000,0.000000000,14.915622711,-59.241924286,0.000000000,14.918999672,-16.215341568
1747313928.026226,19.893000000,0.000000000,56337.484375000,0.000000000,0.000000000,14.915622711,-59.241950989,0.000000000,14.918999672,-16.215341568
1747313928.028599,19.895000000,0.000000000,56337.484375000,0.000000000,0.000000000,14.915622711,-59.241981506,0.000000000,14.918999672,-16.215341568
1747313928.030960,19.898000000,0.000000000,56337.484375000,0.000000000,0.000000000,14.915622711,-59.242012024,0.000000000,14.918999672,-16.215341568
1747313928.033322,19.900000000,0.000000000,56337.484375000,0.000000000,0.000000000,14.915622711,-59.242038727,0.000000000,14.918999672,-16.215341568
1747313928.035714,19.902000000,0.000000000,56337.484375000,0.000000000,0.000000000,14.915622711,-59.242065430,0.000000000,14.918999672,-16.215341568
1747313928.038096,19.905000000,0.000000000,56337.484375000,0.000000000,0.000000000,14.915622711,-59.242095947,0.000000000,14.918999672,-16.215341568
1747313928.040472,19.907000000,0.000000000,56337.484375000,0.000000000,0.000000000,14.915622711,-59.242122650,0.000000000,14.918999672,-16.215341568
1747313928.042834,19.909000000,0.000000000,56337.484375000,0.000000000,0.000000000,14.915622711,-59.242149353,0.000000000,14.918999672,-16.215341568
1747313928.045217,19.912000000,0.000000000,56337.484375000,0.000000000,0.000000000,14.915622711,-59.242179871,0.000000000,14.918999672,-16.215341568
1747313928.047592,19.914000000,0.000000000,56337.484375000,0.000000000,0.000000000,14.915622711,-59.242206573,0.000000000,14.918999672,-16.215341568
1747313928.049991,19.917000000,0.000000000,56337.484375000,0.000000000,0.000000000,14.915622711,-59.242233276,0.000000000,14.918999672,-16.215341568
1747313928.052366,19.919000000,0.000000000,56337.484375000,0.000000000,0.000000000,14.915622711,-59.242263794,0.000000000,14.918999672,-16.215341568
1747313928.054725,19.921000000,0.000000000,56337.484375000,0.000000000,0.000000000,14.915622711,-59.242290497,0.000000000,14.918999672,-16.215341568
1747313928.057113,19.924000000,0.000000000,56337.484375000,0.000000000,0.000000000,14.915622711,-59.242317200,0.000000000,14.918999672,-16.215341568
1747313928.059515,19.926000000,0.000000000,56337.484375000,0.000000000,0.000000000,14.915622711,-59.242347717,0.000000000,14.918999672,-16.215341568
1747313928.061885,19.929000000,0.000000000,56337.484375000,0.000000000,0.000000000,14.915622711,-59.242374420,0.000000000,14.918999672,-16.215341568
1747313928.064267,19.931000000,0.000000000,56337.484375000,0.000000000,0.000000000,14.915622711,-59.242401123,0.000000000,14.918999672,-16.215341568
1747313928.066647,19.933000000,0.000000000,56337.484375000,0.000000000,0.000000000,14.915622711,-59.242431641,0.000000000,14.918999672,-16.215341568
1747313928.069067,19.936000000,0.000000000,56337.484375000,0.000000000,0.000000000,14.915622711,-59.242458344,0.000000000,14.918999672,-16.215341568
1747313928.071485,19.938000000,0.000000000,56337.484375000,0.000000000,0.000000000,14.915622711,-59.242488861,0.000000000,14.918999672,-16.215341568
1747313928.073846,19.940000000,0.000000000,56337.484375000,0.000000000,0.000000000,14.915622711,-59.242515564,0.000000000,14.918999672,-16.215341568
1747313928.076250,19.943000000,0.000000000,56337.484375000,0.000000000,0.000000000,14.915622711,-59.242546082,0.000000000,14.918999672,-16.215341568
1747313928.078651,19.945000000,0.000000000,56337.484375000,0.000000000,0.000000000,14.915622711,-59.242572784,0.000000000,14.918999672,-16.215341568
1747313928.081036,19.948000000,0.000000000,56337.484375000,0.000000000,0.000000000,14.915622711,-59.242603302,0.000000000,14.918999672,-16.215341568
1747313928.083427,19.950000000,0.000000000,56337.484375000,0.000000000,0.000000000,14.915622711,-59.242630005,0.000000000,14.918999672,-16.215341568
1747313928.085843,19.952000000,0.000000000,56337.484375000,0.000000000,0.000000000,14.915622711,-59.242660522,0.000000000,14.918999672,-16.215341568
1747313928.088230,19.955000000,0.000000000,56337.484375000,0.000000000,0.000000000,14.915622711,-59.242687225,0.000000000,14.918999672,-16.215341568
1747313928.090587,19.957000000,0.000000000,56337.484375000,0.000000000,0.000000000,14.915622711,-59.242717743,0.000000000,14.918999672,-16.215341568
1747313928.092963,19.960000000,0.000000000,56337.484375000,0.000000000,0.000000000,14.915622711,-59.242744446,0.000000000,14.918999672,-16.215341568
1747313928.095332,19.962000000,0.000000000,56337.484375000,0.000000000,0.000000000,14.915622711,-59.242771149,0.000000000,14.918999672,-16.215341568
1747313928.097694,19.964000000,0.000000000,56337.484375000,0.000000000,0.000000000,14.915622711,-59.242801666,0.000000000,14.918999672,-16.215341568
1747313928.100097,19.967000000,0.000000000,56337.484375000,0.000000000,0.000000000,14.915622711,-59.242828369,0.000000000,14.918999672,-16.215341568
1747313928.102480,19.969000000,0.000000000,56337.484375000,0.000000000,0.000000000,14.915622711,-59.242858887,0.000000000,14.918999672,-16.215341568
1747313928.104864,19.971000000,0.000000000,56337.484375000,0.000000000,0.000000000,14.915622711,-59.242885590,0.000000000,14.918999672,-16.215341568
1747313928.107240,19.974000000,0.000000000,56337.484375000,0.000000000,0.000000000,14.915622711,-59.242912292,0.000000000,14.918999672,-16.215341568
1747313928.109601,19.976000000,0.000000000,56337.484375000,0.000000000,0.000000000,14.915622711,-59.242942810,0.000000000,14.918999672,-16.215341568
1747313928.111994,19.979000000,0.000000000,56337.484375000,0.000000000,0.000000000,14.915622711,-59.242969513,0.000000000,14.918999672,-16.215341568
1747313928.114372,19.981000000,0.000000000,56337.484375000,0.000000000,0.000000000,14.915622711,-59.242996216,0.000000000,14.918999672,-16.215341568
1747313928.116794,19.983000000,0.000000000,56337.484375000,0.000000000,0.000000000,14.915622711,-59.243026733,0.000000000,14.918999672,-16.215341568
1747313928.119225,19.986000000,0.000000000,56337.484375000,0.000000000,0.000000000,14.915622711,-59.243053436,0.000000000,14.918999672,-16.215341568
1747313928.121643,19.988000000,0.000000000,56337.484375000,0.000000000,0.000000000,14.915622711,-59.243083954,0.000000000,14.918999672,-16.215341568
1747313928.124080,19.991000000,0.000000000,56337.484375000,0.000000000,0.000000000,14.915622711,-59.243114471,0.000000000,14.918999672,-16.215341568
1747313928.126460,19.993000000,0.000000000,56337.484375000,0.000000000,0.000000000,14.915622711,-59.243141174,0.000000000,14.918999672,-16.215341568
1747313928.128911,19.996000000,0.000000000,56337.484375000,0.000000000,0.000000000,14.915622711,-59.243171692,0.000000000,14.918999672,-16.215341568
1747313928.131286,19.998000000,0.000000000,56337.484375000,0.000000000,0.000000000,14.915622711,-59.243198395,0.000000000,14.918999672,-16.215341568
1747313928.133675,20.000000000,0.000000000,56337.484375000,0.000000000,0.000000000,14.915622711,-59.243228912,0.000000000,14.918999672,-16.215341568
1747313928.136093,20.003000000,0.000000000,56337.484375000,0.000000000,0.000000000,14.915622711,-59.243255615,0.000000000,14.918999672,-16.215341568
1747313928.138484,20.005000000,0.000000000,56337.484375000,0.000000000,0.000000000,14.915622711,-59.243286133,0.000000000,14.918999672,-16.215341568
1747313928.140867,20.008000000,0.000000000,56337.484375000,0.000000000,0.000000000,14.915622711,-59.243312836,0.000000000,14.918999672,-16.215341568
1747313928.143272,20.010000000,0.000000000,56337.484375000,0.000000000,0.000000000,14.915622711,-59.243343353,0.000000000,14.918999672,-16.215341568
1747313928.145653,20.012000000,0.000000000,56337.484375000,0.000000000,0.000000000,14.915622711,-59.243370056,0.000000000,14.918999672,-16.215341568
1747313928.148042,20.015000000,0.000000000,56337.484375000,0.000000000,0.000000000,14.915622711,-59.243400574,0.000000000,14.918999672,-16.215341568
1747313928.150454,20.017000000,0.000000000,56337.484375000,0.000000000,0.000000000,14.915622711,-59.243427277,0.000000000,14.918999672,-16.215341568
1747313928.152849,20.019000000,0.000000000,56337.484375000,0.000000000,0.000000000,14.915622711,-59.243457794,0.000000000,14.918999672,-16.215341568
1747313928.155231,20.022000000,0.000000000,56337.484375000,0.000000000,0.000000000,14.915622711,-59.243484497,0.000000000,14.918999672,-16.215341568
1747313928.157617,20.024000000,0.000000000,56337.484375000,0.000000000,0.000000000,14.915622711,-59.243511200,0.000000000,14.918999672,-16.215341568
1747313928.160025,20.027000000,0.000000000,56337.484375000,0.000000000,0.000000000,14.915622711,-59.243541718,0.000000000,14.918999672,-16.215341568
1747313928.162422,20.029000000,0.000000000,56337.484375000,0.000000000,0.000000000,14.915622711,-59.243568420,0.000000000,14.918999672,-16.215341568
1747313928.164850,20.031000000,0.000000000,56337.484375000,0.000000000,0.000000000,14.915622711,-59.243598938,0.000000000,14.918999672,-16.215341568
1747313928.167275,20.034000000,0.000000000,56337.484375000,0.000000000,0.000000000,14.915622711,-59.243629456,0.000000000,14.918999672,-16.215341568
1747313928.169668,20.036000000,0.000000000,56337.484375000,0.000000000,0.000000000,14.915622711,-59.243656158,0.000000000,14.918999672,-16.215341568
1747313928.172093,20.039000000,0.000000000,56337.484375000,0.000000000,0.000000000,14.915622711,-59.243686676,0.000000000,14.918999672,-16.215341568
1747313928.174469,20.041000000,0.000000000,56337.484375000,0.000000000,0.000000000,14.915622711,-59.243713379,0.000000000,14.918999672,-16.215341568
1747313928.176923,20.044000000,0.000000000,56337.484375000,0.000000000,0.000000000,14.915622711,-59.243743896,0.000000000,14.918999672,-16.215341568
1747313928.179330,20.046000000,0.000000000,56337.484375000,0.000000000,0.000000000,14.915622711,-59.243770599,0.000000000,14.918999672,-16.215341568
1747313928.181696,20.048000000,0.000000000,56337.484375000,0.000000000,0.000000000,14.915622711,-59.243801117,0.000000000,14.918999672,-16.215341568
1747313928.184081,20.051000000,0.000000000,56337.484375000,0.000000000,0.000000000,14.915622711,-59.243827820,0.000000000,14.918999672,-16.215341568
1747313928.186495,20.053000000,0.000000000,56337.484375000,0.000000000,0.000000000,14.915622711,-59.243858337,0.000000000,14.918999672,-16.215341568
1747313928.188896,20.056000000,0.000000000,56337.484375000,0.000000000,0.000000000,14.915622711,-59.243885040,0.000000000,14.918999672,-16.215341568
1747313928.191256,20.058000000,0.000000000,56337.484375000,0.000000000,0.000000000,14.915622711,-59.243915558,0.000000000,14.918999672,-16.215341568
1747313928.193628,20.060000000,0.000000000,56337.484375000,0.000000000,0.000000000,14.915622711,-59.243942261,0.000000000,14.918999672,-16.215341568
1747313928.196002,20.063000000,0.000000000,56337.484375000,0.000000000,0.000000000,14.915622711,-59.243968964,0.000000000,14.918999672,-16.215341568
1747313928.198411,20.065000000,0.000000000,56337.484375000,0.000000000,0.000000000,14.915622711,-59.243999481,0.000000000,14.918999672,-16.215341568
1747313928.200772,20.067000000,0.000000000,56337.484375000,0.000000000,0.000000000,14.915622711,-59.244026184,0.000000000,14.918999672,-16.215341568
1747313928.203164,20.070000000,0.000000000,56337.484375000,0.000000000,0.000000000,14.915622711,-59.244052887,0.000000000,14.918999672,-16.215341568
1747313928.205695,20.072000000,0.000000000,56337.484375000,0.000000000,0.000000000,14.915622711,-59.244083405,0.000000000,14.918999672,-16.215341568
1747313928.208092,20.075000000,0.000000000,56337.484375000,0.000000000,0.000000000,14.915622711,-59.244113922,0.000000000,14.918999672,-16.215341568
1747313928.210470,20.077000000,0.000000000,56337.484375000,0.000000000,0.000000000,14.915622711,-59.244140625,0.000000000,14.918999672,-16.215341568
1747313928.212867,20.079000000,0.000000000,56337.484375000,0.000000000,0.000000000,14.915622711,-59.244171143,0.000000000,14.918999672,-16.215341568
1747313928.215280,20.082000000,0.000000000,56337.484375000,0.000000000,0.000000000,14.915622711,-59.244197845,0.000000000,14.918999672,-16.215341568
1747313928.217707,20.084000000,0.000000000,56337.484375000,0.000000000,0.000000000,14.915622711,-59.244228363,0.000000000,14.918999672,-16.215341568
1747313928.220092,20.087000000,0.000000000,56337.484375000,0.000000000,0.000000000,14.915622711,-59.244255066,0.000000000,14.918999672,-16.215341568
1747313928.222455,20.089000000,0.000000000,56337.484375000,0.000000000,0.000000000,14.915622711,-59.244285583,0.000000000,14.918999672,-16.215341568
1747313928.224807,20.091000000,0.000000000,56337.484375000,0.000000000,0.000000000,14.915622711,-59.244312286,0.000000000,14.918999672,-16.215341568
1747313928.227200,20.094000000,0.000000000,56337.484375000,0.000000000,0.000000000,14.915622711,-59.244338989,0.000000000,14.918999672,-16.215341568
1747313928.229573,20.096000000,0.000000000,56337.484375000,0.000000000,0.000000000,14.915622711,-59.244369507,0.000000000,14.918999672,-16.215341568
1747313928.231984,20.099000000,0.000000000,56337.484375000,0.000000000,0.000000000,14.915622711,-59.244396210,0.000000000,14.918999672,-16.215341568
1747313928.234411,20.101000000,0.000000000,56337.484375000,0.000000000,0.000000000,14.915622711,-59.244426727,0.000000000,14.918999672,-16.215341568
1747313928.236768,20.103000000,0.000000000,56337.484375000,0.000000000,0.000000000,14.915622711,-59.244457245,0.000000000,14.918999672,-16.215341568
