liamjosephnolan/thesis_matlab/pitch_speed_ramp_down_response.csv
__time,/psm_joint_telemetry/header/stamp,/psm_joint_telemetry/insertion/effort,/psm_joint_telemetry/insertion/position,/psm_joint_telemetry/insertion/velocity,/psm_joint_telemetry/pitch/effort,/psm_joint_telemetry/pitch/position,/psm_joint_telemetry/pitch/velocity,/psm_joint_telemetry/roll/effort,/psm_joint_telemetry/roll/position,/psm_joint_telemetry/roll/velocity
1746519746.594723,3.671000000,0.000000000,0.000000000,0.000000000,0.000000000,0.000000000,-1.000000000,0.000000000,0.000000000,0.000000000
1746519746.605092,3.682000000,0.000000000,0.000000000,0.000000000,0.000000000,0.000000000,-1.000000000,0.000000000,0.000000000,0.000000000
1746519746.615683,3.692000000,0.000000000,0.000000000,0.000000000,0.000000000,0.000000000,-2.000000000,0.000000000,0.000000000,0.000000000
1746519746.626069,3.703000000,0.000000000,0.000000000,0.000000000,0.000000000,0.000000000,-2.000000000,0.000000000,0.000000000,0.000000000
1746519746.636449,3.713000000,0.000000000,0.000000000,0.000000000,0.000000000,0.000000000,-2.000000000,0.000000000,0.000000000,0.000000000
1746519746.647171,3.723000000,0.000000000,0.000000000,0.000000000,0.000000000,0.000000000,-2.000000000,0.000000000,0.000000000,0.000000000
1746519746.657751,3.734000000,0.000000000,0.000000000,0.000000000,0.000000000,0.000000000,-2.000000000,0.000000000,0.000000000,0.000000000
1746519746.668135,3.745000000,0.000000000,0.000000000,0.000000000,0.000000000,0.000000000,-2.000000000,0.000000000,0.000000000,0.000000000
1746519746.678472,3.755000000,0.000000000,0.000000000,0.000000000,0.000000000,0.000000000,-2.000000000,0.000000000,0.000000000,0.000000000
1746519746.688847,3.765000000,0.000000000,0.000000000,0.000000000,0.000000000,0.000000000,-2.000000000,0.000000000,0.000000000,0.000000000
1746519746.699430,3.776000000,0.000000000,0.000000000,0.000000000,0.000000000,0.000000000,-2.000000000,0.000000000,0.000000000,0.000000000
1746519746.709842,3.786000000,0.000000000,0.000000000,0.000000000,0.000000000,0.000000000,-2.000000000,0.000000000,0.000000000,0.000000000
1746519746.720299,3.797000000,0.000000000,0.000000000,0.000000000,0.000000000,0.000000000,-3.000000000,0.000000000,0.000000000,0.000000000
1746519746.730767,3.807000000,0.000000000,0.000000000,0.000000000,0.000000000,0.000000000,-3.000000000,0.000000000,0.000000000,0.000000000
1746519746.741249,3.818000000,0.000000000,0.000000000,0.000000000,0.000000000,0.000000000,-3.000000000,0.000000000,0.000000000,0.000000000
1746519746.751701,3.828000000,0.000000000,0.000000000,0.000000000,0.000000000,0.000000000,-3.000000000,0.000000000,0.000000000,0.000000000
1746519746.762067,3.839000000,0.000000000,0.000000000,0.000000000,0.000000000,0.000000000,-3.000000000,0.000000000,0.000000000,0.000000000
1746519746.772551,3.849000000,0.000000000,0.000000000,0.000000000,0.000000000,0.000000000,-3.000000000,0.000000000,0.000000000,0.000000000
1746519746.783215,3.860000000,0.000000000,0.000000000,0.000000000,0.000000000,0.000000000,-3.000000000,0.000000000,0.000000000,0.000000000
1746519746.793667,3.870000000,0.000000000,0.000000000,0.000000000,0.000000000,0.000000000,-3.000000000,0.000000000,0.000000000,0.000000000
1746519746.804245,3.881000000,0.000000000,0.000000000,0.000000000,0.000000000,0.000000000,-3.000000000,0.000000000,0.000000000,0.000000000
1746519746.814776,3.891000000,0.000000000,0.000000000,0.000000000,0.000000000,0.000000000,-3.000000000,0.000000000,0.000000000,0.000000000
1746519746.825193,3.902000000,0.000000000,0.000000000,0.000000000,0.000000000,0.000000000,-4.000000000,0.000000000,0.000000000,0.000000000
1746519746.835679,3.912000000,0.000000000,0.000000000,0.000000000,0.000000000,0.000000000,-4.000000000,0.000000000,0.000000000,0.000000000
1746519746.846310,3.923000000,0.000000000,0.000000000,0.000000000,0.000000000,0.000000000,-4.000000000,0.000000000,0.000000000,0.000000000
1746519746.856627,3.933000000,0.000000000,0.000000000,0.000000000,0.000000000,0.000000000,-4.000000000,0.000000000,0.000000000,0.000000000
1746519746.867229,3.944000000,0.000000000,0.000000000,0.000000000,0.000000000,0.000000000,-4.000000000,0.000000000,0.000000000,0.000000000
1746519746.877671,3.954000000,0.000000000,0.000000000,0.000000000,0.000000000,0.000000000,-4.000000000,0.000000000,0.000000000,0.000000000
1746519746.888209,3.965000000,0.000000000,0.000000000,0.000000000,0.000000000,0.000000000,-4.000000000,0.000000000,0.000000000,0.000000000
1746519746.898747,3.975000000,0.000000000,0.000000000,0.000000000,0.000000000,0.000000000,-4.000000000,0.000000000,0.000000000,0.000000000
1746519746.909260,3.986000000,0.000000000,0.000000000,0.000000000,0.000000000,0.000000000,-4.000000000,0.000000000,0.000000000,0.000000000
1746519746.919705,3.996000000,0.000000000,0.000000000,0.000000000,0.000000000,0.000000000,-4.000000000,0.000000000,0.000000000,0.000000000
1746519746.930137,4.007000000,0.000000000,0.000000000,0.000000000,0.000000000,0.000000000,-5.000000000,0.000000000,0.000000000,0.000000000
1746519746.940592,4.017000000,0.000000000,0.000000000,0.000000000,0.000000000,0.000000000,-5.000000000,0.000000000,0.000000000,0.000000000
1746519746.951163,4.028000000,0.000000000,0.000000000,0.000000000,0.000000000,0.000000000,-5.000000000,0.000000000,0.000000000,0.000000000
1746519746.961663,4.038000000,0.000000000,0.000000000,0.000000000,0.000000000,0.000000000,-5.000000000,0.000000000,0.000000000,0.000000000
1746519746.972054,4.049000000,0.000000000,0.000000000,0.000000000,0.000000000,0.000000000,-5.000000000,0.000000000,0.000000000,0.000000000
1746519746.982541,4.059000000,0.000000000,0.000000000,0.000000000,0.000000000,0.000000000,-5.000000000,0.000000000,0.000000000,0.000000000
1746519746.993340,4.070000000,0.000000000,0.000000000,0.000000000,0.000000000,0.000000000,-5.000000000,0.000000000,0.000000000,0.000000000
1746519747.003915,4.080000000,0.000000000,0.000000000,0.000000000,0.000000000,0.000000000,-5.000000000,0.000000000,0.000000000,0.000000000
1746519747.014439,4.091000000,0.000000000,0.000000000,0.000000000,0.000000000,0.000000000,-5.000000000,0.000000000,0.000000000,0.000000000
1746519747.024865,4.101000000,0.000000000,0.000000000,0.000000000,0.000000000,0.000000000,-5.000000000,0.000000000,0.000000000,0.000000000
1746519747.035345,4.112000000,0.000000000,0.000000000,0.000000000,0.000000000,0.000000000,-6.000000000,0.000000000,0.000000000,0.000000000
1746519747.046047,4.122000000,0.000000000,0.000000000,0.000000000,0.000000000,0.000000000,-6.000000000,0.000000000,0.000000000,0.000000000
1746519747.056604,4.133000000,0.000000000,0.000000000,0.000000000,0.000000000,0.000000000,-6.000000000,0.000000000,0.000000000,0.000000000
1746519747.066962,4.143000000,0.000000000,0.000000000,0.000000000,0.000000000,0.000000000,-6.000000000,0.000000000,0.000000000,0.000000000
1746519747.077408,4.154000000,0.000000000,0.000000000,0.000000000,0.000000000,0.000000000,-6.000000000,0.000000000,0.000000000,0.000000000
1746519747.087923,4.164000000,0.000000000,0.000000000,0.000000000,0.000000000,0.000000000,-6.000000000,0.000000000,0.000000000,0.000000000
1746519747.098488,4.175000000,0.000000000,0.000000000,0.000000000,0.000000000,0.000000000,-6.000000000,0.000000000,0.000000000,0.000000000
1746519747.108975,4.185000000,0.000000000,0.000000000,0.000000000,0.000000000,0.000000000,-6.000000000,0.000000000,0.000000000,0.000000000
1746519747.119480,4.196000000,0.000000000,0.000000000,0.000000000,0.000000000,0.000000000,-6.000000000,0.000000000,0.000000000,0.000000000
1746519747.129961,4.206000000,0.000000000,0.000000000,0.000000000,0.000000000,0.000000000,-6.000000000,0.000000000,0.000000000,0.000000000
1746519747.140441,4.217000000,0.000000000,0.000000000,0.000000000,0.000000000,0.000000000,-7.000000000,0.000000000,0.000000000,0.000000000
1746519747.150929,4.227000000,0.000000000,0.000000000,0.000000000,0.000000000,0.000000000,-7.000000000,0.000000000,0.000000000,0.000000000
1746519747.161337,4.238000000,0.000000000,0.000000000,0.000000000,0.000000000,0.000000000,-7.000000000,0.000000000,0.000000000,0.000000000
1746519747.171892,4.248000000,0.000000000,0.000000000,0.000000000,0.000000000,0.000000000,-7.000000000,0.000000000,0.000000000,0.000000000
1746519747.182618,4.259000000,0.000000000,0.000000000,0.000000000,0.000000000,0.000000000,-7.000000000,0.000000000,0.000000000,0.000000000
1746519747.193438,4.270000000,0.000000000,0.000000000,0.000000000,0.000000000,0.000000000,-7.000000000,0.000000000,0.000000000,0.000000000
1746519747.203921,4.280000000,0.000000000,0.000000000,0.000000000,0.000000000,0.000000000,-7.000000000,0.000000000,0.000000000,0.000000000
1746519747.214441,4.291000000,0.000000000,0.000000000,0.000000000,0.000000000,0.000000000,-7.000000000,0.000000000,0.000000000,0.000000000
1746519747.225001,4.301000000,0.000000000,0.000000000,0.000000000,0.000000000,0.000000000,-7.000000000,0.000000000,0.000000000,0.000000000
1746519747.235626,4.312000000,0.000000000,0.000000000,0.000000000,0.000000000,0.000000000,-7.000000000,0.000000000,0.000000000,0.000000000
1746519747.246244,4.323000000,0.000000000,0.000000000,0.000000000,0.000000000,0.000000000,-8.000000000,0.000000000,0.000000000,0.000000000
1746519747.256650,4.333000000,0.000000000,0.000000000,0.000000000,0.000000000,0.000000000,-8.000000000,0.000000000,0.000000000,0.000000000
1746519747.267086,4.344000000,0.000000000,0.000000000,0.000000000,0.000000000,0.000000000,-8.000000000,0.000000000,0.000000000,0.000000000
1746519747.277793,4.354000000,0.000000000,0.000000000,0.000000000,0.000000000,0.000000000,-8.000000000,0.000000000,0.000000000,0.000000000
1746519747.289373,4.365000000,0.000000000,0.000000000,0.000000000,0.000000000,0.000000000,-8.000000000,0.000000000,0.000000000,0.000000000
1746519747.300116,4.376000000,0.000000000,0.000000000,0.000000000,0.000000000,0.000000000,-8.000000000,0.000000000,0.000000000,0.000000000
1746519747.310660,4.387000000,0.000000000,0.000000000,0.000000000,0.000000000,0.000000000,-8.000000000,0.000000000,0.000000000,0.000000000
1746519747.321240,4.398000000,0.000000000,0.000000000,0.000000000,0.000000000,0.000000000,-8.000000000,0.000000000,0.000000000,0.000000000
1746519747.331804,4.408000000,0.000000000,0.000000000,0.000000000,0.000000000,0.000000000,-8.000000000,0.000000000,0.000000000,0.000000000
1746519747.342363,4.419000000,0.000000000,0.000000000,0.000000000,0.000000000,0.000000000,-8.000000000,0.000000000,0.000000000,0.000000000
1746519747.352915,4.429000000,0.000000000,0.000000000,0.000000000,0.000000000,0.000000000,-9.000000000,0.000000000,0.000000000,0.000000000
1746519747.363453,4.440000000,0.000000000,0.000000000,0.000000000,0.000000000,0.000000000,-9.000000000,0.000000000,0.000000000,0.000000000
1746519747.374151,4.450000000,0.000000000,0.000000000,0.000000000,0.000000000,0.000000000,-9.000000000,0.000000000,0.000000000,0.000000000
1746519747.384535,4.461000000,0.000000000,0.000000000,0.000000000,0.000000000,0.000000000,-9.000000000,0.000000000,0.000000000,0.000000000
1746519747.394870,4.471000000,0.000000000,0.000000000,0.000000000,0.000000000,0.000000000,-9.000000000,0.000000000,0.000000000,0.000000000
1746519747.405318,4.482000000,0.000000000,0.000000000,0.000000000,0.000000000,0.000000000,-9.000000000,0.000000000,0.000000000,0.000000000
1746519747.415869,4.492000000,0.000000000,0.000000000,0.000000000,0.000000000,0.000000000,-9.000000000,0.000000000,0.000000000,0.000000000
1746519747.426386,4.503000000,0.000000000,0.000000000,0.000000000,0.000000000,0.000000000,-9.000000000,0.000000000,0.000000000,0.000000000
1746519747.436813,4.513000000,0.000000000,0.000000000,0.000000000,0.000000000,0.000000000,-9.000000000,0.000000000,0.000000000,0.000000000
1746519747.447277,4.524000000,0.000000000,0.000000000,0.000000000,0.000000000,-0.100000001,-9.000000000,0.000000000,0.000000000,0.000000000
1746519747.457794,4.534000000,0.000000000,0.000000000,0.000000000,0.000000000,-0.189999998,-10.000000000,0.000000000,0.000000000,0.000000000
1746519747.468445,4.545000000,0.000000000,0.000000000,0.000000000,0.000000000,-0.270999998,-10.000000000,0.000000000,0.000000000,0.000000000
1746519747.479134,4.555000000,0.000000000,0.000000000,0.000000000,0.000000000,-0.343899995,-10.000000000,0.000000000,0.000000000,0.000000000
1746519747.489536,4.566000000,0.000000000,0.000000000,0.000000000,0.000000000,-0.409509987,-10.000000000,0.000000000,0.000000000,0.000000000
1746519747.499973,4.576000000,0.000000000,0.000000000,0.000000000,0.000000000,-0.468558967,-10.000000000,0.000000000,0.000000000,0.000000000
1746519747.510459,4.587000000,0.000000000,0.000000000,0.000000000,0.000000000,-0.521703064,-10.000000000,0.000000000,0.000000000,0.000000000
1746519747.520944,4.597000000,0.000000000,0.000000000,0.000000000,0.000000000,-0.569532752,-10.000000000,0.000000000,0.000000000,0.000000000
1746519747.531537,4.608000000,0.000000000,0.000000000,0.000000000,0.000000000,-0.612579465,-10.000000000,0.000000000,0.000000000,0.000000000
1746519747.541919,4.618000000,0.000000000,0.000000000,0.000000000,0.000000000,-0.651321530,-10.000000000,0.000000000,0.000000000,0.000000000
1746519747.552459,4.629000000,0.000000000,0.000000000,0.000000000,0.000000000,-0.686189413,-10.000000000,0.000000000,0.000000000,0.000000000
1746519747.562968,4.639000000,0.000000000,0.000000000,0.000000000,0.000000000,-0.717570484,-11.000000000,0.000000000,0.000000000,0.000000000
1746519747.573452,4.650000000,0.000000000,0.000000000,0.000000000,0.000000000,-0.745813429,-11.000000000,0.000000000,0.000000000,0.000000000
1746519747.583921,4.660000000,0.000000000,0.000000000,0.000000000,0.000000000,-0.771232069,-11.000000000,0.000000000,0.000000000,0.000000000
1746519747.594336,4.671000000,0.000000000,0.000000000,0.000000000,0.000000000,-0.794108868,-11.000000000,0.000000000,0.000000000,0.000000000
1746519747.604733,4.681000000,0.000000000,0.000000000,0.000000000,0.000000000,-0.814697981,-11.000000000,0.000000000,0.000000000,0.000000000
1746519747.615232,4.692000000,0.000000000,0.000000000,0.000000000,0.000000000,-0.833228171,-11.000000000,0.000000000,0.000000000,0.000000000
1746519747.625927,4.702000000,0.000000000,0.000000000,0.000000000,0.000000000,-0.849905372,-11.000000000,0.000000000,0.000000000,0.000000000
1746519747.636333,4.713000000,0.000000000,0.000000000,0.000000000,0.000000000,-0.864914834,-11.000000000,0.000000000,0.000000000,0.000000000
1746519747.646778,4.723000000,0.000000000,0.000000000,0.000000000,0.000000000,-0.878423333,-11.000000000,0.000000000,0.000000000,0.000000000
1746519747.657172,4.734000000,0.000000000,0.000000000,0.000000000,0.000000000,-0.890581012,-11.000000000,0.000000000,0.000000000,0.000000000
1746519747.667540,4.744000000,0.000000000,0.000000000,0.000000000,0.000000000,-0.901522934,-12.000000000,0.000000000,0.000000000,0.000000000
1746519747.678021,4.754000000,0.000000000,0.000000000,0.000000000,0.000000000,-1.011370659,-12.000000000,0.000000000,0.000000000,0.000000000
1746519747.688431,4.765000000,0.000000000,0.000000000,0.000000000,0.000000000,-1.110233545,-12.000000000,0.000000000,0.000000000,0.000000000
1746519747.698987,4.775000000,0.000000000,0.000000000,0.000000000,0.000000000,-1.199210167,-12.000000000,0.000000000,0.000000000,0.000000000
1746519747.709457,4.786000000,0.000000000,0.000000000,0.000000000,0.000000000,-1.279289126,-12.000000000,0.000000000,0.000000000,0.000000000
1746519747.719908,4.796000000,0.000000000,0.000000000,0.000000000,0.000000000,-1.351360202,-12.000000000,0.000000000,0.000000000,0.000000000
1746519747.730397,4.807000000,0.000000000,0.000000000,0.000000000,0.000000000,-1.416224241,-12.000000000,0.000000000,0.000000000,0.000000000
1746519747.740777,4.817000000,0.000000000,0.000000000,0.000000000,0.000000000,-1.474601865,-12.000000000,0.000000000,0.000000000,0.000000000
1746519747.751291,4.828000000,0.000000000,0.000000000,0.000000000,0.000000000,-1.527141690,-12.000000000,0.000000000,0.000000000,0.000000000
1746519747.761754,4.838000000,0.000000000,0.000000000,0.000000000,0.000000000,-1.574427485,-12.000000000,0.000000000,0.000000000,0.000000000
1746519747.772270,4.849000000,0.000000000,0.000000000,0.000000000,0.000000000,-1.616984725,-13.000000000,0.000000000,0.000000000,0.000000000
1746519747.782646,4.859000000,0.000000000,0.000000000,0.000000000,0.000000000,-1.655286312,-13.000000000,0.000000000,0.000000000,0.000000000
1746519747.793051,4.870000000,0.000000000,0.000000000,0.000000000,0.000000000,-1.689757705,-13.000000000,0.000000000,0.000000000,0.000000000
1746519747.803474,4.880000000,0.000000000,0.000000000,0.000000000,0.000000000,-1.720781922,-13.000000000,0.000000000,0.000000000,0.000000000
1746519747.813939,4.890000000,0.000000000,0.000000000,0.000000000,0.000000000,-1.748703718,-13.000000000,0.000000000,0.000000000,0.000000000
1746519747.824460,4.901000000,0.000000000,0.000000000,0.000000000,0.000000000,-1.773833394,-13.000000000,0.000000000,0.000000000,0.000000000
1746519747.834993,4.911000000,0.000000000,0.000000000,0.000000000,0.000000000,-1.896449924,-13.000000000,0.000000000,0.000000000,0.000000000
1746519747.845523,4.922000000,0.000000000,0.000000000,0.000000000,0.000000000,-2.006804943,-13.000000000,0.000000000,0.000000000,0.000000000
1746519747.856474,4.933000000,0.000000000,0.000000000,0.000000000,0.000000000,-2.106124401,-13.000000000,0.000000000,0.000000000,0.000000000
1746519747.867727,4.944000000,0.000000000,0.000000000,0.000000000,0.000000000,-2.195511818,-13.000000000,0.000000000,0.000000000,0.000000000
1746519747.878311,4.955000000,0.000000000,0.000000000,0.000000000,0.000000000,-2.275960684,-14.000000000,0.000000000,0.000000000,0.000000000
1746519747.888910,4.965000000,0.000000000,0.000000000,0.000000000,0.000000000,-2.348364592,-14.000000000,0.000000000,0.000000000,0.000000000
1746519747.899276,4.976000000,0.000000000,0.000000000,0.000000000,0.000000000,-2.413527966,-14.000000000,0.000000000,0.000000000,0.000000000
1746519747.909686,4.986000000,0.000000000,0.000000000,0.000000000,0.000000000,-2.472175121,-14.000000000,0.000000000,0.000000000,0.000000000
1746519747.920217,4.997000000,0.000000000,0.000000000,0.000000000,0.000000000,-2.624957561,-14.000000000,0.000000000,0.000000000,0.000000000
1746519747.930631,5.007000000,0.000000000,0.000000000,0.000000000,0.000000000,-2.762461901,-14.000000000,0.000000000,0.000000000,0.000000000
1746519747.941042,5.018000000,0.000000000,0.000000000,0.000000000,0.000000000,-2.886215687,-14.000000000,0.000000000,0.000000000,0.000000000
1746519747.951585,5.028000000,0.000000000,0.000000000,0.000000000,0.000000000,-2.997594118,-14.000000000,0.000000000,0.000000000,0.000000000
1746519747.962089,5.039000000,0.000000000,0.000000000,0.000000000,0.000000000,-3.097834826,-14.000000000,0.000000000,0.000000000,0.000000000
1746519747.972741,5.049000000,0.000000000,0.000000000,0.000000000,0.000000000,-3.188051462,-14.000000000,0.000000000,0.000000000,0.000000000
1746519747.983342,5.060000000,0.000000000,0.000000000,0.000000000,0.000000000,-3.269246340,-15.000000000,0.000000000,0.000000000,0.000000000
1746519747.993807,5.070000000,0.000000000,0.000000000,0.000000000,0.000000000,-3.342321634,-15.000000000,0.000000000,0.000000000,0.000000000
1746519748.004208,5.081000000,0.000000000,0.000000000,0.000000000,0.000000000,-3.408089399,-15.000000000,0.000000000,0.000000000,0.000000000
1746519748.014731,5.091000000,0.000000000,0.000000000,0.000000000,0.000000000,-3.467280388,-15.000000000,0.000000000,0.000000000,0.000000000
1746519748.025206,5.102000000,0.000000000,0.000000000,0.000000000,0.000000000,-3.520552397,-15.000000000,0.000000000,0.000000000,0.000000000
1746519748.035683,5.112000000,0.000000000,0.000000000,0.000000000,0.000000000,-3.568497181,-15.000000000,0.000000000,0.000000000,0.000000000
1746519748.046232,5.123000000,0.000000000,0.000000000,0.000000000,0.000000000,-3.711647272,-15.000000000,0.000000000,0.000000000,0.000000000
1746519748.056587,5.133000000,0.000000000,0.000000000,0.000000000,0.000000000,-3.840482473,-15.000000000,0.000000000,0.000000000,0.000000000
1746519748.067072,5.143000000,0.000000000,0.000000000,0.000000000,0.000000000,-3.956434250,-15.000000000,0.000000000,0.000000000,0.000000000
1746519748.077526,5.154000000,0.000000000,0.000000000,0.000000000,0.000000000,-4.060791016,-15.000000000,0.000000000,0.000000000,0.000000000
1746519748.088153,5.165000000,0.000000000,0.000000000,0.000000000,0.000000000,-4.154711723,-16.000000000,0.000000000,0.000000000,0.000000000
1746519748.098777,5.175000000,0.000000000,0.000000000,0.000000000,0.000000000,-4.239240646,-16.000000000,0.000000000,0.000000000,0.000000000
1746519748.109408,5.186000000,0.000000000,0.000000000,0.000000000,0.000000000,-4.315316677,-16.000000000,0.000000000,0.000000000,0.000000000
1746519748.120050,5.196000000,0.000000000,0.000000000,0.000000000,0.000000000,-4.383785248,-16.000000000,0.000000000,0.000000000,0.000000000
1746519748.130576,5.207000000,0.000000000,0.000000000,0.000000000,0.000000000,-4.545406818,-16.000000000,0.000000000,0.000000000,0.000000000
1746519748.141169,5.218000000,0.000000000,0.000000000,0.000000000,0.000000000,-4.690865993,-16.000000000,0.000000000,0.000000000,0.000000000
1746519748.152299,5.228000000,0.000000000,0.000000000,0.000000000,0.000000000,-4.821779251,-16.000000000,0.000000000,0.000000000,0.000000000
1746519748.162881,5.239000000,0.000000000,0.000000000,0.000000000,0.000000000,-4.939600945,-16.000000000,0.000000000,0.000000000,0.000000000
1746519748.173358,5.250000000,0.000000000,0.000000000,0.000000000,0.000000000,-5.045640469,-16.000000000,0.000000000,0.000000000,0.000000000
1746519748.184115,5.260000000,0.000000000,0.000000000,0.000000000,0.000000000,-5.141076088,-16.000000000,0.000000000,0.000000000,0.000000000
1746519748.194706,5.271000000,0.000000000,0.000000000,0.000000000,0.000000000,-5.226968288,-17.000000000,0.000000000,0.000000000,0.000000000
1746519748.205428,5.282000000,0.000000000,0.000000000,0.000000000,0.000000000,-5.304271221,-17.000000000,0.000000000,0.000000000,0.000000000
1746519748.216069,5.292000000,0.000000000,0.000000000,0.000000000,0.000000000,-5.373843670,-17.000000000,0.000000000,0.000000000,0.000000000
1746519748.226624,5.303000000,0.000000000,0.000000000,0.000000000,0.000000000,-5.436459064,-17.000000000,0.000000000,0.000000000,0.000000000
1746519748.237499,5.314000000,0.000000000,0.000000000,0.000000000,0.000000000,-5.492813110,-17.000000000,0.000000000,0.000000000,0.000000000
1746519748.248113,5.325000000,0.000000000,0.000000000,0.000000000,0.000000000,-5.543531418,-17.000000000,0.000000000,0.000000000,0.000000000
1746519748.258691,5.335000000,0.000000000,0.000000000,0.000000000,0.000000000,-5.589178085,-17.000000000,0.000000000,0.000000000,0.000000000
1746519748.269057,5.346000000,0.000000000,0.000000000,0.000000000,0.000000000,-5.630259991,-17.000000000,0.000000000,0.000000000,0.000000000
1746519748.279428,5.356000000,0.000000000,0.000000000,0.000000000,0.000000000,-5.667233944,-17.000000000,0.000000000,0.000000000,0.000000000
1746519748.290019,5.366000000,0.000000000,0.000000000,0.000000000,0.000000000,-5.700510502,-17.000000000,0.000000000,0.000000000,0.000000000
1746519748.300646,5.377000000,0.000000000,0.000000000,0.000000000,0.000000000,-5.730459213,-18.000000000,0.000000000,0.000000000,0.000000000
1746519748.311222,5.388000000,0.000000000,0.000000000,0.000000000,0.000000000,-5.757412910,-18.000000000,0.000000000,0.000000000,0.000000000
1746519748.321548,5.398000000,0.000000000,0.000000000,0.000000000,0.000000000,-5.781671524,-18.000000000,0.000000000,0.000000000,0.000000000
1746519748.332120,5.409000000,0.000000000,0.000000000,0.000000000,0.000000000,-5.803503990,-18.000000000,0.000000000,0.000000000,0.000000000
1746519748.342665,5.419000000,0.000000000,0.000000000,0.000000000,0.000000000,-5.823153496,-18.000000000,0.000000000,0.000000000,0.000000000
1746519748.353416,5.430000000,0.000000000,0.000000000,0.000000000,0.000000000,-5.840837955,-18.000000000,0.000000000,0.000000000,0.000000000
1746519748.363938,5.440000000,0.000000000,0.000000000,0.000000000,0.000000000,-5.856753826,-18.000000000,0.000000000,0.000000000,0.000000000
1746519748.374475,5.451000000,0.000000000,0.000000000,0.000000000,0.000000000,-5.871078014,-18.000000000,0.000000000,0.000000000,0.000000000
1746519748.385071,5.461000000,0.000000000,0.000000000,0.000000000,0.000000000,-5.883969784,-18.000000000,0.000000000,0.000000000,0.000000000
1746519748.395680,5.472000000,0.000000000,0.000000000,0.000000000,0.000000000,-5.895572662,-18.000000000,0.000000000,0.000000000,0.000000000
1746519748.406457,5.483000000,0.000000000,0.000000000,0.000000000,0.000000000,-5.906015396,-19.000000000,0.000000000,0.000000000,0.000000000
1746519748.416816,5.493000000,0.000000000,0.000000000,0.000000000,0.000000000,-6.015413761,-19.000000000,0.000000000,0.000000000,0.000000000
1746519748.427322,5.504000000,0.000000000,0.000000000,0.000000000,0.000000000,-6.113872051,-19.000000000,0.000000000,0.000000000,0.000000000
1746519748.437906,5.514000000,0.000000000,0.000000000,0.000000000,0.000000000,-6.202484608,-19.000000000,0.000000000,0.000000000,0.000000000
1746519748.448580,5.525000000,0.000000000,0.000000000,0.000000000,0.000000000,-6.282235622,-19.000000000,0.000000000,0.000000000,0.000000000
1746519748.459074,5.535000000,0.000000000,0.000000000,0.000000000,0.000000000,-6.354011536,-19.000000000,0.000000000,0.000000000,0.000000000
1746519748.469979,5.546000000,0.000000000,0.000000000,0.000000000,0.000000000,-6.418610096,-19.000000000,0.000000000,0.000000000,0.000000000
1746519748.480702,5.557000000,0.000000000,0.000000000,0.000000000,0.000000000,-6.576749325,-19.000000000,0.000000000,0.000000000,0.000000000
1746519748.491399,5.568000000,0.000000000,0.000000000,0.000000000,0.000000000,-6.719074249,-19.000000000,0.000000000,0.000000000,0.000000000
1746519748.502046,5.578000000,0.000000000,0.000000000,0.000000000,0.000000000,-6.847167015,-19.000000000,0.000000000,0.000000000,0.000000000
1746519748.512443,5.589000000,0.000000000,0.000000000,0.000000000,0.000000000,-6.962450504,-20.000000000,0.000000000,0.000000000,0.000000000
1746519748.522811,5.599000000,0.000000000,0.000000000,0.000000000,0.000000000,-7.066205502,-20.000000000,0.000000000,0.000000000,0.000000000
1746519748.533545,5.610000000,0.000000000,0.000000000,0.000000000,0.000000000,-7.159584999,-20.000000000,0.000000000,0.000000000,0.000000000
1746519748.544668,5.621000000,0.000000000,0.000000000,0.000000000,0.000000000,-7.243626595,-20.000000000,0.000000000,0.000000000,0.000000000
1746519748.555258,5.632000000,0.000000000,0.000000000,0.000000000,0.000000000,-7.319263935,-20.000000000,0.000000000,0.000000000,0.000000000
1746519748.565912,5.642000000,0.000000000,0.000000000,0.000000000,0.000000000,-7.387337685,-20.000000000,0.000000000,0.000000000,0.000000000
1746519748.576597,5.653000000,0.000000000,0.000000000,0.000000000,0.000000000,-7.448604107,-20.000000000,0.000000000,0.000000000,0.000000000
1746519748.587228,5.664000000,0.000000000,0.000000000,0.000000000,0.000000000,-7.503743649,-20.000000000,0.000000000,0.000000000,0.000000000
1746519748.597805,5.674000000,0.000000000,0.000000000,0.000000000,0.000000000,-7.553369522,-20.000000000,0.000000000,0.000000000,0.000000000
1746519748.608362,5.685000000,0.000000000,0.000000000,0.000000000,0.000000000,-7.598032475,-20.000000000,0.000000000,0.000000000,0.000000000
1746519748.618805,5.695000000,0.000000000,0.000000000,0.000000000,0.000000000,-7.638229370,-21.000000000,0.000000000,0.000000000,0.000000000
1746519748.629334,5.706000000,0.000000000,0.000000000,0.000000000,0.000000000,-7.674406528,-21.000000000,0.000000000,0.000000000,0.000000000
1746519748.639819,5.716000000,0.000000000,0.000000000,0.000000000,0.000000000,-7.806965828,-21.000000000,0.000000000,0.000000000,0.000000000
1746519748.650466,5.727000000,0.000000000,0.000000000,0.000000000,0.000000000,-8.026268959,-21.000000000,0.000000000,0.000000000,0.000000000
1746519748.660868,5.737000000,0.000000000,0.000000000,0.000000000,0.000000000,-8.223642349,-21.000000000,0.000000000,0.000000000,0.000000000
1746519748.671269,5.748000000,0.000000000,0.000000000,0.000000000,0.000000000,-8.401278496,-21.000000000,0.000000000,0.000000000,0.000000000
1746519748.681764,5.758000000,0.000000000,0.000000000,0.000000000,0.000000000,-8.561150551,-21.000000000,0.000000000,0.000000000,0.000000000
1746519748.692317,5.769000000,0.000000000,0.000000000,0.000000000,0.000000000,-8.805035591,-21.000000000,0.000000000,0.000000000,0.000000000
1746519748.702879,5.779000000,0.000000000,0.000000000,0.000000000,0.000000000,-9.024532318,-21.000000000,0.000000000,0.000000000,0.000000000
1746519748.713188,5.790000000,0.000000000,0.000000000,0.000000000,0.000000000,-9.222079277,-21.000000000,0.000000000,0.000000000,0.000000000
1746519748.723698,5.800000000,0.000000000,0.000000000,0.000000000,0.000000000,-9.399871826,-22.000000000,0.000000000,0.000000000,0.000000000
1746519748.734296,5.811000000,0.000000000,0.000000000,0.000000000,0.000000000,-9.559885025,-22.000000000,0.000000000,0.000000000,0.000000000
1746519748.744808,5.821000000,0.000000000,0.000000000,0.000000000,0.000000000,-9.703896523,-22.000000000,0.000000000,0.000000000,0.000000000
1746519748.755189,5.832000000,0.000000000,0.000000000,0.000000000,0.000000000,-9.833506584,-22.000000000,0.000000000,0.000000000,0.000000000
1746519748.765779,5.842000000,0.000000000,0.000000000,0.000000000,0.000000000,-9.950156212,-22.000000000,0.000000000,0.000000000,0.000000000
1746519748.776470,5.853000000,0.000000000,0.000000000,0.000000000,0.000000000,-10.055140495,-22.000000000,0.000000000,0.000000000,0.000000000
1746519748.787005,5.863000000,0.000000000,0.000000000,0.000000000,0.000000000,-10.149626732,-22.000000000,0.000000000,0.000000000,0.000000000
1746519748.797572,5.874000000,0.000000000,0.000000000,0.000000000,0.000000000,-10.234663963,-22.000000000,0.000000000,0.000000000,0.000000000
1746519748.808040,5.884000000,0.000000000,0.000000000,0.000000000,0.000000000,-10.311197281,-22.000000000,0.000000000,0.000000000,0.000000000
1746519748.818440,5.895000000,0.000000000,0.000000000,0.000000000,0.000000000,-10.380077362,-22.000000000,0.000000000,0.000000000,0.000000000
1746519748.828950,5.905000000,0.000000000,0.000000000,0.000000000,0.000000000,-10.442070007,-23.000000000,0.000000000,0.000000000,0.000000000
1746519748.839515,5.916000000,0.000000000,0.000000000,0.000000000,0.000000000,-10.497862816,-23.000000000,0.000000000,0.000000000,0.000000000
1746519748.850045,5.926000000,0.000000000,0.000000000,0.000000000,0.000000000,-10.548076630,-23.000000000,0.000000000,0.000000000,0.000000000
1746519748.860480,5.937000000,0.000000000,0.000000000,0.000000000,0.000000000,-10.693268776,-23.000000000,0.000000000,0.000000000,0.000000000
1746519748.871032,5.947000000,0.000000000,0.000000000,0.000000000,0.000000000,-10.823941231,-23.000000000,0.000000000,0.000000000,0.000000000
1746519748.881567,5.958000000,0.000000000,0.000000000,0.000000000,0.000000000,-10.941546440,-23.000000000,0.000000000,0.000000000,0.000000000
1746519748.892166,5.968000000,0.000000000,0.000000000,0.000000000,0.000000000,-11.047390938,-23.000000000,0.000000000,0.000000000,0.000000000
1746519748.902602,5.979000000,0.000000000,0.000000000,0.000000000,0.000000000,-11.142651558,-23.000000000,0.000000000,0.000000000,0.000000000
1746519748.912943,5.989000000,0.000000000,0.000000000,0.000000000,0.000000000,-11.228385925,-23.000000000,0.000000000,0.000000000,0.000000000
1746519748.923455,6.000000000,0.000000000,0.000000000,0.000000000,0.000000000,-11.305546761,-23.000000000,0.000000000,0.000000000,0.000000000
1746519748.934059,6.010000000,0.000000000,0.000000000,0.000000000,0.000000000,-11.374991417,-24.000000000,0.000000000,0.000000000,0.000000000
1746519748.944621,6.021000000,0.000000000,0.000000000,0.000000000,0.000000000,-11.437491417,-24.000000000,0.000000000,0.000000000,0.000000000
1746519748.954965,6.031000000,0.000000000,0.000000000,0.000000000,0.000000000,-11.593742371,-24.000000000,0.000000000,0.000000000,0.000000000
1746519748.965410,6.042000000,0.000000000,0.000000000,0.000000000,0.000000000,-11.734368324,-24.000000000,0.000000000,0.000000000,0.000000000
1746519748.975754,6.052000000,0.000000000,0.000000000,0.000000000,0.000000000,-11.860931396,-24.000000000,0.000000000,0.000000000,0.000000000
1746519748.986214,6.063000000,0.000000000,0.000000000,0.000000000,0.000000000,-11.974838257,-24.000000000,0.000000000,0.000000000,0.000000000
1746519748.996885,6.073000000,0.000000000,0.000000000,0.000000000,0.000000000,-12.077354431,-24.000000000,0.000000000,0.000000000,0.000000000
1746519749.007263,6.084000000,0.000000000,0.000000000,0.000000000,0.000000000,-12.169618607,-24.000000000,0.000000000,0.000000000,0.000000000
1746519749.017707,6.094000000,0.000000000,0.000000000,0.000000000,0.000000000,-12.252656937,-24.000000000,0.000000000,0.000000000,0.000000000
1746519749.028275,6.105000000,0.000000000,0.000000000,0.000000000,0.000000000,-12.327390671,-24.000000000,0.000000000,0.000000000,0.000000000
1746519749.038941,6.115000000,0.000000000,0.000000000,0.000000000,0.000000000,-12.394651413,-25.000000000,0.000000000,0.000000000,0.000000000
1746519749.049357,6.126000000,0.000000000,0.000000000,0.000000000,0.000000000,-12.455185890,-25.000000000,0.000000000,0.000000000,0.000000000
1746519749.059753,6.136000000,0.000000000,0.000000000,0.000000000,0.000000000,-12.509667397,-25.000000000,0.000000000,0.000000000,0.000000000
1746519749.070101,6.147000000,0.000000000,0.000000000,0.000000000,0.000000000,-12.558700562,-25.000000000,0.000000000,0.000000000,0.000000000
1746519749.080596,6.157000000,0.000000000,0.000000000,0.000000000,0.000000000,-12.602829933,-25.000000000,0.000000000,0.000000000,0.000000000
1746519749.091172,6.167000000,0.000000000,0.000000000,0.000000000,0.000000000,-12.642546654,-25.000000000,0.000000000,0.000000000,0.000000000
1746519749.101552,6.178000000,0.000000000,0.000000000,0.000000000,0.000000000,-12.678292274,-25.000000000,0.000000000,0.000000000,0.000000000
1746519749.111900,6.188000000,0.000000000,0.000000000,0.000000000,0.000000000,-12.710462570,-25.000000000,0.000000000,0.000000000,0.000000000
1746519749.122363,6.199000000,0.000000000,0.000000000,0.000000000,0.000000000,-12.739416122,-25.000000000,0.000000000,0.000000000,0.000000000
1746519749.132919,6.209000000,0.000000000,0.000000000,0.000000000,0.000000000,-12.765474319,-25.000000000,0.000000000,0.000000000,0.000000000
1746519749.143487,6.220000000,0.000000000,0.000000000,0.000000000,0.000000000,-12.788927078,-26.000000000,0.000000000,0.000000000,0.000000000
1746519749.154019,6.230000000,0.000000000,0.000000000,0.000000000,0.000000000,-12.810033798,-26.000000000,0.000000000,0.000000000,0.000000000
1746519749.164496,6.241000000,0.000000000,0.000000000,0.000000000,0.000000000,-12.829030037,-26.000000000,0.000000000,0.000000000,0.000000000
1746519749.175098,6.251000000,0.000000000,0.000000000,0.000000000,0.000000000,-12.846126556,-26.000000000,0.000000000,0.000000000,0.000000000
1746519749.185686,6.262000000,0.000000000,0.000000000,0.000000000,0.000000000,-12.961513519,-26.000000000,0.000000000,0.000000000,0.000000000
1746519749.196410,6.273000000,0.000000000,0.000000000,0.000000000,0.000000000,-13.065361023,-26.000000000,0.000000000,0.000000000,0.000000000
1746519749.206882,6.283000000,0.000000000,0.000000000,0.000000000,0.000000000,-13.258824348,-26.000000000,0.000000000,0.000000000,0.000000000
1746519749.217450,6.294000000,0.000000000,0.000000000,0.000000000,0.000000000,-13.532941818,-26.000000000,0.000000000,0.000000000,0.000000000
1746519749.228111,6.304000000,0.000000000,0.000000000,0.000000000,0.000000000,-13.779647827,-26.000000000,0.000000000,0.000000000,0.000000000
1746519749.238977,6.315000000,0.000000000,0.000000000,0.000000000,0.000000000,-14.001683235,-26.000000000,0.000000000,0.000000000,0.000000000
1746519749.249706,6.326000000,0.000000000,0.000000000,0.000000000,0.000000000,-14.201515198,-27.000000000,0.000000000,0.000000000,0.000000000
1746519749.260242,6.337000000,0.000000000,0.000000000,0.000000000,0.000000000,-14.381363869,-27.000000000,0.000000000,0.000000000,0.000000000
1746519749.270765,6.347000000,0.000000000,0.000000000,0.000000000,0.000000000,-14.543227196,-27.000000000,0.000000000,0.000000000,0.000000000
1746519749.281964,6.358000000,0.000000000,0.000000000,0.000000000,0.000000000,-14.788904190,-27.000000000,0.000000000,0.000000000,0.000000000
1746519749.292703,6.369000000,0.000000000,0.000000000,0.000000000,0.000000000,-15.010013580,-27.000000000,0.000000000,0.000000000,0.000000000
1746519749.303435,6.380000000,0.000000000,0.000000000,0.000000000,0.000000000,-15.209012032,-27.000000000,0.000000000,0.000000000,0.000000000
1746519749.313753,6.390000000,0.000000000,0.000000000,0.000000000,0.000000000,-15.388110161,-27.000000000,0.000000000,0.000000000,0.000000000
1746519749.324178,6.401000000,0.000000000,0.000000000,0.000000000,0.000000000,-15.549298286,-27.000000000,0.000000000,0.000000000,0.000000000
1746519749.334834,6.411000000,0.000000000,0.000000000,0.000000000,0.000000000,-15.694368362,-27.000000000,0.000000000,0.000000000,0.000000000
1746519749.345371,6.422000000,0.000000000,0.000000000,0.000000000,0.000000000,-15.824931145,-27.000000000,0.000000000,0.000000000,0.000000000
1746519749.355941,6.432000000,0.000000000,0.000000000,0.000000000,0.000000000,-15.942437172,-28.000000000,0.000000000,0.000000000,0.000000000
1746519749.366454,6.443000000,0.000000000,0.000000000,0.000000000,0.000000000,-16.048192978,-28.000000000,0.000000000,0.000000000,0.000000000
1746519749.377101,6.453000000,0.000000000,0.000000000,0.000000000,0.000000000,-16.143373489,-28.000000000,0.000000000,0.000000000,0.000000000
1746519749.388379,6.464000000,0.000000000,0.000000000,0.000000000,0.000000000,-16.229036331,-28.000000000,0.000000000,0.000000000,0.000000000
1746519749.399450,6.475000000,0.000000000,0.000000000,0.000000000,0.000000000,-16.306133270,-28.000000000,0.000000000,0.000000000,0.000000000
1746519749.410724,6.487000000,0.000000000,0.000000000,0.000000000,0.000000000,-16.375520706,-28.000000000,0.000000000,0.000000000,0.000000000
1746519749.421128,6.498000000,0.000000000,0.000000000,0.000000000,0.000000000,-16.437969208,-28.000000000,0.000000000,0.000000000,0.000000000
1746519749.431881,6.508000000,0.000000000,0.000000000,0.000000000,0.000000000,-16.494173050,-28.000000000,0.000000000,0.000000000,0.000000000
1746519749.442688,6.519000000,0.000000000,0.000000000,0.000000000,0.000000000,-16.544755936,-28.000000000,0.000000000,0.000000000,0.000000000
1746519749.453874,6.530000000,0.000000000,0.000000000,0.000000000,0.000000000,-16.590280533,-28.000000000,0.000000000,0.000000000,0.000000000
1746519749.464418,6.541000000,0.000000000,0.000000000,0.000000000,0.000000000,-16.631252289,-29.000000000,0.000000000,0.000000000,0.000000000
1746519749.474861,6.551000000,0.000000000,0.000000000,0.000000000,0.000000000,-16.668127060,-29.000000000,0.000000000,0.000000000,0.000000000
1746519749.485446,6.562000000,0.000000000,0.000000000,0.000000000,0.000000000,-16.701314926,-29.000000000,0.000000000,0.000000000,0.000000000
1746519749.496111,6.572000000,0.000000000,0.000000000,0.000000000,0.000000000,-16.731184006,-29.000000000,0.000000000,0.000000000,0.000000000
1746519749.506862,6.583000000,0.000000000,0.000000000,0.000000000,0.000000000,-16.758066177,-29.000000000,0.000000000,0.000000000,0.000000000
1746519749.517438,6.594000000,0.000000000,0.000000000,0.000000000,0.000000000,-16.782258987,-29.000000000,0.000000000,0.000000000,0.000000000
1746519749.528097,6.604000000,0.000000000,0.000000000,0.000000000,0.000000000,-16.804033279,-29.000000000,0.000000000,0.000000000,0.000000000
1746519749.538769,6.615000000,0.000000000,0.000000000,0.000000000,0.000000000,-16.823629379,-29.000000000,0.000000000,0.000000000,0.000000000
1746519749.549429,6.626000000,0.000000000,0.000000000,0.000000000,0.000000000,-16.841266632,-29.000000000,0.000000000,0.000000000,0.000000000
1746519749.559962,6.636000000,0.000000000,0.000000000,0.000000000,0.000000000,-16.857139587,-29.000000000,0.000000000,0.000000000,0.000000000
1746519749.570329,6.647000000,0.000000000,0.000000000,0.000000000,0.000000000,-16.871425629,-30.000000000,0.000000000,0.000000000,0.000000000
1746519749.580731,6.657000000,0.000000000,0.000000000,0.000000000,0.000000000,-16.984281540,-30.000000000,0.000000000,0.000000000,0.000000000
1746519749.591257,6.668000000,0.000000000,0.000000000,0.000000000,0.000000000,-17.085853577,-30.000000000,0.000000000,0.000000000,0.000000000
1746519749.601835,6.678000000,0.000000000,0.000000000,0.000000000,0.000000000,-17.177267075,-30.000000000,0.000000000,0.000000000,0.000000000
1746519749.612284,6.689000000,0.000000000,0.000000000,0.000000000,0.000000000,-17.259540558,-30.000000000,0.000000000,0.000000000,0.000000000
1746519749.622641,6.699000000,0.000000000,0.000000000,0.000000000,0.000000000,-17.333585739,-30.000000000,0.000000000,0.000000000,0.000000000
1746519749.633114,6.710000000,0.000000000,0.000000000,0.000000000,0.000000000,-17.400226593,-30.000000000,0.000000000,0.000000000,0.000000000
1746519749.643564,6.720000000,0.000000000,0.000000000,0.000000000,0.000000000,-17.460203171,-30.000000000,0.000000000,0.000000000,0.000000000
1746519749.654170,6.731000000,0.000000000,0.000000000,0.000000000,0.000000000,-17.514183044,-30.000000000,0.000000000,0.000000000,0.000000000
1746519749.664652,6.741000000,0.000000000,0.000000000,0.000000000,0.000000000,-17.562763214,-30.000000000,0.000000000,0.000000000,0.000000000
1746519749.675131,6.752000000,0.000000000,0.000000000,0.000000000,0.000000000,-17.606485367,-31.000000000,0.000000000,0.000000000,0.000000000
1746519749.685725,6.762000000,0.000000000,0.000000000,0.000000000,0.000000000,-17.645835876,-31.000000000,0.000000000,0.000000000,0.000000000
1746519749.696283,6.773000000,0.000000000,0.000000000,0.000000000,0.000000000,-17.681251526,-31.000000000,0.000000000,0.000000000,0.000000000
1746519749.706736,6.783000000,0.000000000,0.000000000,0.000000000,0.000000000,-17.813125610,-31.000000000,0.000000000,0.000000000,0.000000000
1746519749.717198,6.794000000,0.000000000,0.000000000,0.000000000,0.000000000,-17.931812286,-31.000000000,0.000000000,0.000000000,0.000000000
1746519749.727698,6.804000000,0.000000000,0.000000000,0.000000000,0.000000000,-18.138629913,-31.000000000,0.000000000,0.000000000,0.000000000
1746519749.738052,6.815000000,0.000000000,0.000000000,0.000000000,0.000000000,-18.424766541,-31.000000000,0.000000000,0.000000000,0.000000000
1746519749.748568,6.825000000,0.000000000,0.000000000,0.000000000,0.000000000,-18.682289124,-31.000000000,0.000000000,0.000000000,0.000000000
1746519749.758949,6.835000000,0.000000000,0.000000000,0.000000000,0.000000000,-19.014060974,-31.000000000,0.000000000,0.000000000,0.000000000
1746519749.769495,6.846000000,0.000000000,0.000000000,0.000000000,0.000000000,-19.312654495,-31.000000000,0.000000000,0.000000000,0.000000000
1746519749.780971,6.857000000,0.000000000,0.000000000,0.000000000,0.000000000,-19.681386948,-32.000000000,0.000000000,0.000000000,0.000000000
1746519749.792137,6.868000000,0.000000000,0.000000000,0.000000000,0.000000000,-20.113246918,-32.000000000,0.000000000,0.000000000,0.000000000
1746519749.802622,6.879000000,0.000000000,0.000000000,0.000000000,0.000000000,-20.501920700,-32.000000000,0.000000000,0.000000000,0.000000000
1746519749.813135,6.889000000,0.000000000,0.000000000,0.000000000,0.000000000,-20.851728439,-32.000000000,0.000000000,0.000000000,0.000000000
1746519749.823569,6.900000000,0.000000000,0.000000000,0.000000000,0.000000000,-21.166555405,-32.000000000,0.000000000,0.000000000,0.000000000
1746519749.834045,6.910000000,0.000000000,0.000000000,0.000000000,0.000000000,-21.449899673,-32.000000000,0.000000000,0.000000000,0.000000000
1746519749.844611,6.921000000,0.000000000,0.000000000,0.000000000,0.000000000,-21.704908371,-32.000000000,0.000000000,0.000000000,0.000000000
1746519749.854976,6.931000000,0.000000000,0.000000000,0.000000000,0.000000000,-21.934415817,-32.000000000,0.000000000,0.000000000,0.000000000
1746519749.865334,6.942000000,0.000000000,0.000000000,0.000000000,0.000000000,-22.140974045,-32.000000000,0.000000000,0.000000000,0.000000000
1746519749.875719,6.952000000,0.000000000,0.000000000,0.000000000,0.000000000,-22.326875687,-32.000000000,0.000000000,0.000000000,0.000000000
1746519749.886157,6.963000000,0.000000000,0.000000000,0.000000000,0.000000000,-22.494186401,-33.000000000,0.000000000,0.000000000,0.000000000
1746519749.896807,6.973000000,0.000000000,0.000000000,0.000000000,0.000000000,-22.644767761,-33.000000000,0.000000000,0.000000000,0.000000000
1746519749.907157,6.984000000,0.000000000,0.000000000,0.000000000,0.000000000,-22.780290604,-33.000000000,0.000000000,0.000000000,0.000000000
1746519749.917527,6.994000000,0.000000000,0.000000000,0.000000000,0.000000000,-22.902259827,-33.000000000,0.000000000,0.000000000,0.000000000
1746519749.928087,7.005000000,0.000000000,0.000000000,0.000000000,0.000000000,-23.012033463,-33.000000000,0.000000000,0.000000000,0.000000000
1746519749.938626,7.015000000,0.000000000,0.000000000,0.000000000,0.000000000,-23.110828400,-33.000000000,0.000000000,0.000000000,0.000000000
1746519749.949412,7.026000000,0.000000000,0.000000000,0.000000000,0.000000000,-23.299745560,-33.000000000,0.000000000,0.000000000,0.000000000
1746519749.959840,7.036000000,0.000000000,0.000000000,0.000000000,0.000000000,-23.469770432,-33.000000000,0.000000000,0.000000000,0.000000000
1746519749.970289,7.047000000,0.000000000,0.000000000,0.000000000,0.000000000,-23.622793198,-33.000000000,0.000000000,0.000000000,0.000000000
1746519749.980734,7.057000000,0.000000000,0.000000000,0.000000000,0.000000000,-23.760513306,-33.000000000,0.000000000,0.000000000,0.000000000
1746519749.991249,7.068000000,0.000000000,0.000000000,0.000000000,0.000000000,-23.884462357,-34.000000000,0.000000000,0.000000000,0.000000000
1746519750.001733,7.078000000,0.000000000,0.000000000,0.000000000,0.000000000,-23.996015549,-34.000000000,0.000000000,0.000000000,0.000000000
1746519750.012175,7.089000000,0.000000000,0.000000000,0.000000000,0.000000000,-24.096412659,-34.000000000,0.000000000,0.000000000,0.000000000
1746519750.022739,7.099000000,0.000000000,0.000000000,0.000000000,0.000000000,-24.186771393,-34.000000000,0.000000000,0.000000000,0.000000000
1746519750.033542,7.110000000,0.000000000,0.000000000,0.000000000,0.000000000,-24.268093109,-34.000000000,0.000000000,0.000000000,0.000000000
1746519750.044124,7.120000000,0.000000000,0.000000000,0.000000000,0.000000000,-24.341283798,-34.000000000,0.000000000,0.000000000,0.000000000
1746519750.054624,7.131000000,0.000000000,0.000000000,0.000000000,0.000000000,-24.407154083,-34.000000000,0.000000000,0.000000000,0.000000000
1746519750.064966,7.141000000,0.000000000,0.000000000,0.000000000,0.000000000,-24.466438293,-34.000000000,0.000000000,0.000000000,0.000000000
1746519750.075467,7.152000000,0.000000000,0.000000000,0.000000000,0.000000000,-24.519794464,-34.000000000,0.000000000,0.000000000,0.000000000
1746519750.086030,7.162000000,0.000000000,0.000000000,0.000000000,0.000000000,-24.567813873,-34.000000000,0.000000000,0.000000000,0.000000000
1746519750.096520,7.173000000,0.000000000,0.000000000,0.000000000,0.000000000,-24.611032486,-35.000000000,0.000000000,0.000000000,0.000000000
1746519750.107103,7.183000000,0.000000000,0.000000000,0.000000000,0.000000000,-24.649929047,-35.000000000,0.000000000,0.000000000,0.000000000
1746519750.117505,7.194000000,0.000000000,0.000000000,0.000000000,0.000000000,-24.684934616,-35.000000000,0.000000000,0.000000000,0.000000000
1746519750.128026,7.204000000,0.000000000,0.000000000,0.000000000,0.000000000,-24.716440201,-35.000000000,0.000000000,0.000000000,0.000000000
1746519750.138383,7.215000000,0.000000000,0.000000000,0.000000000,0.000000000,-24.744794846,-35.000000000,0.000000000,0.000000000,0.000000000
1746519750.148993,7.225000000,0.000000000,0.000000000,0.000000000,0.000000000,-24.770315170,-35.000000000,0.000000000,0.000000000,0.000000000
1746519750.159405,7.236000000,0.000000000,0.000000000,0.000000000,0.000000000,-24.793283463,-35.000000000,0.000000000,0.000000000,0.000000000
1746519750.170307,7.247000000,0.000000000,0.000000000,0.000000000,0.000000000,-24.813955307,-35.000000000,0.000000000,0.000000000,0.000000000
1746519750.181043,7.257000000,0.000000000,0.000000000,0.000000000,0.000000000,-24.832559586,-35.000000000,0.000000000,0.000000000,0.000000000
1746519750.191771,7.268000000,0.000000000,0.000000000,0.000000000,0.000000000,-24.849302292,-35.000000000,0.000000000,0.000000000,0.000000000
1746519750.202392,7.279000000,0.000000000,0.000000000,0.000000000,0.000000000,-24.864372253,-36.000000000,0.000000000,0.000000000,0.000000000
1746519750.212870,7.289000000,0.000000000,0.000000000,0.000000000,0.000000000,-24.877933502,-36.000000000,0.000000000,0.000000000,0.000000000
1746519750.223319,7.300000000,0.000000000,0.000000000,0.000000000,0.000000000,-24.890138626,-36.000000000,0.000000000,0.000000000,0.000000000
1746519750.233680,7.310000000,0.000000000,0.000000000,0.000000000,0.000000000,-24.901124954,-36.000000000,0.000000000,0.000000000,0.000000000
1746519750.244104,7.321000000,0.000000000,0.000000000,0.000000000,0.000000000,-24.911012650,-36.000000000,0.000000000,0.000000000,0.000000000
1746519750.254735,7.331000000,0.000000000,0.000000000,0.000000000,0.000000000,-24.919910431,-36.000000000,0.000000000,0.000000000,0.000000000
1746519750.265183,7.342000000,0.000000000,0.000000000,0.000000000,0.000000000,-24.927919388,-36.000000000,0.000000000,0.000000000,0.000000000
1746519750.275467,7.352000000,0.000000000,0.000000000,0.000000000,0.000000000,-24.935127258,-36.000000000,0.000000000,0.000000000,0.000000000
1746519750.285932,7.362000000,0.000000000,0.000000000,0.000000000,0.000000000,-24.941614151,-36.000000000,0.000000000,0.000000000,0.000000000
1746519750.296576,7.373000000,0.000000000,0.000000000,0.000000000,0.000000000,-24.947452545,-36.000000000,0.000000000,0.000000000,0.000000000
1746519750.307285,7.384000000,0.000000000,0.000000000,0.000000000,0.000000000,-24.952707291,-37.000000000,0.000000000,0.000000000,0.000000000
1746519750.317907,7.394000000,0.000000000,0.000000000,0.000000000,0.000000000,-25.057435989,-37.000000000,0.000000000,0.000000000,0.000000000
1746519750.328454,7.405000000,0.000000000,0.000000000,0.000000000,0.000000000,-25.151691437,-37.000000000,0.000000000,0.000000000,0.000000000
1746519750.339171,7.415000000,0.000000000,0.000000000,0.000000000,0.000000000,-25.336523056,-37.000000000,0.000000000,0.000000000,0.000000000
1746519750.350621,7.427000000,0.000000000,0.000000000,0.000000000,0.000000000,-25.502870560,-37.000000000,0.000000000,0.000000000,0.000000000
1746519750.361114,7.437000000,0.000000000,0.000000000,0.000000000,0.000000000,-25.852582932,-37.000000000,0.000000000,0.000000000,0.000000000
1746519750.371457,7.448000000,0.000000000,0.000000000,0.000000000,0.000000000,-26.867324829,-37.000000000,0.000000000,0.000000000,0.000000000
1746519750.381885,7.458000000,0.000000000,0.000000000,0.000000000,0.000000000,-28.180591583,-37.000000000,0.000000000,0.000000000,0.000000000
1746519750.392420,7.469000000,0.000000000,0.000000000,0.000000000,0.000000000,-29.562532425,-37.000000000,0.000000000,0.100000001,0.000000000
1746519750.403180,7.479000000,0.000000000,0.000000000,0.000000000,0.000000000,-31.106279373,-37.000000000,0.000000000,0.189999998,0.000000000
1746519750.413563,7.490000000,0.000000000,0.000000000,0.000000000,0.000000000,-32.695652008,-38.000000000,0.000000000,0.270999998,0.000000000
1746519750.424105,7.500000000,0.000000000,0.000000000,0.000000000,0.000000000,-34.426086426,-38.000000000,0.000000000,0.343899995,0.000000000
1746519750.434631,7.511000000,0.000000000,0.000000000,0.000000000,0.000000000,-36.183475494,-38.000000000,0.000000000,0.409509987,0.000000000
1746519750.445209,7.522000000,0.000000000,0.000000000,0.000000000,0.000000000,-38.065128326,-38.000000000,0.000000000,0.468558967,0.000000000
1746519750.455986,7.532000000,0.000000000,0.000000000,0.000000000,0.000000000,-39.958614349,-38.000000000,0.000000000,0.521703064,0.000000000
1746519750.466470,7.543000000,0.000000000,0.000000000,0.000000000,0.000000000,-42.062751770,-38.000000000,0.000000000,0.469532758,0.000000000
1746519750.476908,7.553000000,0.000000000,0.000000000,0.000000000,0.000000000,-44.256477356,-38.000000000,0.000000000,0.422579467,0.000000000
1746519750.487410,7.564000000,0.000000000,0.000000000,0.000000000,0.000000000,-46.430828094,-38.000000000,0.000000000,0.380321503,0.000000000
1746519750.497967,7.574000000,0.000000000,0.000000000,0.000000000,0.000000000,-48.487743378,-38.000000000,0.000000000,0.442289323,0.000000000
1746519750.508544,7.585000000,0.000000000,0.000000000,0.000000000,0.000000000,-50.338970184,-38.000000000,0.000000000,0.498060375,0.000000000
1746519750.519001,7.595000000,0.000000000,0.000000000,0.000000000,0.000000000,-52.105072021,-39.000000000,0.000000000,0.448254317,0.000000000
1746519750.529484,7.606000000,0.000000000,0.000000000,0.000000000,0.000000000,-53.794563293,-39.000000000,0.000000000,0.403428882,0.000000000
1746519750.540107,7.616000000,0.000000000,0.000000000,0.000000000,0.000000000,-55.315105438,-39.000000000,0.000000000,0.363085985,0.000000000
1746519750.550634,7.627000000,0.000000000,0.000000000,0.000000000,0.000000000,-56.683593750,-39.000000000,0.000000000,0.426777363,0.000000000
1746519750.561444,7.638000000,0.000000000,0.000000000,0.000000000,0.000000000,-57.915233612,-39.000000000,0.000000000,0.484099597,0.000000000
1746519750.571946,7.648000000,0.000000000,0.000000000,0.000000000,0.000000000,-59.023712158,-39.000000000,0.000000000,0.535689652,0.000000000
1746519750.582399,7.659000000,0.000000000,0.000000000,0.000000000,0.000000000,-60.021339417,-39.000000000,0.000000000,0.582120657,0.000000000
1746519750.592936,7.669000000,0.000000000,0.000000000,0.000000000,0.000000000,-60.919204712,-39.000000000,0.000000000,0.623908579,0.000000000
1746519750.603553,7.680000000,0.000000000,0.000000000,0.000000000,0.000000000,-61.727283478,-39.000000000,0.000000000,0.661517739,0.000000000
1746519750.614334,7.691000000,0.000000000,0.000000000,0.000000000,0.000000000,-62.454555511,-39.000000000,0.000000000,0.695365965,0.000000000
1746519750.625068,7.701000000,0.000000000,0.000000000,0.000000000,0.000000000,-63.109100342,-40.000000000,0.000000000,0.725829363,0.000000000
1746519750.635485,7.712000000,0.000000000,0.000000000,0.000000000,0.000000000,-63.698188782,-40.000000000,0.000000000,0.753246427,0.000000000
1746519750.645967,7.722000000,0.000000000,0.000000000,0.000000000,0.000000000,-64.328369141,-40.000000000,0.000000000,0.777921796,0.000000000
1746519750.656527,7.733000000,0.000000000,0.000000000,0.000000000,0.000000000,-64.895530701,-40.000000000,0.000000000,0.800129592,0.000000000
1746519750.667714,7.744000000,0.000000000,0.000000000,0.000000000,0.000000000,-65.405975342,-40.000000000,0.000000000,0.820116639,0.000000000
1746519750.678374,7.755000000,0.000000000,0.000000000,0.000000000,0.000000000,-65.965377808,-40.000000000,0.000000000,0.738104939,0.000000000
1746519750.688907,7.765000000,0.000000000,0.000000000,0.000000000,0.000000000,-66.468841553,-40.000000000,0.000000000,0.664294422,0.000000000
1746519750.699444,7.776000000,0.000000000,0.000000000,0.000000000,0.000000000,-66.921958923,-40.000000000,0.000000000,0.597864985,0.000000000
1746519750.710012,7.786000000,0.000000000,0.000000000,0.000000000,0.000000000,-67.329765320,-40.000000000,0.000000000,0.538078487,0.000000000
1746519750.720441,7.797000000,0.000000000,0.000000000,0.000000000,0.000000000,-67.696784973,-40.000000000,0.000000000,0.484270632,0.000000000
1746519750.730936,7.807000000,0.000000000,0.000000000,0.000000000,0.000000000,-68.127105713,-41.000000000,0.000000000,0.435843557,0.000000000
1746519750.741396,7.818000000,0.000000000,0.000000000,0.000000000,0.000000000,-68.514389038,-41.000000000,0.000000000,0.392259181,0.000000000
1746519750.751854,7.828000000,0.000000000,0.000000000,0.000000000,0.000000000,-68.862945557,-41.000000000,0.000000000,0.453033239,0.000000000
1746519750.762403,7.839000000,0.000000000,0.000000000,0.000000000,0.000000000,-69.176651001,-41.000000000,0.000000000,0.507729888,0.000000000
1746519750.772804,7.849000000,0.000000000,0.000000000,0.000000000,0.000000000,-69.458984375,-41.000000000,0.000000000,0.556956887,0.000000000
1746519750.783302,7.860000000,0.000000000,0.000000000,0.000000000,0.000000000,-69.713081360,-41.000000000,0.000000000,0.601261199,0.000000000
1746519750.793731,7.870000000,0.000000000,0.000000000,0.000000000,0.000000000,-69.941772461,-41.000000000,0.000000000,0.641135097,0.000000000
1746519750.804264,7.881000000,0.000000000,0.000000000,0.000000000,0.000000000,-70.247596741,-41.000000000,0.000000000,0.677021623,0.000000000
1746519750.814909,7.891000000,0.000000000,0.000000000,0.000000000,0.000000000,-70.522834778,-41.000000000,0.000000000,0.709319472,0.000000000
1746519750.825307,7.902000000,0.000000000,0.000000000,0.000000000,0.000000000,-70.870552063,-41.000000000,0.000000000,0.738387525,0.000000000
1746519750.835999,7.912000000,0.000000000,0.000000000,0.000000000,0.000000000,-71.283500671,-42.000000000,0.000000000,0.764548779,0.000000000
1746519750.847324,7.923000000,0.000000000,0.000000000,0.000000000,0.000000000,-71.755149841,-42.000000000,0.000000000,0.788093925,0.000000000
1746519750.857843,7.934000000,0.000000000,0.000000000,0.000000000,0.000000000,-72.379638672,-42.000000000,0.000000000,0.809284508,0.000000000
1746519750.868341,7.945000000,0.000000000,0.000000000,0.000000000,0.000000000,-73.141670227,-42.000000000,0.000000000,0.828356087,0.000000000
1746519750.878764,7.955000000,0.000000000,0.000000000,0.000000000,0.000000000,-73.827499390,-42.000000000,0.000000000,0.845520496,0.000000000
1746519750.889218,7.966000000,0.000000000,0.000000000,0.000000000,0.000000000,-74.644744873,-42.000000000,0.000000000,0.860968471,0.000000000
1746519750.900206,7.976000000,0.000000000,0.000000000,0.000000000,0.000000000,-75.580268860,-42.000000000,0.000000000,0.874871612,0.000000000
1746519750.910649,7.987000000,0.000000000,0.000000000,0.000000000,0.000000000,-76.522239685,-42.000000000,0.000000000,0.887384474,0.000000000
1746519750.921119,7.998000000,0.000000000,0.000000000,0.000000000,0.000000000,-77.570007324,-42.000000000,0.000000000,0.798646033,0.000000000
1746519750.931612,8.008000000,0.000000000,0.000000000,0.000000000,0.000000000,-78.613006592,-42.000000000,0.000000000,0.718781412,0.000000000
1746519750.942060,8.019000000,0.000000000,0.000000000,0.000000000,0.000000000,-79.551704407,-43.000000000,0.000000000,0.646903276,0.000000000
1746519750.953129,8.029000000,0.000000000,0.000000000,0.000000000,0.000000000,-80.496536255,-43.000000000,0.000000000,0.582212925,0.000000000
1746519750.963759,8.040000000,0.000000000,0.000000000,0.000000000,0.000000000,-81.446884155,-43.000000000,0.000000000,0.523991644,0.000000000
1746519750.974253,8.051000000,0.000000000,0.000000000,0.000000000,0.000000000,-82.402191162,-43.000000000,0.000000000,0.571592450,0.000000000
1746519750.984837,8.061000000,0.000000000,0.000000000,0.000000000,0.000000000,-83.361968994,-43.000000000,0.000000000,0.614433229,0.000000000
1746519750.995547,8.072000000,0.000000000,0.000000000,0.000000000,0.000000000,-84.425773621,-43.000000000,0.000000000,0.652989924,0.000000000
1746519751.006187,8.083000000,0.000000000,0.000000000,0.000000000,0.000000000,-85.583190918,-43.000000000,0.000000000,0.687690914,0.000000000
1746519751.016759,8.093000000,0.000000000,0.000000000,0.000000000,0.000000000,-86.624870300,-43.000000000,0.000000000,0.718921840,0.000000000
1746519751.027194,8.104000000,0.000000000,0.000000000,0.000000000,0.000000000,-87.562377930,-43.000000000,0.000000000,0.747029662,0.000000000
1746519751.037771,8.114000000,0.000000000,0.000000000,0.000000000,0.000000000,-88.406135559,-43.000000000,0.000000000,0.772326708,0.000000000
1746519751.048270,8.125000000,0.000000000,0.000000000,0.000000000,0.000000000,-89.165519714,-44.000000000,0.000000000,0.795094013,0.000000000
1746519751.058698,8.135000000,0.000000000,0.000000000,0.000000000,0.000000000,-89.848960876,-44.000000000,0.000000000,0.815584600,0.000000000
1746519751.069285,8.146000000,0.000000000,0.000000000,0.000000000,0.000000000,-90.664062500,-44.000000000,0.000000000,0.834026158,0.000000000
1746519751.079755,8.156000000,0.000000000,0.000000000,0.000000000,0.000000000,-91.397659302,-44.000000000,0.000000000,0.850623548,0.000000000
1746519751.090319,8.167000000,0.000000000,0.000000000,0.000000000,0.000000000,-92.057891846,-44.000000000,0.000000000,0.865561187,0.000000000
1746519751.101791,8.178000000,0.000000000,0.000000000,0.000000000,0.000000000,-92.652107239,-44.000000000,0.000000000,0.879005075,0.000000000
1746519751.112419,8.189000000,0.000000000,0.000000000,0.000000000,0.000000000,-93.186897278,-44.000000000,0.000000000,0.891104579,0.000000000
1746519751.122892,8.199000000,0.000000000,0.000000000,0.000000000,0.000000000,-93.668205261,-44.000000000,0.000000000,0.901994109,0.000000000
1746519751.133332,8.210000000,0.000000000,0.000000000,0.000000000,0.000000000,-94.201385498,-44.000000000,0.000000000,0.911794722,0.000000000
1746519751.143970,8.220000000,0.000000000,0.000000000,0.000000000,0.000000000,-94.681243896,-44.000000000,0.000000000,0.820615232,0.000000000
1746519751.154759,8.231000000,0.000000000,0.000000000,0.000000000,0.000000000,-95.113121033,-45.000000000,0.000000000,0.738553703,0.000000000
1746519751.165312,8.242000000,0.000000000,0.000000000,0.000000000,0.000000000,-95.501808167,-45.000000000,0.000000000,0.664698303,0.000000000
1746519751.175905,8.252000000,0.000000000,0.000000000,0.000000000,0.000000000,-95.851623535,-45.000000000,0.000000000,0.598228455,0.000000000
1746519751.186368,8.263000000,0.000000000,0.000000000,0.000000000,0.000000000,-96.166458130,-45.000000000,0.000000000,0.538405597,0.000000000
1746519751.197070,8.273000000,0.000000000,0.000000000,0.000000000,0.000000000,-96.449813843,-45.000000000,0.000000000,0.484565020,0.000000000
1746519751.207766,8.284000000,0.000000000,0.000000000,0.000000000,0.000000000,-96.704833984,-45.000000000,0.000000000,0.436108500,0.000000000
1746519751.218452,8.295000000,0.000000000,0.000000000,0.000000000,0.000000000,-96.934349060,-45.000000000,0.000000000,0.492497623,0.000000000
1746519751.229146,8.305000000,0.000000000,0.000000000,0.000000000,0.000000000,-97.140914917,-45.000000000,0.000000000,0.543247879,0.000000000
1746519751.239664,8.316000000,0.000000000,0.000000000,0.000000000,0.000000000,-97.326820374,-45.000000000,0.000000000,0.588923097,0.000000000
1746519751.250489,8.327000000,0.000000000,0.000000000,0.000000000,0.000000000,-97.494140625,-45.000000000,0.000000000,0.630030811,0.000000000
1746519751.261003,8.337000000,0.000000000,0.000000000,0.000000000,0.000000000,-97.644721985,-46.000000000,0.000000000,0.667027712,0.000000000
1746519751.271897,8.348000000,0.000000000,0.000000000,0.000000000,0.000000000,-97.880249023,-46.000000000,0.000000000,0.700324953,0.000000000
1746519751.282564,8.359000000,0.000000000,0.000000000,0.000000000,0.000000000,-98.092224121,-46.000000000,0.000000000,0.730292439,0.000000000
1746519751.293233,8.370000000,0.000000000,0.000000000,0.000000000,0.000000000,-98.382995605,-46.000000000,0.000000000,0.757263184,0.000000000
1746519751.303845,8.380000000,0.000000000,0.000000000,0.000000000,0.000000000,-98.644691467,-46.000000000,0.000000000,0.781536877,0.000000000
1746519751.314326,8.391000000,0.000000000,0.000000000,0.000000000,0.000000000,-98.880218506,-46.000000000,0.000000000,0.803383172,0.000000000
1746519751.324912,8.401000000,0.000000000,0.000000000,0.000000000,0.000000000,-99.092193604,-46.000000000,0.000000000,0.823044837,0.000000000
1746519751.335888,8.412000000,0.000000000,0.000000000,0.000000000,0.000000000,-99.282966614,-46.000000000,0.000000000,0.840740383,0.000000000
1746519751.346521,8.423000000,0.000000000,0.000000000,0.000000000,0.000000000,-99.654670715,-46.000000000,0.000000000,0.856666327,0.000000000
1746519751.357074,8.433000000,0.000000000,0.000000000,0.000000000,0.000000000,-99.989204407,-46.000000000,0.000000000,0.870999694,0.000000000
1746519751.368168,8.444000000,0.000000000,0.000000000,0.000000000,0.000000000,-100.290283203,-47.000000000,0.000000000,0.783899724,0.000000000
1746519751.378713,8.455000000,0.000000000,0.000000000,0.000000000,0.000000000,-100.561256409,-47.000000000,0.000000000,0.705509722,0.000000000
1746519751.389752,8.466000000,0.000000000,0.000000000,0.000000000,0.000000000,-100.805130005,-47.000000000,0.000000000,0.734958768,0.000000000
1746519751.400555,8.477000000,0.000000000,0.000000000,0.000000000,0.000000000,-101.024620056,-47.000000000,0.000000000,0.661462903,0.000000000
1746519751.411182,8.487000000,0.000000000,0.000000000,0.000000000,0.000000000,-101.322158813,-47.000000000,0.000000000,0.595316589,0.000000000
1746519751.421741,8.498000000,0.000000000,0.000000000,0.000000000,0.000000000,-101.589942932,-47.000000000,0.000000000,0.535784900,0.000000000
1746519751.432416,8.509000000,0.000000000,0.000000000,0.000000000,0.000000000,-101.830947876,-47.000000000,0.000000000,0.582206428,0.000000000
1746519751.443545,8.520000000,0.000000000,0.000000000,0.000000000,0.000000000,-102.047851563,-47.000000000,0.000000000,0.623985767,0.000000000
1746519751.454400,8.531000000,0.000000000,0.000000000,0.000000000,0.000000000,-102.243064880,-47.000000000,0.000000000,0.661587179,0.000000000
1746519751.464721,8.541000000,0.000000000,0.000000000,0.000000000,0.000000000,-102.418754578,-47.000000000,0.000000000,0.695428491,0.000000000
1746519751.475328,8.552000000,0.000000000,0.000000000,0.000000000,0.000000000,-102.676879883,-48.000000000,0.000000000,0.725885630,0.000000000
1746519751.485744,8.562000000,0.000000000,0.000000000,0.000000000,0.000000000,-102.909187317,-48.000000000,0.000000000,0.753297091,0.000000000
1746519751.496383,8.573000000,0.000000000,0.000000000,0.000000000,0.000000000,-103.118263245,-48.000000000,0.000000000,0.777967393,0.000000000
1746519751.506820,8.583000000,0.000000000,0.000000000,0.000000000,0.000000000,-103.406433105,-48.000000000,0.000000000,0.800170660,0.000000000
1746519751.517202,8.594000000,0.000000000,0.000000000,0.000000000,0.000000000,-103.665786743,-48.000000000,0.000000000,0.820153594,0.000000000
1746519751.527799,8.604000000,0.000000000,0.000000000,0.000000000,0.000000000,-103.999198914,-48.000000000,0.000000000,0.838138223,0.000000000
1746519751.538550,8.615000000,0.000000000,0.000000000,0.000000000,0.000000000,-104.499275208,-48.000000000,0.000000000,0.854324400,0.000000000
1746519751.549434,8.626000000,0.000000000,0.000000000,0.000000000,0.000000000,-105.249343872,-48.000000000,0.000000000,0.868891954,0.000000000
1746519751.560245,8.636000000,0.000000000,0.000000000,0.000000000,0.000000000,-106.624404907,-48.000000000,0.000000000,0.882002771,0.000000000
1746519751.570609,8.647000000,0.000000000,0.000000000,0.000000000,0.000000000,-107.961959839,-48.000000000,0.000000000,0.893802524,0.000000000
1746519751.581624,8.658000000,0.000000000,0.000000000,0.000000000,0.000000000,-109.265762329,-49.000000000,0.000000000,0.904422283,0.000000000
1746519751.592680,8.669000000,0.000000000,0.000000000,0.000000000,0.000000000,-110.539176941,-49.000000000,0.000000000,0.813980043,0.000000000
1746519751.603291,8.680000000,0.000000000,0.000000000,0.000000000,0.000000000,-111.685256958,-49.000000000,0.000000000,0.732582033,0.000000000
1746519751.613871,8.690000000,0.000000000,0.000000000,0.000000000,0.000000000,-112.816734314,-49.000000000,0.000000000,0.659323812,0.000000000
1746519751.624468,8.701000000,0.000000000,0.000000000,0.000000000,0.000000000,-113.935058594,-49.000000000,0.000000000,0.593391418,0.000000000
1746519751.635116,8.711000000,0.000000000,0.000000000,0.000000000,0.000000000,-115.041549683,-49.000000000,0.000000000,0.534052253,0.000000000
1746519751.645840,8.722000000,0.000000000,0.000000000,0.000000000,0.000000000,-116.037391663,-49.000000000,0.000000000,0.480647027,0.000000000
1746519751.656439,8.733000000,0.000000000,0.000000000,0.000000000,0.000000000,-116.933647156,-49.000000000,0.000000000,0.432582319,0.000000000
1746519751.667122,8.743000000,0.000000000,0.000000000,0.000000000,0.000000000,-117.740280151,-49.000000000,0.000000000,0.389324069,0.000000000
1746519751.677939,8.754000000,0.000000000,0.000000000,0.000000000,0.000000000,-118.466247559,-49.000000000,0.000000000,0.350391656,0.000000000
1746519751.688594,8.765000000,0.000000000,0.000000000,0.000000000,0.000000000,-119.119621277,-50.000000000,0.000000000,0.315352470,0.000000000
1746519751.699260,8.776000000,0.000000000,0.000000000,0.000000000,0.000000000,-119.707656860,-50.000000000,0.000000000,0.283817202,0.000000000
1746519751.709820,8.786000000,0.000000000,0.000000000,0.000000000,0.000000000,-120.236885071,-50.000000000,0.000000000,0.255435467,0.000000000
1746519751.720236,8.797000000,0.000000000,0.000000000,0.000000000,0.000000000,-120.713195801,-50.000000000,0.000000000,0.229891911,0.000000000
1746519751.730895,8.807000000,0.000000000,0.000000000,0.000000000,0.000000000,-121.141876221,-50.000000000,0.000000000,0.206902713,0.000000000
1746519751.741574,8.818000000,0.000000000,0.000000000,0.000000000,0.000000000,-121.527687073,-50.000000000,0.000000000,0.186212435,0.000000000
1746519751.752294,8.829000000,0.000000000,0.000000000,0.000000000,0.000000000,-121.874916077,-50.000000000,0.000000000,0.167591184,0.000000000
1746519751.762719,8.839000000,0.000000000,0.000000000,0.000000000,0.000000000,-122.287422180,-50.000000000,0.000000000,0.150832057,0.000000000
1746519751.773349,8.850000000,0.000000000,0.000000000,0.000000000,0.000000000,-122.658676147,-50.000000000,0.000000000,0.135748848,0.000000000
1746519751.783907,8.860000000,0.000000000,0.000000000,0.000000000,0.000000000,-122.992805481,-50.000000000,0.000000000,0.122173958,0.000000000
1746519751.794600,8.871000000,0.000000000,0.000000000,0.000000000,0.000000000,-123.293518066,-51.000000000,0.000000000,0.109956563,0.000000000
1746519751.805273,8.882000000,0.000000000,0.000000000,0.000000000,0.000000000,-123.564163208,-51.000000000,0.000000000,0.098960906,0.000000000
1746519751.815906,8.892000000,0.000000000,0.000000000,0.000000000,0.000000000,-123.807739258,-51.000000000,0.000000000,0.089064814,0.000000000
1746519751.826363,8.903000000,0.000000000,0.000000000,0.000000000,0.000000000,-124.126960754,-51.000000000,0.000000000,0.080158331,0.000000000
1746519751.836929,8.913000000,0.000000000,0.000000000,0.000000000,0.000000000,-124.714263916,-51.000000000,0.000000000,0.072142497,0.000000000
1746519751.847538,8.924000000,0.000000000,0.000000000,0.000000000,0.000000000,-125.642837524,-51.000000000,0.000000000,0.064928249,0.000000000
1746519751.858405,8.935000000,0.000000000,0.000000000,0.000000000,0.000000000,-126.678550720,-51.000000000,0.000000000,0.058435421,0.000000000
1746519751.869376,8.946000000,0.000000000,0.000000000,0.000000000,0.000000000,-127.710693359,-51.000000000,0.000000000,0.052591879,0.000000000
1746519751.879908,8.956000000,0.000000000,0.000000000,0.000000000,0.000000000,-128.739624023,-51.000000000,0.000000000,0.047332689,0.000000000
1746519751.890450,8.967000000,0.000000000,0.000000000,0.000000000,0.000000000,-129.765655518,-51.000000000,0.000000000,0.042599417,0.000000000
1746519751.901041,8.977000000,0.000000000,0.000000000,0.000000000,0.000000000,-130.789093018,-52.000000000,0.000000000,0.038339473,0.000000000
1746519751.911627,8.988000000,0.000000000,0.000000000,0.000000000,0.000000000,-131.910186768,-52.000000000,0.000000000,0.034505524,0.000000000
1746519751.922341,8.999000000,0.000000000,0.000000000,0.000000000,0.000000000,-133.019165039,-52.000000000,0.000000000,0.031054970,0.000000000
1746519751.933029,9.009000000,0.000000000,0.000000000,0.000000000,0.000000000,-134.217254639,-52.000000000,0.000000000,0.027949473,0.000000000
1746519751.943918,9.020000000,0.000000000,0.000000000,0.000000000,0.000000000,-135.495529175,-52.000000000,0.000000000,0.025154525,0.000000000
1746519751.954797,9.031000000,0.000000000,0.000000000,0.000000000,0.000000000,-136.845977783,-52.000000000,0.000000000,0.022639072,0.000000000
1746519751.965531,9.042000000,0.000000000,0.000000000,0.000000000,0.000000000,-138.161376953,-52.000000000,0.000000000,0.020375164,0.000000000
1746519751.976193,9.053000000,0.000000000,0.000000000,0.000000000,0.000000000,-139.345245361,-52.000000000,0.000000000,0.018337646,0.000000000
1746519751.986911,9.063000000,0.000000000,0.000000000,0.000000000,0.000000000,-140.510726929,-52.000000000,0.000000000,0.016503882,0.000000000
1746519751.997805,9.074000000,0.000000000,0.000000000,0.000000000,0.000000000,-141.559646606,-52.000000000,0.000000000,0.014853493,0.000000000
1746519752.008388,9.085000000,0.000000000,0.000000000,0.000000000,0.000000000,-142.603683472,-53.000000000,0.000000000,0.013368144,0.000000000
1746519752.019131,9.095000000,0.000000000,0.000000000,0.000000000,0.000000000,-143.543304443,-53.000000000,0.000000000,0.012031329,0.000000000
1746519752.029816,9.106000000,0.000000000,0.000000000,0.000000000,0.000000000,-144.388961792,-53.000000000,0.000000000,0.010828196,0.000000000
1746519752.040543,9.117000000,0.000000000,0.000000000,0.000000000,0.000000000,-145.150054932,-53.000000000,0.000000000,0.009745376,0.000000000
1746519752.051280,9.128000000,0.000000000,0.000000000,0.000000000,0.000000000,-145.835037231,-53.000000000,0.000000000,0.008770838,0.000000000
1746519752.061664,9.138000000,0.000000000,0.000000000,0.000000000,0.000000000,-146.451522827,-53.000000000,0.000000000,0.007893754,0.000000000
1746519752.072409,9.149000000,0.000000000,0.000000000,0.000000000,0.000000000,-147.006362915,-53.000000000,0.000000000,0.007104379,0.000000000
1746519752.083462,9.160000000,0.000000000,0.000000000,0.000000000,0.000000000,-147.505722046,-53.000000000,0.000000000,0.006393941,0.000000000
1746519752.094136,9.170000000,0.000000000,0.000000000,0.000000000,0.000000000,-147.955139160,-53.000000000,0.000000000,0.005754546,0.000000000
1746519752.104756,9.181000000,0.000000000,0.000000000,0.000000000,0.000000000,-148.359619141,-53.000000000,0.000000000,0.005179091,0.000000000
1746519752.115357,9.192000000,0.000000000,0.000000000,0.000000000,0.000000000,-148.723648071,-54.000000000,0.000000000,0.004661182,0.000000000
1746519752.125958,9.202000000,0.000000000,0.000000000,0.000000000,0.000000000,-149.051269531,-54.000000000,0.000000000,0.004195064,0.000000000
1746519752.136749,9.213000000,0.000000000,0.000000000,0.000000000,0.000000000,-149.346130371,-54.000000000,0.000000000,0.003775557,0.000000000
1746519752.147334,9.224000000,0.000000000,0.000000000,0.000000000,0.000000000,-149.611511230,-54.000000000,0.000000000,0.003398001,0.000000000
1746519752.157872,9.234000000,0.000000000,0.000000000,0.000000000,0.000000000,-149.850357056,-54.000000000,0.000000000,0.003058201,0.000000000
1746519752.168564,9.245000000,0.000000000,0.000000000,0.000000000,0.000000000,-150.065307617,-54.000000000,0.000000000,0.002752381,0.000000000
1746519752.179224,9.256000000,0.000000000,0.000000000,0.000000000,0.000000000,-150.258773804,-54.000000000,0.000000000,0.002477143,0.000000000
1746519752.190464,9.267000000,0.000000000,0.000000000,0.000000000,0.000000000,-150.432891846,-54.000000000,0.000000000,0.002229428,0.000000000
1746519752.201229,9.277000000,0.000000000,0.000000000,0.000000000,0.000000000,-150.589599609,-54.000000000,0.000000000,0.002006486,0.000000000
1746519752.211690,9.288000000,0.000000000,0.000000000,0.000000000,0.000000000,-150.730636597,-54.000000000,0.000000000,0.001805837,0.000000000
1746519752.222310,9.299000000,0.000000000,0.000000000,0.000000000,0.000000000,-150.857559204,-55.000000000,0.000000000,0.001625253,0.000000000
1746519752.232910,9.309000000,0.000000000,0.000000000,0.000000000,0.000000000,-150.971801758,-55.000000000,0.000000000,0.001462728,0.000000000
1746519752.243510,9.320000000,0.000000000,0.000000000,0.000000000,0.000000000,-151.074615479,-55.000000000,0.000000000,0.001316455,0.000000000
1746519752.253999,9.330000000,0.000000000,0.000000000,0.000000000,0.000000000,-151.167144775,-55.000000000,0.000000000,0.001184809,0.000000000
1746519752.264446,9.341000000,0.000000000,0.000000000,0.000000000,0.000000000,-151.250427246,-55.000000000,0.000000000,0.001066328,0.000000000
1746519752.275274,9.351000000,0.000000000,0.000000000,0.000000000,0.000000000,-151.325378418,-55.000000000,0.000000000,0.000959696,0.000000000
1746519752.286043,9.362000000,0.000000000,0.000000000,0.000000000,0.000000000,-151.392837524,-55.000000000,0.000000000,0.000863726,0.000000000
1746519752.296603,9.373000000,0.000000000,0.000000000,0.000000000,0.000000000,-151.453552246,-55.000000000,0.000000000,0.000777353,0.000000000
1746519752.307158,9.384000000,0.000000000,0.000000000,0.000000000,0.000000000,-151.508193970,-55.000000000,0.000000000,0.000699618,0.000000000
1746519752.317752,9.394000000,0.000000000,0.000000000,0.000000000,0.000000000,-151.557373047,-55.000000000,0.000000000,0.000629656,0.000000000
1746519752.328385,9.405000000,0.000000000,0.000000000,0.000000000,0.000000000,-151.601623535,-56.000000000,0.000000000,0.000566691,0.000000000
1746519752.339151,9.415000000,0.000000000,0.000000000,0.000000000,0.000000000,-151.641448975,-56.000000000,0.000000000,0.000510022,0.000000000
1746519752.349716,9.426000000,0.000000000,0.000000000,0.000000000,0.000000000,-151.677291870,-56.000000000,0.000000000,0.000459019,0.000000000
1746519752.360214,9.437000000,0.000000000,0.000000000,0.000000000,0.000000000,-151.709548950,-56.000000000,0.000000000,0.000413117,0.000000000
1746519752.370897,9.447000000,0.000000000,0.000000000,0.000000000,0.000000000,-151.738586426,-56.000000000,0.000000000,0.000371806,0.000000000
1746519752.381758,9.458000000,0.000000000,0.000000000,0.000000000,0.000000000,-151.764724731,-56.000000000,0.000000000,0.000334625,0.000000000
1746519752.392315,9.469000000,0.000000000,0.000000000,0.000000000,0.000000000,-151.788238525,-56.000000000,0.000000000,0.000301163,0.000000000
1746519752.403098,9.479000000,0.000000000,0.000000000,0.000000000,0.000000000,-151.809402466,-56.000000000,0.000000000,0.000271046,0.000000000
1746519752.413507,9.490000000,0.000000000,0.000000000,0.000000000,0.000000000,-151.828460693,-56.000000000,0.000000000,0.000243942,0.000000000
1746519752.424115,9.500000000,0.000000000,0.000000000,0.000000000,0.000000000,-151.845611572,-56.000000000,0.000000000,0.000219548,0.000000000
1746519752.434885,9.511000000,0.000000000,0.000000000,0.000000000,0.000000000,-151.861038208,-57.000000000,0.000000000,0.000197593,0.000000000
1746519752.445406,9.522000000,0.000000000,0.000000000,0.000000000,0.000000000,-151.874923706,-57.000000000,0.000000000,0.000177833,0.000000000
1746519752.456168,9.532000000,0.000000000,0.000000000,0.000000000,0.000000000,-151.887420654,-57.000000000,0.000000000,0.000160050,0.000000000
1746519752.466889,9.543000000,0.000000000,0.000000000,0.000000000,0.000000000,-151.898666382,-57.000000000,0.000000000,0.000144045,0.000000000
1746519752.478404,9.555000000,0.000000000,0.000000000,0.000000000,0.000000000,-152.008804321,-57.000000000,0.000000000,0.000129641,0.000000000
1746519752.489117,9.565000000,0.000000000,0.000000000,0.000000000,0.000000000,-152.107925415,-57.000000000,0.000000000,0.000116677,0.000000000
1746519752.499606,9.576000000,0.000000000,0.000000000,0.000000000,0.000000000,-152.197128296,-57.000000000,0.000000000,0.000105009,0.000000000
1746519752.510115,9.586000000,0.000000000,0.000000000,0.000000000,0.000000000,-152.277420044,-57.000000000,0.000000000,0.000094508,0.000000000
1746519752.520669,9.597000000,0.000000000,0.000000000,0.000000000,0.000000000,-152.349670410,-57.000000000,0.000000000,0.000085057,0.000000000
1746519752.531407,9.608000000,0.000000000,0.000000000,0.000000000,0.000000000,-152.414703369,-57.000000000,0.000000000,0.000076551,0.000000000
1746519752.542036,9.618000000,0.000000000,0.000000000,0.000000000,0.000000000,-152.473236084,-58.000000000,0.000000000,0.000068896,0.000000000
1746519752.552646,9.629000000,0.000000000,0.000000000,0.000000000,0.000000000,-152.525909424,-58.000000000,0.000000000,0.000062007,0.000000000
1746519752.563299,9.640000000,0.000000000,0.000000000,0.000000000,0.000000000,-152.573318481,-58.000000000,0.000000000,0.000055806,0.000000000
1746519752.573902,9.650000000,0.000000000,0.000000000,0.000000000,0.000000000,-152.615982056,-58.000000000,0.000000000,0.000050225,0.000000000
1746519752.584474,9.661000000,0.000000000,0.000000000,0.000000000,0.000000000,-152.654388428,-58.000000000,0.000000000,0.000045203,0.000000000
1746519752.595075,9.671000000,0.000000000,0.000000000,0.000000000,0.000000000,-152.688949585,-58.000000000,0.000000000,0.000040683,0.000000000
1746519752.605844,9.682000000,0.000000000,0.000000000,0.000000000,0.000000000,-152.720046997,-58.000000000,0.000000000,0.000036614,0.000000000
1746519752.616491,9.693000000,0.000000000,0.000000000,0.000000000,0.000000000,-152.748046875,-58.000000000,0.000000000,0.000032953,0.000000000
1746519752.626987,9.703000000,0.000000000,0.000000000,0.000000000,0.000000000,-152.773239136,-58.000000000,0.000000000,0.000029658,0.000000000
1746519752.637488,9.714000000,0.000000000,0.000000000,0.000000000,0.000000000,-152.795913696,-58.000000000,0.000000000,0.000026692,0.000000000
1746519752.647973,9.724000000,0.000000000,0.000000000,0.000000000,0.000000000,-152.816314697,-59.000000000,0.000000000,0.000024023,0.000000000
1746519752.658614,9.735000000,0.000000000,0.000000000,0.000000000,0.000000000,-152.834686279,-59.000000000,0.000000000,0.000021620,0.000000000
1746519752.669204,9.745000000,0.000000000,0.000000000,0.000000000,0.000000000,-152.851211548,-59.000000000,0.000000000,0.000019458,0.000000000
1746519752.679757,9.756000000,0.000000000,0.000000000,0.000000000,0.000000000,-152.866088867,-59.000000000,0.000000000,0.000017513,0.000000000
1746519752.690362,9.767000000,0.000000000,0.000000000,0.000000000,0.000000000,-152.879486084,-59.000000000,0.000000000,0.000015761,0.000000000
1746519752.700916,9.777000000,0.000000000,0.000000000,0.000000000,0.000000000,-152.891540527,-59.000000000,0.000000000,0.000014185,0.000000000
1746519752.711687,9.788000000,0.000000000,0.000000000,0.000000000,0.000000000,-152.902389526,-59.000000000,0.000000000,0.000012767,0.000000000
1746519752.722265,9.799000000,0.000000000,0.000000000,0.000000000,0.000000000,-152.912155151,-59.000000000,0.000000000,0.000011490,0.000000000
1746519752.732641,9.809000000,0.000000000,0.000000000,0.000000000,0.000000000,-152.920944214,-59.000000000,0.000000000,0.000010341,0.000000000
1746519752.743137,9.820000000,0.000000000,0.000000000,0.000000000,0.000000000,-152.928848267,-59.000000000,0.000000000,0.000009307,0.000000000
1746519752.753639,9.830000000,0.000000000,0.000000000,0.000000000,0.000000000,-152.935958862,-60.000000000,0.000000000,0.000008376,0.000000000
1746519752.764193,9.841000000,0.000000000,0.000000000,0.000000000,0.000000000,-152.942367554,-60.000000000,0.000000000,0.000007539,0.000000000
1746519752.774609,9.851000000,0.000000000,0.000000000,0.000000000,0.000000000,-152.948135376,-60.000000000,0.000000000,0.000006785,0.000000000
1746519752.785101,9.862000000,0.000000000,0.000000000,0.000000000,0.000000000,-152.953323364,-60.000000000,0.000000000,0.000006106,0.000000000
1746519752.795656,9.872000000,0.000000000,0.000000000,0.000000000,0.000000000,-152.957992554,-60.000000000,0.000000000,0.000005496,0.000000000
1746519752.806159,9.883000000,0.000000000,0.000000000,0.000000000,0.000000000,-152.962188721,-60.000000000,0.000000000,0.000004946,0.000000000
1746519752.816688,9.893000000,0.000000000,0.000000000,0.000000000,0.000000000,-152.965972900,-60.000000000,0.000000000,0.000004451,0.000000000
1746519752.827164,9.904000000,0.000000000,0.000000000,0.000000000,0.000000000,-152.969375610,-60.000000000,0.000000000,0.000004006,0.000000000
1746519752.837604,9.914000000,0.000000000,0.000000000,0.000000000,0.000000000,-152.972442627,-60.000000000,0.000000000,0.000003606,0.000000000
1746519752.848171,9.925000000,0.000000000,0.000000000,0.000000000,0.000000000,-152.975204468,-60.000000000,0.000000000,0.000003245,0.000000000
1746519752.858778,9.935000000,0.000000000,0.000000000,0.000000000,0.000000000,-152.977676392,-61.000000000,0.000000000,0.000002921,0.000000000
1746519752.869229,9.946000000,0.000000000,0.000000000,0.000000000,0.000000000,-152.979904175,-61.000000000,0.000000000,0.000002629,0.000000000
1746519752.879625,9.956000000,0.000000000,0.000000000,0.000000000,0.000000000,-152.981918335,-61.000000000,0.000000000,0.000002366,0.000000000
1746519752.890109,9.967000000,0.000000000,0.000000000,0.000000000,0.000000000,-152.983718872,-61.000000000,0.000000000,0.000002129,0.000000000
1746519752.900925,9.977000000,0.000000000,0.000000000,0.000000000,0.000000000,-152.985351563,-61.000000000,0.000000000,0.000001916,0.000000000
1746519752.911717,9.988000000,0.000000000,0.000000000,0.000000000,0.000000000,-152.986816406,-61.000000000,0.000000000,0.000001725,0.000000000
1746519752.922299,9.999000000,0.000000000,0.000000000,0.000000000,0.000000000,-152.988128662,-61.000000000,0.000000000,0.000001552,0.000000000
1746519752.932929,10.009000000,0.000000000,0.000000000,0.000000000,0.000000000,-152.989318848,-61.000000000,0.000000000,0.000001397,0.000000000
1746519752.943537,10.020000000,0.000000000,0.000000000,0.000000000,0.000000000,-152.990386963,-61.000000000,0.000000000,0.000001257,0.000000000
1746519752.954767,10.031000000,0.000000000,0.000000000,0.000000000,0.000000000,-152.991348267,-61.000000000,0.000000000,0.000001131,0.000000000
1746519752.965554,10.042000000,0.000000000,0.000000000,0.000000000,0.000000000,-152.992218018,-62.000000000,0.000000000,0.000001018,0.000000000
1746519752.976161,10.053000000,0.000000000,0.000000000,0.000000000,0.000000000,-152.992996216,-62.000000000,0.000000000,0.000000917,0.000000000
1746519752.986826,10.063000000,0.000000000,0.000000000,0.000000000,0.000000000,-152.993698120,-62.000000000,0.000000000,0.000000825,0.000000000
1746519752.997627,10.074000000,0.000000000,0.000000000,0.000000000,0.000000000,-152.994323730,-62.000000000,0.000000000,0.000000742,0.000000000
1746519753.008284,10.085000000,0.000000000,0.000000000,0.000000000,0.000000000,-152.994888306,-62.000000000,0.000000000,0.000000668,0.000000000
1746519753.018812,10.095000000,0.000000000,0.000000000,0.000000000,0.000000000,-152.995391846,-62.000000000,0.000000000,0.000000601,0.000000000
1746519753.029409,10.106000000,0.000000000,0.000000000,0.000000000,0.000000000,-152.995849609,-62.000000000,0.000000000,0.000000541,0.000000000
1746519753.040054,10.116000000,0.000000000,0.000000000,0.000000000,0.000000000,-152.996261597,-62.000000000,0.000000000,0.000000487,0.000000000
1746519753.050822,10.127000000,0.000000000,0.000000000,0.000000000,0.000000000,-152.996627808,-62.000000000,0.000000000,0.000000438,0.000000000
1746519753.061205,10.138000000,0.000000000,0.000000000,0.000000000,0.000000000,-152.996963501,-62.000000000,0.000000000,0.000000395,0.000000000
1746519753.071832,10.148000000,0.000000000,0.000000000,0.000000000,0.000000000,-152.997268677,-63.000000000,0.000000000,0.000000355,0.000000000
1746519753.082800,10.159000000,0.000000000,0.000000000,0.000000000,0.000000000,-152.997543335,-63.000000000,0.000000000,0.000000320,0.000000000
1746519753.094034,10.170000000,0.000000000,0.000000000,0.000000000,0.000000000,-153.097778320,-63.000000000,0.000000000,0.000000288,0.000000000
1746519753.104804,10.181000000,0.000000000,0.000000000,0.000000000,0.000000000,-153.187988281,-63.000000000,0.000000000,0.000000259,0.000000000
1746519753.115195,10.192000000,0.000000000,0.000000000,0.000000000,0.000000000,-153.269180298,-63.000000000,0.000000000,0.000000233,0.000000000
1746519753.125755,10.202000000,0.000000000,0.000000000,0.000000000,0.000000000,-153.342254639,-63.000000000,0.000000000,0.000000210,0.000000000
1746519753.136877,10.213000000,0.000000000,0.000000000,0.000000000,0.000000000,-153.408020020,-63.000000000,0.000000000,0.000000189,0.000000000
1746519753.147315,10.224000000,0.000000000,0.000000000,0.000000000,0.000000000,-153.467208862,-63.000000000,0.000000000,0.000000170,0.000000000
1746519753.157964,10.234000000,0.000000000,0.000000000,0.000000000,0.000000000,-153.620483398,-63.000000000,0.000000000,0.000000153,0.000000000
1746519753.168519,10.245000000,0.000000000,0.000000000,0.000000000,0.000000000,-153.758438110,-63.000000000,0.000000000,0.000000138,0.000000000
1746519753.179074,10.255000000,0.000000000,0.000000000,0.000000000,0.000000000,-153.882583618,-64.000000000,0.000000000,0.000000124,0.000000000
1746519753.189776,10.266000000,0.000000000,0.000000000,0.000000000,0.000000000,-153.994323730,-64.000000000,0.000000000,0.000000111,0.000000000
1746519753.200508,10.277000000,0.000000000,0.000000000,0.000000000,0.000000000,-154.094894409,-64.000000000,0.000000000,0.000000100,0.000000000
1746519753.211056,10.287000000,0.000000000,0.000000000,0.000000000,0.000000000,-154.185394287,-64.000000000,0.000000000,0.000000090,0.000000000
1746519753.221666,10.298000000,0.000000000,0.000000000,0.000000000,0.000000000,-154.266845703,-64.000000000,0.000000000,0.000000081,0.000000000
1746519753.232798,10.309000000,0.000000000,0.000000000,0.000000000,0.000000000,-154.340164185,-64.000000000,0.000000000,0.000000073,0.000000000
1746519753.244205,10.320000000,0.000000000,0.000000000,0.000000000,0.000000000,-154.406143188,-64.000000000,0.000000000,0.000000066,0.000000000
1746519753.254948,10.331000000,0.000000000,0.000000000,0.000000000,0.000000000,-154.465530396,-64.000000000,0.000000000,0.000000059,0.000000000
1746519753.265448,10.342000000,0.000000000,0.000000000,0.000000000,0.000000000,-154.518966675,-64.000000000,0.000000000,0.000000053,0.000000000
1746519753.276098,10.352000000,0.000000000,0.000000000,0.000000000,0.000000000,-154.567062378,-64.000000000,0.000000000,0.000000048,0.000000000
1746519753.286835,10.363000000,0.000000000,0.000000000,0.000000000,0.000000000,-154.610351563,-65.000000000,0.000000000,0.000000043,0.000000000
1746519753.297758,10.374000000,0.000000000,0.000000000,0.000000000,0.000000000,-154.649307251,-65.000000000,0.000000000,0.000000039,0.000000000
1746519753.308376,10.385000000,0.000000000,0.000000000,0.000000000,0.000000000,-154.684371948,-65.000000000,0.000000000,0.000000035,0.000000000
1746519753.318931,10.395000000,0.000000000,0.000000000,0.000000000,0.000000000,-154.715927124,-65.000000000,0.000000000,0.000000031,0.000000000
1746519753.329627,10.406000000,0.000000000,0.000000000,0.000000000,0.000000000,-154.744323730,-65.000000000,0.000000000,0.000000028,0.000000000
1746519753.340763,10.417000000,0.000000000,0.000000000,0.000000000,0.000000000,-154.769882202,-65.000000000,0.000000000,0.000000025,0.000000000
1746519753.352264,10.428000000,0.000000000,0.000000000,0.000000000,0.000000000,-154.892898560,-65.000000000,0.000000000,0.000000023,0.000000000
1746519753.362831,10.439000000,0.000000000,0.000000000,0.000000000,0.000000000,-155.003616333,-65.000000000,0.000000000,0.000000021,0.000000000
1746519753.373524,10.450000000,0.000000000,0.000000000,0.000000000,0.000000000,-155.203247070,-65.000000000,0.000000000,0.000000019,0.000000000
1746519753.384286,10.461000000,0.000000000,0.000000000,0.000000000,0.000000000,-155.382919312,-65.000000000,0.000000000,0.000000017,0.000000000
1746519753.395148,10.471000000,0.000000000,0.000000000,0.000000000,0.000000000,-155.544616699,-66.000000000,0.000000000,0.000000015,0.000000000
1746519753.405767,10.482000000,0.000000000,0.000000000,0.000000000,0.000000000,-155.690155029,-66.000000000,0.000000000,0.000000014,0.000000000
1746519753.416247,10.493000000,0.000000000,0.000000000,0.000000000,0.000000000,-155.921142578,-66.000000000,0.000000000,0.000000012,0.000000000
1746519753.426810,10.503000000,0.000000000,0.000000000,0.000000000,0.000000000,-156.129028320,-66.000000000,0.000000000,0.000000011,0.000000000
1746519753.438026,10.514000000,0.000000000,0.000000000,0.000000000,0.000000000,-156.416122437,-66.000000000,0.000000000,0.000000010,0.000000000
1746519753.448923,10.525000000,0.000000000,0.000000000,0.000000000,0.000000000,-156.674499512,-66.000000000,0.000000000,0.000000009,0.000000000
1746519753.459329,10.536000000,0.000000000,0.000000000,0.000000000,0.000000000,-157.007049561,-66.000000000,0.000000000,0.000000008,0.000000000
1746519753.469939,10.546000000,0.000000000,0.000000000,0.000000000,0.000000000,-157.406341553,-66.000000000,0.000000000,0.000000007,0.000000000
1746519753.480541,10.557000000,0.000000000,0.000000000,0.000000000,0.000000000,-157.865707397,-66.000000000,0.000000000,0.000000006,0.000000000
1746519753.491215,10.568000000,0.000000000,0.000000000,0.000000000,0.000000000,-158.379135132,-66.000000000,0.000000000,0.000000006,0.000000000
1746519753.502025,10.578000000,0.000000000,0.000000000,0.000000000,0.000000000,-158.941207886,-67.000000000,0.000000000,0.000000005,0.000000000
1746519753.512539,10.589000000,0.000000000,0.000000000,0.000000000,0.000000000,-159.447082520,-67.000000000,0.000000000,0.000000005,0.000000000
1746519753.523301,10.600000000,0.000000000,0.000000000,0.000000000,0.000000000,-159.902359009,-67.000000000,0.000000000,0.000000004,0.000000000
1746519753.533814,10.610000000,0.000000000,0.000000000,0.000000000,0.000000000,-160.412124634,-67.000000000,0.000000000,0.000000004,0.000000000
1746519753.544375,10.621000000,0.000000000,0.000000000,0.000000000,0.000000000,-160.870910645,-67.000000000,0.000000000,0.000000003,0.000000000
1746519753.554827,10.631000000,0.000000000,0.000000000,0.000000000,0.000000000,-161.283813477,-67.000000000,0.000000000,0.000000003,0.000000000
1746519753.565266,10.642000000,0.000000000,0.000000000,0.000000000,0.000000000,-161.655426025,-67.000000000,0.000000000,0.000000003,0.000000000
1746519753.575766,10.652000000,0.000000000,0.000000000,0.000000000,0.000000000,-161.989883423,-67.000000000,0.000000000,0.000000003,0.000000000
1746519753.586360,10.663000000,0.000000000,0.000000000,0.000000000,0.000000000,-162.390899658,-67.000000000,0.000000000,0.000000002,0.000000000
1746519753.596967,10.673000000,0.000000000,0.000000000,0.000000000,0.000000000,-162.851806641,-67.000000000,0.000000000,0.000000002,0.000000000
1746519753.607450,10.684000000,0.000000000,0.000000000,0.000000000,0.000000000,-163.266616821,-68.000000000,0.000000000,0.000000002,0.000000000
1746519753.617889,10.694000000,0.000000000,0.000000000,0.000000000,0.000000000,-163.839950562,-68.000000000,0.000000000,0.000000002,0.000000000
1746519753.628799,10.705000000,0.000000000,0.000000000,0.000000000,0.000000000,-164.455947876,-68.000000000,0.000000000,0.000000001,0.000000000
1746519753.640135,10.716000000,0.000000000,0.000000000,0.000000000,0.000000000,-165.110351563,-68.000000000,0.000000000,0.000000001,0.000000000
1746519753.650721,10.727000000,0.000000000,0.000000000,0.000000000,0.000000000,-165.699325562,-68.000000000,0.000000000,0.000000001,0.000000000
1746519753.661180,10.738000000,0.000000000,0.000000000,0.000000000,0.000000000,-166.429397583,-68.000000000,0.000000000,0.000000001,0.000000000
1746519753.671741,10.748000000,0.000000000,0.000000000,0.000000000,0.000000000,-167.086456299,-68.000000000,0.000000000,0.000000001,0.000000000
1746519753.683369,10.759000000,0.000000000,0.000000000,0.000000000,0.000000000,-167.677810669,-68.000000000,0.000000000,0.000000001,0.000000000
1746519753.694577,10.770000000,0.000000000,0.000000000,0.000000000,0.000000000,-168.310012817,-68.000000000,0.000000000,0.000000001,0.000000000
1746519753.705181,10.781000000,0.000000000,0.000000000,0.000000000,0.000000000,-168.979003906,-68.000000000,0.000000000,0.000000001,0.000000000
1746519753.715696,10.792000000,0.000000000,0.000000000,0.000000000,0.000000000,-169.581100464,-69.000000000,0.000000000,0.000000001,0.000000000
1746519753.726297,10.803000000,0.000000000,0.000000000,0.000000000,0.000000000,-170.222991943,-69.000000000,0.000000000,0.000000001,0.000000000
1746519753.737683,10.814000000,0.000000000,0.000000000,0.000000000,0.000000000,-170.700683594,-69.000000000,0.000000000,0.000000001,0.000000000
1746519753.748252,10.825000000,0.000000000,0.000000000,0.000000000,0.000000000,-171.230621338,-69.000000000,0.000000000,0.000000000,0.000000000
1746519753.758758,10.835000000,0.000000000,0.000000000,0.000000000,0.000000000,-171.707565308,-69.000000000,0.000000000,0.000000000,0.000000000
1746519753.769444,10.846000000,0.000000000,0.000000000,0.000000000,0.000000000,-172.136810303,-69.000000000,0.000000000,0.000000000,0.000000000
1746519753.780122,10.856000000,0.000000000,0.000000000,0.000000000,0.000000000,-172.523132324,-69.000000000,0.000000000,0.000000000,0.000000000
1746519753.791222,10.867000000,0.000000000,0.000000000,0.000000000,0.000000000,-172.970809937,-69.000000000,0.000000000,0.000000000,0.000000000
1746519753.801911,10.878000000,0.000000000,0.000000000,0.000000000,0.000000000,-173.373718262,-69.000000000,0.000000000,0.000000000,0.000000000
1746519753.812449,10.889000000,0.000000000,0.000000000,0.000000000,0.000000000,-173.736343384,-69.000000000,0.000000000,0.000000000,0.000000000
1746519753.823260,10.899000000,0.000000000,0.000000000,0.000000000,0.000000000,-174.062698364,-70.000000000,0.000000000,0.000000000,0.000000000
1746519753.833788,10.910000000,0.000000000,0.000000000,0.000000000,0.000000000,-174.356414795,-70.000000000,0.000000000,0.000000000,0.000000000
1746519753.844625,10.921000000,0.000000000,0.000000000,0.000000000,0.000000000,-174.820770264,-70.000000000,0.000000000,0.000000000,0.000000000
1746519753.855231,10.932000000,0.000000000,0.000000000,0.000000000,0.000000000,-175.338684082,-70.000000000,0.000000000,0.000000000,0.000000000
1746519753.865902,10.942000000,0.000000000,0.000000000,0.000000000,0.000000000,-175.904815674,-70.000000000,0.000000000,0.000000000,0.000000000
1746519753.876614,10.953000000,0.000000000,0.000000000,0.000000000,0.000000000,-176.514328003,-70.000000000,0.000000000,0.000000000,0.000000000
1746519753.887023,10.963000000,0.000000000,0.000000000,0.000000000,0.000000000,-177.162887573,-70.000000000,0.000000000,0.000000000,0.000000000
1746519753.897718,10.974000000,0.000000000,0.000000000,0.000000000,0.000000000,-177.746597290,-70.000000000,0.000000000,0.000000000,0.000000000
1746519753.908197,10.985000000,0.000000000,0.000000000,0.000000000,0.000000000,-178.371932983,-70.000000000,0.000000000,0.000000000,0.000000000
1746519753.919273,10.996000000,0.000000000,0.000000000,0.000000000,0.000000000,-179.034729004,-70.000000000,0.000000000,0.000000000,0.000000000
1746519753.930763,11.007000000,0.000000000,0.000000000,0.000000000,0.000000000,-179.731262207,-71.000000000,0.000000000,0.000000000,0.000000000
1746519753.941314,11.018000000,0.000000000,0.000000000,0.000000000,0.000000000,-180.558135986,-71.000000000,0.000000000,0.000000000,0.000000000
1746519753.951933,11.028000000,0.000000000,0.000000000,0.000000000,0.000000000,-181.402313232,-71.000000000,0.000000000,0.000000000,0.000000000
1746519753.962573,11.039000000,0.000000000,0.000000000,0.000000000,0.000000000,-182.362091064,-71.000000000,0.000000000,0.000000000,0.000000000
1746519753.973175,11.050000000,0.000000000,0.000000000,0.000000000,0.000000000,-183.325881958,-71.000000000,0.000000000,0.000000000,0.000000000
1746519753.983813,11.060000000,0.000000000,0.000000000,0.000000000,0.000000000,-184.293289185,-71.000000000,0.000000000,0.000000000,0.000000000
1746519753.994348,11.071000000,0.000000000,0.000000000,0.000000000,0.000000000,-185.163955688,-71.000000000,0.000000000,0.000000000,0.000000000
1746519754.005044,11.081000000,0.000000000,0.000000000,0.000000000,0.000000000,-186.047546387,-71.000000000,0.000000000,0.000000000,0.000000000
1746519754.015729,11.092000000,0.000000000,0.000000000,0.000000000,0.000000000,-186.942794800,-71.000000000,0.000000000,0.000000000,0.000000000
