liamjosephnolan/thesis_matlab/prbs_pitch_V5.csv
__time,/psm_joint_telemetry/header/stamp,/psm_joint_telemetry/insertion/effort,/psm_joint_telemetry/insertion/position,/psm_joint_telemetry/insertion/velocity,/psm_joint_telemetry/pitch/effort,/psm_joint_telemetry/pitch/position,/psm_joint_telemetry/pitch/velocity,/psm_joint_telemetry/roll/effort,/psm_joint_telemetry/roll/position,/psm_joint_telemetry/roll/velocity
1747301132.711017,96.297000000,0.000000000,102674.234375000,0.000000000,0.000000000,-1.554789782,-60.081176758,0.000000000,-0.066000223,-17.771949768
1747301132.713412,96.299000000,0.000000000,102674.234375000,0.000000000,0.000000000,-1.554789782,-63.390792847,0.000000000,-0.066000223,-17.679006577
1747301132.715921,96.301000000,0.000000000,102674.234375000,0.000000000,0.000000000,-1.554789782,-63.390792847,0.000000000,-0.066000223,-17.595355988
1747301132.718344,96.304000000,0.000000000,102674.234375000,0.000000000,0.000000000,-1.554789782,-63.390792847,0.000000000,-0.066000223,-17.520071030
1747301132.720722,96.306000000,0.000000000,102674.234375000,0.000000000,0.000000000,-1.554789782,-63.390792847,0.000000000,-0.066000223,-17.452314377
1747301132.723093,96.309000000,0.000000000,102674.234375000,0.000000000,0.000000000,-1.554789782,-63.390792847,0.000000000,-0.066000223,-17.391332626
1747301132.725443,96.311000000,0.000000000,102674.234375000,0.000000000,0.000000000,-1.554789782,-63.390792847,0.000000000,-0.066000223,-17.336450577
1747301132.727816,96.313000000,0.000000000,102674.234375000,0.000000000,0.000000000,-1.554789782,-63.390792847,0.000000000,-0.066000223,-17.287055969
1747301132.730232,96.316000000,0.000000000,102674.234375000,0.000000000,0.000000000,-1.554789782,-63.390792847,0.000000000,-0.066000223,-17.242601395
1747301132.732598,96.318000000,0.000000000,102674.234375000,0.000000000,0.000000000,-1.554789782,-63.390792847,0.000000000,-0.066000223,-17.202590942
1747301132.735040,96.321000000,0.000000000,102674.234375000,0.000000000,0.000000000,-1.554789782,-63.390792847,0.000000000,-0.066000223,-17.166582108
1747301132.737401,96.323000000,0.000000000,102674.234375000,0.000000000,0.000000000,-1.554789782,-63.390792847,0.000000000,-0.066000223,-17.134174347
1747301132.739810,96.325000000,0.000000000,102674.234375000,0.000000000,0.000000000,-1.568289399,-60.703659058,0.000000000,-0.066000223,-17.105007172
1747301132.742149,96.328000000,0.000000000,102674.234375000,0.000000000,0.000000000,-1.595291138,-58.808692932,0.000000000,-0.066000223,-17.078756332
1747301132.744569,96.330000000,0.000000000,102674.234375000,0.000000000,0.000000000,-1.608790755,-62.719856262,0.000000000,-0.066000223,-17.055131912
1747301132.746923,96.332000000,0.000000000,102674.234375000,0.000000000,0.000000000,-1.622290373,-63.497421265,0.000000000,-0.066000223,-17.033868790
1747301132.749386,96.335000000,0.000000000,102674.234375000,0.000000000,0.000000000,-1.622290373,-66.794097900,0.000000000,-0.066000223,-17.014732361
1747301132.751786,96.337000000,0.000000000,102674.234375000,0.000000000,0.000000000,-1.635789871,-64.180801392,0.000000000,-0.066000223,-16.997509003
1747301132.754186,96.340000000,0.000000000,102674.234375000,0.000000000,0.000000000,-1.635789871,-67.474723816,0.000000000,-0.066000223,-16.982009888
1747301132.756599,96.342000000,0.000000000,102674.234375000,0.000000000,0.000000000,-1.635789871,-67.474723816,0.000000000,-0.066000223,-16.968059540
1747301132.758955,96.344000000,0.000000000,102674.234375000,0.000000000,0.000000000,-1.635789871,-67.474723816,0.000000000,-0.066000223,-16.955503464
1747301132.761377,96.347000000,0.000000000,102674.234375000,0.000000000,0.000000000,-1.649292111,-64.815315247,0.000000000,-0.066000223,-16.944204330
1747301132.763812,96.349000000,0.000000000,102674.234375000,0.000000000,0.000000000,-1.649292111,-68.155494690,0.000000000,-0.066000223,-16.934034348
1747301132.766222,96.352000000,0.000000000,102674.234375000,0.000000000,0.000000000,-1.662791729,-65.553039551,0.000000000,-0.056998730,-16.143882751
1747301132.768655,96.354000000,0.000000000,102674.234375000,0.000000000,0.000000000,-1.662791729,-68.836128235,0.000000000,-0.056998730,-15.984037399
1747301132.771067,96.357000000,0.000000000,102674.234375000,0.000000000,0.000000000,-1.662791729,-68.836128235,0.000000000,-0.056998730,-15.840175629
1747301132.773411,96.359000000,0.000000000,102674.234375000,0.000000000,0.000000000,-1.662791729,-68.836128235,0.000000000,-0.056998730,-15.710700989
1747301132.775793,96.361000000,0.000000000,102674.234375000,0.000000000,0.000000000,-1.662791729,-68.836128235,0.000000000,-0.056998730,-15.594173431
1747301132.778195,96.364000000,0.000000000,102674.234375000,0.000000000,0.000000000,-1.676291227,-66.161788940,0.000000000,-0.056998730,-15.489298820
1747301132.780534,96.366000000,0.000000000,102674.234375000,0.000000000,0.000000000,-1.689793468,-66.875457764,0.000000000,-0.056998730,-15.394911766
1747301132.782897,96.368000000,0.000000000,102674.234375000,0.000000000,0.000000000,-1.689793468,-70.197525024,0.000000000,-0.056998730,-15.309963226
1747301132.785311,96.371000000,0.000000000,102674.234375000,0.000000000,0.000000000,-1.689793468,-70.197525024,0.000000000,-0.056998730,-15.233509064
1747301132.787693,96.373000000,0.000000000,102674.234375000,0.000000000,0.000000000,-1.689793468,-70.197525024,0.000000000,-0.056998730,-15.164700508
1747301132.790071,96.376000000,0.000000000,102674.234375000,0.000000000,0.000000000,-1.689793468,-70.197525024,0.000000000,-0.056998730,-15.102773666
1747301132.792446,96.378000000,0.000000000,102674.234375000,0.000000000,0.000000000,-1.689793468,-70.197525024,0.000000000,-0.056998730,-15.047039032
1747301132.794827,96.380000000,0.000000000,102674.234375000,0.000000000,0.000000000,-1.689793468,-70.197525024,0.000000000,-0.056998730,-14.996877670
1747301132.797230,96.383000000,0.000000000,102674.234375000,0.000000000,0.000000000,-1.676291227,-72.852745056,0.000000000,-0.056998730,-14.951732635
1747301132.799631,96.385000000,0.000000000,102674.234375000,0.000000000,0.000000000,-1.676291227,-69.516761780,0.000000000,-0.056998730,-14.911101341
1747301132.802024,96.388000000,0.000000000,102674.234375000,0.000000000,0.000000000,-1.676291227,-69.516761780,0.000000000,-0.056998730,-14.874534607
1747301132.804506,96.390000000,0.000000000,102674.234375000,0.000000000,0.000000000,-1.676291227,-69.516761780,0.000000000,-0.056998730,-14.841623306
1747301132.806928,96.392000000,0.000000000,102674.234375000,0.000000000,0.000000000,-1.676291227,-69.516761780,0.000000000,-0.056998730,-14.812004089
1747301132.809349,96.395000000,0.000000000,102674.234375000,0.000000000,0.000000000,-1.676291227,-69.516761780,0.000000000,-0.056998730,-14.785346031
1747301132.811730,96.397000000,0.000000000,102674.234375000,0.000000000,0.000000000,-1.676291227,-69.516761780,0.000000000,-0.056998730,-14.761354446
1747301132.814153,96.400000000,0.000000000,102674.234375000,0.000000000,0.000000000,-1.676291227,-69.516761780,0.000000000,-0.056998730,-14.739761353
1747301132.816542,96.402000000,0.000000000,102674.234375000,0.000000000,0.000000000,-1.676291227,-69.516761780,0.000000000,-0.056998730,-14.720327377
1747301132.818928,96.404000000,0.000000000,102674.234375000,0.000000000,0.000000000,-1.676291227,-69.516761780,0.000000000,-0.056998730,-14.702837944
1747301132.821310,96.407000000,0.000000000,102674.234375000,0.000000000,0.000000000,-1.676291227,-69.516761780,0.000000000,-0.056998730,-14.687096596
1747301132.823676,96.409000000,0.000000000,102674.234375000,0.000000000,0.000000000,-1.676291227,-69.516761780,0.000000000,-0.056998730,-14.672929764
1747301132.826056,96.412000000,0.000000000,102674.234375000,0.000000000,0.000000000,-1.676291227,-69.516761780,0.000000000,-0.056998730,-14.660179138
1747301132.828472,96.414000000,0.000000000,102674.234375000,0.000000000,0.000000000,-1.676291227,-69.516761780,0.000000000,-0.056998730,-14.648703575
1747301132.830827,96.416000000,0.000000000,102674.234375000,0.000000000,0.000000000,-1.676291227,-69.516761780,0.000000000,-0.056998730,-14.638376236
1747301132.833234,96.419000000,0.000000000,102674.234375000,0.000000000,0.000000000,-1.676291227,-69.516761780,0.000000000,-0.056998730,-14.629080772
1747301132.835683,96.421000000,0.000000000,102674.234375000,0.000000000,0.000000000,-1.689793468,-66.874069214,0.000000000,-0.066000223,-15.383371353
1747301132.838080,96.424000000,0.000000000,102674.234375000,0.000000000,0.000000000,-1.703293085,-67.580123901,0.000000000,-0.066000223,-15.529284477
1747301132.840461,96.426000000,0.000000000,102674.234375000,0.000000000,0.000000000,-1.703293085,-70.878166199,0.000000000,-0.066000223,-15.660606384
1747301132.842838,96.428000000,0.000000000,102674.234375000,0.000000000,0.000000000,-1.703293085,-70.878166199,0.000000000,-0.066000223,-15.778796196
1747301132.845246,96.431000000,0.000000000,102674.234375000,0.000000000,0.000000000,-1.703293085,-70.878166199,0.000000000,-0.056998730,-15.135422707
1747301132.847639,96.433000000,0.000000000,102674.234375000,0.000000000,0.000000000,-1.703293085,-70.878166199,0.000000000,-0.056998730,-15.076422691
1747301132.850000,96.435000000,0.000000000,102674.234375000,0.000000000,0.000000000,-1.703293085,-70.878166199,0.000000000,-0.056998730,-15.023323059
1747301132.852386,96.438000000,0.000000000,102674.234375000,0.000000000,0.000000000,-1.703293085,-70.878166199,0.000000000,-0.056998730,-14.975533485
1747301132.854773,96.440000000,0.000000000,102674.234375000,0.000000000,0.000000000,-1.703293085,-70.878166199,0.000000000,-0.056998730,-14.932522774
1747301132.857198,96.443000000,0.000000000,102674.234375000,0.000000000,0.000000000,-1.703293085,-70.878166199,0.000000000,-0.056998730,-14.893813133
1747301132.859658,96.445000000,0.000000000,102674.234375000,0.000000000,0.000000000,-1.703293085,-70.878166199,0.000000000,-0.056998730,-14.858974457
1747301132.862067,96.447000000,0.000000000,102674.234375000,0.000000000,0.000000000,-1.703293085,-70.878166199,0.000000000,-0.056998730,-14.827619553
1747301132.864463,96.450000000,0.000000000,102674.234375000,0.000000000,0.000000000,-1.703293085,-70.878166199,0.000000000,-0.056998730,-14.799400330
1747301132.866885,96.452000000,0.000000000,102674.234375000,0.000000000,0.000000000,-1.703293085,-70.878166199,0.000000000,-0.056998730,-14.774003029
1747301132.869228,96.455000000,0.000000000,102674.234375000,0.000000000,0.000000000,-1.703293085,-70.878166199,0.000000000,-0.056998730,-14.751145363
1747301132.871604,96.457000000,0.000000000,102674.234375000,0.000000000,0.000000000,-1.689793468,-73.546882629,0.000000000,-0.056998730,-14.730573654
1747301132.874035,96.459000000,0.000000000,102674.234375000,0.000000000,0.000000000,-1.689793468,-70.197525024,0.000000000,-0.056998730,-14.712059021
1747301132.876408,96.462000000,0.000000000,102674.234375000,0.000000000,0.000000000,-1.689793468,-70.197525024,0.000000000,-0.066000223,-15.466960907
1747301132.878783,96.464000000,0.000000000,102674.234375000,0.000000000,0.000000000,-1.689793468,-70.197525024,0.000000000,-0.056998730,-14.857378960
1747301132.881156,96.467000000,0.000000000,102674.234375000,0.000000000,0.000000000,-1.689793468,-70.197525024,0.000000000,-0.066000223,-15.581118584
1747301132.883514,96.469000000,0.000000000,102674.234375000,0.000000000,0.000000000,-1.689793468,-70.197525024,0.000000000,-0.066000223,-15.707257271
1747301132.885880,96.471000000,0.000000000,102674.234375000,0.000000000,0.000000000,-1.689793468,-70.197525024,0.000000000,-0.066000223,-15.820781708
1747301132.888286,96.474000000,0.000000000,102674.234375000,0.000000000,0.000000000,-1.689793468,-70.197525024,0.000000000,-0.066000223,-15.922954559
1747301132.890719,96.476000000,0.000000000,102674.234375000,0.000000000,0.000000000,-1.689793468,-70.197525024,0.000000000,-0.066000223,-16.014909744
1747301132.893106,96.479000000,0.000000000,102674.234375000,0.000000000,0.000000000,-1.689793468,-70.197525024,0.000000000,-0.066000223,-16.097669601
1747301132.895520,96.481000000,0.000000000,102674.234375000,0.000000000,0.000000000,-1.689793468,-70.197525024,0.000000000,-0.066000223,-16.172151566
1747301132.897906,96.483000000,0.000000000,102674.234375000,0.000000000,0.000000000,-1.689793468,-70.197525024,0.000000000,-0.066000223,-16.239187241
1747301132.900283,96.486000000,0.000000000,102674.234375000,0.000000000,0.000000000,-1.689793468,-70.197525024,0.000000000,-0.066000223,-16.299518585
1747301132.902652,96.488000000,0.000000000,102674.234375000,0.000000000,0.000000000,-1.689793468,-70.197525024,0.000000000,-0.056998730,-15.605376244
1747301132.905048,96.491000000,0.000000000,102674.234375000,0.000000000,0.000000000,-1.689793468,-70.197525024,0.000000000,-0.066000223,-16.246517181
1747301132.907456,96.493000000,0.000000000,102674.234375000,0.000000000,0.000000000,-1.689793468,-70.197525024,0.000000000,-0.056998730,-15.551828384
1747301132.909842,96.495000000,0.000000000,102674.234375000,0.000000000,0.000000000,-1.689793468,-70.197525024,0.000000000,-0.066000223,-16.215122223
1747301132.912222,96.498000000,0.000000000,102674.234375000,0.000000000,0.000000000,-1.689793468,-70.197525024,0.000000000,-0.056998730,-15.520343781
1747301132.914596,96.500000000,0.000000000,102674.234375000,0.000000000,0.000000000,-1.689793468,-70.197525024,0.000000000,-0.066000223,-16.182941437
1747301132.916973,96.502000000,0.000000000,102674.234375000,0.000000000,0.000000000,-1.689793468,-70.197525024,0.000000000,-0.066000223,-16.248899460
1747301132.919343,96.505000000,0.000000000,102674.234375000,0.000000000,0.000000000,-1.689793468,-70.197525024,0.000000000,-0.066000223,-16.308259964
1747301132.921732,96.507000000,0.000000000,102674.234375000,0.000000000,0.000000000,-1.676291227,-72.868179321,0.000000000,-0.066000223,-16.361682892
1747301132.924158,96.510000000,0.000000000,102674.234375000,0.000000000,0.000000000,-1.676291227,-69.516761780,0.000000000,-0.066000223,-16.409765244
1747301132.926563,96.512000000,0.000000000,102674.234375000,0.000000000,0.000000000,-1.676291227,-69.516761780,0.000000000,-0.066000223,-16.453039169
1747301132.928937,96.514000000,0.000000000,102674.234375000,0.000000000,0.000000000,-1.676291227,-69.516761780,0.000000000,-0.066000223,-16.491985321
1747301132.931314,96.517000000,0.000000000,102674.234375000,0.000000000,0.000000000,-1.676291227,-69.516761780,0.000000000,-0.066000223,-16.527038574
1747301132.933680,96.519000000,0.000000000,102674.234375000,0.000000000,0.000000000,-1.676291227,-69.516761780,0.000000000,-0.066000223,-16.558584213
1747301132.936064,96.522000000,0.000000000,102674.234375000,0.000000000,0.000000000,-1.662791729,-72.209571838,0.000000000,-0.066000223,-16.586977005
1747301132.938443,96.524000000,0.000000000,102674.234375000,0.000000000,0.000000000,-1.662791729,-68.836128235,0.000000000,-0.056998730,-15.856302261
1747301132.940848,96.526000000,0.000000000,102674.234375000,0.000000000,0.000000000,-1.662791729,-68.836128235,0.000000000,-0.066000223,-16.479503632
1747301132.943226,96.529000000,0.000000000,102674.234375000,0.000000000,0.000000000,-1.662791729,-68.836128235,0.000000000,-0.056998730,-15.751868248
1747301132.945639,96.531000000,0.000000000,102674.234375000,0.000000000,0.000000000,-1.662791729,-68.836128235,0.000000000,-0.066000223,-16.384864807
1747301132.948041,96.534000000,0.000000000,102674.234375000,0.000000000,0.000000000,-1.649292111,-71.457641602,0.000000000,-0.056998730,-15.658431053
1747301132.950495,96.536000000,0.000000000,102674.234375000,0.000000000,0.000000000,-1.649292111,-68.155494690,0.000000000,-0.066000223,-16.300771713
1747301132.952845,96.538000000,0.000000000,102674.234375000,0.000000000,0.000000000,-1.649292111,-68.155494690,0.000000000,-0.056998730,-15.572698593
1747301132.955225,96.541000000,0.000000000,102674.234375000,0.000000000,0.000000000,-1.649292111,-68.155494690,0.000000000,-0.066000223,-16.221666336
1747301132.957607,96.543000000,0.000000000,102674.234375000,0.000000000,0.000000000,-1.649292111,-68.155494690,0.000000000,-0.066000223,-16.283750534
1747301132.960006,96.545000000,0.000000000,102674.234375000,0.000000000,0.000000000,-1.649292111,-68.155494690,0.000000000,-0.056998730,-15.583397865
1747301132.962385,96.548000000,0.000000000,102674.234375000,0.000000000,0.000000000,-1.649292111,-68.155494690,0.000000000,-0.066000223,-16.244812012
1747301132.964751,96.550000000,0.000000000,102674.234375000,0.000000000,0.000000000,-1.649292111,-68.155494690,0.000000000,-0.066000223,-16.304582596
1747301132.967129,96.553000000,0.000000000,102674.234375000,0.000000000,0.000000000,-1.649292111,-68.155494690,0.000000000,-0.066000223,-16.358373642
1747301132.969490,96.555000000,0.000000000,102674.234375000,0.000000000,0.000000000,-1.649292111,-68.155494690,0.000000000,-0.066000223,-16.406787872
1747301132.971868,96.557000000,0.000000000,102674.234375000,0.000000000,0.000000000,-1.649292111,-68.155494690,0.000000000,-0.066000223,-16.450359344
1747301132.974268,96.560000000,0.000000000,102674.234375000,0.000000000,0.000000000,-1.649292111,-68.155494690,0.000000000,-0.066000223,-16.489574432
1747301132.976655,96.562000000,0.000000000,102674.234375000,0.000000000,0.000000000,-1.649292111,-68.155494690,0.000000000,-0.066000223,-16.524866104
1747301132.979068,96.565000000,0.000000000,102674.234375000,0.000000000,0.000000000,-1.649292111,-68.155494690,0.000000000,-0.066000223,-16.556631088
1747301132.981421,96.567000000,0.000000000,102674.234375000,0.000000000,0.000000000,-1.649292111,-68.155494690,0.000000000,-0.066000223,-16.585218430
1747301132.983814,96.569000000,0.000000000,102674.234375000,0.000000000,0.000000000,-1.649292111,-68.155494690,0.000000000,-0.066000223,-16.610946655
1747301132.986179,96.572000000,0.000000000,102674.234375000,0.000000000,0.000000000,-1.649292111,-68.155494690,0.000000000,-0.066000223,-16.634101868
1747301132.988589,96.574000000,0.000000000,102674.234375000,0.000000000,0.000000000,-1.649292111,-68.155494690,0.000000000,-0.066000223,-16.654943466
1747301132.991033,96.576000000,0.000000000,102674.234375000,0.000000000,0.000000000,-1.649292111,-68.155494690,0.000000000,-0.056998730,-15.911684036
1747301132.993439,96.579000000,0.000000000,102674.234375000,0.000000000,0.000000000,-1.649292111,-68.155494690,0.000000000,-0.066000223,-16.555429459
1747301132.995847,96.581000000,0.000000000,102674.234375000,0.000000000,0.000000000,-1.649292111,-68.155494690,0.000000000,-0.056998730,-15.814473152
1747301132.998244,96.584000000,0.000000000,102674.234375000,0.000000000,0.000000000,-1.649292111,-68.155494690,0.000000000,-0.066000223,-16.461029053
1747301133.000649,96.586000000,0.000000000,102674.234375000,0.000000000,0.000000000,-1.649292111,-68.155494690,0.000000000,-0.056998730,-15.746184349
1747301133.003053,96.589000000,0.000000000,102674.234375000,0.000000000,0.000000000,-1.649292111,-68.155494690,0.000000000,-0.056998730,-15.626108170
1747301133.005385,96.591000000,0.000000000,102674.234375000,0.000000000,0.000000000,-1.649292111,-68.155494690,0.000000000,-0.056998730,-15.518040657
1747301133.007768,96.593000000,0.000000000,102674.234375000,0.000000000,0.000000000,-1.649292111,-68.155494690,0.000000000,-0.056998730,-15.420779228
1747301133.010133,96.596000000,0.000000000,102674.234375000,0.000000000,0.000000000,-1.649292111,-68.155494690,0.000000000,-0.056998730,-15.333243370
1747301133.012494,96.598000000,0.000000000,102674.234375000,0.000000000,0.000000000,-1.649292111,-68.155494690,0.000000000,-0.056998730,-15.254462242
1747301133.014875,96.600000000,0.000000000,102674.234375000,0.000000000,0.000000000,-1.649292111,-68.155494690,0.000000000,-0.056998730,-15.183558464
1747301133.017249,96.603000000,0.000000000,102674.234375000,0.000000000,0.000000000,-1.649292111,-68.155494690,0.000000000,-0.056998730,-15.119745255
1747301133.019618,96.605000000,0.000000000,102674.234375000,0.000000000,0.000000000,-1.649292111,-68.155494690,0.000000000,-0.056998730,-15.062313080
1747301133.021986,96.607000000,0.000000000,102674.234375000,0.000000000,0.000000000,-1.649292111,-68.155494690,0.000000000,-0.056998730,-15.010624886
1747301133.024408,96.610000000,0.000000000,102674.234375000,0.000000000,0.000000000,-1.649292111,-68.155494690,0.000000000,-0.056998730,-14.964104652
1747301133.026818,96.612000000,0.000000000,102674.234375000,0.000000000,0.000000000,-1.649292111,-68.155494690,0.000000000,-0.056998730,-14.922236443
1747301133.029243,96.615000000,0.000000000,102674.234375000,0.000000000,0.000000000,-1.649292111,-68.155494690,0.000000000,-0.056998730,-14.884555817
1747301133.031648,96.617000000,0.000000000,102674.234375000,0.000000000,0.000000000,-1.649292111,-68.155494690,0.000000000,-0.056998730,-14.850643158
1747301133.034012,96.620000000,0.000000000,102674.234375000,0.000000000,0.000000000,-1.649292111,-68.155494690,0.000000000,-0.056998730,-14.820120811
1747301133.036404,96.622000000,0.000000000,102674.234375000,0.000000000,0.000000000,-1.649292111,-68.155494690,0.000000000,-0.056998730,-14.792652130
1747301133.038774,96.624000000,0.000000000,102674.234375000,0.000000000,0.000000000,-1.649292111,-68.155494690,0.000000000,-0.056998730,-14.767929077
1747301133.041244,96.627000000,0.000000000,102674.234375000,0.000000000,0.000000000,-1.649292111,-68.155494690,0.000000000,-0.056998730,-14.745678902
1747301133.043669,96.629000000,0.000000000,102674.234375000,0.000000000,0.000000000,-1.649292111,-68.155494690,0.000000000,-0.056998730,-14.725653648
1747301133.046085,96.632000000,0.000000000,102674.234375000,0.000000000,0.000000000,-1.649292111,-68.155494690,0.000000000,-0.056998730,-14.707631111
1747301133.048490,96.634000000,0.000000000,102674.234375000,0.000000000,0.000000000,-1.649292111,-68.155494690,0.000000000,-0.056998730,-14.691410065
1747301133.050870,96.636000000,0.000000000,102674.234375000,0.000000000,0.000000000,-1.649292111,-68.155494690,0.000000000,-0.056998730,-14.676812172
1747301133.053253,96.639000000,0.000000000,102674.234375000,0.000000000,0.000000000,-1.649292111,-68.155494690,0.000000000,-0.056998730,-14.663673401
1747301133.055652,96.641000000,0.000000000,102674.234375000,0.000000000,0.000000000,-1.649292111,-68.155494690,0.000000000,-0.056998730,-14.651848793
1747301133.058055,96.644000000,0.000000000,102674.234375000,0.000000000,0.000000000,-1.649292111,-68.155494690,0.000000000,-0.056998730,-14.641206741
1747301133.060412,96.646000000,0.000000000,102674.234375000,0.000000000,0.000000000,-1.649292111,-68.155494690,0.000000000,-0.056998730,-14.631628036
1747301133.062777,96.648000000,0.000000000,102674.234375000,0.000000000,0.000000000,-1.649292111,-68.155494690,0.000000000,-0.056998730,-14.623008728
1747301133.065159,96.651000000,0.000000000,102674.234375000,0.000000000,0.000000000,-1.649292111,-68.155494690,0.000000000,-0.056998730,-14.615249634
1747301133.067566,96.653000000,0.000000000,102674.234375000,0.000000000,0.000000000,-1.649292111,-68.155494690,0.000000000,-0.056998730,-14.608267784
1747301133.069929,96.655000000,0.000000000,102674.234375000,0.000000000,0.000000000,-1.649292111,-68.155494690,0.000000000,-0.056998730,-14.601984024
1747301133.072312,96.658000000,0.000000000,102674.234375000,0.000000000,0.000000000,-1.649292111,-68.155494690,0.000000000,-0.056998730,-14.596327782
1747301133.074717,96.660000000,0.000000000,102674.234375000,0.000000000,0.000000000,-1.649292111,-68.155494690,0.000000000,-0.056998730,-14.591238022
1747301133.077117,96.663000000,0.000000000,102674.234375000,0.000000000,0.000000000,-1.649292111,-68.155494690,0.000000000,-0.056998730,-14.586656570
1747301133.079513,96.665000000,0.000000000,102674.234375000,0.000000000,0.000000000,-1.649292111,-68.155494690,0.000000000,-0.056998730,-14.582533836
1747301133.081988,96.667000000,0.000000000,102674.234375000,0.000000000,0.000000000,-1.649292111,-68.155494690,0.000000000,-0.056998730,-14.578823090
1747301133.084391,96.670000000,0.000000000,102674.234375000,0.000000000,0.000000000,-1.649292111,-68.155494690,0.000000000,-0.056998730,-14.575483322
1747301133.086761,96.672000000,0.000000000,102674.234375000,0.000000000,0.000000000,-1.649292111,-68.155494690,0.000000000,-0.056998730,-14.572477341
1747301133.089167,96.675000000,0.000000000,102674.234375000,0.000000000,0.000000000,-1.649292111,-68.155494690,0.000000000,-0.056998730,-14.569772720
1747301133.091584,96.677000000,0.000000000,102674.234375000,0.000000000,0.000000000,-1.649292111,-68.155494690,0.000000000,-0.056998730,-14.567337990
1747301133.093973,96.679000000,0.000000000,102674.234375000,0.000000000,0.000000000,-1.649292111,-68.155494690,0.000000000,-0.056998730,-14.565146446
1747301133.096414,96.682000000,0.000000000,102674.234375000,0.000000000,0.000000000,-1.649292111,-68.155494690,0.000000000,-0.056998730,-14.563174248
1747301133.098791,96.684000000,0.000000000,102674.234375000,0.000000000,0.000000000,-1.649292111,-68.155494690,0.000000000,-0.056998730,-14.561399460
1747301133.101242,96.687000000,0.000000000,102674.234375000,0.000000000,0.000000000,-1.649292111,-68.155494690,0.000000000,-0.056998730,-14.559802055
1747301133.103631,96.689000000,0.000000000,102674.234375000,0.000000000,0.000000000,-1.649292111,-68.155494690,0.000000000,-0.056998730,-14.558364868
1747301133.106023,96.691000000,0.000000000,102674.234375000,0.000000000,0.000000000,-1.649292111,-68.155494690,0.000000000,-0.056998730,-14.557070732
1747301133.108426,96.694000000,0.000000000,102674.234375000,0.000000000,0.000000000,-1.649292111,-68.155494690,0.000000000,-0.056998730,-14.555906296
1747301133.110817,96.696000000,0.000000000,102674.234375000,0.000000000,0.000000000,-1.649292111,-68.155494690,0.000000000,-0.056998730,-14.554858208
1747301133.113226,96.699000000,0.000000000,102674.234375000,0.000000000,0.000000000,-1.649292111,-68.155494690,0.000000000,-0.056998730,-14.553915024
1747301133.115644,96.701000000,0.000000000,102674.234375000,0.000000000,0.000000000,-1.649292111,-68.155494690,0.000000000,-0.056998730,-14.553066254
1747301133.118079,96.704000000,0.000000000,102674.234375000,0.000000000,0.000000000,-1.649292111,-68.155494690,0.000000000,-0.056998730,-14.552302361
1747301133.120444,96.706000000,0.000000000,102674.234375000,0.000000000,0.000000000,-1.649292111,-68.155494690,0.000000000,-0.056998730,-14.551614761
1747301133.122823,96.708000000,0.000000000,102674.234375000,0.000000000,0.000000000,-1.649292111,-68.155494690,0.000000000,-0.056998730,-14.550995827
1747301133.125268,96.711000000,0.000000000,102674.234375000,0.000000000,0.000000000,-1.649292111,-68.155494690,0.000000000,-0.056998730,-14.550438881
1747301133.127681,96.713000000,0.000000000,102674.234375000,0.000000000,0.000000000,-1.649292111,-68.155494690,0.000000000,-0.056998730,-14.549938202
1747301133.130066,96.716000000,0.000000000,102674.234375000,0.000000000,0.000000000,-1.649292111,-68.155494690,0.000000000,-0.056998730,-14.549486160
1747301133.132435,96.718000000,0.000000000,102674.234375000,0.000000000,0.000000000,-1.649292111,-68.155494690,0.000000000,-0.056998730,-14.549080849
1747301133.134818,96.720000000,0.000000000,102674.234375000,0.000000000,0.000000000,-1.649292111,-68.155494690,0.000000000,-0.056998730,-14.548715591
1747301133.137223,96.723000000,0.000000000,102674.234375000,0.000000000,0.000000000,-1.649292111,-68.155494690,0.000000000,-0.056998730,-14.548386574
1747301133.139619,96.725000000,0.000000000,102674.234375000,0.000000000,0.000000000,-1.649292111,-68.155494690,0.000000000,-0.056998730,-14.548089981
1747301133.142323,96.728000000,0.000000000,102674.234375000,0.000000000,0.000000000,-1.649292111,-68.155494690,0.000000000,-0.056998730,-14.547823906
1747301133.144654,96.730000000,0.000000000,102674.234375000,0.000000000,0.000000000,-1.649292111,-68.155494690,0.000000000,-0.056998730,-14.547584534
1747301133.147002,96.732000000,0.000000000,102674.234375000,0.000000000,0.000000000,-1.649292111,-68.155494690,0.000000000,-0.056998730,-14.547368050
1747301133.149377,96.735000000,0.000000000,102674.234375000,0.000000000,0.000000000,-1.649292111,-68.155494690,0.000000000,-0.056998730,-14.547174454
1747301133.151746,96.737000000,0.000000000,102674.234375000,0.000000000,0.000000000,-1.649292111,-68.155494690,0.000000000,-0.056998730,-14.546998978
1747301133.154115,96.740000000,0.000000000,102674.234375000,0.000000000,0.000000000,-1.649292111,-68.155494690,0.000000000,-0.056998730,-14.546841621
1747301133.156503,96.742000000,0.000000000,102674.234375000,0.000000000,0.000000000,-1.649292111,-68.155494690,0.000000000,-0.056998730,-14.546700478
1747301133.158907,96.744000000,0.000000000,102674.234375000,0.000000000,0.000000000,-1.649292111,-68.155494690,0.000000000,-0.056998730,-14.546572685
1747301133.161279,96.747000000,0.000000000,102674.234375000,0.000000000,0.000000000,-1.649292111,-68.155494690,0.000000000,-0.056998730,-14.546458244
1747301133.163662,96.749000000,0.000000000,102674.234375000,0.000000000,0.000000000,-1.649292111,-68.155494690,0.000000000,-0.056998730,-14.546355247
1747301133.166059,96.752000000,0.000000000,102674.234375000,0.000000000,0.000000000,-1.649292111,-68.155494690,0.000000000,-0.056998730,-14.546262741
1747301133.168498,96.754000000,0.000000000,102674.234375000,0.000000000,0.000000000,-1.649292111,-68.155494690,0.000000000,-0.056998730,-14.546178818
1747301133.170946,96.756000000,0.000000000,102674.234375000,0.000000000,0.000000000,-1.649292111,-68.155494690,0.000000000,-0.056998730,-14.546103477
1747301133.173389,96.759000000,0.000000000,102674.234375000,0.000000000,0.000000000,-1.649292111,-68.155494690,0.000000000,-0.056998730,-14.546035767
1747301133.175828,96.761000000,0.000000000,102674.234375000,0.000000000,0.000000000,-1.649292111,-68.155494690,0.000000000,-0.056998730,-14.545974731
1747301133.178234,96.764000000,0.000000000,102674.234375000,0.000000000,0.000000000,-1.649292111,-68.155494690,0.000000000,-0.056998730,-14.545920372
1747301133.180615,96.766000000,0.000000000,102674.234375000,0.000000000,0.000000000,-1.649292111,-68.155494690,0.000000000,-0.056998730,-14.545870781
1747301133.183007,96.768000000,0.000000000,102674.234375000,0.000000000,0.000000000,-1.649292111,-68.155494690,0.000000000,-0.066000223,-15.302053452
1747301133.185396,96.771000000,0.000000000,102674.234375000,0.000000000,0.000000000,-1.649292111,-68.155494690,0.000000000,-0.066000223,-15.456098557
1747301133.187898,96.773000000,0.000000000,102674.234375000,0.000000000,0.000000000,-1.649292111,-68.155494690,0.000000000,-0.066000223,-15.594738960
1747301133.190325,96.776000000,0.000000000,102674.234375000,0.000000000,0.000000000,-1.649292111,-68.155494690,0.000000000,-0.066000223,-15.719515800
1747301133.192760,96.778000000,0.000000000,102674.234375000,0.000000000,0.000000000,-1.649292111,-68.155494690,0.000000000,-0.066000223,-15.831814766
1747301133.195148,96.781000000,0.000000000,102674.234375000,0.000000000,0.000000000,-1.649292111,-68.155494690,0.000000000,-0.066000223,-15.932883263
1747301133.197525,96.783000000,0.000000000,102674.234375000,0.000000000,0.000000000,-1.649292111,-68.155494690,0.000000000,-0.066000223,-16.023845673
1747301133.199883,96.785000000,0.000000000,102674.234375000,0.000000000,0.000000000,-1.649292111,-68.155494690,0.000000000,-0.056998730,-15.348194122
1747301133.202248,96.788000000,0.000000000,102674.234375000,0.000000000,0.000000000,-1.649292111,-68.155494690,0.000000000,-0.066000223,-16.005193710
1747301133.204642,96.790000000,0.000000000,102674.234375000,0.000000000,0.000000000,-1.649292111,-68.155494690,0.000000000,-0.056998730,-15.343096733
1747301133.207028,96.792000000,0.000000000,102674.234375000,0.000000000,0.000000000,-1.649292111,-68.155494690,0.000000000,-0.066000223,-16.017618179
1747301133.209408,96.795000000,0.000000000,102674.234375000,0.000000000,0.000000000,-1.649292111,-68.155494690,0.000000000,-0.056998730,-15.340015411
1747301133.211774,96.797000000,0.000000000,102674.234375000,0.000000000,0.000000000,-1.649292111,-68.155494690,0.000000000,-0.066000223,-16.009651184
1747301133.214164,96.800000000,0.000000000,102674.234375000,0.000000000,0.000000000,-1.649292111,-68.155494690,0.000000000,-0.056998730,-15.345799446
1747301133.216547,96.802000000,0.000000000,102674.234375000,0.000000000,0.000000000,-1.649292111,-68.155494690,0.000000000,-0.066000223,-16.020696640
1747301133.218916,96.804000000,0.000000000,102674.234375000,0.000000000,0.000000000,-1.649292111,-68.155494690,0.000000000,-0.056998730,-15.351832390
1747301133.221296,96.807000000,0.000000000,102674.234375000,0.000000000,0.000000000,-1.649292111,-68.155494690,0.000000000,-0.066000223,-16.021587372
1747301133.223697,96.809000000,0.000000000,102674.234375000,0.000000000,0.000000000,-1.649292111,-68.155494690,0.000000000,-0.056998730,-15.354585648
1747301133.226079,96.812000000,0.000000000,102674.234375000,0.000000000,0.000000000,-1.649292111,-68.155494690,0.000000000,-0.066000223,-16.040792465
1747301133.228436,96.814000000,0.000000000,102674.234375000,0.000000000,0.000000000,-1.649292111,-68.155494690,0.000000000,-0.056998730,-15.373174667
1747301133.230815,96.816000000,0.000000000,102674.234375000,0.000000000,0.000000000,-1.649292111,-68.155494690,0.000000000,-0.056998730,-15.290399551
1747301133.233193,96.819000000,0.000000000,102674.234375000,0.000000000,0.000000000,-1.649292111,-68.155494690,0.000000000,-0.056998730,-15.215902328
1747301133.235633,96.821000000,0.000000000,102674.234375000,0.000000000,0.000000000,-1.649292111,-68.155494690,0.000000000,-0.056998730,-15.148854256
1747301133.238073,96.824000000,0.000000000,102674.234375000,0.000000000,0.000000000,-1.649292111,-68.155494690,0.000000000,-0.056998730,-15.088511467
1747301133.240462,96.826000000,0.000000000,102674.234375000,0.000000000,0.000000000,-1.649292111,-68.155494690,0.000000000,-0.056998730,-15.034203529
1747301133.242869,96.828000000,0.000000000,102674.234375000,0.000000000,0.000000000,-1.649292111,-68.155494690,0.000000000,-0.056998730,-14.985325813
1747301133.245225,96.831000000,0.000000000,102674.234375000,0.000000000,0.000000000,-1.649292111,-68.155494690,0.000000000,-0.056998730,-14.941335678
1747301133.247597,96.833000000,0.000000000,102674.234375000,0.000000000,0.000000000,-1.649292111,-68.155494690,0.000000000,-0.056998730,-14.901744843
1747301133.249987,96.835000000,0.000000000,102674.234375000,0.000000000,0.000000000,-1.649292111,-68.155494690,0.000000000,-0.056998730,-14.866112709
1747301133.252352,96.838000000,0.000000000,102674.234375000,0.000000000,0.000000000,-1.649292111,-68.155494690,0.000000000,-0.056998730,-14.834044456
1747301133.254713,96.840000000,0.000000000,102674.234375000,0.000000000,0.000000000,-1.649292111,-68.155494690,0.000000000,-0.056998730,-14.805182457
1747301133.257216,96.843000000,0.000000000,102674.234375000,0.000000000,0.000000000,-1.649292111,-68.155494690,0.000000000,-0.056998730,-14.779207230
1747301133.259611,96.845000000,0.000000000,102674.234375000,0.000000000,0.000000000,-1.649292111,-68.155494690,0.000000000,-0.056998730,-14.755828857
1747301133.261997,96.847000000,0.000000000,102674.234375000,0.000000000,0.000000000,-1.649292111,-68.155494690,0.000000000,-0.056998730,-14.734788895
1747301133.264403,96.850000000,0.000000000,102674.234375000,0.000000000,0.000000000,-1.649292111,-68.155494690,0.000000000,-0.056998730,-14.715852737
1747301133.266773,96.852000000,0.000000000,102674.234375000,0.000000000,0.000000000,-1.649292111,-68.155494690,0.000000000,-0.056998730,-14.698809624
1747301133.269159,96.855000000,0.000000000,102674.234375000,0.000000000,0.000000000,-1.649292111,-68.155494690,0.000000000,-0.056998730,-14.683471680
1747301133.271538,96.857000000,0.000000000,102674.234375000,0.000000000,0.000000000,-1.649292111,-68.155494690,0.000000000,-0.056998730,-14.669667244
1747301133.274112,96.860000000,0.000000000,102674.234375000,0.000000000,0.000000000,-1.649292111,-68.155494690,0.000000000,-0.056998730,-14.657242775
1747301133.276522,96.862000000,0.000000000,102674.234375000,0.000000000,0.000000000,-1.649292111,-68.155494690,0.000000000,-0.056998730,-14.646060944
1747301133.278954,96.864000000,0.000000000,102674.234375000,0.000000000,0.000000000,-1.649292111,-68.155494690,0.000000000,-0.056998730,-14.635997772
1747301133.281318,96.867000000,0.000000000,102674.234375000,0.000000000,0.000000000,-1.649292111,-68.155494690,0.000000000,-0.056998730,-14.626940727
1747301133.283793,96.869000000,0.000000000,102674.234375000,0.000000000,0.000000000,-1.649292111,-68.155494690,0.000000000,-0.056998730,-14.618788719
1747301133.286170,96.872000000,0.000000000,102674.234375000,0.000000000,0.000000000,-1.649292111,-68.155494690,0.000000000,-0.056998730,-14.611453056
1747301133.288539,96.874000000,0.000000000,102674.234375000,0.000000000,0.000000000,-1.649292111,-68.155494690,0.000000000,-0.056998730,-14.604849815
1747301133.290996,96.876000000,0.000000000,102674.234375000,0.000000000,0.000000000,-1.649292111,-68.155494690,0.000000000,-0.056998730,-14.598907471
1747301133.293375,96.879000000,0.000000000,102674.234375000,0.000000000,0.000000000,-1.649292111,-68.155494690,0.000000000,-0.056998730,-14.593559265
1747301133.295772,96.881000000,0.000000000,102674.234375000,0.000000000,0.000000000,-1.649292111,-68.155494690,0.000000000,-0.056998730,-14.588746071
1747301133.298143,96.884000000,0.000000000,102674.234375000,0.000000000,0.000000000,-1.649292111,-68.155494690,0.000000000,-0.056998730,-14.584414482
1747301133.300514,96.886000000,0.000000000,102674.234375000,0.000000000,0.000000000,-1.649292111,-68.155494690,0.000000000,-0.056998730,-14.580515862
1747301133.302892,96.888000000,0.000000000,102674.234375000,0.000000000,0.000000000,-1.649292111,-68.155494690,0.000000000,-0.056998730,-14.577006340
1747301133.305284,96.891000000,0.000000000,102674.234375000,0.000000000,0.000000000,-1.649292111,-68.155494690,0.000000000,-0.056998730,-14.573848724
1747301133.307714,96.893000000,0.000000000,102674.234375000,0.000000000,0.000000000,-1.649292111,-68.155494690,0.000000000,-0.056998730,-14.571006775
1747301133.310101,96.896000000,0.000000000,102674.234375000,0.000000000,0.000000000,-1.649292111,-68.155494690,0.000000000,-0.056998730,-14.568448067
1747301133.312477,96.898000000,0.000000000,102674.234375000,0.000000000,0.000000000,-1.649292111,-68.155494690,0.000000000,-0.056998730,-14.566145897
1747301133.314857,96.900000000,0.000000000,102674.234375000,0.000000000,0.000000000,-1.649292111,-68.155494690,0.000000000,-0.056998730,-14.564074516
1747301133.317237,96.903000000,0.000000000,102674.234375000,0.000000000,0.000000000,-1.649292111,-68.155494690,0.000000000,-0.056998730,-14.562209129
1747301133.319617,96.905000000,0.000000000,102674.234375000,0.000000000,0.000000000,-1.649292111,-68.155494690,0.000000000,-0.056998730,-14.560530663
1747301133.322017,96.907000000,0.000000000,102674.234375000,0.000000000,0.000000000,-1.649292111,-68.155494690,0.000000000,-0.056998730,-14.559020996
1747301133.324427,96.910000000,0.000000000,102674.234375000,0.000000000,0.000000000,-1.649292111,-68.155494690,0.000000000,-0.056998730,-14.557661057
1747301133.326846,96.912000000,0.000000000,102674.234375000,0.000000000,0.000000000,-1.649292111,-68.155494690,0.000000000,-0.056998730,-14.556437492
1747301133.329212,96.915000000,0.000000000,102674.234375000,0.000000000,0.000000000,-1.649292111,-68.155494690,0.000000000,-0.056998730,-14.555336952
1747301133.331707,96.917000000,0.000000000,102674.234375000,0.000000000,0.000000000,-1.649292111,-68.155494690,0.000000000,-0.056998730,-14.554345131
1747301133.334118,96.920000000,0.000000000,102674.234375000,0.000000000,0.000000000,-1.649292111,-68.155494690,0.000000000,-0.056998730,-14.553453445
1747301133.336576,96.922000000,0.000000000,102674.234375000,0.000000000,0.000000000,-1.649292111,-68.155494690,0.000000000,-0.056998730,-14.552650452
1747301133.338912,96.924000000,0.000000000,102674.234375000,0.000000000,0.000000000,-1.649292111,-68.155494690,0.000000000,-0.056998730,-14.551928520
1747301133.341301,96.927000000,0.000000000,102674.234375000,0.000000000,0.000000000,-1.649292111,-68.155494690,0.000000000,-0.056998730,-14.551278114
1747301133.343669,96.929000000,0.000000000,102674.234375000,0.000000000,0.000000000,-1.649292111,-68.155494690,0.000000000,-0.056998730,-14.550693512
1747301133.346053,96.932000000,0.000000000,102674.234375000,0.000000000,0.000000000,-1.649292111,-68.155494690,0.000000000,-0.056998730,-14.550166130
1747301133.348400,96.934000000,0.000000000,102674.234375000,0.000000000,0.000000000,-1.649292111,-68.155494690,0.000000000,-0.056998730,-14.549692154
1747301133.350778,96.936000000,0.000000000,102674.234375000,0.000000000,0.000000000,-1.649292111,-68.155494690,0.000000000,-0.056998730,-14.549265862
1747301133.353146,96.939000000,0.000000000,102674.234375000,0.000000000,0.000000000,-1.649292111,-68.155494690,0.000000000,-0.056998730,-14.548881531
1747301133.355596,96.941000000,0.000000000,102674.234375000,0.000000000,0.000000000,-1.649292111,-68.155494690,0.000000000,-0.056998730,-14.548536301
1747301133.358090,96.944000000,0.000000000,102674.234375000,0.000000000,0.000000000,-1.649292111,-68.155494690,0.000000000,-0.056998730,-14.548225403
1747301133.360574,96.946000000,0.000000000,102674.234375000,0.000000000,0.000000000,-1.649292111,-68.155494690,0.000000000,-0.056998730,-14.547945023
1747301133.363025,96.948000000,0.000000000,102674.234375000,0.000000000,0.000000000,-1.649292111,-68.155494690,0.000000000,-0.056998730,-14.547693253
1747301133.365525,96.951000000,0.000000000,102674.234375000,0.000000000,0.000000000,-1.649292111,-68.155494690,0.000000000,-0.056998730,-14.547467232
1747301133.368015,96.953000000,0.000000000,102674.234375000,0.000000000,0.000000000,-1.649292111,-68.155494690,0.000000000,-0.056998730,-14.547263145
1747301133.370456,96.956000000,0.000000000,102674.234375000,0.000000000,0.000000000,-1.649292111,-68.155494690,0.000000000,-0.056998730,-14.547079086
1747301133.372849,96.958000000,0.000000000,102674.234375000,0.000000000,0.000000000,-1.649292111,-68.155494690,0.000000000,-0.056998730,-14.546914101
1747301133.375415,96.961000000,0.000000000,102674.234375000,0.000000000,0.000000000,-1.649292111,-68.155494690,0.000000000,-0.056998730,-14.546765327
1747301133.377849,96.963000000,0.000000000,102674.234375000,0.000000000,0.000000000,-1.649292111,-68.155494690,0.000000000,-0.056998730,-14.546630859
1747301133.380230,96.966000000,0.000000000,102674.234375000,0.000000000,0.000000000,-1.649292111,-68.155494690,0.000000000,-0.056998730,-14.546510696
1747301133.382619,96.968000000,0.000000000,102674.234375000,0.000000000,0.000000000,-1.649292111,-68.155494690,0.000000000,-0.056998730,-14.546401978
1747301133.384992,96.970000000,0.000000000,102674.234375000,0.000000000,0.000000000,-1.649292111,-68.155494690,0.000000000,-0.056998730,-14.546304703
1747301133.387383,96.973000000,0.000000000,102674.234375000,0.000000000,0.000000000,-1.649292111,-68.155494690,0.000000000,-0.056998730,-14.546216965
1747301133.389811,96.975000000,0.000000000,102674.234375000,0.000000000,0.000000000,-1.649292111,-68.155494690,0.000000000,-0.056998730,-14.546137810
1747301133.392211,96.978000000,0.000000000,102674.234375000,0.000000000,0.000000000,-1.649292111,-68.155494690,0.000000000,-0.056998730,-14.546066284
1747301133.394604,96.980000000,0.000000000,102674.234375000,0.000000000,0.000000000,-1.649292111,-68.155494690,0.000000000,-0.056998730,-14.546002388
1747301133.396994,96.982000000,0.000000000,102674.234375000,0.000000000,0.000000000,-1.649292111,-68.155494690,0.000000000,-0.056998730,-14.545945168
1747301133.399374,96.985000000,0.000000000,102674.234375000,0.000000000,0.000000000,-1.649292111,-68.155494690,0.000000000,-0.056998730,-14.545892715
1747301133.401755,96.987000000,0.000000000,102674.234375000,0.000000000,0.000000000,-1.649292111,-68.155494690,0.000000000,-0.056998730,-14.545846939
1747301133.404136,96.990000000,0.000000000,102674.234375000,0.000000000,0.000000000,-1.649292111,-68.155494690,0.000000000,-0.056998730,-14.545804024
1747301133.406484,96.992000000,0.000000000,102674.234375000,0.000000000,0.000000000,-1.649292111,-68.155494690,0.000000000,-0.056998730,-14.545766830
1747301133.408847,96.994000000,0.000000000,102674.234375000,0.000000000,0.000000000,-1.635789871,-70.851715088,0.000000000,-0.056998730,-14.545732498
1747301133.411229,96.997000000,0.000000000,102674.234375000,0.000000000,0.000000000,-1.635789871,-67.474723816,0.000000000,-0.056998730,-14.545701981
1747301133.413654,96.999000000,0.000000000,102674.234375000,0.000000000,0.000000000,-1.635789871,-67.474723816,0.000000000,-0.056998730,-14.545674324
1747301133.416038,97.002000000,0.000000000,102674.234375000,0.000000000,0.000000000,-1.635789871,-67.474723816,0.000000000,-0.056998730,-14.545649529
1747301133.418412,97.004000000,0.000000000,102674.234375000,0.000000000,0.000000000,-1.635789871,-67.474723816,0.000000000,-0.056998730,-14.545627594
1747301133.420829,97.006000000,0.000000000,102674.234375000,0.000000000,0.000000000,-1.635789871,-67.474723816,0.000000000,-0.056998730,-14.545607567
1747301133.423216,97.009000000,0.000000000,102674.234375000,0.000000000,0.000000000,-1.635789871,-67.474723816,0.000000000,-0.056998730,-14.545589447
1747301133.425723,97.011000000,0.000000000,102674.234375000,0.000000000,0.000000000,-1.635789871,-67.474723816,0.000000000,-0.056998730,-14.545573235
1747301133.428166,97.014000000,0.000000000,102674.234375000,0.000000000,0.000000000,-1.635789871,-67.474723816,0.000000000,-0.056998730,-14.545557976
1747301133.430522,97.016000000,0.000000000,102674.234375000,0.000000000,0.000000000,-1.635789871,-67.474723816,0.000000000,-0.056998730,-14.545544624
1747301133.432884,97.018000000,0.000000000,102674.234375000,0.000000000,0.000000000,-1.635789871,-67.474723816,0.000000000,-0.056998730,-14.545533180
1747301133.435248,97.021000000,0.000000000,102674.234375000,0.000000000,0.000000000,-1.635789871,-67.474723816,0.000000000,-0.056998730,-14.545522690
1747301133.437641,97.023000000,0.000000000,102674.234375000,0.000000000,0.000000000,-1.635789871,-67.474723816,0.000000000,-0.056998730,-14.545513153
1747301133.440007,97.025000000,0.000000000,102674.234375000,0.000000000,0.000000000,-1.635789871,-67.474723816,0.000000000,-0.056998730,-14.545504570
1747301133.442453,97.028000000,0.000000000,102674.234375000,0.000000000,0.000000000,-1.635789871,-67.474723816,0.000000000,-0.056998730,-14.545495987
1747301133.444809,97.030000000,0.000000000,102674.234375000,0.000000000,0.000000000,-1.635789871,-67.474723816,0.000000000,-0.056998730,-14.545489311
1747301133.447208,97.033000000,0.000000000,102674.234375000,0.000000000,0.000000000,-1.635789871,-67.474723816,0.000000000,-0.056998730,-14.545483589
1747301133.449604,97.035000000,0.000000000,102674.234375000,0.000000000,0.000000000,-1.635789871,-67.474723816,0.000000000,-0.056998730,-14.545477867
1747301133.451967,97.037000000,0.000000000,102674.234375000,0.000000000,0.000000000,-1.635789871,-67.474723816,0.000000000,-0.056998730,-14.545472145
1747301133.454352,97.040000000,0.000000000,102674.234375000,0.000000000,0.000000000,-1.635789871,-67.474723816,0.000000000,-0.056998730,-14.545467377
1747301133.456771,97.042000000,0.000000000,102674.234375000,0.000000000,0.000000000,-1.635789871,-67.474723816,0.000000000,-0.056998730,-14.545463562
1747301133.459146,97.045000000,0.000000000,102674.234375000,0.000000000,0.000000000,-1.635789871,-67.474723816,0.000000000,-0.056998730,-14.545459747
1747301133.461514,97.047000000,0.000000000,102674.234375000,0.000000000,0.000000000,-1.635789871,-67.474723816,0.000000000,-0.056998730,-14.545456886
1747301133.463898,97.049000000,0.000000000,102674.234375000,0.000000000,0.000000000,-1.635789871,-67.474723816,0.000000000,-0.056998730,-14.545453072
1747301133.466301,97.052000000,0.000000000,102674.234375000,0.000000000,0.000000000,-1.635789871,-67.474723816,0.000000000,-0.056998730,-14.545451164
1747301133.468711,97.054000000,0.000000000,102674.234375000,0.000000000,0.000000000,-1.635789871,-67.474723816,0.000000000,-0.056998730,-14.545448303
1747301133.471089,97.057000000,0.000000000,102674.234375000,0.000000000,0.000000000,-1.635789871,-67.474723816,0.000000000,-0.056998730,-14.545446396
1747301133.473463,97.059000000,0.000000000,102674.234375000,0.000000000,0.000000000,-1.635789871,-67.474723816,0.000000000,-0.056998730,-14.545444489
1747301133.475844,97.061000000,0.000000000,102674.234375000,0.000000000,0.000000000,-1.635789871,-67.474723816,0.000000000,-0.056998730,-14.545442581
1747301133.478241,97.064000000,0.000000000,102674.234375000,0.000000000,0.000000000,-1.635789871,-67.474723816,0.000000000,-0.056998730,-14.545440674
1747301133.480633,97.066000000,0.000000000,102674.234375000,0.000000000,0.000000000,-1.635789871,-67.474723816,0.000000000,-0.056998730,-14.545439720
1747301133.483010,97.068000000,0.000000000,102674.234375000,0.000000000,0.000000000,-1.635789871,-67.474723816,0.000000000,-0.056998730,-14.545437813
1747301133.485405,97.071000000,0.000000000,102674.234375000,0.000000000,0.000000000,-1.635789871,-67.474723816,0.000000000,-0.056998730,-14.545436859
1747301133.487770,97.073000000,0.000000000,102674.234375000,0.000000000,0.000000000,-1.635789871,-67.474723816,0.000000000,-0.056998730,-14.545435905
1747301133.490172,97.076000000,0.000000000,102674.234375000,0.000000000,0.000000000,-1.635789871,-67.474723816,0.000000000,-0.056998730,-14.545434952
1747301133.492557,97.078000000,0.000000000,102674.234375000,0.000000000,0.000000000,-1.635789871,-67.474723816,0.000000000,-0.056998730,-14.545433998
1747301133.494935,97.080000000,0.000000000,102674.234375000,0.000000000,0.000000000,-1.635789871,-67.474723816,0.000000000,-0.056998730,-14.545433044
1747301133.497334,97.083000000,0.000000000,102674.234375000,0.000000000,0.000000000,-1.635789871,-67.474723816,0.000000000,-0.056998730,-14.545433044
1747301133.499699,97.085000000,0.000000000,102674.234375000,0.000000000,0.000000000,-1.635789871,-67.474723816,0.000000000,-0.056998730,-14.545432091
1747301133.502083,97.088000000,0.000000000,102674.234375000,0.000000000,0.000000000,-1.635789871,-67.474723816,0.000000000,-0.056998730,-14.545431137
1747301133.504459,97.090000000,0.000000000,102674.234375000,0.000000000,0.000000000,-1.635789871,-67.474723816,0.000000000,-0.056998730,-14.545431137
1747301133.506941,97.092000000,0.000000000,102674.234375000,0.000000000,0.000000000,-1.635789871,-67.474723816,0.000000000,-0.056998730,-14.545430183
1747301133.509514,97.095000000,0.000000000,102674.234375000,0.000000000,0.000000000,-1.635789871,-67.474723816,0.000000000,-0.056998730,-14.545430183
1747301133.511915,97.097000000,0.000000000,102674.234375000,0.000000000,0.000000000,-1.635789871,-67.474723816,0.000000000,-0.056998730,-14.545429230
1747301133.514324,97.100000000,0.000000000,102674.234375000,0.000000000,0.000000000,-1.635789871,-67.474723816,0.000000000,-0.056998730,-14.545429230
1747301133.516711,97.102000000,0.000000000,102674.234375000,0.000000000,0.000000000,-1.635789871,-67.474723816,0.000000000,-0.056998730,-14.545429230
1747301133.519140,97.105000000,0.000000000,102674.234375000,0.000000000,0.000000000,-1.635789871,-67.474723816,0.000000000,-0.056998730,-14.545429230
1747301133.521602,97.107000000,0.000000000,102674.234375000,0.000000000,0.000000000,-1.635789871,-67.474723816,0.000000000,-0.056998730,-14.545428276
1747301133.524045,97.109000000,0.000000000,102674.234375000,0.000000000,0.000000000,-1.635789871,-67.474723816,0.000000000,-0.056998730,-14.545428276
1747301133.526416,97.112000000,0.000000000,102674.234375000,0.000000000,0.000000000,-1.635789871,-67.474723816,0.000000000,-0.056998730,-14.545428276
1747301133.528780,97.114000000,0.000000000,102674.234375000,0.000000000,0.000000000,-1.635789871,-67.474723816,0.000000000,-0.056998730,-14.545428276
1747301133.531142,97.117000000,0.000000000,102674.234375000,0.000000000,0.000000000,-1.635789871,-67.474723816,0.000000000,-0.056998730,-14.545427322
1747301133.533480,97.119000000,0.000000000,102674.234375000,0.000000000,0.000000000,-1.635789871,-67.474723816,0.000000000,-0.056998730,-14.545427322
1747301133.535930,97.121000000,0.000000000,102674.234375000,0.000000000,0.000000000,-1.635789871,-67.474723816,0.000000000,-0.056998730,-14.545427322
1747301133.538320,97.124000000,0.000000000,102674.234375000,0.000000000,0.000000000,-1.635789871,-67.474723816,0.000000000,-0.056998730,-14.545427322
1747301133.540734,97.126000000,0.000000000,102674.234375000,0.000000000,0.000000000,-1.635789871,-67.474723816,0.000000000,-0.056998730,-14.545427322
1747301133.543069,97.129000000,0.000000000,102674.234375000,0.000000000,0.000000000,-1.635789871,-67.474723816,0.000000000,-0.056998730,-14.545427322
1747301133.545461,97.131000000,0.000000000,102674.234375000,0.000000000,0.000000000,-1.635789871,-67.474723816,0.000000000,-0.056998730,-14.545427322
1747301133.547827,97.133000000,0.000000000,102674.234375000,0.000000000,0.000000000,-1.635789871,-67.474723816,0.000000000,-0.056998730,-14.545427322
1747301133.550207,97.136000000,0.000000000,102674.234375000,0.000000000,0.000000000,-1.635789871,-67.474723816,0.000000000,-0.056998730,-14.545427322
1747301133.552564,97.138000000,0.000000000,102674.234375000,0.000000000,0.000000000,-1.635789871,-67.474723816,0.000000000,-0.056998730,-14.545427322
1747301133.554949,97.140000000,0.000000000,102674.234375000,0.000000000,0.000000000,-1.635789871,-67.474723816,0.000000000,-0.056998730,-14.545427322
1747301133.557345,97.143000000,0.000000000,102674.234375000,0.000000000,0.000000000,-1.635789871,-67.474723816,0.000000000,-0.056998730,-14.545426369
1747301133.559781,97.145000000,0.000000000,102674.234375000,0.000000000,0.000000000,-1.635789871,-67.474723816,0.000000000,-0.056998730,-14.545426369
1747301133.562273,97.148000000,0.000000000,102674.234375000,0.000000000,0.000000000,-1.635789871,-67.474723816,0.000000000,-0.056998730,-14.545426369
1747301133.564637,97.150000000,0.000000000,102674.234375000,0.000000000,0.000000000,-1.635789871,-67.474723816,0.000000000,-0.056998730,-14.545426369
1747301133.567042,97.153000000,0.000000000,102674.234375000,0.000000000,0.000000000,-1.635789871,-67.474723816,0.000000000,-0.056998730,-14.545426369
1747301133.569418,97.155000000,0.000000000,102674.234375000,0.000000000,0.000000000,-1.635789871,-67.474723816,0.000000000,-0.056998730,-14.545426369
1747301133.571815,97.157000000,0.000000000,102674.234375000,0.000000000,0.000000000,-1.635789871,-67.474723816,0.000000000,-0.056998730,-14.545426369
1747301133.574235,97.160000000,0.000000000,102674.234375000,0.000000000,0.000000000,-1.635789871,-67.474723816,0.000000000,-0.056998730,-14.545426369
1747301133.576580,97.162000000,0.000000000,102674.234375000,0.000000000,0.000000000,-1.635789871,-67.474723816,0.000000000,-0.056998730,-14.545426369
1747301133.578983,97.164000000,0.000000000,102674.234375000,0.000000000,0.000000000,-1.635789871,-67.474723816,0.000000000,-0.056998730,-14.545426369
1747301133.581332,97.167000000,0.000000000,102674.234375000,0.000000000,0.000000000,-1.635789871,-67.474723816,0.000000000,-0.056998730,-14.545426369
1747301133.583681,97.169000000,0.000000000,102674.234375000,0.000000000,0.000000000,-1.635789871,-67.474723816,0.000000000,-0.056998730,-14.545426369
1747301133.586073,97.172000000,0.000000000,102674.234375000,0.000000000,0.000000000,-1.635789871,-67.474723816,0.000000000,-0.056998730,-14.545426369
1747301133.588442,97.174000000,0.000000000,102674.234375000,0.000000000,0.000000000,-1.635789871,-67.474723816,0.000000000,-0.056998730,-14.545426369
1747301133.590858,97.176000000,0.000000000,102674.234375000,0.000000000,0.000000000,-1.635789871,-67.474723816,0.000000000,-0.056998730,-14.545426369
1747301133.593237,97.179000000,0.000000000,102674.234375000,0.000000000,0.000000000,-1.635789871,-67.474723816,0.000000000,-0.056998730,-14.545426369
1747301133.595680,97.181000000,0.000000000,102674.234375000,0.000000000,0.000000000,-1.635789871,-67.474723816,0.000000000,-0.056998730,-14.545426369
1747301133.598071,97.184000000,0.000000000,102674.234375000,0.000000000,0.000000000,-1.635789871,-67.474723816,0.000000000,-0.056998730,-14.545426369
1747301133.600447,97.186000000,0.000000000,102674.234375000,0.000000000,0.000000000,-1.635789871,-67.474723816,0.000000000,-0.056998730,-14.545426369
1747301133.602824,97.188000000,0.000000000,102674.234375000,0.000000000,0.000000000,-1.635789871,-67.474723816,0.000000000,-0.056998730,-14.545426369
1747301133.605294,97.191000000,0.000000000,102674.234375000,0.000000000,0.000000000,-1.635789871,-67.474723816,0.000000000,-0.056998730,-14.545426369
1747301133.607688,97.193000000,0.000000000,102674.234375000,0.000000000,0.000000000,-1.635789871,-67.474723816,0.000000000,-0.056998730,-14.545426369
1747301133.610163,97.196000000,0.000000000,102674.234375000,0.000000000,0.000000000,-1.635789871,-67.474723816,0.000000000,-0.056998730,-14.545426369
1747301133.612571,97.198000000,0.000000000,102674.234375000,0.000000000,0.000000000,-1.635789871,-67.474723816,0.000000000,-0.056998730,-14.545426369
1747301133.614984,97.200000000,0.000000000,102674.234375000,0.000000000,0.000000000,-1.635789871,-67.474723816,0.000000000,-0.056998730,-14.545426369
1747301133.617416,97.203000000,0.000000000,102674.234375000,0.000000000,0.000000000,-1.635789871,-67.474723816,0.000000000,-0.056998730,-14.545426369
1747301133.619795,97.205000000,0.000000000,102674.234375000,0.000000000,0.000000000,-1.635789871,-67.474723816,0.000000000,-0.056998730,-14.545426369
1747301133.622224,97.208000000,0.000000000,102674.234375000,0.000000000,0.000000000,-1.635789871,-67.474723816,0.000000000,-0.056998730,-14.545426369
1747301133.624597,97.210000000,0.000000000,102674.234375000,0.000000000,0.000000000,-1.635789871,-67.474723816,0.000000000,-0.056998730,-14.545426369
1747301133.627006,97.212000000,0.000000000,102674.234375000,0.000000000,0.000000000,-1.635789871,-67.474723816,0.000000000,-0.056998730,-14.545426369
1747301133.629437,97.215000000,0.000000000,102674.234375000,0.000000000,0.000000000,-1.635789871,-67.474723816,0.000000000,-0.056998730,-14.545426369
1747301133.631835,97.217000000,0.000000000,102674.234375000,0.000000000,0.000000000,-1.635789871,-67.474723816,0.000000000,-0.056998730,-14.545426369
1747301133.634211,97.220000000,0.000000000,102674.234375000,0.000000000,0.000000000,-1.635789871,-67.474723816,0.000000000,-0.056998730,-14.545426369
1747301133.636597,97.222000000,0.000000000,102674.234375000,0.000000000,0.000000000,-1.635789871,-67.474723816,0.000000000,-0.056998730,-14.545426369
1747301133.638982,97.224000000,0.000000000,102674.234375000,0.000000000,0.000000000,-1.635789871,-67.474723816,0.000000000,-0.056998730,-14.545426369
1747301133.641418,97.227000000,0.000000000,102674.234375000,0.000000000,0.000000000,-1.635789871,-67.474723816,0.000000000,-0.056998730,-14.545426369
1747301133.643793,97.229000000,0.000000000,102674.234375000,0.000000000,0.000000000,-1.635789871,-67.474723816,0.000000000,-0.056998730,-14.545426369
1747301133.646216,97.232000000,0.000000000,102674.234375000,0.000000000,0.000000000,-1.635789871,-67.474723816,0.000000000,-0.056998730,-14.545426369
1747301133.648570,97.234000000,0.000000000,102674.234375000,0.000000000,0.000000000,-1.635789871,-67.474723816,0.000000000,-0.056998730,-14.545426369
1747301133.650969,97.236000000,0.000000000,102674.234375000,0.000000000,0.000000000,-1.635789871,-67.474723816,0.000000000,-0.056998730,-14.545426369
1747301133.653358,97.239000000,0.000000000,102674.234375000,0.000000000,0.000000000,-1.635789871,-67.474723816,0.000000000,-0.056998730,-14.545426369
1747301133.655796,97.241000000,0.000000000,102674.234375000,0.000000000,0.000000000,-1.635789871,-67.474723816,0.000000000,-0.056998730,-14.545426369
1747301133.658200,97.244000000,0.000000000,102674.234375000,0.000000000,0.000000000,-1.635789871,-67.474723816,0.000000000,-0.056998730,-14.545426369
1747301133.660588,97.246000000,0.000000000,102674.234375000,0.000000000,0.000000000,-1.635789871,-67.474723816,0.000000000,-0.056998730,-14.545426369
1747301133.662970,97.248000000,0.000000000,102674.234375000,0.000000000,0.000000000,-1.635789871,-67.474723816,0.000000000,-0.056998730,-14.545426369
1747301133.665373,97.251000000,0.000000000,102674.234375000,0.000000000,0.000000000,-1.635789871,-67.474723816,0.000000000,-0.056998730,-14.545426369
1747301133.667762,97.253000000,0.000000000,102674.234375000,0.000000000,0.000000000,-1.635789871,-67.474723816,0.000000000,-0.056998730,-14.545426369
1747301133.670157,97.256000000,0.000000000,102674.234375000,0.000000000,0.000000000,-1.635789871,-67.474723816,0.000000000,-0.056998730,-14.545426369
1747301133.672529,97.258000000,0.000000000,102674.234375000,0.000000000,0.000000000,-1.635789871,-67.474723816,0.000000000,-0.056998730,-14.545426369
1747301133.675006,97.260000000,0.000000000,102674.234375000,0.000000000,0.000000000,-1.635789871,-67.474723816,0.000000000,-0.056998730,-14.545426369
1747301133.677419,97.263000000,0.000000000,102674.234375000,0.000000000,0.000000000,-1.635789871,-67.474723816,0.000000000,-0.056998730,-14.545426369
1747301133.679813,97.265000000,0.000000000,102674.234375000,0.000000000,0.000000000,-1.635789871,-67.474723816,0.000000000,-0.056998730,-14.545426369
1747301133.682211,97.268000000,0.000000000,102674.234375000,0.000000000,0.000000000,-1.635789871,-67.474723816,0.000000000,-0.056998730,-14.545426369
1747301133.684598,97.270000000,0.000000000,102674.234375000,0.000000000,0.000000000,-1.635789871,-67.474723816,0.000000000,-0.056998730,-14.545426369
1747301133.687004,97.272000000,0.000000000,102674.234375000,0.000000000,0.000000000,-1.635789871,-67.474723816,0.000000000,-0.056998730,-14.545426369
1747301133.689382,97.275000000,0.000000000,102674.234375000,0.000000000,0.000000000,-1.635789871,-67.474723816,0.000000000,-0.056998730,-14.545426369
1747301133.691795,97.277000000,0.000000000,102674.234375000,0.000000000,0.000000000,-1.635789871,-67.474723816,0.000000000,-0.056998730,-14.545426369
1747301133.694187,97.280000000,0.000000000,102674.234375000,0.000000000,0.000000000,-1.635789871,-67.474723816,0.000000000,-0.056998730,-14.545426369
1747301133.696583,97.282000000,0.000000000,102674.234375000,0.000000000,0.000000000,-1.635789871,-67.474723816,0.000000000,-0.056998730,-14.545426369
1747301133.698962,97.284000000,0.000000000,102674.234375000,0.000000000,0.000000000,-1.635789871,-67.474723816,0.000000000,-0.056998730,-14.545426369
1747301133.701396,97.287000000,0.000000000,102674.234375000,0.000000000,0.000000000,-1.635789871,-67.474723816,0.000000000,-0.056998730,-14.545426369
1747301133.703768,97.289000000,0.000000000,102674.234375000,0.000000000,0.000000000,-1.635789871,-67.474723816,0.000000000,-0.056998730,-14.545426369
1747301133.706153,97.292000000,0.000000000,102674.234375000,0.000000000,0.000000000,-1.635789871,-67.474723816,0.000000000,-0.056998730,-14.545426369
1747301133.708543,97.294000000,0.000000000,102674.234375000,0.000000000,0.000000000,-1.635789871,-67.474723816,0.000000000,-0.056998730,-14.545426369
1747301133.710956,97.296000000,0.000000000,102674.234375000,0.000000000,0.000000000,-1.635789871,-67.474723816,0.000000000,-0.056998730,-14.545426369
1747301133.713401,97.299000000,0.000000000,102674.234375000,0.000000000,0.000000000,-1.635789871,-67.474723816,0.000000000,-0.056998730,-14.545426369
1747301133.715976,97.301000000,0.000000000,102674.234375000,0.000000000,0.000000000,-1.635789871,-67.474723816,0.000000000,-0.056998730,-14.545426369
1747301133.718447,97.304000000,0.000000000,102674.234375000,0.000000000,0.000000000,-1.635789871,-67.474723816,0.000000000,-0.056998730,-14.545426369
1747301133.720877,97.306000000,0.000000000,102674.234375000,0.000000000,0.000000000,-1.635789871,-67.474723816,0.000000000,-0.056998730,-14.545426369
1747301133.723368,97.309000000,0.000000000,102674.234375000,0.000000000,0.000000000,-1.635789871,-67.474723816,0.000000000,-0.056998730,-14.545426369
1747301133.725815,97.311000000,0.000000000,102674.234375000,0.000000000,0.000000000,-1.635789871,-67.474723816,0.000000000,-0.056998730,-14.545426369
1747301133.728201,97.314000000,0.000000000,102674.234375000,0.000000000,0.000000000,-1.635789871,-67.474723816,0.000000000,-0.056998730,-14.545426369
1747301133.730581,97.316000000,0.000000000,102674.234375000,0.000000000,0.000000000,-1.635789871,-67.474723816,0.000000000,-0.056998730,-14.545426369
1747301133.732989,97.318000000,0.000000000,102674.234375000,0.000000000,0.000000000,-1.635789871,-67.474723816,0.000000000,-0.056998730,-14.545426369
1747301133.735407,97.321000000,0.000000000,102674.234375000,0.000000000,0.000000000,-1.635789871,-67.474723816,0.000000000,-0.056998730,-14.545426369
1747301133.737818,97.323000000,0.000000000,102674.234375000,0.000000000,0.000000000,-1.635789871,-67.474723816,0.000000000,-0.056998730,-14.545426369
1747301133.740231,97.326000000,0.000000000,102674.234375000,0.000000000,0.000000000,-1.635789871,-67.474723816,0.000000000,-0.056998730,-14.545426369
1747301133.742611,97.328000000,0.000000000,102674.234375000,0.000000000,0.000000000,-1.635789871,-67.474723816,0.000000000,-0.056998730,-14.545426369
1747301133.745052,97.330000000,0.000000000,102674.234375000,0.000000000,0.000000000,-1.635789871,-67.474723816,0.000000000,-0.056998730,-14.545426369
1747301133.747449,97.333000000,0.000000000,102674.234375000,0.000000000,0.000000000,-1.635789871,-67.474723816,0.000000000,-0.056998730,-14.545426369
1747301133.749847,97.335000000,0.000000000,102674.234375000,0.000000000,0.000000000,-1.635789871,-67.474723816,0.000000000,-0.056998730,-14.545426369
1747301133.752256,97.338000000,0.000000000,102674.234375000,0.000000000,0.000000000,-1.635789871,-67.474723816,0.000000000,-0.056998730,-14.545426369
1747301133.754662,97.340000000,0.000000000,102674.234375000,0.000000000,0.000000000,-1.635789871,-67.474723816,0.000000000,-0.056998730,-14.545426369
1747301133.757098,97.343000000,0.000000000,102674.234375000,0.000000000,0.000000000,-1.635789871,-67.474723816,0.000000000,-0.056998730,-14.545426369
1747301133.759547,97.345000000,0.000000000,102674.234375000,0.000000000,0.000000000,-1.635789871,-67.474723816,0.000000000,-0.056998730,-14.545426369
1747301133.761985,97.347000000,0.000000000,102674.234375000,0.000000000,0.000000000,-1.635789871,-67.474723816,0.000000000,-0.056998730,-14.545426369
1747301133.764359,97.350000000,0.000000000,102674.234375000,0.000000000,0.000000000,-1.635789871,-67.474723816,0.000000000,-0.056998730,-14.545426369
1747301133.766760,97.352000000,0.000000000,102674.234375000,0.000000000,0.000000000,-1.635789871,-67.474723816,0.000000000,-0.056998730,-14.545426369
1747301133.769143,97.355000000,0.000000000,102674.234375000,0.000000000,0.000000000,-1.635789871,-67.474723816,0.000000000,-0.056998730,-14.545426369
1747301133.771523,97.357000000,0.000000000,102674.234375000,0.000000000,0.000000000,-1.635789871,-67.474723816,0.000000000,-0.056998730,-14.545426369
1747301133.773922,97.359000000,0.000000000,102674.234375000,0.000000000,0.000000000,-1.635789871,-67.474723816,0.000000000,-0.056998730,-14.545426369
1747301133.776325,97.362000000,0.000000000,102674.234375000,0.000000000,0.000000000,-1.635789871,-67.474723816,0.000000000,-0.056998730,-14.545426369
1747301133.778793,97.364000000,0.000000000,102674.234375000,0.000000000,0.000000000,-1.635789871,-67.474723816,0.000000000,-0.056998730,-14.545426369
1747301133.781177,97.367000000,0.000000000,102674.234375000,0.000000000,0.000000000,-1.635789871,-67.474723816,0.000000000,-0.056998730,-14.545426369
1747301133.783572,97.369000000,0.000000000,102674.234375000,0.000000000,0.000000000,-1.635789871,-67.474723816,0.000000000,-0.056998730,-14.545426369
1747301133.786036,97.371000000,0.000000000,102674.234375000,0.000000000,0.000000000,-1.635789871,-67.474723816,0.000000000,-0.056998730,-14.545426369
1747301133.788487,97.374000000,0.000000000,102674.234375000,0.000000000,0.000000000,-1.635789871,-67.474723816,0.000000000,-0.056998730,-14.545426369
1747301133.790966,97.376000000,0.000000000,102674.234375000,0.000000000,0.000000000,-1.635789871,-67.474723816,0.000000000,-0.056998730,-14.545426369
1747301133.793359,97.379000000,0.000000000,102674.234375000,0.000000000,0.000000000,-1.635789871,-67.474723816,0.000000000,-0.056998730,-14.545426369
1747301133.795765,97.381000000,0.000000000,102674.234375000,0.000000000,0.000000000,-1.635789871,-67.474723816,0.000000000,-0.056998730,-14.545426369
1747301133.798166,97.384000000,0.000000000,102674.234375000,0.000000000,0.000000000,-1.635789871,-67.474723816,0.000000000,-0.056998730,-14.545426369
1747301133.800601,97.386000000,0.000000000,102674.234375000,0.000000000,0.000000000,-1.635789871,-67.474723816,0.000000000,-0.056998730,-14.545426369
1747301133.803009,97.388000000,0.000000000,102674.234375000,0.000000000,0.000000000,-1.635789871,-67.474723816,0.000000000,-0.056998730,-14.545426369
1747301133.805523,97.391000000,0.000000000,102674.234375000,0.000000000,0.000000000,-1.635789871,-67.474723816,0.000000000,-0.056998730,-14.545426369
1747301133.808016,97.393000000,0.000000000,102674.234375000,0.000000000,0.000000000,-1.635789871,-67.474723816,0.000000000,-0.056998730,-14.545426369
1747301133.810402,97.396000000,0.000000000,102674.234375000,0.000000000,0.000000000,-1.635789871,-67.474723816,0.000000000,-0.056998730,-14.545426369
1747301133.812793,97.398000000,0.000000000,102674.234375000,0.000000000,0.000000000,-1.635789871,-67.474723816,0.000000000,-0.056998730,-14.545426369
1747301133.815182,97.401000000,0.000000000,102674.234375000,0.000000000,0.000000000,-1.635789871,-67.474723816,0.000000000,-0.056998730,-14.545426369
1747301133.817578,97.403000000,0.000000000,102674.234375000,0.000000000,0.000000000,-1.635789871,-67.474723816,0.000000000,-0.056998730,-14.545426369
1747301133.819956,97.405000000,0.000000000,102674.234375000,0.000000000,0.000000000,-1.635789871,-67.474723816,0.000000000,-0.056998730,-14.545426369
1747301133.822352,97.408000000,0.000000000,102674.234375000,0.000000000,0.000000000,-1.635789871,-67.474723816,0.000000000,-0.056998730,-14.545426369
1747301133.824739,97.410000000,0.000000000,102674.234375000,0.000000000,0.000000000,-1.635789871,-67.474723816,0.000000000,-0.056998730,-14.545426369
1747301133.827132,97.413000000,0.000000000,102674.234375000,0.000000000,0.000000000,-1.635789871,-67.474723816,0.000000000,-0.056998730,-14.545426369
1747301133.829518,97.415000000,0.000000000,102674.234375000,0.000000000,0.000000000,-1.635789871,-67.474723816,0.000000000,-0.056998730,-14.545426369
1747301133.831924,97.417000000,0.000000000,102674.234375000,0.000000000,0.000000000,-1.635789871,-67.474723816,0.000000000,-0.056998730,-14.545426369
1747301133.834323,97.420000000,0.000000000,102674.234375000,0.000000000,0.000000000,-1.635789871,-67.474723816,0.000000000,-0.056998730,-14.545426369
1747301133.836721,97.422000000,0.000000000,102674.234375000,0.000000000,0.000000000,-1.635789871,-67.474723816,0.000000000,-0.056998730,-14.545426369
1747301133.839099,97.425000000,0.000000000,102674.234375000,0.000000000,0.000000000,-1.635789871,-67.474723816,0.000000000,-0.056998730,-14.545426369
1747301133.841503,97.427000000,0.000000000,102674.234375000,0.000000000,0.000000000,-1.635789871,-67.474723816,0.000000000,-0.056998730,-14.545426369
1747301133.843883,97.429000000,0.000000000,102674.234375000,0.000000000,0.000000000,-1.635789871,-67.474723816,0.000000000,-0.056998730,-14.545426369
1747301133.846295,97.432000000,0.000000000,102674.234375000,0.000000000,0.000000000,-1.635789871,-67.474723816,0.000000000,-0.056998730,-14.545426369
1747301133.848663,97.434000000,0.000000000,102674.234375000,0.000000000,0.000000000,-1.635789871,-67.474723816,0.000000000,-0.056998730,-14.545426369
1747301133.851083,97.437000000,0.000000000,102674.234375000,0.000000000,0.000000000,-1.635789871,-67.474723816,0.000000000,-0.056998730,-14.545426369
1747301133.853481,97.439000000,0.000000000,102674.234375000,0.000000000,0.000000000,-1.635789871,-67.474723816,0.000000000,-0.056998730,-14.545426369
1747301133.855890,97.441000000,0.000000000,102674.234375000,0.000000000,0.000000000,-1.635789871,-67.474723816,0.000000000,-0.056998730,-14.545426369
1747301133.858277,97.444000000,0.000000000,102674.234375000,0.000000000,0.000000000,-1.635789871,-67.474723816,0.000000000,-0.056998730,-14.545426369
1747301133.860653,97.446000000,0.000000000,102674.234375000,0.000000000,0.000000000,-1.635789871,-67.474723816,0.000000000,-0.056998730,-14.545426369
1747301133.863037,97.449000000,0.000000000,102674.234375000,0.000000000,0.000000000,-1.635789871,-67.474723816,0.000000000,-0.056998730,-14.545426369
1747301133.865424,97.451000000,0.000000000,102674.234375000,0.000000000,0.000000000,-1.635789871,-67.474723816,0.000000000,-0.056998730,-14.545426369
1747301133.867823,97.453000000,0.000000000,102674.234375000,0.000000000,0.000000000,-1.635789871,-67.474723816,0.000000000,-0.056998730,-14.545426369
1747301133.870213,97.456000000,0.000000000,102674.234375000,0.000000000,0.000000000,-1.635789871,-67.474723816,0.000000000,-0.056998730,-14.545426369
1747301133.872598,97.458000000,0.000000000,102674.234375000,0.000000000,0.000000000,-1.635789871,-67.474723816,0.000000000,-0.056998730,-14.545426369
1747301133.875007,97.460000000,0.000000000,102674.234375000,0.000000000,0.000000000,-1.635789871,-67.474723816,0.000000000,-0.056998730,-14.545426369
1747301133.877418,97.463000000,0.000000000,102674.234375000,0.000000000,0.000000000,-1.635789871,-67.474723816,0.000000000,-0.056998730,-14.545426369
1747301133.879835,97.465000000,0.000000000,102674.234375000,0.000000000,0.000000000,-1.635789871,-67.474723816,0.000000000,-0.056998730,-14.545426369
1747301133.882218,97.468000000,0.000000000,102674.234375000,0.000000000,0.000000000,-1.635789871,-67.474723816,0.000000000,-0.056998730,-14.545426369
1747301133.884603,97.470000000,0.000000000,102674.234375000,0.000000000,0.000000000,-1.635789871,-67.474723816,0.000000000,-0.056998730,-14.545426369
1747301133.886991,97.472000000,0.000000000,102674.234375000,0.000000000,0.000000000,-1.635789871,-67.474723816,0.000000000,-0.056998730,-14.545426369
1747301133.889396,97.475000000,0.000000000,102674.234375000,0.000000000,0.000000000,-1.635789871,-67.474723816,0.000000000,-0.056998730,-14.545426369
1747301133.891795,97.477000000,0.000000000,102674.234375000,0.000000000,0.000000000,-1.635789871,-67.474723816,0.000000000,-0.056998730,-14.545426369
1747301133.894233,97.480000000,0.000000000,102674.234375000,0.000000000,0.000000000,-1.635789871,-67.474723816,0.000000000,-0.056998730,-14.545426369
1747301133.896641,97.482000000,0.000000000,102674.234375000,0.000000000,0.000000000,-1.635789871,-67.474723816,0.000000000,-0.056998730,-14.545426369
1747301133.899032,97.484000000,0.000000000,102674.234375000,0.000000000,0.000000000,-1.635789871,-67.474723816,0.000000000,-0.056998730,-14.545426369
1747301133.901530,97.487000000,0.000000000,102674.234375000,0.000000000,0.000000000,-1.635789871,-67.474723816,0.000000000,-0.056998730,-14.545426369
1747301133.903898,97.489000000,0.000000000,102674.234375000,0.000000000,0.000000000,-1.635789871,-67.474723816,0.000000000,-0.056998730,-14.545426369
1747301133.906279,97.492000000,0.000000000,102674.234375000,0.000000000,0.000000000,-1.635789871,-67.474723816,0.000000000,-0.056998730,-14.545426369
1747301133.908652,97.494000000,0.000000000,102674.234375000,0.000000000,0.000000000,-1.635789871,-67.474723816,0.000000000,-0.056998730,-14.545426369
1747301133.911036,97.497000000,0.000000000,102674.234375000,0.000000000,0.000000000,-1.635789871,-67.474723816,0.000000000,-0.056998730,-14.545426369
1747301133.913445,97.499000000,0.000000000,102674.234375000,0.000000000,0.000000000,-1.635789871,-67.474723816,0.000000000,-0.056998730,-14.545426369
1747301133.915838,97.501000000,0.000000000,102674.234375000,0.000000000,0.000000000,-1.635789871,-67.474723816,0.000000000,-0.056998730,-14.545426369
1747301133.918224,97.504000000,0.000000000,102674.234375000,0.000000000,0.000000000,-1.635789871,-67.474723816,0.000000000,-0.056998730,-14.545426369
1747301133.920618,97.506000000,0.000000000,102674.234375000,0.000000000,0.000000000,-1.635789871,-67.474723816,0.000000000,-0.056998730,-14.545426369
1747301133.922996,97.508000000,0.000000000,102674.234375000,0.000000000,0.000000000,-1.635789871,-67.474723816,0.000000000,-0.056998730,-14.545426369
1747301133.925501,97.511000000,0.000000000,102674.234375000,0.000000000,0.000000000,-1.635789871,-67.474723816,0.000000000,-0.056998730,-14.545426369
1747301133.927985,97.513000000,0.000000000,102674.234375000,0.000000000,0.000000000,-1.635789871,-67.474723816,0.000000000,-0.056998730,-14.545426369
1747301133.930380,97.516000000,0.000000000,102674.234375000,0.000000000,0.000000000,-1.635789871,-67.474723816,0.000000000,-0.056998730,-14.545426369
1747301133.932779,97.518000000,0.000000000,102674.234375000,0.000000000,0.000000000,-1.649292111,-64.841720581,0.000000000,-0.056998730,-14.545426369
1747301133.935162,97.521000000,0.000000000,102674.234375000,0.000000000,0.000000000,-1.649292111,-68.155494690,0.000000000,-0.056998730,-14.545426369
1747301133.937579,97.523000000,0.000000000,102674.234375000,0.000000000,0.000000000,-1.649292111,-68.155494690,0.000000000,-0.056998730,-14.545426369
1747301133.939989,97.525000000,0.000000000,102674.234375000,0.000000000,0.000000000,-1.649292111,-68.155494690,0.000000000,-0.056998730,-14.545426369
1747301133.942514,97.528000000,0.000000000,102674.234375000,0.000000000,0.000000000,-1.649292111,-68.155494690,0.000000000,-0.056998730,-14.545426369
1747301133.944844,97.530000000,0.000000000,102674.234375000,0.000000000,0.000000000,-1.649292111,-68.155494690,0.000000000,-0.056998730,-14.545426369
1747301133.947251,97.533000000,0.000000000,102674.234375000,0.000000000,0.000000000,-1.649292111,-68.155494690,0.000000000,-0.056998730,-14.545426369
1747301133.949659,97.535000000,0.000000000,102674.234375000,0.000000000,0.000000000,-1.649292111,-68.155494690,0.000000000,-0.056998730,-14.545426369
1747301133.952024,97.538000000,0.000000000,102674.234375000,0.000000000,0.000000000,-1.649292111,-68.155494690,0.000000000,-0.056998730,-14.545426369
1747301133.954398,97.540000000,0.000000000,102674.234375000,0.000000000,0.000000000,-1.649292111,-68.155494690,0.000000000,-0.056998730,-14.545426369
1747301133.956781,97.542000000,0.000000000,102674.234375000,0.000000000,0.000000000,-1.649292111,-68.155494690,0.000000000,-0.056998730,-14.545426369
1747301133.959186,97.545000000,0.000000000,102674.234375000,0.000000000,0.000000000,-1.649292111,-68.155494690,0.000000000,-0.056998730,-14.545426369
1747301133.961570,97.547000000,0.000000000,102674.234375000,0.000000000,0.000000000,-1.649292111,-68.155494690,0.000000000,-0.056998730,-14.545426369
1747301133.963946,97.549000000,0.000000000,102674.234375000,0.000000000,0.000000000,-1.649292111,-68.155494690,0.000000000,-0.056998730,-14.545426369
1747301133.966325,97.552000000,0.000000000,102674.234375000,0.000000000,0.000000000,-1.649292111,-68.155494690,0.000000000,-0.056998730,-14.545426369
1747301133.968738,97.554000000,0.000000000,102674.234375000,0.000000000,0.000000000,-1.649292111,-68.155494690,0.000000000,-0.056998730,-14.545426369
1747301133.971235,97.557000000,0.000000000,102674.234375000,0.000000000,0.000000000,-1.649292111,-68.155494690,0.000000000,-0.056998730,-14.545426369
1747301133.973628,97.559000000,0.000000000,102674.234375000,0.000000000,0.000000000,-1.649292111,-68.155494690,0.000000000,-0.056998730,-14.545426369
1747301133.976028,97.561000000,0.000000000,102674.234375000,0.000000000,0.000000000,-1.649292111,-68.155494690,0.000000000,-0.056998730,-14.545426369
1747301133.978400,97.564000000,0.000000000,102674.234375000,0.000000000,0.000000000,-1.635789871,-70.813499451,0.000000000,-0.056998730,-14.545426369
1747301133.980813,97.566000000,0.000000000,102674.234375000,0.000000000,0.000000000,-1.635789871,-67.474723816,0.000000000,-0.056998730,-14.545426369
1747301133.983214,97.569000000,0.000000000,102674.234375000,0.000000000,0.000000000,-1.649292111,-64.832038879,0.000000000,-0.056998730,-14.545426369
1747301133.985591,97.571000000,0.000000000,102674.234375000,0.000000000,0.000000000,-1.649292111,-68.155494690,0.000000000,-0.056998730,-14.545426369
1747301133.987982,97.573000000,0.000000000,102674.234375000,0.000000000,0.000000000,-1.635789871,-70.810707092,0.000000000,-0.056998730,-14.545426369
1747301133.990373,97.576000000,0.000000000,102674.234375000,0.000000000,0.000000000,-1.635789871,-67.474723816,0.000000000,-0.056998730,-14.545426369
1747301133.992841,97.578000000,0.000000000,102674.234375000,0.000000000,0.000000000,-1.635789871,-67.474723816,0.000000000,-0.056998730,-14.545426369
1747301133.995245,97.581000000,0.000000000,102674.234375000,0.000000000,0.000000000,-1.635789871,-67.474723816,0.000000000,-0.056998730,-14.545426369
1747301133.997691,97.583000000,0.000000000,102674.234375000,0.000000000,0.000000000,-1.635789871,-67.474723816,0.000000000,-0.056998730,-14.545426369
1747301134.000049,97.586000000,0.000000000,102674.234375000,0.000000000,0.000000000,-1.635789871,-67.474723816,0.000000000,-0.056998730,-14.545426369
1747301134.002423,97.588000000,0.000000000,102674.234375000,0.000000000,0.000000000,-1.635789871,-67.474723816,0.000000000,-0.056998730,-14.545426369
1747301134.004790,97.590000000,0.000000000,102674.234375000,0.000000000,0.000000000,-1.635789871,-67.474723816,0.000000000,-0.056998730,-14.545426369
1747301134.007223,97.593000000,0.000000000,102674.234375000,0.000000000,0.000000000,-1.635789871,-67.474723816,0.000000000,-0.056998730,-14.545426369
1747301134.009617,97.595000000,0.000000000,102674.234375000,0.000000000,0.000000000,-1.635789871,-67.474723816,0.000000000,-0.056998730,-14.545426369
1747301134.011983,97.597000000,0.000000000,102674.234375000,0.000000000,0.000000000,-1.635789871,-67.474723816,0.000000000,-0.056998730,-14.545426369
1747301134.014390,97.600000000,0.000000000,102674.234375000,0.000000000,0.000000000,-1.635789871,-67.474723816,0.000000000,-0.056998730,-14.545426369
1747301134.016771,97.602000000,0.000000000,102674.234375000,0.000000000,0.000000000,-1.635789871,-67.474723816,0.000000000,-0.056998730,-14.545426369
1747301134.019139,97.605000000,0.000000000,102674.234375000,0.000000000,0.000000000,-1.635789871,-67.474723816,0.000000000,-0.056998730,-14.545426369
1747301134.021521,97.607000000,0.000000000,102674.234375000,0.000000000,0.000000000,-1.635789871,-67.474723816,0.000000000,-0.056998730,-14.545426369
1747301134.023920,97.609000000,0.000000000,102674.234375000,0.000000000,0.000000000,-1.635789871,-67.474723816,0.000000000,-0.056998730,-14.545426369
1747301134.026298,97.612000000,0.000000000,102674.234375000,0.000000000,0.000000000,-1.635789871,-67.474723816,0.000000000,-0.056998730,-14.545426369
1747301134.028731,97.614000000,0.000000000,102674.234375000,0.000000000,0.000000000,-1.635789871,-67.474723816,0.000000000,-0.056998730,-14.545426369
1747301134.031121,97.617000000,0.000000000,102674.234375000,0.000000000,0.000000000,-1.635789871,-67.474723816,0.000000000,-0.056998730,-14.545426369
1747301134.033510,97.619000000,0.000000000,102674.234375000,0.000000000,0.000000000,-1.635789871,-67.474723816,0.000000000,-0.056998730,-14.545426369
1747301134.035893,97.621000000,0.000000000,102674.234375000,0.000000000,0.000000000,-1.635789871,-67.474723816,0.000000000,-0.056998730,-14.545426369
1747301134.038267,97.624000000,0.000000000,102674.234375000,0.000000000,0.000000000,-1.635789871,-67.474723816,0.000000000,-0.056998730,-14.545426369
1747301134.040671,97.626000000,0.000000000,102674.234375000,0.000000000,0.000000000,-1.635789871,-67.474723816,0.000000000,-0.056998730,-14.545426369
1747301134.043085,97.629000000,0.000000000,102674.234375000,0.000000000,0.000000000,-1.635789871,-67.474723816,0.000000000,-0.056998730,-14.545426369
1747301134.045558,97.631000000,0.000000000,102674.234375000,0.000000000,0.000000000,-1.635789871,-67.474723816,0.000000000,-0.056998730,-14.545426369
1747301134.047970,97.633000000,0.000000000,102674.234375000,0.000000000,0.000000000,-1.635789871,-67.474723816,0.000000000,-0.056998730,-14.545426369
1747301134.050336,97.636000000,0.000000000,102674.234375000,0.000000000,0.000000000,-1.635789871,-67.474723816,0.000000000,-0.056998730,-14.545426369
1747301134.052705,97.638000000,0.000000000,102674.234375000,0.000000000,0.000000000,-1.635789871,-67.474723816,0.000000000,-0.056998730,-14.545426369
1747301134.055080,97.641000000,0.000000000,102674.234375000,0.000000000,0.000000000,-1.635789871,-67.474723816,0.000000000,-0.056998730,-14.545426369
1747301134.057494,97.643000000,0.000000000,102674.234375000,0.000000000,0.000000000,-1.635789871,-67.474723816,0.000000000,-0.056998730,-14.545426369
1747301134.059869,97.645000000,0.000000000,102674.234375000,0.000000000,0.000000000,-1.635789871,-67.474723816,0.000000000,-0.056998730,-14.545426369
1747301134.062255,97.648000000,0.000000000,102674.234375000,0.000000000,0.000000000,-1.635789871,-67.474723816,0.000000000,-0.056998730,-14.545426369
1747301134.064639,97.650000000,0.000000000,102674.234375000,0.000000000,0.000000000,-1.635789871,-67.474723816,0.000000000,-0.056998730,-14.545426369
1747301134.067022,97.652000000,0.000000000,102674.234375000,0.000000000,0.000000000,-1.635789871,-67.474723816,0.000000000,-0.056998730,-14.545426369
1747301134.069397,97.655000000,0.000000000,102674.234375000,0.000000000,0.000000000,-1.635789871,-67.474723816,0.000000000,-0.056998730,-14.545426369
1747301134.071770,97.657000000,0.000000000,102674.234375000,0.000000000,0.000000000,-1.635789871,-67.474723816,0.000000000,-0.056998730,-14.545426369
1747301134.074196,97.660000000,0.000000000,102674.234375000,0.000000000,0.000000000,-1.635789871,-67.474723816,0.000000000,-0.056998730,-14.545426369
1747301134.076579,97.662000000,0.000000000,102674.234375000,0.000000000,0.000000000,-1.635789871,-67.474723816,0.000000000,-0.056998730,-14.545426369
1747301134.078971,97.664000000,0.000000000,102674.234375000,0.000000000,0.000000000,-1.635789871,-67.474723816,0.000000000,-0.056998730,-14.545426369
1747301134.081357,97.667000000,0.000000000,102674.234375000,0.000000000,0.000000000,-1.635789871,-67.474723816,0.000000000,-0.056998730,-14.545426369
1747301134.083773,97.669000000,0.000000000,102674.234375000,0.000000000,0.000000000,-1.635789871,-67.474723816,0.000000000,-0.056998730,-14.545426369
1747301134.086163,97.672000000,0.000000000,102674.234375000,0.000000000,0.000000000,-1.635789871,-67.474723816,0.000000000,-0.056998730,-14.545426369
1747301134.088556,97.674000000,0.000000000,102674.234375000,0.000000000,0.000000000,-1.635789871,-67.474723816,0.000000000,-0.056998730,-14.545426369
1747301134.090960,97.676000000,0.000000000,102674.234375000,0.000000000,0.000000000,-1.635789871,-67.474723816,0.000000000,-0.056998730,-14.545426369
1747301134.093366,97.679000000,0.000000000,102674.234375000,0.000000000,0.000000000,-1.635789871,-67.474723816,0.000000000,-0.056998730,-14.545426369
1747301134.095743,97.681000000,0.000000000,102674.234375000,0.000000000,0.000000000,-1.635789871,-67.474723816,0.000000000,-0.056998730,-14.545426369
1747301134.098117,97.684000000,0.000000000,102674.234375000,0.000000000,0.000000000,-1.635789871,-67.474723816,0.000000000,-0.056998730,-14.545426369
1747301134.100504,97.686000000,0.000000000,102674.234375000,0.000000000,0.000000000,-1.635789871,-67.474723816,0.000000000,-0.056998730,-14.545426369
1747301134.102916,97.688000000,0.000000000,102674.234375000,0.000000000,0.000000000,-1.635789871,-67.474723816,0.000000000,-0.056998730,-14.545426369
1747301134.105291,97.691000000,0.000000000,102674.234375000,0.000000000,0.000000000,-1.635789871,-67.474723816,0.000000000,-0.056998730,-14.545426369
1747301134.107754,97.693000000,0.000000000,102674.234375000,0.000000000,0.000000000,-1.635789871,-67.474723816,0.000000000,-0.056998730,-14.545426369
1747301134.110120,97.696000000,0.000000000,102674.234375000,0.000000000,0.000000000,-1.635789871,-67.474723816,0.000000000,-0.056998730,-14.545426369
1747301134.112532,97.698000000,0.000000000,102674.234375000,0.000000000,0.000000000,-1.635789871,-67.474723816,0.000000000,-0.056998730,-14.545426369
1747301134.114947,97.700000000,0.000000000,102674.234375000,0.000000000,0.000000000,-1.635789871,-67.474723816,0.000000000,-0.056998730,-14.545426369
1747301134.117342,97.703000000,0.000000000,102674.234375000,0.000000000,0.000000000,-1.635789871,-67.474723816,0.000000000,-0.056998730,-14.545426369
1747301134.119699,97.705000000,0.000000000,102674.234375000,0.000000000,0.000000000,-1.635789871,-67.474723816,0.000000000,-0.056998730,-14.545426369
1747301134.122077,97.708000000,0.000000000,102674.234375000,0.000000000,0.000000000,-1.635789871,-67.474723816,0.000000000,-0.056998730,-14.545426369
1747301134.124505,97.710000000,0.000000000,102674.234375000,0.000000000,0.000000000,-1.635789871,-67.474723816,0.000000000,-0.056998730,-14.545426369
1747301134.126888,97.712000000,0.000000000,102674.234375000,0.000000000,0.000000000,-1.635789871,-67.474723816,0.000000000,-0.056998730,-14.545426369
1747301134.129282,97.715000000,0.000000000,102674.234375000,0.000000000,0.000000000,-1.635789871,-67.474723816,0.000000000,-0.056998730,-14.545426369
1747301134.131655,97.717000000,0.000000000,102674.234375000,0.000000000,0.000000000,-1.635789871,-67.474723816,0.000000000,-0.056998730,-14.545426369
1747301134.134049,97.720000000,0.000000000,102674.234375000,0.000000000,0.000000000,-1.635789871,-67.474723816,0.000000000,-0.056998730,-14.545426369
1747301134.136488,97.722000000,0.000000000,102674.234375000,0.000000000,0.000000000,-1.635789871,-67.474723816,0.000000000,-0.056998730,-14.545426369
1747301134.138886,97.724000000,0.000000000,102674.234375000,0.000000000,0.000000000,-1.635789871,-67.474723816,0.000000000,-0.056998730,-14.545426369
1747301134.141365,97.727000000,0.000000000,102674.234375000,0.000000000,0.000000000,-1.635789871,-67.474723816,0.000000000,-0.056998730,-14.545426369
1747301134.143734,97.729000000,0.000000000,102674.234375000,0.000000000,0.000000000,-1.635789871,-67.474723816,0.000000000,-0.056998730,-14.545426369
1747301134.146120,97.732000000,0.000000000,102674.234375000,0.000000000,0.000000000,-1.635789871,-67.474723816,0.000000000,-0.056998730,-14.545426369
1747301134.148499,97.734000000,0.000000000,102674.234375000,0.000000000,0.000000000,-1.635789871,-67.474723816,0.000000000,-0.056998730,-14.545426369
1747301134.150892,97.736000000,0.000000000,102674.234375000,0.000000000,0.000000000,-1.635789871,-67.474723816,0.000000000,-0.056998730,-14.545426369
1747301134.153266,97.739000000,0.000000000,102674.234375000,0.000000000,0.000000000,-1.635789871,-67.474723816,0.000000000,-0.056998730,-14.545426369
1747301134.155673,97.741000000,0.000000000,102674.234375000,0.000000000,0.000000000,-1.635789871,-67.474723816,0.000000000,-0.056998730,-14.545426369
1747301134.158092,97.744000000,0.000000000,102674.234375000,0.000000000,0.000000000,-1.635789871,-67.474723816,0.000000000,-0.056998730,-14.545426369
1747301134.160507,97.746000000,0.000000000,102674.234375000,0.000000000,0.000000000,-1.635789871,-67.474723816,0.000000000,-0.056998730,-14.545426369
1747301134.162911,97.748000000,0.000000000,102674.234375000,0.000000000,0.000000000,-1.635789871,-67.474723816,0.000000000,-0.056998730,-14.545426369
1747301134.165293,97.751000000,0.000000000,102674.234375000,0.000000000,0.000000000,-1.635789871,-67.474723816,0.000000000,-0.056998730,-14.545426369
1747301134.167672,97.753000000,0.000000000,102674.234375000,0.000000000,0.000000000,-1.635789871,-67.474723816,0.000000000,-0.056998730,-14.545426369
1747301134.170052,97.756000000,0.000000000,102674.234375000,0.000000000,0.000000000,-1.635789871,-67.474723816,0.000000000,-0.056998730,-14.545426369
1747301134.172463,97.758000000,0.000000000,102674.234375000,0.000000000,0.000000000,-1.635789871,-67.474723816,0.000000000,-0.056998730,-14.545426369
1747301134.174881,97.760000000,0.000000000,102674.234375000,0.000000000,0.000000000,-1.635789871,-67.474723816,0.000000000,-0.056998730,-14.545426369
1747301134.177286,97.763000000,0.000000000,102674.234375000,0.000000000,0.000000000,-1.635789871,-67.474723816,0.000000000,-0.056998730,-14.545426369
1747301134.179685,97.765000000,0.000000000,102674.234375000,0.000000000,0.000000000,-1.635789871,-67.474723816,0.000000000,-0.056998730,-14.545426369
1747301134.182118,97.768000000,0.000000000,102674.234375000,0.000000000,0.000000000,-1.635789871,-67.474723816,0.000000000,-0.056998730,-14.545426369
1747301134.184558,97.770000000,0.000000000,102674.234375000,0.000000000,0.000000000,-1.635789871,-67.474723816,0.000000000,-0.056998730,-14.545426369
1747301134.186960,97.772000000,0.000000000,102674.234375000,0.000000000,0.000000000,-1.635789871,-67.474723816,0.000000000,-0.056998730,-14.545426369
1747301134.189351,97.775000000,0.000000000,102674.234375000,0.000000000,0.000000000,-1.635789871,-67.474723816,0.000000000,-0.056998730,-14.545426369
1747301134.191760,97.777000000,0.000000000,102674.234375000,0.000000000,0.000000000,-1.635789871,-67.474723816,0.000000000,-0.056998730,-14.545426369
1747301134.194141,97.780000000,0.000000000,102674.234375000,0.000000000,0.000000000,-1.635789871,-67.474723816,0.000000000,-0.056998730,-14.545426369
1747301134.196532,97.782000000,0.000000000,102674.234375000,0.000000000,0.000000000,-1.635789871,-67.474723816,0.000000000,-0.056998730,-14.545426369
1747301134.198944,97.784000000,0.000000000,102674.234375000,0.000000000,0.000000000,-1.635789871,-67.474723816,0.000000000,-0.056998730,-14.545426369
1747301134.201386,97.787000000,0.000000000,102674.234375000,0.000000000,0.000000000,-1.635789871,-67.474723816,0.000000000,-0.056998730,-14.545426369
1747301134.203824,97.789000000,0.000000000,102674.234375000,0.000000000,0.000000000,-1.635789871,-67.474723816,0.000000000,-0.056998730,-14.545426369
1747301134.206259,97.792000000,0.000000000,102674.234375000,0.000000000,0.000000000,-1.635789871,-67.474723816,0.000000000,-0.056998730,-14.545426369
1747301134.208685,97.794000000,0.000000000,102674.234375000,0.000000000,0.000000000,-1.635789871,-67.474723816,0.000000000,-0.056998730,-14.545426369
1747301134.211072,97.797000000,0.000000000,102674.234375000,0.000000000,0.000000000,-1.635789871,-67.474723816,0.000000000,-0.056998730,-14.545426369
1747301134.213448,97.799000000,0.000000000,102674.234375000,0.000000000,0.000000000,-1.635789871,-67.474723816,0.000000000,-0.056998730,-14.545426369
1747301134.215856,97.801000000,0.000000000,102674.234375000,0.000000000,0.000000000,-1.635789871,-67.474723816,0.000000000,-0.056998730,-14.545426369
1747301134.218210,97.804000000,0.000000000,102674.234375000,0.000000000,0.000000000,-1.635789871,-67.474723816,0.000000000,-0.056998730,-14.545426369
1747301134.220587,97.806000000,0.000000000,102674.234375000,0.000000000,0.000000000,-1.635789871,-67.474723816,0.000000000,-0.056998730,-14.545426369
1747301134.222947,97.808000000,0.000000000,102674.234375000,0.000000000,0.000000000,-1.635789871,-67.474723816,0.000000000,-0.056998730,-14.545426369
1747301134.225340,97.811000000,0.000000000,102674.234375000,0.000000000,0.000000000,-1.635789871,-67.474723816,0.000000000,-0.056998730,-14.545426369
1747301134.227699,97.813000000,0.000000000,102674.234375000,0.000000000,0.000000000,-1.635789871,-67.474723816,0.000000000,-0.056998730,-14.545426369
1747301134.230119,97.816000000,0.000000000,102674.234375000,0.000000000,0.000000000,-1.635789871,-67.474723816,0.000000000,-0.056998730,-14.545426369
1747301134.232513,97.818000000,0.000000000,102674.234375000,0.000000000,0.000000000,-1.635789871,-67.474723816,0.000000000,-0.056998730,-14.545426369
1747301134.234936,97.820000000,0.000000000,102674.234375000,0.000000000,0.000000000,-1.635789871,-67.474723816,0.000000000,-0.056998730,-14.545426369
1747301134.237347,97.823000000,0.000000000,102674.234375000,0.000000000,0.000000000,-1.635789871,-67.474723816,0.000000000,-0.056998730,-14.545426369
1747301134.239771,97.825000000,0.000000000,102674.234375000,0.000000000,0.000000000,-1.635789871,-67.474723816,0.000000000,-0.056998730,-14.545426369
1747301134.242237,97.828000000,0.000000000,102674.234375000,0.000000000,0.000000000,-1.635789871,-67.474723816,0.000000000,-0.056998730,-14.545426369
1747301134.244650,97.830000000,0.000000000,102674.234375000,0.000000000,0.000000000,-1.635789871,-67.474723816,0.000000000,-0.056998730,-14.545426369
1747301134.247034,97.833000000,0.000000000,102674.234375000,0.000000000,0.000000000,-1.635789871,-67.474723816,0.000000000,-0.056998730,-14.545426369
1747301134.249492,97.835000000,0.000000000,102674.234375000,0.000000000,0.000000000,-1.635789871,-67.474723816,0.000000000,-0.056998730,-14.545426369
1747301134.251881,97.837000000,0.000000000,102674.234375000,0.000000000,0.000000000,-1.635789871,-67.474723816,0.000000000,-0.056998730,-14.545426369
1747301134.254277,97.840000000,0.000000000,102674.234375000,0.000000000,0.000000000,-1.635789871,-67.474723816,0.000000000,-0.056998730,-14.545426369
1747301134.256699,97.842000000,0.000000000,102674.234375000,0.000000000,0.000000000,-1.635789871,-67.474723816,0.000000000,-0.056998730,-14.545426369
1747301134.259074,97.845000000,0.000000000,102674.234375000,0.000000000,0.000000000,-1.635789871,-67.474723816,0.000000000,-0.056998730,-14.545426369
1747301134.261446,97.847000000,0.000000000,102674.234375000,0.000000000,0.000000000,-1.635789871,-67.474723816,0.000000000,-0.056998730,-14.545426369
1747301134.263824,97.849000000,0.000000000,102674.234375000,0.000000000,0.000000000,-1.635789871,-67.474723816,0.000000000,-0.056998730,-14.545426369
1747301134.266209,97.852000000,0.000000000,102674.234375000,0.000000000,0.000000000,-1.635789871,-67.474723816,0.000000000,-0.056998730,-14.545426369
1747301134.268585,97.854000000,0.000000000,102674.234375000,0.000000000,0.000000000,-1.635789871,-67.474723816,0.000000000,-0.056998730,-14.545426369
1747301134.270959,97.856000000,0.000000000,102674.234375000,0.000000000,0.000000000,-1.635789871,-67.474723816,0.000000000,-0.056998730,-14.545426369
1747301134.273334,97.859000000,0.000000000,102674.234375000,0.000000000,0.000000000,-1.635789871,-67.474723816,0.000000000,-0.056998730,-14.545426369
1747301134.275765,97.861000000,0.000000000,102674.234375000,0.000000000,0.000000000,-1.635789871,-67.474723816,0.000000000,-0.056998730,-14.545426369
1747301134.278178,97.864000000,0.000000000,102674.234375000,0.000000000,0.000000000,-1.635789871,-67.474723816,0.000000000,-0.056998730,-14.545426369
1747301134.280541,97.866000000,0.000000000,102674.234375000,0.000000000,0.000000000,-1.635789871,-67.474723816,0.000000000,-0.056998730,-14.545426369
1747301134.282927,97.868000000,0.000000000,102674.234375000,0.000000000,0.000000000,-1.635789871,-67.474723816,0.000000000,-0.056998730,-14.545426369
1747301134.285341,97.871000000,0.000000000,102674.234375000,0.000000000,0.000000000,-1.635789871,-67.474723816,0.000000000,-0.056998730,-14.545426369
1747301134.287734,97.873000000,0.000000000,102674.234375000,0.000000000,0.000000000,-1.635789871,-67.474723816,0.000000000,-0.056998730,-14.545426369
1747301134.290104,97.876000000,0.000000000,102674.234375000,0.000000000,0.000000000,-1.635789871,-67.474723816,0.000000000,-0.056998730,-14.545426369
1747301134.292561,97.878000000,0.000000000,102674.234375000,0.000000000,0.000000000,-1.635789871,-67.474723816,0.000000000,-0.056998730,-14.545426369
1747301134.294930,97.880000000,0.000000000,102674.234375000,0.000000000,0.000000000,-1.635789871,-67.474723816,0.000000000,-0.056998730,-14.545426369
1747301134.297292,97.883000000,0.000000000,102674.234375000,0.000000000,0.000000000,-1.635789871,-67.474723816,0.000000000,-0.056998730,-14.545426369
1747301134.299711,97.885000000,0.000000000,102674.234375000,0.000000000,0.000000000,-1.635789871,-67.474723816,0.000000000,-0.056998730,-14.545426369
1747301134.302168,97.888000000,0.000000000,102674.234375000,0.000000000,0.000000000,-1.635789871,-67.474723816,0.000000000,-0.056998730,-14.545426369
