liamjosephnolan/thesis_matlab/roll_step.csv
time,/psm_joint_telemetry/header/stamp,/psm_joint_telemetry/insertion/effort,/psm_joint_telemetry/insertion/position,/psm_joint_telemetry/insertion/velocity,/psm_joint_telemetry/pitch/effort,/psm_joint_telemetry/pitch/position,/psm_joint_telemetry/pitch/velocity,roll_effort,roll_position,roll_velocity
1746523749.38745,17.827,0,60004.421875,0,0,-35.067501068,0,0,-2.999999046,-10
1746523749.3981,17.838,0,60004.421875,0,0,-35.067501068,0,0,-2.999999046,-10
1746523749.40868,17.849,0,60004.421875,0,0,-35.067501068,0,0,-2.999999046,-10
1746523749.41918,17.859,0,60004.421875,0,0,-35.067501068,0,0,-2.999999046,-10
1746523749.42965,17.87,0,60004.421875,0,0,-35.067501068,0,0,-2.999999046,-10
1746523749.4402,17.88,0,60004.421875,0,0,-35.067501068,0,0,-2.999999046,-10
1746523749.45067,17.891,0,60004.421875,0,0,-35.067501068,0,0,-2.999999046,-10
1746523749.46129,17.901,0,60004.421875,0,0,-35.067501068,0,0,-2.999999046,-10
1746523749.47185,17.912,0,60004.421875,0,0,-35.067501068,0,0,-2.999999046,-10
1746523749.4823,17.922,0,60004.421875,0,0,-35.067501068,0,0,-2.999999046,-10
1746523749.49276,17.933,0,60004.421875,0,0,-35.067501068,0,0,-2.999999046,-10
1746523749.50424,17.944,0,60004.421875,0,0,-35.067501068,0,0,-2.999999046,-10
1746523749.51513,17.955,0,60004.421875,0,0,-35.067501068,0,0,-2.999999046,-10
1746523749.5257,17.966,0,60004.421875,0,0,-35.067501068,0,0,-2.999999046,-10
1746523749.53622,17.976,0,60004.421875,0,0,-35.067501068,0,0,-2.999999046,-10
1746523749.54675,17.987,0,60004.421875,0,0,-35.067501068,0,0,-2.999999046,-10
1746523749.5579,17.998,0,60004.421875,0,0,-35.067501068,0,0,-2.999999046,-10
1746523749.56933,18.009,0,60004.421875,0,0,-35.067501068,0,0,-2.999999046,-10
1746523749.58,18.02,0,60004.421875,0,0,-35.067501068,0,0,-2.999999046,-10
1746523749.59065,18.031,0,60004.421875,0,0,-35.067501068,0,0,-2.999999046,-10
1746523749.60129,18.041,0,60004.421875,0,0,-35.067501068,0,0,-2.999999046,-10
1746523749.61245,18.052,0,60004.421875,0,0,-35.067501068,0,0,-2.999999046,-10
1746523749.62315,18.063,0,60004.421875,0,0,-35.067501068,0,0,-2.999999046,-10
1746523749.63374,18.074,0,60004.421875,0,0,-35.067501068,0,0,-2.999999046,-10
1746523749.64425,18.084,0,60004.421875,0,0,-35.067501068,0,0,-2.999999046,-10
1746523749.65493,18.095,0,60004.421875,0,0,-35.067501068,0,0,-2.999999046,-10
1746523749.66663,18.106,0,60004.421875,0,0,-35.067501068,0,0,-2.999999046,-10
1746523749.67775,18.117,0,60004.421875,0,0,-35.067501068,0,0,-2.999999046,-10
1746523749.68834,18.128,0,60004.421875,0,0,-35.067501068,0,0,-2.999999046,-10
1746523749.69899,18.139,0,60004.421875,0,0,-35.067501068,0,0,-2.999999046,-10
1746523749.7096,18.15,0,60004.421875,0,0,-35.067501068,0,0,-2.999999046,-10
1746523749.72098,18.161,0,60004.421875,0,0,-35.067501068,0,0,-2.999999046,-10
1746523749.73215,18.172,0,60004.421875,0,0,-35.067501068,0,0,-2.999999046,-10
1746523749.74275,18.183,0,60004.421875,0,0,-35.067501068,0,0,-2.999999046,-10
1746523749.75339,18.193,0,60004.421875,0,0,-35.067501068,0,0,-2.999999046,-10
1746523749.76444,18.204,0,60004.421875,0,0,-35.067501068,0,0,-2.999999046,-10
1746523749.77603,18.216,0,60004.421875,0,0,-35.067501068,0,0,-2.999999046,-10
1746523749.78718,18.227,0,60004.421875,0,0,-35.067501068,0,0,-2.999999046,-10
1746523749.79767,18.238,0,60004.421875,0,0,-35.067501068,0,0,-2.999999046,-10
1746523749.80822,18.248,0,60004.421875,0,0,-35.067501068,0,0,-2.999999046,-10
1746523749.81879,18.259,0,60004.421875,0,0,-35.067501068,0,0,-2.999999046,-10
1746523749.82939,18.269,0,60004.421875,0,0,-35.067501068,0,0,-2.999999046,-10
1746523749.83992,18.28,0,60004.421875,0,0,-35.067501068,0,0,-2.999999046,-10
1746523749.85046,18.29,0,60004.421875,0,0,-35.067501068,0,0,-2.999999046,-10
1746523749.86092,18.301,0,60004.421875,0,0,-35.067501068,0,0,-2.999999046,-10
1746523749.87145,18.311,0,60004.421875,0,0,-35.067501068,0,0,-2.999999046,-10
1746523749.88209,18.322,0,60004.421875,0,0,-35.067501068,0,0,-2.999999046,-10
1746523749.893,18.333,0,60004.421875,0,0,-35.067501068,0,0,-2.999999046,-10
1746523749.90362,18.344,0,60004.421875,0,0,-35.067501068,0,0,-2.999999046,-10
1746523749.91431,18.354,0,60004.421875,0,0,-35.067501068,0,0,-2.999999046,-10
1746523749.92492,18.365,0,60004.421875,0,0,-35.067501068,0,0,-2.999999046,-10
1746523749.93555,18.376,0,60004.421875,0,0,-35.067501068,0,0,-2.999999046,-10
1746523749.94616,18.386,0,60004.421875,0,0,-35.067501068,0,0,-2.999999046,-10
1746523749.9566,18.397,0,60004.421875,0,0,-35.067501068,0,0,-2.999999046,-10
1746523749.96701,18.407,0,60004.421875,0,0,-35.067501068,0,0,-2.999999046,-10
1746523749.97742,18.418,0,60004.421875,0,0,-35.067501068,0,0,-2.999999046,-10
1746523749.98796,18.428,0,60004.421875,0,0,-35.067501068,0,0,-2.999999046,-10
1746523749.99867,18.439,0,60004.421875,0,0,-35.067501068,0,0,-2.999999046,-10
1746523750.00925,18.449,0,60004.421875,0,0,-35.067501068,0,0,-2.999999046,-10
1746523750.01986,18.46,0,60004.421875,0,0,-35.067501068,0,0,-2.999999046,-10
1746523750.03055,18.47,0,60004.421875,0,0,-35.067501068,0,0,-2.999999046,-10
1746523750.04186,18.482,0,60004.421875,0,0,-35.067501068,0,0,-2.999999046,-10
1746523750.05246,18.492,0,60004.421875,0,0,-35.067501068,0,0,-2.999999046,-10
1746523750.06298,18.503,0,60004.421875,0,0,-35.067501068,0,0,-2.999999046,-10
1746523750.07361,18.514,0,60004.421875,0,0,-35.067501068,0,0,-2.999999046,-10
1746523750.08511,18.525,0,60004.421875,0,0,-35.067501068,0,0,-2.999999046,-10
1746523750.09627,18.536,0,60004.421875,0,0,-35.067501068,0,0,-2.999999046,-10
1746523750.1066,18.547,0,60004.421875,0,0,-35.067501068,0,0,-2.999999046,-10
1746523750.11723,18.557,0,60004.421875,0,0,-35.067501068,0,0,-2.999999046,-10
1746523750.12786,18.568,0,60004.421875,0,0,-35.067501068,0,0,-2.999999046,-10
1746523750.13845,18.578,0,60004.421875,0,0,-35.067501068,0,0,-2.999999046,-10
1746523750.14999,18.59,0,60004.421875,0,0,-35.067501068,0,0,-2.999999046,-10
1746523750.16064,18.6,0,60004.421875,0,0,-35.067501068,0,0,-2.999999046,-10
1746523750.17138,18.611,0,60004.421875,0,0,-35.067501068,0,0,-2.999999046,-10
1746523750.18218,18.622,0,60004.421875,0,0,-35.067501068,0,0,-2.999999046,-10
1746523750.19294,18.633,0,60004.421875,0,0,-35.067501068,0,0,-2.999999046,-10
1746523750.20446,18.644,0,60004.421875,0,0,-35.067501068,0,0,-2.999999046,-10
1746523750.21528,18.655,0,60004.421875,0,0,-35.067501068,0,0,-2.999999046,-10
1746523750.2258,18.666,0,60004.421875,0,0,-35.067501068,0,0,-2.999999046,-10
1746523750.23643,18.676,0,60004.421875,0,0,-35.067501068,0,0,-2.999999046,-10
1746523750.24714,18.687,0,60004.421875,0,0,-35.067501068,0,0,-2.999999046,-10
1746523750.25775,18.698,0,60004.421875,0,0,-35.067501068,0,0,-2.999999046,-10
1746523750.2683,18.708,0,60004.421875,0,0,-35.067501068,0,0,-2.999999046,-10
1746523750.27891,18.719,0,60004.421875,0,0,-35.067501068,0,0,-2.999999046,-10
1746523750.28955,18.729,0,60004.421875,0,0,-35.067501068,0,0,-2.999999046,-10
1746523750.3012,18.741,0,60004.421875,0,0,-35.067501068,0,0,-2.999999046,-10
1746523750.31185,18.752,0,60004.421875,0,0,-35.067501068,0,0,-2.999999046,-10
1746523750.32244,18.762,0,60004.421875,0,0,-35.067501068,0,0,-2.999999046,-10
1746523750.33291,18.773,0,60004.421875,0,0,-35.067501068,0,0,-2.999999046,-10
1746523750.34357,18.784,0,60004.421875,0,0,-35.067501068,0,0,-2.999999046,-10
1746523750.35417,18.794,0,60004.421875,0,0,-35.067501068,0,0,-2.991000175,-10
1746523750.36487,18.805,0,60004.421875,0,0,-35.067501068,0,0,-2.991000175,-10
1746523750.37581,18.815,0,60004.421875,0,0,-35.067501068,0,0,-2.991000175,-10
1746523750.38637,18.826,0,60004.421875,0,0,-35.067501068,0,0,-2.991000175,-10
1746523750.39691,18.837,0,60004.421875,0,0,-35.067501068,0,0,-2.991000175,-10
1746523750.40776,18.848,0,60004.421875,0,0,-35.067501068,0,0,-2.991000175,-10
1746523750.41825,18.858,0,60004.421875,0,0,-35.067501068,0,0,-2.991000175,-10
1746523750.42863,18.869,0,60004.421875,0,0,-35.067501068,0,0,-2.991000175,-10
1746523750.43917,18.879,0,60004.421875,0,0,-35.067501068,0,0,-2.991000175,-10
1746523750.44952,18.89,0,60004.421875,0,0,-35.067501068,0,0,-2.991000175,-10
1746523750.46002,18.9,0,60004.421875,0,0,-35.067501068,0,0,-2.991000175,-10
1746523750.4706,18.911,0,60004.421875,0,0,-35.067501068,0,0,-2.991000175,-10
1746523750.48119,18.921,0,60004.421875,0,0,-35.067501068,0,0,-2.991000175,-10
1746523750.49205,18.932,0,60004.421875,0,0,-35.067501068,0,0,-2.991000175,-10
1746523750.50275,18.943,0,60004.421875,0,0,-35.067501068,0,0,-2.991000175,-10
1746523750.51332,18.953,0,60004.421875,0,0,-35.067501068,0,0,-2.991000175,-10
1746523750.52372,18.964,0,60004.421875,0,0,-35.067501068,0,0,-2.991000175,-10
1746523750.53413,18.974,0,60004.421875,0,0,-35.067501068,0,0,-2.991000175,-10
1746523750.54482,18.985,0,60004.421875,0,0,-35.067501068,0,0,-2.991000175,-10
1746523750.55533,18.995,0,60004.421875,0,0,-35.067501068,0,0,-2.991000175,-10
1746523750.56579,19.006,0,60004.421875,0,0,-35.067501068,0,0,-2.991000175,-10
1746523750.57668,19.017,0,60004.421875,0,0,-35.067501068,0,0,-2.991000175,-10
1746523750.58812,19.028,0,60004.421875,0,0,-35.067501068,0,0,-2.991000175,-10
1746523750.59886,19.039,0,60004.421875,0,0,-35.067501068,0,0,-2.991000175,-10
1746523750.60953,19.049,0,60004.421875,0,0,-35.067501068,0,0,-2.991000175,-10
1746523750.62022,19.06,0,60004.421875,0,0,-35.067501068,0,0,-2.991000175,-10
1746523750.63085,19.071,0,60004.421875,0,0,-35.067501068,0,0,-2.991000175,-15
1746523750.64221,19.082,0,60004.421875,0,0,-35.067501068,0,0,-2.991000175,-15
1746523750.65272,19.093,0,60004.421875,0,0,-35.067501068,0,0,-2.982001305,-15
1746523750.6633,19.103,0,60004.421875,0,0,-35.067501068,0,0,-2.982001305,-15
1746523750.67457,19.114,0,60004.421875,0,0,-35.067501068,0,0,-2.982001305,-15
1746523750.68612,19.126,0,60004.421875,0,0,-35.067501068,0,0,-2.972999811,-15
1746523750.69725,19.137,0,60004.421875,0,0,-35.067501068,0,0,-2.972999811,-15
1746523750.70776,19.148,0,60004.421875,0,0,-35.067501068,0,0,-2.96400094,-15
1746523750.71832,19.158,0,60004.421875,0,0,-35.067501068,0,0,-2.954999447,-15
1746523750.72884,19.169,0,60004.421875,0,0,-35.067501068,0,0,-2.946000576,-15
1746523750.74035,19.18,0,60004.421875,0,0,-35.067501068,0,0,-2.936999321,-15
1746523750.75137,19.191,0,60004.421875,0,0,-35.067501068,0,0,-2.918998957,-15
1746523750.762,19.202,0,60004.421875,0,0,-35.067501068,0,0,-2.910000086,-15
1746523750.77271,19.213,0,60004.421875,0,0,-35.067501068,0,0,-2.891999722,-15
1746523750.78336,19.223,0,60004.421875,0,0,-35.067501068,0,0,-2.883000851,-15
1746523750.7946,19.234,0,60004.421875,0,0,-35.067501068,0,0,-2.865000725,-15
1746523750.80581,19.245,0,60004.421875,0,0,-35.067501068,0,0,-2.837998867,-15
1746523750.81642,19.256,0,60004.421875,0,0,-35.067501068,0,0,-2.820001125,-15
1746523750.82714,19.267,0,60004.421875,0,0,-35.067501068,0,0,-2.792999506,-15
1746523750.83774,19.278,0,60004.421875,0,0,-35.067501068,0,0,-2.766000271,-15
1746523750.84873,19.288,0,60004.421875,0,0,-35.067501068,0,0,-2.739001274,-15
1746523750.85966,19.299,0,60004.421875,0,0,-35.067501068,0,0,-2.703000546,-15
1746523750.87034,19.31,0,60004.421875,0,0,-35.067501068,0,0,-2.675998688,-15
1746523750.88096,19.321,0,60004.421875,0,0,-35.067501068,0,0,-2.64000082,-15
1746523750.89213,19.332,0,60004.421875,0,0,-35.067501068,0,0,-2.60400033,-15
1746523750.90335,19.343,0,60004.421875,0,0,-35.067501068,0,0,-2.567999601,-15
1746523750.91453,19.354,0,60004.421875,0,0,-35.067501068,0,0,-2.531999111,-15
1746523750.92506,19.365,0,60004.421875,0,0,-35.067501068,0,0,-2.496001244,-15
1746523750.93562,19.376,0,60004.421875,0,0,-35.067501068,0,0,-2.460000515,-15
1746523750.94633,19.386,0,60004.421875,0,0,-35.067501068,0,0,-2.415001154,-15
1746523750.95755,19.397,0,60004.421875,0,0,-35.067501068,0,0,-2.369998932,-15
1746523750.9686,19.408,0,60004.421875,0,0,-35.067501068,0,0,-2.334001064,-15
1746523750.97926,19.419,0,60004.421875,0,0,-35.067501068,0,0,-2.28000021,-15
1746523750.99001,19.43,0,60004.421875,0,0,-35.067501068,0,0,-2.23500061,-15
1746523751.00084,19.441,0,60004.421875,0,0,-35.067501068,0,0,-2.190001249,-15
1746523751.01202,19.452,0,60004.421875,0,0,-35.067501068,0,0,-2.136000395,-15
1746523751.02272,19.463,0,60004.421875,0,0,-35.067501068,0,0,-2.091001034,-15
1746523751.03334,19.473,0,60004.421875,0,0,-35.067501068,0,0,-2.045998812,-15
1746523751.04394,19.484,0,60004.421875,0,0,-35.067501068,0,0,-1.99200058,-15
1746523751.05465,19.495,0,60004.421875,0,0,-35.067501068,0,0,-1.947001219,-15
1746523751.06585,19.506,0,60004.421875,0,0,-35.067501068,0,0,-1.901999116,-15
1746523751.07662,19.517,0,60004.421875,0,0,-35.067501068,0,0,-1.856999636,-15
1746523751.08727,19.527,0,60004.421875,0,0,-35.067501068,0,0,-1.802998781,-15
1746523751.09791,19.538,0,60004.421875,0,0,-35.067501068,0,0,-1.75799942,-15
1746523751.10863,19.549,0,60004.421875,0,0,-35.067501068,0,0,-1.71299994,-15
1746523751.11983,19.56,0,60004.421875,0,0,-35.067501068,0,0,-1.658998966,-15
1746523751.13098,19.571,0,60004.421875,0,0,-35.067501068,0,0,-1.613999605,-15
1746523751.14165,19.582,0,60004.421875,0,0,-35.067501068,0,0,-1.559998751,-15
1746523751.15286,19.593,0,60004.421875,0,0,-35.067501068,0,0,-1.51499927,-15
1746523751.16428,19.604,0,60004.421875,0,0,-35.067501068,0,0,-1.461001039,-15
1746523751.17547,19.615,0,60004.421875,0,0,-35.067501068,0,0,-1.415998936,-15
1746523751.18632,19.626,0,60004.421875,0,0,-35.067501068,0,0,-1.370999575,-15
1746523751.19685,19.637,0,60004.421875,0,0,-35.067501068,0,0,-1.326000094,-15
1746523751.20733,19.647,0,60004.421875,0,0,-35.067501068,0,0,-1.281000614,-15
1746523751.21774,19.658,0,60004.421875,0,0,-35.067501068,0,0,-1.236001253,-15
1746523751.22826,19.668,0,60004.421875,0,0,-35.067501068,0,0,-1.200000644,-15
1746523751.23875,19.679,0,60004.421875,0,0,-35.067501068,0,0,-1.155001163,-15
1746523751.24939,19.689,0,60004.421875,0,0,-35.067501068,0,0,-1.119000673,-15
1746523751.26014,19.7,0,60004.421875,0,0,-35.067501068,0,0,-1.082999945,-15
1746523751.27086,19.711,0,60004.421875,0,0,-35.067501068,0,0,-1.038000584,-15
1746523751.28166,19.722,0,60004.421875,0,0,-35.067501068,0,0,-1.001999974,-15
1746523751.293,19.733,0,60004.421875,0,0,-35.067501068,0,0,-0.965999365,-15
1746523751.30369,19.744,0,60004.421875,0,0,-35.067501068,0,0,-0.929998755,-15
1746523751.31425,19.754,0,60004.421875,0,0,-35.067501068,0,0,-0.894000828,-15
1746523751.32496,19.765,0,60004.421875,0,0,-35.067501068,0,0,-0.86699903,-15
1746523751.3357,19.776,0,60004.421875,0,0,-35.067501068,0,0,-0.831001103,-15
1746523751.34679,19.787,0,60004.421875,0,0,-35.067501068,0,0,-0.803999305,-15
1746523751.35759,19.798,0,60004.421875,0,0,-35.067501068,0,0,-0.777000189,-15
1746523751.36836,19.808,0,60004.421875,0,0,-35.067501068,0,0,-0.750001073,-15
1746523751.37946,19.819,0,60004.421875,0,0,-35.067501068,0,0,-0.722999275,-15
1746523751.39105,19.831,0,60004.421875,0,0,-35.067501068,0,0,-0.696000159,-15
1746523751.4019,19.842,0,60004.421875,0,0,-35.067501068,0,0,-0.677999854,-15
1746523751.41243,19.852,0,60004.421875,0,0,-35.067501068,0,0,-0.651000738,-15
1746523751.4232,19.863,0,60004.421875,0,0,-35.067501068,0,0,-0.633000433,-15
1746523751.43372,19.874,0,60004.421875,0,0,-35.067501068,0,0,-0.615000129,-15
1746523751.44454,19.884,0,60004.421875,0,0,-35.067501068,0,0,-0.596999824,-15
1746523751.45535,19.895,0,60004.421875,0,0,-35.067501068,0,0,-0.578999519,-15
1746523751.46606,19.906,0,60004.421875,0,0,-35.067501068,0,0,-0.560999215,-15
1746523751.47675,19.917,0,60004.421875,0,0,-35.067501068,0,0,-0.552000403,-15
1746523751.48802,19.928,0,60004.421875,0,0,-35.067501068,0,0,-0.534000099,-15
1746523751.49875,19.939,0,60004.421875,0,0,-35.067501068,0,0,-0.525001287,-15
1746523751.50953,19.949,0,60004.421875,0,0,-35.067501068,0,0,-0.515999794,-15
1746523751.52014,19.96,0,60004.421875,0,0,-35.067501068,0,0,-0.507000983,-15
1746523751.53074,19.971,0,60004.421875,0,0,-35.067501068,0,0,-0.497999489,-15
1746523751.54163,19.981,0,60004.421875,0,0,-35.067501068,0,0,-0.489000678,-15
1746523751.55233,19.992,0,60004.421875,0,0,-35.067501068,0,0,-0.479999185,-15
1746523751.56295,20.003,0,60004.421875,0,0,-35.067501068,0,0,-0.471000373,-15
1746523751.57394,20.014,0,60004.421875,0,0,-35.067501068,0,0,-0.471000373,-15
1746523751.58454,20.025,0,60004.421875,0,0,-35.067501068,0,0,-0.46199888,-15
1746523751.59528,20.035,0,60004.421875,0,0,-35.067501068,0,0,-0.46199888,-15
1746523751.60601,20.046,0,60004.421875,0,0,-35.067501068,0,0,-0.453000069,-15
1746523751.61668,20.057,0,60004.421875,0,0,-35.067501068,0,0,-0.453000069,-15
1746523751.62737,20.067,0,60004.421875,0,0,-35.067501068,0,0,-0.444001257,-15
1746523751.63808,20.078,0,60004.421875,0,0,-35.067501068,0,0,-0.444001257,-15
1746523751.64877,20.089,0,60004.421875,0,0,-35.067501068,0,0,-0.434999764,-15
1746523751.6596,20.099,0,60004.421875,0,0,-35.067501068,0,0,-0.434999764,-15
1746523751.67028,20.11,0,60004.421875,0,0,-35.067501068,0,0,-0.434999764,-15
1746523751.68087,20.121,0,60004.421875,0,0,-35.067501068,0,0,-0.434999764,-15
1746523751.69161,20.132,0,60004.421875,0,0,-35.067501068,0,0,-0.426000953,-15
1746523751.70236,20.142,0,60004.421875,0,0,-35.067501068,0,0,-0.426000953,-15
1746523751.71327,20.153,0,60004.421875,0,0,-35.067501068,0,0,-0.426000953,-15
1746523751.72382,20.164,0,60004.421875,0,0,-35.067501068,0,0,-0.426000953,-15
1746523751.73488,20.175,0,60004.421875,0,0,-35.067501068,0,0,-0.426000953,-15
1746523751.74591,20.186,0,60004.421875,0,0,-35.067501068,0,0,-0.426000953,-15
1746523751.75651,20.196,0,60004.421875,0,0,-35.067501068,0,0,-0.426000953,-15
1746523751.76716,20.207,0,60004.421875,0,0,-35.067501068,0,0,-0.416999459,-15
1746523751.77823,20.218,0,60004.421875,0,0,-35.067501068,0,0,-0.416999459,-15
1746523751.78917,20.229,0,60004.421875,0,0,-35.067501068,0,0,-0.416999459,-15
1746523751.80061,20.24,0,60004.421875,0,0,-35.067501068,0,0,-0.416999459,-15
1746523751.8118,20.251,0,60004.421875,0,0,-35.067501068,0,0,-0.416999459,-15
1746523751.82223,20.262,0,60004.421875,0,0,-35.067501068,0,0,-0.416999459,-15
1746523751.83263,20.273,0,60004.421875,0,0,-35.067501068,0,0,-0.416999459,-15
1746523751.84311,20.283,0,60004.421875,0,0,-35.067501068,0,0,-0.416999459,-15
1746523751.85359,20.294,0,60004.421875,0,0,-35.067501068,0,0,-0.416999459,-15
1746523751.86416,20.304,0,60004.421875,0,0,-35.067501068,0,0,-0.416999459,-15
1746523751.87477,20.315,0,60004.421875,0,0,-35.067501068,0,0,-0.416999459,-15
1746523751.8853,20.325,0,60004.421875,0,0,-35.067501068,0,0,-0.416999459,-15
1746523751.89654,20.336,0,60004.421875,0,0,-35.067501068,0,0,-0.416999459,-15
1746523751.90767,20.347,0,60004.421875,0,0,-35.067501068,0,0,-0.416999459,-15
1746523751.91814,20.358,0,60004.421875,0,0,-35.067501068,0,0,-0.416999459,-15
1746523751.92853,20.369,0,60004.421875,0,0,-35.067501068,0,0,-0.416999459,-15
1746523751.93893,20.379,0,60004.421875,0,0,-35.067501068,0,0,-0.416999459,-15
1746523751.9494,20.389,0,60004.421875,0,0,-35.067501068,0,0,-0.416999459,-15
1746523751.96004,20.4,0,60004.421875,0,0,-35.067501068,0,0,-0.416999459,-15
1746523751.97076,20.411,0,60004.421875,0,0,-35.067501068,0,0,-0.416999459,-15
1746523751.98127,20.421,0,60004.421875,0,0,-35.067501068,0,0,-0.416999459,-15
1746523751.99202,20.432,0,60004.421875,0,0,-35.067501068,0,0,-0.416999459,-15
1746523752.00313,20.443,0,60004.421875,0,0,-35.067501068,0,0,-0.416999459,-15
1746523752.0137,20.454,0,60004.421875,0,0,-35.067501068,0,0,-0.416999459,-15
1746523752.0243,20.464,0,60004.421875,0,0,-35.067501068,0,0,-0.416999459,-15
1746523752.0348,20.475,0,60004.421875,0,0,-35.067501068,0,0,-0.416999459,-15
1746523752.04519,20.485,0,60004.421875,0,0,-35.067501068,0,0,-0.416999459,-15
1746523752.05559,20.496,0,60004.421875,0,0,-35.067501068,0,0,-0.416999459,-15
1746523752.06704,20.507,0,60004.421875,0,0,-35.067501068,0,0,-0.416999459,-15
1746523752.07754,20.518,0,60004.421875,0,0,-35.067501068,0,0,-0.416999459,-15
1746523752.08807,20.528,0,60004.421875,0,0,-35.067501068,0,0,-0.416999459,-15
1746523752.09861,20.539,0,60004.421875,0,0,-35.067501068,0,0,-0.416999459,-15
1746523752.10919,20.549,0,60004.421875,0,0,-35.067501068,0,0,-0.416999459,-15
1746523752.11982,20.56,0,60004.421875,0,0,-35.067501068,0,0,-0.416999459,-15
1746523752.13034,20.57,0,60004.421875,0,0,-35.067501068,0,0,-0.416999459,-15
1746523752.14095,20.581,0,60004.421875,0,0,-35.067501068,0,0,-0.416999459,-15
1746523752.15159,20.592,0,60004.421875,0,0,-35.067501068,0,0,-0.416999459,-15
1746523752.16286,20.602,0,60004.421875,0,0,-35.067501068,0,0,-0.416999459,-15
1746523752.17433,20.614,0,60004.421875,0,0,-35.067501068,0,0,-0.416999459,-15
1746523752.18505,20.625,0,60004.421875,0,0,-35.067501068,0,0,-0.416999459,-15
1746523752.19548,20.636,0,60004.421875,0,0,-35.067501068,0,0,-0.416999459,-15
1746523752.20648,20.646,0,60004.421875,0,0,-35.067501068,0,0,-0.416999459,-15
1746523752.2171,20.657,0,60004.421875,0,0,-35.067501068,0,0,-0.416999459,-15
1746523752.22795,20.668,0,60004.421875,0,0,-35.067501068,0,0,-0.416999459,-15
1746523752.23834,20.678,0,60004.421875,0,0,-35.067501068,0,0,-0.416999459,-15
1746523752.24875,20.689,0,60004.421875,0,0,-35.067501068,0,0,-0.416999459,-15
1746523752.25976,20.7,0,60004.421875,0,0,-35.067501068,0,0,-0.416999459,-15
1746523752.27027,20.71,0,60004.421875,0,0,-35.067501068,0,0,-0.416999459,-15
1746523752.28076,20.721,0,60004.421875,0,0,-35.067501068,0,0,-0.416999459,-15
1746523752.29262,20.732,0,60004.421875,0,0,-35.067501068,0,0,-0.416999459,-15
1746523752.30328,20.743,0,60004.421875,0,0,-35.067501068,0,0,-0.416999459,-15
1746523752.31413,20.754,0,60004.421875,0,0,-35.067501068,0,0,-0.416999459,-15
1746523752.32524,20.765,0,60004.421875,0,0,-35.067501068,0,0,-0.416999459,-15
1746523752.33598,20.776,0,60004.421875,0,0,-35.067501068,0,0,-0.416999459,-15
1746523752.34697,20.787,0,60004.421875,0,0,-35.067501068,0,0,-0.416999459,-15
1746523752.35744,20.797,0,60004.421875,0,0,-35.067501068,0,0,-0.416999459,-15
1746523752.36805,20.808,0,60004.421875,0,0,-35.067501068,0,0,-0.416999459,-15
1746523752.37907,20.819,0,60004.421875,0,0,-35.067501068,0,0,-0.416999459,-15
1746523752.39063,20.83,0,60004.421875,0,0,-35.067501068,0,0,-0.416999459,-15
1746523752.40174,20.841,0,60004.421875,0,0,-35.067501068,0,0,-0.416999459,-15
1746523752.41223,20.852,0,60004.421875,0,0,-35.067501068,0,0,-0.416999459,-15
1746523752.42279,20.863,0,60004.421875,0,0,-35.067501068,0,0,-0.416999459,-15
1746523752.43322,20.873,0,60004.421875,0,0,-35.067501068,0,0,-0.416999459,-15
1746523752.44374,20.884,0,60004.421875,0,0,-35.067501068,0,0,-0.416999459,-15
1746523752.45437,20.894,0,60004.421875,0,0,-35.067501068,0,0,-0.416999459,-15
1746523752.46482,20.905,0,60004.421875,0,0,-35.067501068,0,0,-0.416999459,-15
1746523752.47524,20.915,0,60004.421875,0,0,-35.067501068,0,0,-0.416999459,-15
1746523752.48571,20.926,0,60004.421875,0,0,-35.067501068,0,0,-0.416999459,-15
1746523752.49617,20.936,0,60004.421875,0,0,-35.067501068,0,0,-0.416999459,-15
1746523752.50676,20.947,0,60004.421875,0,0,-35.067501068,0,0,-0.416999459,-15
1746523752.51737,20.957,0,60004.421875,0,0,-35.067501068,0,0,-0.416999459,-15
1746523752.52791,20.968,0,60004.421875,0,0,-35.067501068,0,0,-0.416999459,-15
1746523752.53846,20.978,0,60004.421875,0,0,-35.067501068,0,0,-0.416999459,-15
1746523752.54993,20.99,0,60004.421875,0,0,-35.067501068,0,0,-0.416999459,-15
1746523752.56081,21.001,0,60004.421875,0,0,-35.067501068,0,0,-0.416999459,-15
1746523752.57149,21.011,0,60004.421875,0,0,-35.067501068,0,0,-0.416999459,-15
1746523752.58235,21.022,0,60004.421875,0,0,-35.067501068,0,0,-0.416999459,-15
1746523752.59368,21.033,0,60004.421875,0,0,-35.067501068,0,0,-0.416999459,-15
1746523752.60488,21.044,0,60004.421875,0,0,-35.067501068,0,0,-0.416999459,-15
1746523752.61569,21.056,0,60004.421875,0,0,-35.067501068,0,0,-0.416999459,-15
1746523752.62643,21.066,0,60004.421875,0,0,-35.067501068,0,0,-0.416999459,-15
1746523752.63698,21.077,0,60004.421875,0,0,-35.067501068,0,0,-0.416999459,-15
1746523752.64746,21.088,0,60004.421875,0,0,-35.067501068,0,0,-0.416999459,-15
1746523752.65806,21.098,0,60004.421875,0,0,-35.067501068,0,0,-0.416999459,-15
1746523752.6688,21.109,0,60004.421875,0,0,-35.067501068,0,0,-0.416999459,-15
1746523752.67947,21.119,0,60004.421875,0,0,-35.067501068,0,0,-0.416999459,-15
1746523752.69014,21.13,0,60004.421875,0,0,-35.067501068,0,0,-0.416999459,-15
1746523752.701,21.141,0,60004.421875,0,0,-35.067501068,0,0,-0.416999459,-15
1746523752.71178,21.152,0,60004.421875,0,0,-35.067501068,0,0,-0.416999459,-15
1746523752.72227,21.162,0,60004.421875,0,0,-35.067501068,0,0,-0.416999459,-15
1746523752.73286,21.173,0,60004.421875,0,0,-35.067501068,0,0,-0.416999459,-15
1746523752.7436,21.184,0,60004.421875,0,0,-35.067501068,0,0,-0.416999459,-15
1746523752.75414,21.194,0,60004.421875,0,0,-35.067501068,0,0,-0.416999459,-15
1746523752.76466,21.205,0,60004.421875,0,0,-35.067501068,0,0,-0.416999459,-15
1746523752.77514,21.215,0,60004.421875,0,0,-35.067501068,0,0,-0.416999459,-15
1746523752.78563,21.226,0,60004.421875,0,0,-35.067501068,0,0,-0.416999459,-15
1746523752.79622,21.236,0,60004.421875,0,0,-35.067501068,0,0,-0.416999459,-15
1746523752.80695,21.247,0,60004.421875,0,0,-35.067501068,0,0,-0.416999459,-15
1746523752.81743,21.257,0,60004.421875,0,0,-35.067501068,0,0,-0.416999459,-15
1746523752.82805,21.268,0,60004.421875,0,0,-35.067501068,0,0,-0.416999459,-15
1746523752.83863,21.279,0,60004.421875,0,0,-35.067501068,0,0,-0.416999459,-15
1746523752.84925,21.289,0,60004.421875,0,0,-35.067501068,0,0,-0.416999459,-15
1746523752.85991,21.3,0,60004.421875,0,0,-35.067501068,0,0,-0.416999459,-15
1746523752.87055,21.311,0,60004.421875,0,0,-35.067501068,0,0,-0.416999459,-15
1746523752.88117,21.321,0,60004.421875,0,0,-35.067501068,0,0,-0.416999459,-15
1746523752.8917,21.332,0,60004.421875,0,0,-35.067501068,0,0,-0.416999459,-15
1746523752.90243,21.342,0,60004.421875,0,0,-35.067501068,0,0,-0.416999459,-15
1746523752.91313,21.353,0,60004.421875,0,0,-35.067501068,0,0,-0.416999459,-15
1746523752.92379,21.364,0,60004.421875,0,0,-35.067501068,0,0,-0.416999459,-15
1746523752.9344,21.374,0,60004.421875,0,0,-35.067501068,0,0,-0.416999459,-15
1746523752.94509,21.385,0,60004.421875,0,0,-35.067501068,0,0,-0.416999459,-15
1746523752.95574,21.396,0,60004.421875,0,0,-35.067501068,0,0,-0.416999459,-15
1746523752.96632,21.406,0,60004.421875,0,0,-35.067501068,0,0,-0.416999459,-15
1746523752.97692,21.417,0,60004.421875,0,0,-35.067501068,0,0,-0.416999459,-15
1746523752.98817,21.428,0,60004.421875,0,0,-35.067501068,0,0,-0.416999459,-15
1746523752.99886,21.439,0,60004.421875,0,0,-35.067501068,0,0,-0.416999459,-15
1746523753.00971,21.45,0,60004.421875,0,0,-35.067501068,0,0,-0.416999459,-15
1746523753.02032,21.46,0,60004.421875,0,0,-35.067501068,0,0,-0.416999459,-15
1746523753.03084,21.471,0,60004.421875,0,0,-35.067501068,0,0,-0.416999459,-15
1746523753.04158,21.481,0,60004.421875,0,0,-35.067501068,0,0,-0.416999459,-15
1746523753.05221,21.492,0,60004.421875,0,0,-35.067501068,0,0,-0.416999459,-15
1746523753.06279,21.503,0,60004.421875,0,0,-35.067501068,0,0,-0.416999459,-15
1746523753.07338,21.513,0,60004.421875,0,0,-35.067501068,0,0,-0.416999459,-15
1746523753.08411,21.524,0,60004.421875,0,0,-35.067501068,0,0,-0.416999459,-15
1746523753.0946,21.535,0,60004.421875,0,0,-35.067501068,0,0,-0.416999459,-15
1746523753.10518,21.545,0,60004.421875,0,0,-35.067501068,0,0,-0.416999459,-15
1746523753.11581,21.556,0,60004.421875,0,0,-35.067501068,0,0,-0.416999459,-15
1746523753.12651,21.566,0,60004.421875,0,0,-35.067501068,0,0,-0.416999459,-15
1746523753.13727,21.577,0,60004.421875,0,0,-35.067501068,0,0,-0.416999459,-15
1746523753.14784,21.588,0,60004.421875,0,0,-35.067501068,0,0,-0.416999459,-15
1746523753.15829,21.598,0,60004.421875,0,0,-35.067501068,0,0,-0.416999459,-15
1746523753.16888,21.609,0,60004.421875,0,0,-35.067501068,0,0,-0.416999459,-15
1746523753.17943,21.619,0,60004.421875,0,0,-35.067501068,0,0,-0.416999459,-15
1746523753.19004,21.63,0,60004.421875,0,0,-35.067501068,0,0,-0.416999459,-15
1746523753.20059,21.641,0,60004.421875,0,0,-35.067501068,0,0,-0.416999459,-15
1746523753.21197,21.652,0,60004.421875,0,0,-35.067501068,0,0,-0.416999459,-15
1746523753.22307,21.663,0,60004.421875,0,0,-35.067501068,0,0,-0.416999459,-15
1746523753.23393,21.674,0,60004.421875,0,0,-35.067501068,0,0,-0.416999459,-15
1746523753.24455,21.684,0,60004.421875,0,0,-35.067501068,0,0,-0.416999459,-15
1746523753.25531,21.695,0,60004.421875,0,0,-35.067501068,0,0,-0.416999459,-15
1746523753.26598,21.706,0,60004.421875,0,0,-35.067501068,0,0,-0.416999459,-15
1746523753.27727,21.717,0,60004.421875,0,0,-35.067501068,0,0,-0.416999459,-15
1746523753.28848,21.728,0,60004.421875,0,0,-35.067501068,0,0,-0.416999459,-15
1746523753.29949,21.739,0,60004.421875,0,0,-35.067501068,0,0,-0.416999459,-15
1746523753.31016,21.75,0,60004.421875,0,0,-35.067501068,0,0,-0.416999459,-15
1746523753.32075,21.761,0,60004.421875,0,0,-35.067501068,0,0,-0.416999459,-15
1746523753.33139,21.771,0,60004.421875,0,0,-35.067501068,0,0,-0.416999459,-15
1746523753.34215,21.782,0,60004.421875,0,0,-35.067501068,0,0,-0.416999459,-15
1746523753.35287,21.793,0,60004.421875,0,0,-35.067501068,0,0,-0.416999459,-15
1746523753.36348,21.803,0,60004.421875,0,0,-35.067501068,0,0,-0.416999459,-15
1746523753.37436,21.814,0,60004.421875,0,0,-35.067501068,0,0,-0.416999459,-15
1746523753.38546,21.825,0,60004.421875,0,0,-35.067501068,0,0,-0.416999459,-15
1746523753.39661,21.836,0,60004.421875,0,0,-35.067501068,0,0,-0.416999459,-15
1746523753.40741,21.847,0,60004.421875,0,0,-35.067501068,0,0,-0.416999459,-15
1746523753.41797,21.858,0,60004.421875,0,0,-35.067501068,0,0,-0.416999459,-15
1746523753.4285,21.868,0,60004.421875,0,0,-35.067501068,0,0,-0.416999459,-15
1746523753.43906,21.879,0,60004.421875,0,0,-35.067501068,0,0,-0.416999459,-15
1746523753.44968,21.89,0,60004.421875,0,0,-35.067501068,0,0,-0.416999459,-15
1746523753.46038,21.9,0,60004.421875,0,0,-35.067501068,0,0,-0.416999459,-15
1746523753.47102,21.911,0,60004.421875,0,0,-35.067501068,0,0,-0.416999459,-15
1746523753.48165,21.922,0,60004.421875,0,0,-35.067501068,0,0,-0.416999459,-15
1746523753.49232,21.932,0,60004.421875,0,0,-35.067501068,0,0,-0.416999459,-15
1746523753.50302,21.943,0,60004.421875,0,0,-35.067501068,0,0,-0.416999459,-15
1746523753.51365,21.954,0,60004.421875,0,0,-35.067501068,0,0,-0.416999459,-15
1746523753.52432,21.964,0,60004.421875,0,0,-35.067501068,0,0,-0.416999459,-15
1746523753.53489,21.975,0,60004.421875,0,0,-35.067501068,0,0,-0.416999459,-15
