liamjosephnolan/thesis_matlab/roll_prbs_response/prbs_roll_m20_pitch_m20.csv
__time,/psm_joint_telemetry/header/stamp,/psm_joint_telemetry/insertion/effort,/psm_joint_telemetry/insertion/position,/psm_joint_telemetry/insertion/velocity,/psm_joint_telemetry/pitch/effort,/psm_joint_telemetry/pitch/position,/psm_joint_telemetry/pitch/velocity,/psm_joint_telemetry/roll/effort,/psm_joint_telemetry/roll/position,/psm_joint_telemetry/roll/velocity
1747398433.593456,45.514000000,0.000000000,0.000000000,0.000000000,0.000000000,-20.468761444,-105.571563721,0.000000000,-19.965000153,16.049995422
1747398433.595974,45.516000000,0.000000000,0.000000000,0.000000000,0.000000000,-20.468761444,-105.571731567,0.000000000,-19.965000153,16.049995422
1747398433.598425,45.519000000,0.000000000,0.000000000,0.000000000,0.000000000,-20.468761444,-105.571899414,0.000000000,-19.965000153,16.049995422
1747398433.600904,45.521000000,0.000000000,0.000000000,0.000000000,0.000000000,-20.468761444,-105.572052002,0.000000000,-19.965000153,16.049995422
1747398433.603427,45.524000000,0.000000000,0.000000000,0.000000000,0.000000000,-20.468761444,-105.572219849,0.000000000,-19.965000153,16.049995422
1747398433.605882,45.526000000,0.000000000,0.000000000,0.000000000,0.000000000,-20.468761444,-105.572387695,0.000000000,-19.965000153,16.049995422
1747398433.608390,45.529000000,0.000000000,0.000000000,0.000000000,0.000000000,-20.468761444,-105.572555542,0.000000000,-19.965000153,16.049995422
1747398433.610829,45.531000000,0.000000000,0.000000000,0.000000000,0.000000000,-20.468761444,-105.572723389,0.000000000,-19.965000153,16.049995422
1747398433.613201,45.534000000,0.000000000,0.000000000,0.000000000,0.000000000,-20.468761444,-105.572875977,0.000000000,-19.965000153,16.049995422
1747398433.615686,45.536000000,0.000000000,0.000000000,0.000000000,0.000000000,-20.468761444,-105.573028564,0.000000000,-19.965000153,16.049995422
1747398433.618174,45.538000000,0.000000000,0.000000000,0.000000000,0.000000000,-20.468761444,-105.573196411,0.000000000,-19.965000153,16.049995422
1747398433.620579,45.541000000,0.000000000,0.000000000,0.000000000,0.000000000,-20.468761444,-105.573364258,0.000000000,-19.965000153,16.049995422
1747398433.622961,45.543000000,0.000000000,0.000000000,0.000000000,0.000000000,-20.468761444,-105.573532104,0.000000000,-19.965000153,16.049995422
1747398433.625499,45.546000000,0.000000000,0.000000000,0.000000000,0.000000000,-20.468761444,-105.573684692,0.000000000,-19.965000153,16.049995422
1747398433.627799,45.548000000,0.000000000,0.000000000,0.000000000,0.000000000,-20.468761444,-105.573852539,0.000000000,-19.965000153,16.049995422
1747398433.630214,45.550000000,0.000000000,0.000000000,0.000000000,0.000000000,-20.468761444,-105.574005127,0.000000000,-19.965000153,16.049995422
1747398433.632492,45.553000000,0.000000000,0.000000000,0.000000000,0.000000000,-20.468761444,-105.574157715,0.000000000,-19.965000153,16.049995422
1747398433.634849,45.555000000,0.000000000,0.000000000,0.000000000,0.000000000,-20.468761444,-105.574310303,0.000000000,-19.965000153,16.049995422
1747398433.637180,45.558000000,0.000000000,0.000000000,0.000000000,0.000000000,-20.468761444,-105.574478149,0.000000000,-19.965000153,16.049995422
1747398433.639533,45.560000000,0.000000000,0.000000000,0.000000000,0.000000000,-20.468761444,-105.574630737,0.000000000,-19.965000153,16.049995422
1747398433.641920,45.562000000,0.000000000,0.000000000,0.000000000,0.000000000,-20.468761444,-105.574783325,0.000000000,-19.965000153,16.049995422
1747398433.644296,45.565000000,0.000000000,0.000000000,0.000000000,0.000000000,-20.468761444,-105.574935913,0.000000000,-19.965000153,16.049995422
1747398433.646657,45.567000000,0.000000000,0.000000000,0.000000000,0.000000000,-20.468761444,-105.575103760,0.000000000,-19.965000153,16.049995422
1747398433.649021,45.569000000,0.000000000,0.000000000,0.000000000,0.000000000,-20.468761444,-105.575256348,0.000000000,-19.965000153,16.049995422
1747398433.651370,45.572000000,0.000000000,0.000000000,0.000000000,0.000000000,-20.468761444,-105.575408936,0.000000000,-19.965000153,16.049995422
1747398433.653760,45.574000000,0.000000000,0.000000000,0.000000000,0.000000000,-20.468761444,-105.575561523,0.000000000,-19.965000153,16.049995422
1747398433.656136,45.576000000,0.000000000,0.000000000,0.000000000,0.000000000,-20.468761444,-105.575729370,0.000000000,-19.965000153,16.049995422
1747398433.658525,45.579000000,0.000000000,0.000000000,0.000000000,0.000000000,-20.468761444,-105.575881958,0.000000000,-19.965000153,16.049995422
1747398433.660847,45.581000000,0.000000000,0.000000000,0.000000000,0.000000000,-20.468761444,-105.576034546,0.000000000,-19.965000153,16.049995422
1747398433.663184,45.584000000,0.000000000,0.000000000,0.000000000,0.000000000,-20.468761444,-105.576187134,0.000000000,-19.965000153,16.049995422
1747398433.665550,45.586000000,0.000000000,0.000000000,0.000000000,0.000000000,-20.468761444,-105.576354980,0.000000000,-19.965000153,16.049995422
1747398433.667917,45.588000000,0.000000000,0.000000000,0.000000000,0.000000000,-20.468761444,-105.576507568,0.000000000,-19.965000153,16.049995422
1747398433.670303,45.591000000,0.000000000,0.000000000,0.000000000,0.000000000,-20.468761444,-105.576660156,0.000000000,-19.965000153,16.049995422
1747398433.672687,45.593000000,0.000000000,0.000000000,0.000000000,0.000000000,-20.468761444,-105.576828003,0.000000000,-19.965000153,16.049995422
1747398433.675195,45.595000000,0.000000000,0.000000000,0.000000000,0.000000000,-20.468761444,-105.576980591,0.000000000,-19.965000153,16.049995422
1747398433.677562,45.598000000,0.000000000,0.000000000,0.000000000,0.000000000,-20.468761444,-105.577148438,0.000000000,-19.965000153,16.049995422
1747398433.679918,45.600000000,0.000000000,0.000000000,0.000000000,0.000000000,-20.468761444,-105.577301025,0.000000000,-19.965000153,16.049995422
1747398433.682288,45.603000000,0.000000000,0.000000000,0.000000000,0.000000000,-20.468761444,-105.577453613,0.000000000,-19.965000153,16.049995422
1747398433.684658,45.605000000,0.000000000,0.000000000,0.000000000,0.000000000,-20.468761444,-105.577621460,0.000000000,-19.965000153,16.049995422
1747398433.687032,45.607000000,0.000000000,0.000000000,0.000000000,0.000000000,-20.468761444,-105.577774048,0.000000000,-19.965000153,16.049995422
1747398433.689412,45.610000000,0.000000000,0.000000000,0.000000000,0.000000000,-20.468761444,-105.577926636,0.000000000,-19.965000153,16.049995422
1747398433.691808,45.612000000,0.000000000,0.000000000,0.000000000,0.000000000,-20.468761444,-105.578094482,0.000000000,-19.965000153,16.049995422
1747398433.694174,45.614000000,0.000000000,0.000000000,0.000000000,0.000000000,-20.468761444,-105.578247070,0.000000000,-19.965000153,16.049995422
1747398433.696536,45.617000000,0.000000000,0.000000000,0.000000000,0.000000000,-20.468761444,-105.578399658,0.000000000,-19.965000153,16.049995422
1747398433.698924,45.619000000,0.000000000,0.000000000,0.000000000,0.000000000,-20.468761444,-105.578552246,0.000000000,-19.965000153,16.049995422
1747398433.701345,45.622000000,0.000000000,0.000000000,0.000000000,0.000000000,-20.468761444,-105.578720093,0.000000000,-19.965000153,16.049995422
1747398433.703768,45.624000000,0.000000000,0.000000000,0.000000000,0.000000000,-20.468761444,-105.578887939,0.000000000,-19.965000153,16.049995422
1747398433.706182,45.627000000,0.000000000,0.000000000,0.000000000,0.000000000,-20.468761444,-105.579040527,0.000000000,-19.965000153,16.049995422
1747398433.708653,45.629000000,0.000000000,0.000000000,0.000000000,0.000000000,-20.468761444,-105.579193115,0.000000000,-19.965000153,16.049995422
1747398433.710973,45.631000000,0.000000000,0.000000000,0.000000000,0.000000000,-20.468761444,-105.579360962,0.000000000,-19.965000153,16.049995422
1747398433.713281,45.634000000,0.000000000,0.000000000,0.000000000,0.000000000,-20.468761444,-105.579513550,0.000000000,-19.965000153,16.049995422
1747398433.715657,45.636000000,0.000000000,0.000000000,0.000000000,0.000000000,-20.468761444,-105.579666138,0.000000000,-19.965000153,16.049995422
1747398433.718022,45.638000000,0.000000000,0.000000000,0.000000000,0.000000000,-20.468761444,-105.579818726,0.000000000,-19.965000153,16.049995422
1747398433.720468,45.641000000,0.000000000,0.000000000,0.000000000,0.000000000,-20.468761444,-105.579986572,0.000000000,-19.965000153,16.049995422
1747398433.722826,45.643000000,0.000000000,0.000000000,0.000000000,0.000000000,-20.468761444,-105.580139160,0.000000000,-19.965000153,16.049995422
1747398433.725229,45.645000000,0.000000000,0.000000000,0.000000000,0.000000000,-20.468761444,-105.580291748,0.000000000,-19.973999023,15.780029297
1747398433.727610,45.648000000,0.000000000,0.000000000,0.000000000,0.000000000,-20.468761444,-105.580459595,0.000000000,-19.973999023,15.780029297
1747398433.730017,45.650000000,0.000000000,0.000000000,0.000000000,0.000000000,-20.468761444,-105.580612183,0.000000000,-19.973999023,15.780029297
1747398433.732395,45.653000000,0.000000000,0.000000000,0.000000000,0.000000000,-20.468761444,-105.580780029,0.000000000,-19.973999023,15.780029297
1747398433.734757,45.655000000,0.000000000,0.000000000,0.000000000,0.000000000,-20.468761444,-105.580932617,0.000000000,-19.973999023,15.780029297
1747398433.737155,45.657000000,0.000000000,0.000000000,0.000000000,0.000000000,-20.468761444,-105.581085205,0.000000000,-19.973999023,15.780029297
1747398433.739536,45.660000000,0.000000000,0.000000000,0.000000000,0.000000000,-20.468761444,-105.581253052,0.000000000,-19.973999023,15.780029297
1747398433.741902,45.662000000,0.000000000,0.000000000,0.000000000,0.000000000,-20.468761444,-105.581405640,0.000000000,-19.973999023,15.780029297
1747398433.744282,45.665000000,0.000000000,0.000000000,0.000000000,0.000000000,-20.468761444,-105.581558228,0.000000000,-19.973999023,15.780029297
1747398433.746650,45.667000000,0.000000000,0.000000000,0.000000000,0.000000000,-20.468761444,-105.581726074,0.000000000,-19.973999023,15.780029297
1747398433.749051,45.669000000,0.000000000,0.000000000,0.000000000,0.000000000,-20.468761444,-105.581878662,0.000000000,-19.973999023,15.780029297
1747398433.751463,45.672000000,0.000000000,0.000000000,0.000000000,0.000000000,-20.468761444,-105.582046509,0.000000000,-19.973999023,15.780029297
1747398433.753914,45.674000000,0.000000000,0.000000000,0.000000000,0.000000000,-20.468761444,-105.582199097,0.000000000,-19.973999023,15.780029297
1747398433.756413,45.677000000,0.000000000,0.000000000,0.000000000,0.000000000,-20.468761444,-105.582366943,0.000000000,-19.973999023,15.780029297
1747398433.758892,45.679000000,0.000000000,0.000000000,0.000000000,0.000000000,-20.468761444,-105.582519531,0.000000000,-19.973999023,15.780029297
1747398433.761389,45.682000000,0.000000000,0.000000000,0.000000000,0.000000000,-20.468761444,-105.582687378,0.000000000,-19.973999023,15.780029297
1747398433.763742,45.684000000,0.000000000,0.000000000,0.000000000,0.000000000,-20.468761444,-105.582855225,0.000000000,-19.973999023,15.780029297
1747398433.766138,45.686000000,0.000000000,0.000000000,0.000000000,0.000000000,-20.468761444,-105.583007813,0.000000000,-19.973999023,15.780029297
1747398433.768565,45.689000000,0.000000000,0.000000000,0.000000000,0.000000000,-20.468761444,-105.583175659,0.000000000,-19.965000153,16.049995422
1747398433.770941,45.691000000,0.000000000,0.000000000,0.000000000,0.000000000,-20.468761444,-105.583328247,0.000000000,-19.965000153,16.049995422
1747398433.773331,45.694000000,0.000000000,0.000000000,0.000000000,0.000000000,-20.468761444,-105.583496094,0.000000000,-19.965000153,16.049995422
1747398433.775769,45.696000000,0.000000000,0.000000000,0.000000000,0.000000000,-20.468761444,-105.583648682,0.000000000,-19.965000153,16.049995422
1747398433.778212,45.698000000,0.000000000,0.000000000,0.000000000,0.000000000,-20.468761444,-105.583816528,0.000000000,-19.965000153,16.049995422
1747398433.780646,45.701000000,0.000000000,0.000000000,0.000000000,0.000000000,-20.468761444,-105.583969116,0.000000000,-19.965000153,16.049995422
1747398433.783201,45.703000000,0.000000000,0.000000000,0.000000000,0.000000000,-20.468761444,-105.584136963,0.000000000,-19.965000153,16.049995422
1747398433.785635,45.706000000,0.000000000,0.000000000,0.000000000,0.000000000,-20.468761444,-105.584304810,0.000000000,-19.965000153,16.049995422
1747398433.788149,45.708000000,0.000000000,0.000000000,0.000000000,0.000000000,-20.468761444,-105.584457397,0.000000000,-19.965000153,16.049995422
1747398433.790633,45.711000000,0.000000000,0.000000000,0.000000000,0.000000000,-20.468761444,-105.584625244,0.000000000,-19.965000153,16.049995422
1747398433.793161,45.713000000,0.000000000,0.000000000,0.000000000,0.000000000,-20.468761444,-105.584793091,0.000000000,-19.965000153,16.049995422
1747398433.795681,45.716000000,0.000000000,0.000000000,0.000000000,0.000000000,-20.468761444,-105.584960938,0.000000000,-19.965000153,16.049995422
1747398433.798134,45.718000000,0.000000000,0.000000000,0.000000000,0.000000000,-20.468761444,-105.585128784,0.000000000,-19.965000153,16.049995422
1747398433.800547,45.721000000,0.000000000,0.000000000,0.000000000,0.000000000,-20.468761444,-105.585281372,0.000000000,-19.965000153,-13.950004578
1747398433.802974,45.723000000,0.000000000,0.000000000,0.000000000,0.000000000,-20.468761444,-105.585449219,0.000000000,-19.955999374,-13.679981232
1747398433.805449,45.726000000,0.000000000,0.000000000,0.000000000,0.000000000,-20.468761444,-105.585617065,0.000000000,-19.937999725,-13.139991760
1747398433.807930,45.728000000,0.000000000,0.000000000,0.000000000,0.000000000,-20.468761444,-105.585769653,0.000000000,-19.937999725,-13.139991760
1747398433.810419,45.731000000,0.000000000,0.000000000,0.000000000,0.000000000,-20.468761444,-105.585937500,0.000000000,-19.937999725,-13.139991760
1747398433.812829,45.733000000,0.000000000,0.000000000,0.000000000,0.000000000,-20.468761444,-105.586105347,0.000000000,-19.937999725,-13.139991760
1747398433.815286,45.736000000,0.000000000,0.000000000,0.000000000,0.000000000,-20.468761444,-105.586273193,0.000000000,-19.928998947,-12.869968414
1747398433.817714,45.738000000,0.000000000,0.000000000,0.000000000,0.000000000,-20.468761444,-105.586425781,0.000000000,-19.920000076,-12.600002289
1747398433.820217,45.740000000,0.000000000,0.000000000,0.000000000,0.000000000,-20.468761444,-105.586593628,0.000000000,-19.910999298,-12.329978943
1747398433.822670,45.743000000,0.000000000,0.000000000,0.000000000,0.000000000,-20.468761444,-105.586761475,0.000000000,-19.910999298,-12.329978943
1747398433.825241,45.745000000,0.000000000,0.000000000,0.000000000,0.000000000,-20.468761444,-105.586914063,0.000000000,-19.902000427,-12.060012817
1747398433.827700,45.748000000,0.000000000,0.000000000,0.000000000,0.000000000,-20.468761444,-105.587081909,0.000000000,-19.892999649,-11.789989471
1747398433.830140,45.750000000,0.000000000,0.000000000,0.000000000,0.000000000,-20.468761444,-105.587249756,0.000000000,-19.883998871,-11.519966125
1747398433.832585,45.753000000,0.000000000,0.000000000,0.000000000,0.000000000,-20.468761444,-105.587417603,0.000000000,-19.875000000,-11.250000000
1747398433.835127,45.755000000,0.000000000,0.000000000,0.000000000,0.000000000,-20.468761444,-105.587570190,0.000000000,-19.865999222,-10.979976654
1747398433.837502,45.758000000,0.000000000,0.000000000,0.000000000,0.000000000,-20.468761444,-105.587738037,0.000000000,-19.857000351,-10.710010529
1747398433.839964,45.760000000,0.000000000,0.000000000,0.000000000,0.000000000,-20.468761444,-105.587905884,0.000000000,-19.847999573,-10.439987183
1747398433.842498,45.763000000,0.000000000,0.000000000,0.000000000,0.000000000,-20.468761444,-105.588058472,0.000000000,-19.839000702,-10.170021057
1747398433.844978,45.765000000,0.000000000,0.000000000,0.000000000,0.000000000,-20.468761444,-105.588226318,0.000000000,-19.829999924,-9.899997711
1747398433.847377,45.768000000,0.000000000,0.000000000,0.000000000,0.000000000,-20.468761444,-105.588394165,0.000000000,-19.820999146,-9.629974365
1747398433.849834,45.770000000,0.000000000,0.000000000,0.000000000,0.000000000,-20.468761444,-105.588546753,0.000000000,-19.820999146,-9.629974365
1747398433.852236,45.772000000,0.000000000,0.000000000,0.000000000,0.000000000,-20.468761444,-105.588714600,0.000000000,-19.812000275,-9.360008240
1747398433.854628,45.775000000,0.000000000,0.000000000,0.000000000,0.000000000,-20.468761444,-105.588882446,0.000000000,-19.802999496,-9.089984894
1747398433.857077,45.777000000,0.000000000,0.000000000,0.000000000,0.000000000,-20.468761444,-105.589035034,0.000000000,-19.794000626,-8.820018768
1747398433.859478,45.780000000,0.000000000,0.000000000,0.000000000,0.000000000,-20.468761444,-105.589202881,0.000000000,-19.784999847,-8.549995422
1747398433.861888,45.782000000,0.000000000,0.000000000,0.000000000,0.000000000,-20.468761444,-105.589355469,0.000000000,-19.775999069,-8.279972076
1747398433.864322,45.785000000,0.000000000,0.000000000,0.000000000,0.000000000,-20.468761444,-105.589523315,0.000000000,-19.767000198,-8.010005951
1747398433.866778,45.787000000,0.000000000,0.000000000,0.000000000,0.000000000,-20.468761444,-105.589675903,0.000000000,-19.757999420,-7.739982605
1747398433.869255,45.790000000,0.000000000,0.000000000,0.000000000,0.000000000,-20.468761444,-105.589843750,0.000000000,-19.749000549,-7.470016479
1747398433.871754,45.792000000,0.000000000,0.000000000,0.000000000,0.000000000,-20.468761444,-105.590011597,0.000000000,-19.739999771,22.800006866
1747398433.874225,45.795000000,0.000000000,0.000000000,0.000000000,0.000000000,-20.468761444,-105.590179443,0.000000000,-19.749000549,22.529983521
1747398433.876684,45.797000000,0.000000000,0.000000000,0.000000000,0.000000000,-20.468761444,-105.590347290,0.000000000,-19.749000549,22.529983521
1747398433.879165,45.799000000,0.000000000,0.000000000,0.000000000,0.000000000,-20.468761444,-105.590499878,0.000000000,-19.739999771,22.800006866
1747398433.881670,45.802000000,0.000000000,0.000000000,0.000000000,0.000000000,-20.468761444,-105.590667725,0.000000000,-19.730998993,23.070030212
1747398433.884130,45.804000000,0.000000000,0.000000000,0.000000000,0.000000000,-20.468761444,-105.590835571,0.000000000,-19.730998993,23.070030212
1747398433.886501,45.807000000,0.000000000,0.000000000,0.000000000,0.000000000,-20.468761444,-105.590988159,0.000000000,-19.730998993,23.070030212
1747398433.888879,45.809000000,0.000000000,0.000000000,0.000000000,0.000000000,-20.468761444,-105.591156006,0.000000000,-19.722000122,23.339996338
1747398433.891267,45.812000000,0.000000000,0.000000000,0.000000000,0.000000000,-20.468761444,-105.591308594,0.000000000,-19.722000122,23.339996338
1747398433.893676,45.814000000,0.000000000,0.000000000,0.000000000,0.000000000,-20.468761444,-105.591461182,0.000000000,-19.722000122,23.339996338
1747398433.896285,45.816000000,0.000000000,0.000000000,0.000000000,0.000000000,-20.468761444,-105.591629028,0.000000000,-19.722000122,23.339996338
1747398433.898700,45.819000000,0.000000000,0.000000000,0.000000000,0.000000000,-20.468761444,-105.591796875,0.000000000,-19.722000122,23.339996338
1747398433.901116,45.821000000,0.000000000,0.000000000,0.000000000,0.000000000,-20.468761444,-105.591964722,0.000000000,-19.722000122,23.339996338
1747398433.903553,45.824000000,0.000000000,0.000000000,0.000000000,0.000000000,-20.468761444,-105.592117310,0.000000000,-19.722000122,23.339996338
1747398433.905955,45.826000000,0.000000000,0.000000000,0.000000000,0.000000000,-20.468761444,-105.592285156,0.000000000,-19.722000122,23.339996338
1747398433.908406,45.829000000,0.000000000,0.000000000,0.000000000,0.000000000,-20.468761444,-105.592437744,0.000000000,-19.722000122,23.339996338
1747398433.910794,45.831000000,0.000000000,0.000000000,0.000000000,0.000000000,-20.468761444,-105.592605591,0.000000000,-19.722000122,23.339996338
1747398433.913156,45.833000000,0.000000000,0.000000000,0.000000000,0.000000000,-20.468761444,-105.592758179,0.000000000,-19.722000122,23.339996338
1747398433.915550,45.836000000,0.000000000,0.000000000,0.000000000,0.000000000,-20.468761444,-105.592926025,0.000000000,-19.722000122,23.339996338
1747398433.917922,45.838000000,0.000000000,0.000000000,0.000000000,0.000000000,-20.482261658,-106.790634155,0.000000000,-19.722000122,23.339996338
1747398433.920337,45.841000000,0.000000000,0.000000000,0.000000000,0.000000000,-20.482261658,-108.572479248,0.000000000,-19.722000122,23.339996338
1747398433.922720,45.843000000,0.000000000,0.000000000,0.000000000,0.000000000,-20.482261658,-108.572647095,0.000000000,-19.722000122,23.339996338
1747398433.925160,45.845000000,0.000000000,0.000000000,0.000000000,0.000000000,-20.482261658,-108.572814941,0.000000000,-19.722000122,23.339996338
1747398433.927536,45.848000000,0.000000000,0.000000000,0.000000000,0.000000000,-20.482261658,-108.572982788,0.000000000,-19.722000122,23.339996338
1747398433.929892,45.850000000,0.000000000,0.000000000,0.000000000,0.000000000,-20.482261658,-108.573135376,0.000000000,-19.722000122,23.339996338
1747398433.932270,45.853000000,0.000000000,0.000000000,0.000000000,0.000000000,-20.482261658,-108.573303223,0.000000000,-19.722000122,23.339996338
1747398433.934632,45.855000000,0.000000000,0.000000000,0.000000000,0.000000000,-20.482261658,-108.573455811,0.000000000,-19.722000122,23.339996338
1747398433.936996,45.857000000,0.000000000,0.000000000,0.000000000,0.000000000,-20.482261658,-108.573623657,0.000000000,-19.722000122,23.339996338
1747398433.939420,45.860000000,0.000000000,0.000000000,0.000000000,0.000000000,-20.482261658,-108.573791504,0.000000000,-19.722000122,23.339996338
1747398433.941787,45.862000000,0.000000000,0.000000000,0.000000000,0.000000000,-20.482261658,-108.573944092,0.000000000,-19.722000122,23.339996338
1747398433.944159,45.864000000,0.000000000,0.000000000,0.000000000,0.000000000,-20.482261658,-108.574111938,0.000000000,-19.722000122,23.339996338
1747398433.946562,45.867000000,0.000000000,0.000000000,0.000000000,0.000000000,-20.482261658,-108.574279785,0.000000000,-19.722000122,23.339996338
1747398433.948931,45.869000000,0.000000000,0.000000000,0.000000000,0.000000000,-20.482261658,-108.574432373,0.000000000,-19.722000122,23.339996338
1747398433.951306,45.872000000,0.000000000,0.000000000,0.000000000,0.000000000,-20.482261658,-108.574600220,0.000000000,-19.722000122,23.339996338
1747398433.953675,45.874000000,0.000000000,0.000000000,0.000000000,0.000000000,-20.482261658,-108.574752808,0.000000000,-19.722000122,23.339996338
1747398433.956048,45.876000000,0.000000000,0.000000000,0.000000000,0.000000000,-20.482261658,-108.574920654,0.000000000,-19.722000122,23.339996338
1747398433.958382,45.879000000,0.000000000,0.000000000,0.000000000,0.000000000,-20.482261658,-108.575088501,0.000000000,-19.722000122,23.339996338
1747398433.960758,45.881000000,0.000000000,0.000000000,0.000000000,0.000000000,-20.482261658,-108.575241089,0.000000000,-19.722000122,23.339996338
1747398433.963203,45.884000000,0.000000000,0.000000000,0.000000000,0.000000000,-20.468761444,-107.376373291,0.000000000,-19.722000122,23.339996338
1747398433.965642,45.886000000,0.000000000,0.000000000,0.000000000,0.000000000,-20.468761444,-105.596328735,0.000000000,-19.722000122,23.339996338
1747398433.968112,45.888000000,0.000000000,0.000000000,0.000000000,0.000000000,-20.482261658,-106.821762085,0.000000000,-19.722000122,23.339996338
1747398433.970523,45.891000000,0.000000000,0.000000000,0.000000000,0.000000000,-20.482261658,-108.575897217,0.000000000,-19.722000122,23.339996338
1747398433.972956,45.893000000,0.000000000,0.000000000,0.000000000,0.000000000,-20.468761444,-107.355117798,0.000000000,-19.722000122,-6.660003662
1747398433.975339,45.896000000,0.000000000,0.000000000,0.000000000,0.000000000,-20.468761444,-105.596984863,0.000000000,-19.704000473,-6.120014191
1747398433.977783,45.898000000,0.000000000,0.000000000,0.000000000,0.000000000,-20.468761444,-105.597137451,0.000000000,-19.677000046,-5.310001373
1747398433.980181,45.901000000,0.000000000,0.000000000,0.000000000,0.000000000,-20.468761444,-105.597305298,0.000000000,-19.685998917,-5.579967499
1747398433.982593,45.903000000,0.000000000,0.000000000,0.000000000,0.000000000,-20.468761444,-105.597457886,0.000000000,-19.677000046,-5.310001373
1747398433.985040,45.905000000,0.000000000,0.000000000,0.000000000,0.000000000,-20.468761444,-105.597610474,0.000000000,-19.667999268,-5.039978027
1747398433.987502,45.908000000,0.000000000,0.000000000,0.000000000,0.000000000,-20.468761444,-105.597778320,0.000000000,-19.659000397,-4.770011902
1747398433.990004,45.910000000,0.000000000,0.000000000,0.000000000,0.000000000,-20.468761444,-105.597946167,0.000000000,-19.649999619,-4.499988556
1747398433.992495,45.913000000,0.000000000,0.000000000,0.000000000,0.000000000,-20.468761444,-105.598114014,0.000000000,-19.641000748,-4.230022430
1747398433.995028,45.915000000,0.000000000,0.000000000,0.000000000,0.000000000,-20.468761444,-105.598281860,0.000000000,-19.631999969,-3.959999084
1747398433.997487,45.918000000,0.000000000,0.000000000,0.000000000,0.000000000,-20.482261658,-106.886032104,0.000000000,-19.622999191,-3.689975739
1747398433.999918,45.920000000,0.000000000,0.000000000,0.000000000,0.000000000,-20.482261658,-108.577850342,0.000000000,-19.614000320,-3.420009613
1747398434.002337,45.923000000,0.000000000,0.000000000,0.000000000,0.000000000,-20.468761444,-107.360687256,0.000000000,-19.604999542,-3.149986267
1747398434.004752,45.925000000,0.000000000,0.000000000,0.000000000,0.000000000,-20.468761444,-105.598937988,0.000000000,-19.586999893,-2.609996796
1747398434.007160,45.927000000,0.000000000,0.000000000,0.000000000,0.000000000,-20.468761444,-105.599090576,0.000000000,-19.577999115,-2.339973450
1747398434.009548,45.930000000,0.000000000,0.000000000,0.000000000,0.000000000,-20.468761444,-105.599258423,0.000000000,-19.569000244,-2.070007324
1747398434.012013,45.932000000,0.000000000,0.000000000,0.000000000,0.000000000,-20.468761444,-105.599411011,0.000000000,-19.559999466,-1.799983978
1747398434.014412,45.935000000,0.000000000,0.000000000,0.000000000,0.000000000,-20.468761444,-105.599578857,0.000000000,-19.551000595,-1.530017853
1747398434.016807,45.937000000,0.000000000,0.000000000,0.000000000,0.000000000,-20.468761444,-105.599731445,0.000000000,-19.541999817,-1.259994507
1747398434.019200,45.940000000,0.000000000,0.000000000,0.000000000,0.000000000,-20.468761444,-105.599899292,0.000000000,-19.532999039,-0.989971161
1747398434.021584,45.942000000,0.000000000,0.000000000,0.000000000,0.000000000,-20.468761444,-105.600051880,0.000000000,-19.524000168,-0.720005035
1747398434.024018,45.944000000,0.000000000,0.000000000,0.000000000,0.000000000,-20.468761444,-105.600204468,0.000000000,-19.514999390,-0.449981689
1747398434.026373,45.947000000,0.000000000,0.000000000,0.000000000,0.000000000,-20.468761444,-105.600372314,0.000000000,-19.506000519,-0.180015564
1747398434.028835,45.949000000,0.000000000,0.000000000,0.000000000,0.000000000,-20.468761444,-105.600524902,0.000000000,-19.506000519,-0.180015564
1747398434.031212,45.952000000,0.000000000,0.000000000,0.000000000,0.000000000,-20.468761444,-105.600692749,0.000000000,-19.496999741,0.090007782
1747398434.033556,45.954000000,0.000000000,0.000000000,0.000000000,0.000000000,-20.468761444,-105.600845337,0.000000000,-19.487998962,0.360031128
1747398434.035934,45.956000000,0.000000000,0.000000000,0.000000000,0.000000000,-20.468761444,-105.600997925,0.000000000,-19.479000092,0.629997253
1747398434.038338,45.959000000,0.000000000,0.000000000,0.000000000,0.000000000,-20.482261658,-106.780761719,0.000000000,-19.479000092,0.629997253
1747398434.040746,45.961000000,0.000000000,0.000000000,0.000000000,0.000000000,-20.482261658,-108.580566406,0.000000000,-19.469999313,0.900020599
1747398434.043155,45.963000000,0.000000000,0.000000000,0.000000000,0.000000000,-20.468761444,-107.378753662,0.000000000,-19.469999313,0.900020599
1747398434.045584,45.966000000,0.000000000,0.000000000,0.000000000,0.000000000,-20.482261658,-106.790267944,0.000000000,-19.469999313,0.900020599
1747398434.048036,45.968000000,0.000000000,0.000000000,0.000000000,0.000000000,-20.482261658,-108.581054688,0.000000000,-19.461000443,1.169986725
1747398434.050476,45.971000000,0.000000000,0.000000000,0.000000000,0.000000000,-20.482261658,-108.581222534,0.000000000,-19.461000443,1.169986725
1747398434.052930,45.973000000,0.000000000,0.000000000,0.000000000,0.000000000,-20.482261658,-108.581390381,0.000000000,-19.461000443,1.169986725
1747398434.055405,45.976000000,0.000000000,0.000000000,0.000000000,0.000000000,-20.482261658,-108.581558228,0.000000000,-19.461000443,1.169986725
1747398434.057926,45.978000000,0.000000000,0.000000000,0.000000000,0.000000000,-20.482261658,-108.581726074,0.000000000,-19.461000443,1.169986725
1747398434.060482,45.981000000,0.000000000,0.000000000,0.000000000,0.000000000,-20.468761444,-107.338867188,0.000000000,-19.461000443,1.169986725
1747398434.062821,45.983000000,0.000000000,0.000000000,0.000000000,0.000000000,-20.468761444,-105.602828979,0.000000000,-19.461000443,1.169986725
1747398434.065160,45.985000000,0.000000000,0.000000000,0.000000000,0.000000000,-20.482261658,-106.784835815,0.000000000,-19.461000443,1.169986725
1747398434.067585,45.988000000,0.000000000,0.000000000,0.000000000,0.000000000,-20.482261658,-108.582382202,0.000000000,-19.461000443,1.169986725
1747398434.069980,45.990000000,0.000000000,0.000000000,0.000000000,0.000000000,-20.482261658,-108.582550049,0.000000000,-19.461000443,1.169986725
1747398434.072379,45.993000000,0.000000000,0.000000000,0.000000000,0.000000000,-20.468761444,-107.392608643,0.000000000,-19.461000443,1.169986725
1747398434.074752,45.995000000,0.000000000,0.000000000,0.000000000,0.000000000,-20.468761444,-105.603637695,0.000000000,-19.461000443,1.169986725
1747398434.077128,45.997000000,0.000000000,0.000000000,0.000000000,0.000000000,-20.468761444,-105.603790283,0.000000000,-19.461000443,1.169986725
1747398434.079482,46.000000000,0.000000000,0.000000000,0.000000000,0.000000000,-20.468761444,-105.603942871,0.000000000,-19.461000443,1.169986725
1747398434.081874,46.002000000,0.000000000,0.000000000,0.000000000,0.000000000,-20.468761444,-105.604110718,0.000000000,-19.461000443,1.169986725
1747398434.084224,46.005000000,0.000000000,0.000000000,0.000000000,0.000000000,-20.468761444,-105.604263306,0.000000000,-19.461000443,1.169986725
1747398434.086594,46.007000000,0.000000000,0.000000000,0.000000000,0.000000000,-20.482261658,-106.761825562,0.000000000,-19.461000443,1.169986725
1747398434.088964,46.009000000,0.000000000,0.000000000,0.000000000,0.000000000,-20.482261658,-108.583831787,0.000000000,-19.461000443,1.169986725
1747398434.091380,46.012000000,0.000000000,0.000000000,0.000000000,0.000000000,-20.482261658,-108.583984375,0.000000000,-19.461000443,1.169986725
1747398434.093761,46.014000000,0.000000000,0.000000000,0.000000000,0.000000000,-20.482261658,-108.584152222,0.000000000,-19.461000443,1.169986725
1747398434.096164,46.016000000,0.000000000,0.000000000,0.000000000,0.000000000,-20.482261658,-108.584304810,0.000000000,-19.451999664,1.440010071
1747398434.098537,46.019000000,0.000000000,0.000000000,0.000000000,0.000000000,-20.482261658,-108.584472656,0.000000000,-19.451999664,1.440010071
1747398434.100998,46.021000000,0.000000000,0.000000000,0.000000000,0.000000000,-20.482261658,-108.584640503,0.000000000,-19.451999664,1.440010071
1747398434.103362,46.024000000,0.000000000,0.000000000,0.000000000,0.000000000,-20.482261658,-108.584808350,0.000000000,-19.443000793,1.709976196
1747398434.105741,46.026000000,0.000000000,0.000000000,0.000000000,0.000000000,-20.468761444,-107.382980347,0.000000000,-19.443000793,1.709976196
1747398434.108111,46.028000000,0.000000000,0.000000000,0.000000000,0.000000000,-20.468761444,-105.605880737,0.000000000,-19.443000793,1.709976196
1747398434.110499,46.031000000,0.000000000,0.000000000,0.000000000,0.000000000,-20.468761444,-105.606033325,0.000000000,-19.434000015,1.979999542
1747398434.112913,46.033000000,0.000000000,0.000000000,0.000000000,0.000000000,-20.482261658,-106.793319702,0.000000000,-19.434000015,1.979999542
1747398434.115281,46.036000000,0.000000000,0.000000000,0.000000000,0.000000000,-20.482261658,-108.585601807,0.000000000,-19.424999237,2.250022888
1747398434.117655,46.038000000,0.000000000,0.000000000,0.000000000,0.000000000,-20.468761444,-107.418350220,0.000000000,-19.424999237,2.250022888
1747398434.120028,46.040000000,0.000000000,0.000000000,0.000000000,0.000000000,-20.468761444,-105.606674194,0.000000000,-19.416000366,2.519989014
1747398434.122422,46.043000000,0.000000000,0.000000000,0.000000000,0.000000000,-20.468761444,-105.606842041,0.000000000,-19.416000366,2.519989014
1747398434.124772,46.045000000,0.000000000,0.000000000,0.000000000,0.000000000,-20.468761444,-105.606994629,0.000000000,-19.406999588,2.790012360
1747398434.127138,46.047000000,0.000000000,0.000000000,0.000000000,0.000000000,-20.468761444,-105.607147217,0.000000000,-19.398000717,3.059978485
1747398434.129492,46.050000000,0.000000000,0.000000000,0.000000000,0.000000000,-20.468761444,-105.607315063,0.000000000,-19.388999939,3.330001831
1747398434.131923,46.052000000,0.000000000,0.000000000,0.000000000,0.000000000,-20.468761444,-105.607467651,0.000000000,-19.379999161,3.600025177
1747398434.134418,46.055000000,0.000000000,0.000000000,0.000000000,0.000000000,-20.468761444,-105.607635498,0.000000000,-19.371000290,3.869991302
1747398434.136916,46.057000000,0.000000000,0.000000000,0.000000000,0.000000000,-20.468761444,-105.607788086,0.000000000,-19.361999512,4.140014648
1747398434.139438,46.060000000,0.000000000,0.000000000,0.000000000,0.000000000,-20.468761444,-105.607955933,0.000000000,-19.353000641,4.409980774
1747398434.141931,46.062000000,0.000000000,0.000000000,0.000000000,0.000000000,-20.468761444,-105.608123779,0.000000000,-19.343999863,4.680004120
1747398434.144419,46.065000000,0.000000000,0.000000000,0.000000000,0.000000000,-20.468761444,-105.608291626,0.000000000,-19.326000214,5.219993591
1747398434.146980,46.067000000,0.000000000,0.000000000,0.000000000,0.000000000,-20.468761444,-105.608459473,0.000000000,-19.316999435,5.490016937
1747398434.149434,46.070000000,0.000000000,0.000000000,0.000000000,0.000000000,-20.468761444,-105.608627319,0.000000000,-19.298999786,6.030006409
1747398434.151905,46.072000000,0.000000000,0.000000000,0.000000000,0.000000000,-20.468761444,-105.608779907,0.000000000,-19.281000137,6.569995880
1747398434.154396,46.075000000,0.000000000,0.000000000,0.000000000,0.000000000,-20.468761444,-105.608947754,0.000000000,-19.271999359,6.840019226
1747398434.156799,46.077000000,0.000000000,0.000000000,0.000000000,0.000000000,-20.468761444,-105.609115601,0.000000000,-19.253999710,7.380008698
1747398434.159279,46.080000000,0.000000000,0.000000000,0.000000000,0.000000000,-20.468761444,-105.609268188,0.000000000,-19.236000061,7.919998169
1747398434.161613,46.082000000,0.000000000,0.000000000,0.000000000,0.000000000,-20.468761444,-105.609436035,0.000000000,-19.218000412,8.459987640
1747398434.164005,46.084000000,0.000000000,0.000000000,0.000000000,0.000000000,-20.482261658,-106.795959473,0.000000000,-19.208999634,8.730010986
1747398434.166391,46.087000000,0.000000000,0.000000000,0.000000000,0.000000000,-20.482261658,-108.589004517,0.000000000,-19.190999985,9.270000458
1747398434.168761,46.089000000,0.000000000,0.000000000,0.000000000,0.000000000,-20.468761444,-107.413360596,0.000000000,-19.173000336,9.809989929
1747398434.171173,46.091000000,0.000000000,0.000000000,0.000000000,0.000000000,-20.482261658,-106.789672852,0.000000000,-19.155000687,10.349979401
1747398434.173503,46.094000000,0.000000000,0.000000000,0.000000000,0.000000000,-20.482261658,-108.589492798,0.000000000,-19.145999908,10.620002747
1747398434.175913,46.096000000,0.000000000,0.000000000,0.000000000,0.000000000,-20.482261658,-108.589645386,0.000000000,-19.128000259,11.159992218
1747398434.178287,46.099000000,0.000000000,0.000000000,0.000000000,0.000000000,-20.482261658,-108.589813232,0.000000000,-19.110000610,11.699981689
1747398434.180612,46.101000000,0.000000000,0.000000000,0.000000000,0.000000000,-20.468761444,-107.413406372,0.000000000,-19.100999832,11.970005035
1747398434.183022,46.103000000,0.000000000,0.000000000,0.000000000,0.000000000,-20.468761444,-105.610885620,0.000000000,-19.083000183,12.509994507
1747398434.185340,46.106000000,0.000000000,0.000000000,0.000000000,0.000000000,-20.482261658,-106.762222290,0.000000000,-19.073999405,12.780017853
1747398434.187702,46.108000000,0.000000000,0.000000000,0.000000000,0.000000000,-20.482261658,-108.590438843,0.000000000,-19.055999756,13.320007324
1747398434.190086,46.110000000,0.000000000,0.000000000,0.000000000,0.000000000,-20.482261658,-108.590606689,0.000000000,-19.047000885,13.589973450
1747398434.192422,46.113000000,0.000000000,0.000000000,0.000000000,0.000000000,-20.482261658,-108.590774536,0.000000000,-19.028999329,14.130020142
1747398434.194773,46.115000000,0.000000000,0.000000000,0.000000000,0.000000000,-20.482261658,-108.590927124,0.000000000,-19.020000458,14.399986267
1747398434.197151,46.117000000,0.000000000,0.000000000,0.000000000,0.000000000,-20.482261658,-108.591079712,0.000000000,-19.010999680,14.670009613
1747398434.199505,46.120000000,0.000000000,0.000000000,0.000000000,0.000000000,-20.468761444,-107.411651611,0.000000000,-19.002000809,14.939975739
1747398434.201865,46.122000000,0.000000000,0.000000000,0.000000000,0.000000000,-20.468761444,-105.612167358,0.000000000,-18.993000031,15.209999084
1747398434.204244,46.125000000,0.000000000,0.000000000,0.000000000,0.000000000,-20.482261658,-106.774353027,0.000000000,-18.983999252,15.480022430
1747398434.206620,46.127000000,0.000000000,0.000000000,0.000000000,0.000000000,-20.482261658,-108.591720581,0.000000000,-18.975000381,15.749988556
1747398434.208989,46.129000000,0.000000000,0.000000000,0.000000000,0.000000000,-20.482261658,-108.591888428,0.000000000,-18.965999603,16.020011902
1747398434.211387,46.132000000,0.000000000,0.000000000,0.000000000,0.000000000,-20.482261658,-108.592056274,0.000000000,-18.957000732,16.289978027
1747398434.213748,46.134000000,0.000000000,0.000000000,0.000000000,0.000000000,-20.482261658,-108.592208862,0.000000000,-18.947999954,16.560001373
1747398434.216142,46.136000000,0.000000000,0.000000000,0.000000000,0.000000000,-20.482261658,-108.592376709,0.000000000,-18.947999954,16.560001373
1747398434.218516,46.139000000,0.000000000,0.000000000,0.000000000,0.000000000,-20.482261658,-108.592529297,0.000000000,-18.938999176,16.830024719
1747398434.220889,46.141000000,0.000000000,0.000000000,0.000000000,0.000000000,-20.482261658,-108.592697144,0.000000000,-18.930000305,17.099990845
1747398434.223300,46.144000000,0.000000000,0.000000000,0.000000000,0.000000000,-20.482261658,-108.592864990,0.000000000,-18.930000305,17.099990845
1747398434.225770,46.146000000,0.000000000,0.000000000,0.000000000,0.000000000,-20.482261658,-108.593017578,0.000000000,-18.930000305,17.099990845
1747398434.228221,46.148000000,0.000000000,0.000000000,0.000000000,0.000000000,-20.482261658,-108.593185425,0.000000000,-18.920999527,17.370014191
1747398434.230657,46.151000000,0.000000000,0.000000000,0.000000000,0.000000000,-20.482261658,-108.593353271,0.000000000,-18.912000656,17.639980316
1747398434.233128,46.153000000,0.000000000,0.000000000,0.000000000,0.000000000,-20.482261658,-108.593521118,0.000000000,-18.912000656,17.639980316
1747398434.235566,46.156000000,0.000000000,0.000000000,0.000000000,0.000000000,-20.482261658,-108.593688965,0.000000000,-18.912000656,17.639980316
1747398434.238050,46.158000000,0.000000000,0.000000000,0.000000000,0.000000000,-20.482261658,-108.593856812,0.000000000,-18.912000656,17.639980316
1747398434.240546,46.161000000,0.000000000,0.000000000,0.000000000,0.000000000,-20.482261658,-108.594024658,0.000000000,-18.902999878,17.910003662
1747398434.242951,46.163000000,0.000000000,0.000000000,0.000000000,0.000000000,-20.482261658,-108.594192505,0.000000000,-18.902999878,17.910003662
1747398434.245464,46.166000000,0.000000000,0.000000000,0.000000000,0.000000000,-20.482261658,-108.594360352,0.000000000,-18.902999878,17.910003662
1747398434.247872,46.168000000,0.000000000,0.000000000,0.000000000,0.000000000,-20.482261658,-108.594528198,0.000000000,-18.902999878,17.910003662
1747398434.250337,46.171000000,0.000000000,0.000000000,0.000000000,0.000000000,-20.482261658,-108.594696045,0.000000000,-18.902999878,17.910003662
1747398434.252825,46.173000000,0.000000000,0.000000000,0.000000000,0.000000000,-20.482261658,-108.594863892,0.000000000,-18.902999878,17.910003662
1747398434.255318,46.176000000,0.000000000,0.000000000,0.000000000,0.000000000,-20.482261658,-108.595031738,0.000000000,-18.893999100,18.180027008
1747398434.257787,46.178000000,0.000000000,0.000000000,0.000000000,0.000000000,-20.482261658,-108.595214844,0.000000000,-18.893999100,18.180027008
1747398434.260333,46.181000000,0.000000000,0.000000000,0.000000000,0.000000000,-20.482261658,-108.595382690,0.000000000,-18.893999100,18.180027008
1747398434.262795,46.183000000,0.000000000,0.000000000,0.000000000,0.000000000,-20.482261658,-108.595550537,0.000000000,-18.893999100,18.180027008
1747398434.265223,46.186000000,0.000000000,0.000000000,0.000000000,0.000000000,-20.482261658,-108.595718384,0.000000000,-18.893999100,18.180027008
1747398434.267715,46.188000000,0.000000000,0.000000000,0.000000000,0.000000000,-20.482261658,-108.595886230,0.000000000,-18.893999100,18.180027008
1747398434.270122,46.190000000,0.000000000,0.000000000,0.000000000,0.000000000,-20.482261658,-108.596054077,0.000000000,-18.893999100,18.180027008
1747398434.272575,46.193000000,0.000000000,0.000000000,0.000000000,0.000000000,-20.482261658,-108.596221924,0.000000000,-18.893999100,18.180027008
1747398434.274938,46.195000000,0.000000000,0.000000000,0.000000000,0.000000000,-20.482261658,-108.596374512,0.000000000,-18.893999100,18.180027008
1747398434.277323,46.198000000,0.000000000,0.000000000,0.000000000,0.000000000,-20.482261658,-108.596542358,0.000000000,-18.893999100,18.180027008
1747398434.279708,46.200000000,0.000000000,0.000000000,0.000000000,0.000000000,-20.468761444,-107.406600952,0.000000000,-18.885000229,18.449993134
1747398434.282061,46.202000000,0.000000000,0.000000000,0.000000000,0.000000000,-20.468761444,-105.617614746,0.000000000,-18.885000229,18.449993134
1747398434.284417,46.205000000,0.000000000,0.000000000,0.000000000,0.000000000,-20.482261658,-106.782119751,0.000000000,-18.885000229,18.449993134
1747398434.286804,46.207000000,0.000000000,0.000000000,0.000000000,0.000000000,-20.468761444,-107.421371460,0.000000000,-18.885000229,18.449993134
1747398434.289175,46.210000000,0.000000000,0.000000000,0.000000000,0.000000000,-20.468761444,-105.618103027,0.000000000,-18.885000229,18.449993134
1747398434.291584,46.212000000,0.000000000,0.000000000,0.000000000,0.000000000,-20.482261658,-106.792541504,0.000000000,-18.875999451,18.720016479
1747398434.293950,46.214000000,0.000000000,0.000000000,0.000000000,0.000000000,-20.468761444,-107.403823853,0.000000000,-18.875999451,18.720016479
1747398434.296304,46.217000000,0.000000000,0.000000000,0.000000000,0.000000000,-20.468761444,-105.618576050,0.000000000,-18.875999451,18.720016479
1747398434.298683,46.219000000,0.000000000,0.000000000,0.000000000,0.000000000,-20.482261658,-106.776138306,0.000000000,-18.875999451,18.720016479
1747398434.301072,46.221000000,0.000000000,0.000000000,0.000000000,0.000000000,-20.468761444,-107.419296265,0.000000000,-18.867000580,18.989982605
1747398434.303443,46.224000000,0.000000000,0.000000000,0.000000000,0.000000000,-20.468761444,-105.619049072,0.000000000,-18.857999802,19.260005951
1747398434.305825,46.226000000,0.000000000,0.000000000,0.000000000,0.000000000,-20.482261658,-106.800308228,0.000000000,-18.867000580,18.989982605
1747398434.308281,46.229000000,0.000000000,0.000000000,0.000000000,0.000000000,-20.468761444,-107.419784546,0.000000000,-18.857999802,19.260005951
1747398434.310673,46.231000000,0.000000000,0.000000000,0.000000000,0.000000000,-20.468761444,-105.619537354,0.000000000,-18.849000931,19.529972076
1747398434.313051,46.233000000,0.000000000,0.000000000,0.000000000,0.000000000,-20.482261658,-106.819458008,0.000000000,-18.849000931,19.529972076
1747398434.315413,46.236000000,0.000000000,0.000000000,0.000000000,0.000000000,-20.468761444,-107.421768188,0.000000000,-18.849000931,19.529972076
1747398434.317841,46.238000000,0.000000000,0.000000000,0.000000000,0.000000000,-20.468761444,-105.620010376,0.000000000,-18.840000153,19.799995422
1747398434.320270,46.241000000,0.000000000,0.000000000,0.000000000,0.000000000,-20.482261658,-106.838226318,0.000000000,-18.830999374,20.070018768
1747398434.322725,46.243000000,0.000000000,0.000000000,0.000000000,0.000000000,-20.482261658,-108.599578857,0.000000000,-18.822000504,20.339984894
1747398434.325195,46.245000000,0.000000000,0.000000000,0.000000000,0.000000000,-20.468761444,-107.367324829,0.000000000,-18.822000504,20.339984894
1747398434.327622,46.248000000,0.000000000,0.000000000,0.000000000,0.000000000,-20.468761444,-105.620666504,0.000000000,-18.812999725,20.610008240
1747398434.330012,46.250000000,0.000000000,0.000000000,0.000000000,0.000000000,-20.482261658,-106.835266113,0.000000000,-18.812999725,20.610008240
1747398434.332399,46.253000000,0.000000000,0.000000000,0.000000000,0.000000000,-20.482261658,-108.600234985,0.000000000,-18.812999725,20.610008240
1747398434.334767,46.255000000,0.000000000,0.000000000,0.000000000,0.000000000,-20.468761444,-107.414779663,0.000000000,-18.804000854,20.879974365
1747398434.337138,46.257000000,0.000000000,0.000000000,0.000000000,0.000000000,-20.482261658,-106.794082642,0.000000000,-18.804000854,20.879974365
1747398434.339565,46.260000000,0.000000000,0.000000000,0.000000000,0.000000000,-20.482261658,-108.600723267,0.000000000,-18.795000076,21.149997711
1747398434.341976,46.262000000,0.000000000,0.000000000,0.000000000,0.000000000,-20.468761444,-107.417510986,0.000000000,-18.795000076,21.149997711
1747398434.344334,46.265000000,0.000000000,0.000000000,0.000000000,0.000000000,-20.482261658,-106.832595825,0.000000000,-18.795000076,21.149997711
1747398434.346658,46.267000000,0.000000000,0.000000000,0.000000000,0.000000000,-20.482261658,-108.601211548,0.000000000,-18.795000076,21.149997711
1747398434.349038,46.269000000,0.000000000,0.000000000,0.000000000,0.000000000,-20.482261658,-108.601364136,0.000000000,-18.785999298,21.420021057
1747398434.351401,46.272000000,0.000000000,0.000000000,0.000000000,0.000000000,-20.482261658,-108.601531982,0.000000000,-18.785999298,21.420021057
1747398434.353760,46.274000000,0.000000000,0.000000000,0.000000000,0.000000000,-20.482261658,-108.601684570,0.000000000,-18.785999298,21.420021057
1747398434.356134,46.276000000,0.000000000,0.000000000,0.000000000,0.000000000,-20.482261658,-108.601852417,0.000000000,-18.795000076,21.149997711
1747398434.358567,46.279000000,0.000000000,0.000000000,0.000000000,0.000000000,-20.482261658,-108.602020264,0.000000000,-18.795000076,21.149997711
1747398434.360927,46.281000000,0.000000000,0.000000000,0.000000000,0.000000000,-20.482261658,-108.602172852,0.000000000,-18.795000076,21.149997711
1747398434.363348,46.284000000,0.000000000,0.000000000,0.000000000,0.000000000,-20.482261658,-108.602340698,0.000000000,-18.795000076,21.149997711
1747398434.365743,46.286000000,0.000000000,0.000000000,0.000000000,0.000000000,-20.482261658,-108.602508545,0.000000000,-18.795000076,21.149997711
1747398434.368127,46.288000000,0.000000000,0.000000000,0.000000000,0.000000000,-20.482261658,-108.602676392,0.000000000,-18.795000076,21.149997711
1747398434.370510,46.291000000,0.000000000,0.000000000,0.000000000,0.000000000,-20.482261658,-108.602828979,0.000000000,-18.795000076,21.149997711
1747398434.372898,46.293000000,0.000000000,0.000000000,0.000000000,0.000000000,-20.482261658,-108.602996826,0.000000000,-18.804000854,20.879974365
1747398434.375279,46.296000000,0.000000000,0.000000000,0.000000000,0.000000000,-20.482261658,-108.603149414,0.000000000,-18.804000854,20.879974365
1747398434.377652,46.298000000,0.000000000,0.000000000,0.000000000,0.000000000,-20.482261658,-108.603317261,0.000000000,-18.804000854,20.879974365
1747398434.380016,46.300000000,0.000000000,0.000000000,0.000000000,0.000000000,-20.482261658,-108.603485107,0.000000000,-18.804000854,20.879974365
1747398434.382405,46.303000000,0.000000000,0.000000000,0.000000000,0.000000000,-20.482261658,-108.603637695,0.000000000,-18.812999725,20.610008240
1747398434.384806,46.305000000,0.000000000,0.000000000,0.000000000,0.000000000,-20.482261658,-108.603805542,0.000000000,-18.812999725,20.610008240
1747398434.387159,46.308000000,0.000000000,0.000000000,0.000000000,0.000000000,-20.482261658,-108.603973389,0.000000000,-18.822000504,20.339984894
1747398434.389541,46.310000000,0.000000000,0.000000000,0.000000000,0.000000000,-20.482261658,-108.604125977,0.000000000,-18.822000504,20.339984894
1747398434.391924,46.312000000,0.000000000,0.000000000,0.000000000,0.000000000,-20.482261658,-108.604293823,0.000000000,-18.830999374,20.070018768
1747398434.394391,46.315000000,0.000000000,0.000000000,0.000000000,0.000000000,-20.482261658,-108.604446411,0.000000000,-18.830999374,20.070018768
1747398434.396680,46.317000000,0.000000000,0.000000000,0.000000000,0.000000000,-20.482261658,-108.604614258,0.000000000,-18.840000153,19.799995422
1747398434.399140,46.319000000,0.000000000,0.000000000,0.000000000,0.000000000,-20.482261658,-108.604782104,0.000000000,-18.840000153,19.799995422
1747398434.401449,46.322000000,0.000000000,0.000000000,0.000000000,0.000000000,-20.482261658,-108.604934692,0.000000000,-18.849000931,19.529972076
1747398434.403808,46.324000000,0.000000000,0.000000000,0.000000000,0.000000000,-20.482261658,-108.605102539,0.000000000,-18.857999802,19.260005951
1747398434.406183,46.327000000,0.000000000,0.000000000,0.000000000,0.000000000,-20.482261658,-108.605270386,0.000000000,-18.857999802,19.260005951
1747398434.408572,46.329000000,0.000000000,0.000000000,0.000000000,0.000000000,-20.482261658,-108.605422974,0.000000000,-18.867000580,18.989982605
1747398434.410940,46.331000000,0.000000000,0.000000000,0.000000000,0.000000000,-20.482261658,-108.605590820,0.000000000,-18.867000580,18.989982605
1747398434.413318,46.334000000,0.000000000,0.000000000,0.000000000,0.000000000,-20.482261658,-108.605743408,0.000000000,-18.875999451,18.720016479
1747398434.415747,46.336000000,0.000000000,0.000000000,0.000000000,0.000000000,-20.482261658,-108.605911255,0.000000000,-18.885000229,18.449993134
1747398434.418211,46.338000000,0.000000000,0.000000000,0.000000000,0.000000000,-20.482261658,-108.606079102,0.000000000,-18.893999100,18.180027008
1747398434.420623,46.341000000,0.000000000,0.000000000,0.000000000,0.000000000,-20.482261658,-108.606246948,0.000000000,-18.893999100,18.180027008
1747398434.422962,46.343000000,0.000000000,0.000000000,0.000000000,0.000000000,-20.482261658,-108.606414795,0.000000000,-18.902999878,17.910003662
1747398434.425420,46.346000000,0.000000000,0.000000000,0.000000000,0.000000000,-20.482261658,-108.606567383,0.000000000,-18.912000656,17.639980316
1747398434.427759,46.348000000,0.000000000,0.000000000,0.000000000,0.000000000,-20.482261658,-108.606735229,0.000000000,-18.912000656,17.639980316
1747398434.430183,46.350000000,0.000000000,0.000000000,0.000000000,0.000000000,-20.482261658,-108.606903076,0.000000000,-18.920999527,17.370014191
1747398434.432516,46.353000000,0.000000000,0.000000000,0.000000000,0.000000000,-20.468761444,-107.408035278,0.000000000,-18.930000305,17.099990845
1747398434.434831,46.355000000,0.000000000,0.000000000,0.000000000,0.000000000,-20.468761444,-105.627975464,0.000000000,-18.930000305,17.099990845
1747398434.437193,46.358000000,0.000000000,0.000000000,0.000000000,0.000000000,-20.482261658,-106.761993408,0.000000000,-18.938999176,16.830024719
1747398434.439552,46.360000000,0.000000000,0.000000000,0.000000000,0.000000000,-20.482261658,-108.607528687,0.000000000,-18.947999954,16.560001373
1747398434.441946,46.362000000,0.000000000,0.000000000,0.000000000,0.000000000,-20.468761444,-107.442581177,0.000000000,-18.947999954,16.560001373
1747398434.444308,46.365000000,0.000000000,0.000000000,0.000000000,0.000000000,-20.468761444,-105.628601074,0.000000000,-18.957000732,16.289978027
1747398434.446702,46.367000000,0.000000000,0.000000000,0.000000000,0.000000000,-20.482261658,-106.803802490,0.000000000,-18.957000732,16.289978027
1747398434.449063,46.369000000,0.000000000,0.000000000,0.000000000,0.000000000,-20.482261658,-108.608169556,0.000000000,-18.965999603,16.020011902
1747398434.451437,46.372000000,0.000000000,0.000000000,0.000000000,0.000000000,-20.468761444,-107.440917969,0.000000000,-18.965999603,16.020011902
1747398434.453809,46.374000000,0.000000000,0.000000000,0.000000000,0.000000000,-20.468761444,-105.629241943,0.000000000,-18.965999603,16.020011902
1747398434.456183,46.377000000,0.000000000,0.000000000,0.000000000,0.000000000,-20.482261658,-106.799880981,0.000000000,-18.975000381,15.749988556
1747398434.458580,46.379000000,0.000000000,0.000000000,0.000000000,0.000000000,-20.482261658,-108.608810425,0.000000000,-18.975000381,15.749988556
1747398434.460948,46.381000000,0.000000000,0.000000000,0.000000000,0.000000000,-20.468761444,-107.421844482,0.000000000,-18.983999252,15.480022430
1747398434.463380,46.384000000,0.000000000,0.000000000,0.000000000,0.000000000,-20.468761444,-105.629882813,0.000000000,-18.983999252,15.480022430
1747398434.465767,46.386000000,0.000000000,0.000000000,0.000000000,0.000000000,-20.482261658,-106.848098755,0.000000000,-18.983999252,15.480022430
1747398434.468163,46.388000000,0.000000000,0.000000000,0.000000000,0.000000000,-20.482261658,-108.609451294,0.000000000,-18.983999252,15.480022430
1747398434.470528,46.391000000,0.000000000,0.000000000,0.000000000,0.000000000,-20.468761444,-107.422485352,0.000000000,-18.983999252,15.480022430
1747398434.472965,46.393000000,0.000000000,0.000000000,0.000000000,0.000000000,-20.468761444,-105.630523682,0.000000000,-18.983999252,15.480022430
1747398434.475344,46.396000000,0.000000000,0.000000000,0.000000000,0.000000000,-20.482261658,-106.852355957,0.000000000,-18.983999252,15.480022430
1747398434.477702,46.398000000,0.000000000,0.000000000,0.000000000,0.000000000,-20.482261658,-108.610092163,0.000000000,-18.993000031,15.209999084
1747398434.480100,46.400000000,0.000000000,0.000000000,0.000000000,0.000000000,-20.468761444,-107.445144653,0.000000000,-18.993000031,15.209999084
1747398434.482492,46.403000000,0.000000000,0.000000000,0.000000000,0.000000000,-20.468761444,-105.631164551,0.000000000,-18.993000031,15.209999084
1747398434.484937,46.405000000,0.000000000,0.000000000,0.000000000,0.000000000,-20.482261658,-106.819946289,0.000000000,-18.993000031,15.209999084
1747398434.487304,46.408000000,0.000000000,0.000000000,0.000000000,0.000000000,-20.482261658,-108.610733032,0.000000000,-18.993000031,15.209999084
1747398434.489726,46.410000000,0.000000000,0.000000000,0.000000000,0.000000000,-20.482261658,-108.610900879,0.000000000,-18.993000031,15.209999084
1747398434.492073,46.412000000,0.000000000,0.000000000,0.000000000,0.000000000,-20.482261658,-108.611068726,0.000000000,-18.993000031,15.209999084
1747398434.494441,46.415000000,0.000000000,0.000000000,0.000000000,0.000000000,-20.482261658,-108.611221313,0.000000000,-18.993000031,15.209999084
1747398434.496781,46.417000000,0.000000000,0.000000000,0.000000000,0.000000000,-20.482261658,-108.611389160,0.000000000,-18.993000031,15.209999084
1747398434.499187,46.419000000,0.000000000,0.000000000,0.000000000,0.000000000,-20.482261658,-108.611557007,0.000000000,-18.993000031,15.209999084
1747398434.501568,46.422000000,0.000000000,0.000000000,0.000000000,0.000000000,-20.482261658,-108.611709595,0.000000000,-18.993000031,15.209999084
1747398434.503941,46.424000000,0.000000000,0.000000000,0.000000000,0.000000000,-20.482261658,-108.611877441,0.000000000,-18.993000031,15.209999084
1747398434.506321,46.427000000,0.000000000,0.000000000,0.000000000,0.000000000,-20.482261658,-108.612030029,0.000000000,-18.993000031,15.209999084
1747398434.508788,46.429000000,0.000000000,0.000000000,0.000000000,0.000000000,-20.482261658,-108.612197876,0.000000000,-18.993000031,15.209999084
1747398434.511241,46.432000000,0.000000000,0.000000000,0.000000000,0.000000000,-20.482261658,-108.612365723,0.000000000,-18.993000031,15.209999084
1747398434.513677,46.434000000,0.000000000,0.000000000,0.000000000,0.000000000,-20.482261658,-108.612533569,0.000000000,-18.993000031,15.209999084
1747398434.516082,46.436000000,0.000000000,0.000000000,0.000000000,0.000000000,-20.482261658,-108.612701416,0.000000000,-18.993000031,15.209999084
1747398434.518518,46.439000000,0.000000000,0.000000000,0.000000000,0.000000000,-20.482261658,-108.612854004,0.000000000,-18.993000031,15.209999084
1747398434.520932,46.441000000,0.000000000,0.000000000,0.000000000,0.000000000,-20.482261658,-108.613021851,0.000000000,-18.993000031,15.209999084
1747398434.523339,46.444000000,0.000000000,0.000000000,0.000000000,0.000000000,-20.482261658,-108.613189697,0.000000000,-18.993000031,15.209999084
1747398434.525719,46.446000000,0.000000000,0.000000000,0.000000000,0.000000000,-20.482261658,-108.613357544,0.000000000,-18.993000031,15.209999084
1747398434.528162,46.448000000,0.000000000,0.000000000,0.000000000,0.000000000,-20.482261658,-108.613510132,0.000000000,-18.993000031,15.209999084
1747398434.530624,46.451000000,0.000000000,0.000000000,0.000000000,0.000000000,-20.482261658,-108.613677979,0.000000000,-18.993000031,15.209999084
1747398434.533122,46.453000000,0.000000000,0.000000000,0.000000000,0.000000000,-20.482261658,-108.613845825,0.000000000,-18.993000031,15.209999084
1747398434.535518,46.456000000,0.000000000,0.000000000,0.000000000,0.000000000,-20.482261658,-108.614013672,0.000000000,-18.993000031,15.209999084
1747398434.537929,46.458000000,0.000000000,0.000000000,0.000000000,0.000000000,-20.482261658,-108.614181519,0.000000000,-18.993000031,15.209999084
1747398434.540389,46.461000000,0.000000000,0.000000000,0.000000000,0.000000000,-20.482261658,-108.614349365,0.000000000,-19.002000809,14.939975739
1747398434.542787,46.463000000,0.000000000,0.000000000,0.000000000,0.000000000,-20.482261658,-108.614517212,0.000000000,-19.002000809,14.939975739
1747398434.545180,46.465000000,0.000000000,0.000000000,0.000000000,0.000000000,-20.482261658,-108.614685059,0.000000000,-19.002000809,14.939975739
1747398434.547578,46.468000000,0.000000000,0.000000000,0.000000000,0.000000000,-20.482261658,-108.614837646,0.000000000,-19.002000809,14.939975739
1747398434.549957,46.470000000,0.000000000,0.000000000,0.000000000,0.000000000,-20.468761444,-107.420425415,0.000000000,-19.002000809,14.939975739
1747398434.552343,46.473000000,0.000000000,0.000000000,0.000000000,0.000000000,-20.468761444,-105.635925293,0.000000000,-19.002000809,14.939975739
1747398434.554751,46.475000000,0.000000000,0.000000000,0.000000000,0.000000000,-20.482261658,-106.823196411,0.000000000,-19.002000809,14.939975739
1747398434.557158,46.477000000,0.000000000,0.000000000,0.000000000,0.000000000,-20.482261658,-108.615493774,0.000000000,-19.010999680,14.670009613
1747398434.559545,46.480000000,0.000000000,0.000000000,0.000000000,0.000000000,-20.482261658,-108.615646362,0.000000000,-19.010999680,14.670009613
1747398434.561938,46.482000000,0.000000000,0.000000000,0.000000000,0.000000000,-20.482261658,-108.615814209,0.000000000,-19.010999680,14.670009613
1747398434.564346,46.485000000,0.000000000,0.000000000,0.000000000,0.000000000,-20.468761444,-107.428100586,0.000000000,-19.010999680,14.670009613
1747398434.566805,46.487000000,0.000000000,0.000000000,0.000000000,0.000000000,-20.468761444,-105.636886597,0.000000000,-19.010999680,14.670009613
1747398434.569271,46.490000000,0.000000000,0.000000000,0.000000000,0.000000000,-20.482261658,-106.868759155,0.000000000,-19.010999680,14.670009613
1747398434.571721,46.492000000,0.000000000,0.000000000,0.000000000,0.000000000,-20.482261658,-108.616470337,0.000000000,-19.010999680,14.670009613
1747398434.574187,46.494000000,0.000000000,0.000000000,0.000000000,0.000000000,-20.468761444,-107.386367798,0.000000000,-19.020000458,14.399986267
1747398434.576603,46.497000000,0.000000000,0.000000000,0.000000000,0.000000000,-20.468761444,-105.637557983,0.000000000,-19.020000458,14.399986267
1747398434.579120,46.499000000,0.000000000,0.000000000,0.000000000,0.000000000,-20.482261658,-106.854324341,0.000000000,-19.020000458,14.399986267
1747398434.581579,46.502000000,0.000000000,0.000000000,0.000000000,0.000000000,-20.482261658,-108.617126465,0.000000000,-19.020000458,14.399986267
1747398434.584002,46.504000000,0.000000000,0.000000000,0.000000000,0.000000000,-20.468761444,-107.388442993,0.000000000,-19.020000458,14.399986267
1747398434.586458,46.507000000,0.000000000,0.000000000,0.000000000,0.000000000,-20.468761444,-105.638214111,0.000000000,-19.020000458,14.399986267
1747398434.588898,46.509000000,0.000000000,0.000000000,0.000000000,0.000000000,-20.482261658,-106.861480713,0.000000000,-19.028999329,14.130020142
1747398434.591341,46.512000000,0.000000000,0.000000000,0.000000000,0.000000000,-20.482261658,-108.617782593,0.000000000,-19.028999329,14.130020142
1747398434.593761,46.514000000,0.000000000,0.000000000,0.000000000,0.000000000,-20.468761444,-107.386962891,0.000000000,-19.028999329,14.130020142
1747398434.596202,46.516000000,0.000000000,0.000000000,0.000000000,0.000000000,-20.468761444,-105.638870239,0.000000000,-19.028999329,14.130020142
1747398434.598655,46.519000000,0.000000000,0.000000000,0.000000000,0.000000000,-20.482261658,-106.870727539,0.000000000,-19.028999329,14.130020142
1747398434.601080,46.521000000,0.000000000,0.000000000,0.000000000,0.000000000,-20.482261658,-108.618438721,0.000000000,-19.028999329,14.130020142
1747398434.603471,46.524000000,0.000000000,0.000000000,0.000000000,0.000000000,-20.482261658,-108.618606567,0.000000000,-19.028999329,14.130020142
1747398434.605847,46.526000000,0.000000000,0.000000000,0.000000000,0.000000000,-20.482261658,-108.618774414,0.000000000,-19.028999329,14.130020142
1747398434.608237,46.529000000,0.000000000,0.000000000,0.000000000,0.000000000,-20.468761444,-107.433303833,0.000000000,-19.028999329,14.130020142
1747398434.610651,46.531000000,0.000000000,0.000000000,0.000000000,0.000000000,-20.468761444,-105.639846802,0.000000000,-19.028999329,14.130020142
1747398434.613138,46.533000000,0.000000000,0.000000000,0.000000000,0.000000000,-20.482261658,-106.841247559,0.000000000,-19.028999329,14.130020142
1747398434.615587,46.536000000,0.000000000,0.000000000,0.000000000,0.000000000,-20.468761444,-107.396301270,0.000000000,-19.028999329,14.130020142
1747398434.618078,46.538000000,0.000000000,0.000000000,0.000000000,0.000000000,-20.482261658,-106.873458862,0.000000000,-19.028999329,14.130020142
1747398434.620517,46.541000000,0.000000000,0.000000000,0.000000000,0.000000000,-20.482261658,-108.619750977,0.000000000,-19.028999329,14.130020142
1747398434.622832,46.543000000,0.000000000,0.000000000,0.000000000,0.000000000,-20.468761444,-107.383941650,0.000000000,-19.028999329,14.130020142
1747398434.625211,46.546000000,0.000000000,0.000000000,0.000000000,0.000000000,-20.482261658,-106.820419312,0.000000000,-19.028999329,14.130020142
1747398434.627640,46.548000000,0.000000000,0.000000000,0.000000000,0.000000000,-20.482261658,-108.620239258,0.000000000,-19.028999329,14.130020142
1747398434.630016,46.550000000,0.000000000,0.000000000,0.000000000,0.000000000,-20.468761444,-107.430282593,0.000000000,-19.028999329,14.130020142
1747398434.632394,46.553000000,0.000000000,0.000000000,0.000000000,0.000000000,-20.482261658,-106.836639404,0.000000000,-19.028999329,14.130020142
1747398434.634743,46.555000000,0.000000000,0.000000000,0.000000000,0.000000000,-20.482261658,-108.620712280,0.000000000,-19.028999329,14.130020142
1747398434.637078,46.557000000,0.000000000,0.000000000,0.000000000,0.000000000,-20.468761444,-107.465026855,0.000000000,-19.028999329,14.130020142
1747398434.639449,46.560000000,0.000000000,0.000000000,0.000000000,0.000000000,-20.482261658,-106.804595947,0.000000000,-19.028999329,14.130020142
1747398434.641872,46.562000000,0.000000000,0.000000000,0.000000000,0.000000000,-20.482261658,-108.621200562,0.000000000,-19.028999329,14.130020142
1747398434.644309,46.565000000,0.000000000,0.000000000,0.000000000,0.000000000,-20.482261658,-108.621368408,0.000000000,-19.028999329,14.130020142
1747398434.646726,46.567000000,0.000000000,0.000000000,0.000000000,0.000000000,-20.482261658,-108.621520996,0.000000000,-19.028999329,14.130020142
1747398434.649159,46.569000000,0.000000000,0.000000000,0.000000000,0.000000000,-20.482261658,-108.621688843,0.000000000,-19.028999329,14.130020142
1747398434.651588,46.572000000,0.000000000,0.000000000,0.000000000,0.000000000,-20.482261658,-108.621856689,0.000000000,-19.028999329,14.130020142
1747398434.654027,46.574000000,0.000000000,0.000000000,0.000000000,0.000000000,-20.482261658,-108.622024536,0.000000000,-19.028999329,14.130020142
1747398434.656467,46.577000000,0.000000000,0.000000000,0.000000000,0.000000000,-20.482261658,-108.622192383,0.000000000,-19.028999329,14.130020142
1747398434.658921,46.579000000,0.000000000,0.000000000,0.000000000,0.000000000,-20.482261658,-108.622360229,0.000000000,-19.028999329,14.130020142
1747398434.661381,46.582000000,0.000000000,0.000000000,0.000000000,0.000000000,-20.482261658,-108.622528076,0.000000000,-19.028999329,14.130020142
1747398434.663835,46.584000000,0.000000000,0.000000000,0.000000000,0.000000000,-20.482261658,-108.622695923,0.000000000,-19.028999329,14.130020142
1747398434.666277,46.587000000,0.000000000,0.000000000,0.000000000,0.000000000,-20.482261658,-108.622863770,0.000000000,-19.028999329,14.130020142
1747398434.668723,46.589000000,0.000000000,0.000000000,0.000000000,0.000000000,-20.482261658,-108.623031616,0.000000000,-19.028999329,14.130020142
1747398434.671228,46.591000000,0.000000000,0.000000000,0.000000000,0.000000000,-20.482261658,-108.623199463,0.000000000,-19.028999329,14.130020142
1747398434.673647,46.594000000,0.000000000,0.000000000,0.000000000,0.000000000,-20.482261658,-108.623367310,0.000000000,-19.028999329,14.130020142
1747398434.676163,46.596000000,0.000000000,0.000000000,0.000000000,0.000000000,-20.482261658,-108.623535156,0.000000000,-19.028999329,14.130020142
1747398434.678574,46.599000000,0.000000000,0.000000000,0.000000000,0.000000000,-20.482261658,-108.623687744,0.000000000,-19.028999329,14.130020142
1747398434.681012,46.601000000,0.000000000,0.000000000,0.000000000,0.000000000,-20.482261658,-108.623855591,0.000000000,-19.028999329,14.130020142
1747398434.683441,46.604000000,0.000000000,0.000000000,0.000000000,0.000000000,-20.482261658,-108.624023438,0.000000000,-19.028999329,14.130020142
1747398434.685887,46.606000000,0.000000000,0.000000000,0.000000000,0.000000000,-20.482261658,-108.624191284,0.000000000,-19.028999329,14.130020142
1747398434.688362,46.609000000,0.000000000,0.000000000,0.000000000,0.000000000,-20.482261658,-108.624359131,0.000000000,-19.028999329,14.130020142
1747398434.690797,46.611000000,0.000000000,0.000000000,0.000000000,0.000000000,-20.482261658,-108.624526978,0.000000000,-19.028999329,14.130020142
1747398434.693183,46.614000000,0.000000000,0.000000000,0.000000000,0.000000000,-20.482261658,-108.624694824,0.000000000,-19.028999329,14.130020142
1747398434.695549,46.616000000,0.000000000,0.000000000,0.000000000,0.000000000,-20.482261658,-108.624862671,0.000000000,-19.028999329,14.130020142
1747398434.697994,46.618000000,0.000000000,0.000000000,0.000000000,0.000000000,-20.482261658,-108.625015259,0.000000000,-19.028999329,14.130020142
1747398434.700452,46.621000000,0.000000000,0.000000000,0.000000000,0.000000000,-20.468761444,-107.382156372,0.000000000,-19.028999329,14.130020142
1747398434.702888,46.623000000,0.000000000,0.000000000,0.000000000,0.000000000,-20.468761444,-105.646102905,0.000000000,-19.028999329,14.130020142
1747398434.705347,46.626000000,0.000000000,0.000000000,0.000000000,0.000000000,-20.482261658,-106.867218018,0.000000000,-19.028999329,14.130020142
1747398434.707783,46.628000000,0.000000000,0.000000000,0.000000000,0.000000000,-20.482261658,-108.625686646,0.000000000,-19.028999329,14.130020142
1747398434.710220,46.631000000,0.000000000,0.000000000,0.000000000,0.000000000,-20.468761444,-107.407791138,0.000000000,-19.028999329,14.130020142
1747398434.712664,46.633000000,0.000000000,0.000000000,0.000000000,0.000000000,-20.468761444,-105.646759033,0.000000000,-19.028999329,14.130020142
1747398434.715143,46.635000000,0.000000000,0.000000000,0.000000000,0.000000000,-20.482261658,-106.865707397,0.000000000,-19.028999329,14.130020142
1747398434.717566,46.638000000,0.000000000,0.000000000,0.000000000,0.000000000,-20.482261658,-108.626342773,0.000000000,-19.028999329,14.130020142
1747398434.720005,46.640000000,0.000000000,0.000000000,0.000000000,0.000000000,-20.468761444,-107.397659302,0.000000000,-19.028999329,14.130020142
1747398434.722503,46.643000000,0.000000000,0.000000000,0.000000000,0.000000000,-20.482261658,-106.871963501,0.000000000,-19.028999329,14.130020142
1747398434.724909,46.645000000,0.000000000,0.000000000,0.000000000,0.000000000,-20.482261658,-108.626831055,0.000000000,-19.028999329,14.130020142
1747398434.727328,46.648000000,0.000000000,0.000000000,0.000000000,0.000000000,-20.468761444,-107.408218384,0.000000000,-19.028999329,14.130020142
1747398434.729776,46.650000000,0.000000000,0.000000000,0.000000000,0.000000000,-20.468761444,-105.647918701,0.000000000,-19.028999329,14.130020142
1747398434.732430,46.653000000,0.000000000,0.000000000,0.000000000,0.000000000,-20.482261658,-106.875503540,0.000000000,-19.028999329,14.130020142
1747398434.734791,46.655000000,0.000000000,0.000000000,0.000000000,0.000000000,-20.482261658,-108.627502441,0.000000000,-19.028999329,14.130020142
1747398434.737162,46.657000000,0.000000000,0.000000000,0.000000000,0.000000000,-20.468761444,-107.445053101,0.000000000,-19.028999329,14.130020142
1747398434.739550,46.660000000,0.000000000,0.000000000,0.000000000,0.000000000,-20.468761444,-105.648574829,0.000000000,-19.028999329,14.130020142
1747398434.741933,46.662000000,0.000000000,0.000000000,0.000000000,0.000000000,-20.482261658,-106.827575684,0.000000000,-19.028999329,14.130020142
1747398434.744311,46.665000000,0.000000000,0.000000000,0.000000000,0.000000000,-20.482261658,-108.628143311,0.000000000,-19.028999329,14.130020142
1747398434.746702,46.667000000,0.000000000,0.000000000,0.000000000,0.000000000,-20.482261658,-108.628311157,0.000000000,-19.028999329,14.130020142
1747398434.749081,46.669000000,0.000000000,0.000000000,0.000000000,0.000000000,-20.482261658,-108.628463745,0.000000000,-19.028999329,14.130020142
1747398434.751464,46.672000000,0.000000000,0.000000000,0.000000000,0.000000000,-20.482261658,-108.628631592,0.000000000,-19.028999329,14.130020142
1747398434.753879,46.674000000,0.000000000,0.000000000,0.000000000,0.000000000,-20.482261658,-108.628799438,0.000000000,-19.028999329,14.130020142
1747398434.756261,46.677000000,0.000000000,0.000000000,0.000000000,0.000000000,-20.468761444,-107.424026489,0.000000000,-19.028999329,14.130020142
1747398434.758657,46.679000000,0.000000000,0.000000000,0.000000000,0.000000000,-20.468761444,-105.649871826,0.000000000,-19.028999329,14.130020142
1747398434.761044,46.681000000,0.000000000,0.000000000,0.000000000,0.000000000,-20.482261658,-106.845352173,0.000000000,-19.028999329,14.130020142
1747398434.763443,46.684000000,0.000000000,0.000000000,0.000000000,0.000000000,-20.482261658,-108.629440308,0.000000000,-19.028999329,14.130020142
1747398434.765812,46.686000000,0.000000000,0.000000000,0.000000000,0.000000000,-20.482261658,-108.629592896,0.000000000,-19.028999329,14.130020142
1747398434.768208,46.689000000,0.000000000,0.000000000,0.000000000,0.000000000,-20.482261658,-108.629760742,0.000000000,-19.028999329,14.130020142
1747398434.770587,46.691000000,0.000000000,0.000000000,0.000000000,0.000000000,-20.482261658,-108.629928589,0.000000000,-19.028999329,14.130020142
1747398434.772944,46.693000000,0.000000000,0.000000000,0.000000000,0.000000000,-20.482261658,-108.630081177,0.000000000,-19.028999329,14.130020142
1747398434.775327,46.696000000,0.000000000,0.000000000,0.000000000,0.000000000,-20.482261658,-108.630249023,0.000000000,-19.028999329,14.130020142
1747398434.777712,46.698000000,0.000000000,0.000000000,0.000000000,0.000000000,-20.482261658,-108.630416870,0.000000000,-19.028999329,14.130020142
1747398434.780102,46.700000000,0.000000000,0.000000000,0.000000000,0.000000000,-20.482261658,-108.630569458,0.000000000,-19.028999329,14.130020142
1747398434.782477,46.703000000,0.000000000,0.000000000,0.000000000,0.000000000,-20.482261658,-108.630737305,0.000000000,-19.028999329,14.130020142
1747398434.784837,46.705000000,0.000000000,0.000000000,0.000000000,0.000000000,-20.482261658,-108.630889893,0.000000000,-19.028999329,14.130020142
1747398434.787252,46.708000000,0.000000000,0.000000000,0.000000000,0.000000000,-20.482261658,-108.631057739,0.000000000,-19.028999329,14.130020142
1747398434.789657,46.710000000,0.000000000,0.000000000,0.000000000,0.000000000,-20.482261658,-108.631225586,0.000000000,-19.028999329,14.130020142
1747398434.792029,46.712000000,0.000000000,0.000000000,0.000000000,0.000000000,-20.482261658,-108.631393433,0.000000000,-19.028999329,14.130020142
1747398434.794406,46.715000000,0.000000000,0.000000000,0.000000000,0.000000000,-20.482261658,-108.631546021,0.000000000,-19.028999329,14.130020142
1747398434.796830,46.717000000,0.000000000,0.000000000,0.000000000,0.000000000,-20.482261658,-108.631713867,0.000000000,-19.028999329,14.130020142
1747398434.799260,46.720000000,0.000000000,0.000000000,0.000000000,0.000000000,-20.482261658,-108.631881714,0.000000000,-19.028999329,14.130020142
1747398434.801690,46.722000000,0.000000000,0.000000000,0.000000000,0.000000000,-20.482261658,-108.632049561,0.000000000,-19.028999329,14.130020142
1747398434.804129,46.724000000,0.000000000,0.000000000,0.000000000,0.000000000,-20.482261658,-108.632202148,0.000000000,-19.028999329,14.130020142
1747398434.806565,46.727000000,0.000000000,0.000000000,0.000000000,0.000000000,-20.482261658,-108.632369995,0.000000000,-19.028999329,14.130020142
1747398434.808944,46.729000000,0.000000000,0.000000000,0.000000000,0.000000000,-20.482261658,-108.632537842,0.000000000,-19.028999329,14.130020142
1747398434.811320,46.732000000,0.000000000,0.000000000,0.000000000,0.000000000,-20.482261658,-108.632705688,0.000000000,-19.028999329,14.130020142
1747398434.813700,46.734000000,0.000000000,0.000000000,0.000000000,0.000000000,-20.482261658,-108.632858276,0.000000000,-19.028999329,14.130020142
1747398434.816078,46.736000000,0.000000000,0.000000000,0.000000000,0.000000000,-20.482261658,-108.633026123,0.000000000,-19.028999329,14.130020142
1747398434.818434,46.739000000,0.000000000,0.000000000,0.000000000,0.000000000,-20.482261658,-108.633193970,0.000000000,-19.028999329,14.130020142
1747398434.820807,46.741000000,0.000000000,0.000000000,0.000000000,0.000000000,-20.482261658,-108.633346558,0.000000000,-19.028999329,14.130020142
1747398434.823199,46.744000000,0.000000000,0.000000000,0.000000000,0.000000000,-20.482261658,-108.633514404,0.000000000,-19.028999329,14.130020142
1747398434.825554,46.746000000,0.000000000,0.000000000,0.000000000,0.000000000,-20.482261658,-108.633666992,0.000000000,-19.028999329,14.130020142
1747398434.827972,46.748000000,0.000000000,0.000000000,0.000000000,0.000000000,-20.482261658,-108.633834839,0.000000000,-19.028999329,14.130020142
1747398434.830356,46.751000000,0.000000000,0.000000000,0.000000000,0.000000000,-20.482261658,-108.634002686,0.000000000,-19.028999329,14.130020142
1747398434.832726,46.753000000,0.000000000,0.000000000,0.000000000,0.000000000,-20.482261658,-108.634155273,0.000000000,-19.028999329,14.130020142
1747398434.835118,46.755000000,0.000000000,0.000000000,0.000000000,0.000000000,-20.482261658,-108.634323120,0.000000000,-19.028999329,14.130020142
1747398434.837513,46.758000000,0.000000000,0.000000000,0.000000000,0.000000000,-20.468761444,-107.448867798,0.000000000,-19.028999329,14.130020142
1747398434.839896,46.760000000,0.000000000,0.000000000,0.000000000,0.000000000,-20.468761444,-105.655395508,0.000000000,-19.028999329,14.130020142
1747398434.842292,46.763000000,0.000000000,0.000000000,0.000000000,0.000000000,-20.482261658,-106.843429565,0.000000000,-19.028999329,14.130020142
1747398434.844647,46.765000000,0.000000000,0.000000000,0.000000000,0.000000000,-20.482261658,-108.634963989,0.000000000,-19.028999329,14.130020142
1747398434.847023,46.767000000,0.000000000,0.000000000,0.000000000,0.000000000,-20.482261658,-108.635131836,0.000000000,-19.028999329,14.130020142
1747398434.849412,46.770000000,0.000000000,0.000000000,0.000000000,0.000000000,-20.482261658,-108.635284424,0.000000000,-19.028999329,14.130020142
1747398434.851780,46.772000000,0.000000000,0.000000000,0.000000000,0.000000000,-20.468761444,-107.458892822,0.000000000,-19.028999329,14.130020142
1747398434.854165,46.774000000,0.000000000,0.000000000,0.000000000,0.000000000,-20.468761444,-105.656356812,0.000000000,-19.028999329,14.130020142
1747398434.856570,46.777000000,0.000000000,0.000000000,0.000000000,0.000000000,-20.482261658,-106.833084106,0.000000000,-19.028999329,14.130020142
1747398434.859044,46.779000000,0.000000000,0.000000000,0.000000000,0.000000000,-20.482261658,-108.635925293,0.000000000,-19.028999329,14.130020142
1747398434.861498,46.782000000,0.000000000,0.000000000,0.000000000,0.000000000,-20.482261658,-108.636093140,0.000000000,-19.028999329,14.130020142
1747398434.863886,46.784000000,0.000000000,0.000000000,0.000000000,0.000000000,-20.482261658,-108.636260986,0.000000000,-19.028999329,14.130020142
1747398434.866277,46.787000000,0.000000000,0.000000000,0.000000000,0.000000000,-20.468761444,-107.447814941,0.000000000,-19.028999329,14.130020142
1747398434.868653,46.789000000,0.000000000,0.000000000,0.000000000,0.000000000,-20.468761444,-105.657348633,0.000000000,-19.028999329,14.130020142
1747398434.871035,46.791000000,0.000000000,0.000000000,0.000000000,0.000000000,-20.482261658,-106.835586548,0.000000000,-19.028999329,14.130020142
1747398434.873447,46.794000000,0.000000000,0.000000000,0.000000000,0.000000000,-20.482261658,-108.636901855,0.000000000,-19.028999329,14.130020142
1747398434.875953,46.796000000,0.000000000,0.000000000,0.000000000,0.000000000,-20.482261658,-108.637069702,0.000000000,-19.028999329,14.130020142
1747398434.878360,46.799000000,0.000000000,0.000000000,0.000000000,0.000000000,-20.482261658,-108.637237549,0.000000000,-19.028999329,14.130020142
1747398434.880812,46.801000000,0.000000000,0.000000000,0.000000000,0.000000000,-20.468761444,-107.433944702,0.000000000,-19.028999329,14.130020142
1747398434.883197,46.803000000,0.000000000,0.000000000,0.000000000,0.000000000,-20.468761444,-105.658325195,0.000000000,-19.028999329,14.130020142
1747398434.885604,46.806000000,0.000000000,0.000000000,0.000000000,0.000000000,-20.482261658,-106.858993530,0.000000000,-19.028999329,14.130020142
1747398434.888045,46.808000000,0.000000000,0.000000000,0.000000000,0.000000000,-20.482261658,-108.637893677,0.000000000,-19.028999329,14.130020142
1747398434.890464,46.811000000,0.000000000,0.000000000,0.000000000,0.000000000,-20.482261658,-108.638061523,0.000000000,-19.028999329,14.130020142
1747398434.892874,46.813000000,0.000000000,0.000000000,0.000000000,0.000000000,-20.482261658,-108.638229370,0.000000000,-19.028999329,14.130020142
1747398434.895284,46.816000000,0.000000000,0.000000000,0.000000000,0.000000000,-20.482261658,-108.638381958,0.000000000,-19.028999329,14.130020142
1747398434.897709,46.818000000,0.000000000,0.000000000,0.000000000,0.000000000,-20.482261658,-108.638549805,0.000000000,-19.028999329,14.130020142
1747398434.900037,46.820000000,0.000000000,0.000000000,0.000000000,0.000000000,-20.482261658,-108.638717651,0.000000000,-19.028999329,14.130020142
1747398434.902417,46.823000000,0.000000000,0.000000000,0.000000000,0.000000000,-20.482261658,-108.638870239,0.000000000,-19.028999329,14.130020142
1747398434.904824,46.825000000,0.000000000,0.000000000,0.000000000,0.000000000,-20.482261658,-108.639038086,0.000000000,-19.028999329,14.130020142
1747398434.907220,46.828000000,0.000000000,0.000000000,0.000000000,0.000000000,-20.482261658,-108.639205933,0.000000000,-19.028999329,14.130020142
1747398434.909595,46.830000000,0.000000000,0.000000000,0.000000000,0.000000000,-20.482261658,-108.639358521,0.000000000,-19.028999329,14.130020142
1747398434.912030,46.832000000,0.000000000,0.000000000,0.000000000,0.000000000,-20.482261658,-108.639526367,0.000000000,-19.028999329,14.130020142
1747398434.914475,46.835000000,0.000000000,0.000000000,0.000000000,0.000000000,-20.482261658,-108.639694214,0.000000000,-19.028999329,14.130020142
1747398434.916923,46.837000000,0.000000000,0.000000000,0.000000000,0.000000000,-20.482261658,-108.639862061,0.000000000,-19.028999329,14.130020142
1747398434.919396,46.840000000,0.000000000,0.000000000,0.000000000,0.000000000,-20.482261658,-108.640029907,0.000000000,-19.028999329,14.130020142
1747398434.921870,46.842000000,0.000000000,0.000000000,0.000000000,0.000000000,-20.482261658,-108.640197754,0.000000000,-19.028999329,14.130020142
1747398434.924333,46.845000000,0.000000000,0.000000000,0.000000000,0.000000000,-20.482261658,-108.640365601,0.000000000,-19.028999329,14.130020142
1747398434.926891,46.847000000,0.000000000,0.000000000,0.000000000,0.000000000,-20.482261658,-108.640533447,0.000000000,-19.028999329,14.130020142
1747398434.929302,46.850000000,0.000000000,0.000000000,0.000000000,0.000000000,-20.482261658,-108.640716553,0.000000000,-19.028999329,14.130020142
1747398434.931735,46.852000000,0.000000000,0.000000000,0.000000000,0.000000000,-20.468761444,-107.454498291,0.000000000,-19.028999329,14.130020142
1747398434.934222,46.854000000,0.000000000,0.000000000,0.000000000,0.000000000,-20.468761444,-105.661788940,0.000000000,-19.028999329,14.130020142
1747398434.936583,46.857000000,0.000000000,0.000000000,0.000000000,0.000000000,-20.482261658,-106.890075684,0.000000000,-19.028999329,14.130020142
1747398434.938963,46.859000000,0.000000000,0.000000000,0.000000000,0.000000000,-20.482261658,-108.641357422,0.000000000,-19.028999329,14.130020142
1747398434.941455,46.862000000,0.000000000,0.000000000,0.000000000,0.000000000,-20.482261658,-108.641525269,0.000000000,-19.028999329,14.130020142
1747398434.943897,46.864000000,0.000000000,0.000000000,0.000000000,0.000000000,-20.482261658,-108.641677856,0.000000000,-19.028999329,14.130020142
1747398434.946365,46.867000000,0.000000000,0.000000000,0.000000000,0.000000000,-20.468761444,-107.397415161,0.000000000,-19.028999329,14.130020142
1747398434.948847,46.869000000,0.000000000,0.000000000,0.000000000,0.000000000,-20.468761444,-105.662765503,0.000000000,-19.028999329,14.130020142
1747398434.951346,46.872000000,0.000000000,0.000000000,0.000000000,0.000000000,-20.482261658,-106.915069580,0.000000000,-19.028999329,14.130020142
1747398434.953838,46.874000000,0.000000000,0.000000000,0.000000000,0.000000000,-20.482261658,-108.642349243,0.000000000,-19.028999329,14.130020142
1747398434.956296,46.877000000,0.000000000,0.000000000,0.000000000,0.000000000,-20.482261658,-108.642517090,0.000000000,-19.028999329,14.130020142
1747398434.958779,46.879000000,0.000000000,0.000000000,0.000000000,0.000000000,-20.482261658,-108.642684937,0.000000000,-19.028999329,14.130020142
1747398434.961227,46.881000000,0.000000000,0.000000000,0.000000000,0.000000000,-20.468761444,-107.393524170,0.000000000,-19.028999329,14.130020142
1747398434.963612,46.884000000,0.000000000,0.000000000,0.000000000,0.000000000,-20.468761444,-105.663772583,0.000000000,-19.028999329,14.130020142
1747398434.965997,46.886000000,0.000000000,0.000000000,0.000000000,0.000000000,-20.482261658,-106.843521118,0.000000000,-19.028999329,14.130020142
1747398434.968390,46.889000000,0.000000000,0.000000000,0.000000000,0.000000000,-20.482261658,-108.643341064,0.000000000,-19.028999329,14.130020142
1747398434.970758,46.891000000,0.000000000,0.000000000,0.000000000,0.000000000,-20.482261658,-108.643508911,0.000000000,-19.028999329,14.130020142
1747398434.973193,46.893000000,0.000000000,0.000000000,0.000000000,0.000000000,-20.482261658,-108.643661499,0.000000000,-19.028999329,14.130020142
1747398434.975812,46.896000000,0.000000000,0.000000000,0.000000000,0.000000000,-20.468761444,-107.406448364,0.000000000,-19.028999329,14.130020142
1747398434.978357,46.899000000,0.000000000,0.000000000,0.000000000,0.000000000,-20.468761444,-105.664764404,0.000000000,-19.028999329,14.130020142
1747398434.980877,46.901000000,0.000000000,0.000000000,0.000000000,0.000000000,-20.482261658,-106.963134766,0.000000000,-19.028999329,14.130020142
1747398434.983475,46.904000000,0.000000000,0.000000000,0.000000000,0.000000000,-20.482261658,-108.644348145,0.000000000,-19.028999329,14.130020142
1747398434.986002,46.906000000,0.000000000,0.000000000,0.000000000,0.000000000,-20.482261658,-108.644531250,0.000000000,-19.028999329,14.130020142
1747398434.988504,46.909000000,0.000000000,0.000000000,0.000000000,0.000000000,-20.482261658,-108.644699097,0.000000000,-19.028999329,14.130020142
1747398434.990949,46.911000000,0.000000000,0.000000000,0.000000000,0.000000000,-20.468761444,-107.376190186,0.000000000,-19.028999329,14.130020142
1747398434.993387,46.914000000,0.000000000,0.000000000,0.000000000,0.000000000,-20.468761444,-105.665786743,0.000000000,-19.028999329,14.130020142
1747398434.995791,46.916000000,0.000000000,0.000000000,0.000000000,0.000000000,-20.482261658,-106.904754639,0.000000000,-19.028999329,14.130020142
1747398434.998188,46.918000000,0.000000000,0.000000000,0.000000000,0.000000000,-20.482261658,-108.645355225,0.000000000,-19.028999329,14.130020142
1747398435.000569,46.921000000,0.000000000,0.000000000,0.000000000,0.000000000,-20.482261658,-108.645523071,0.000000000,-19.028999329,14.130020142
1747398435.002944,46.923000000,0.000000000,0.000000000,0.000000000,0.000000000,-20.482261658,-108.645675659,0.000000000,-19.028999329,14.130020142
1747398435.005336,46.926000000,0.000000000,0.000000000,0.000000000,0.000000000,-20.482261658,-108.645843506,0.000000000,-19.028999329,14.130020142
1747398435.007714,46.928000000,0.000000000,0.000000000,0.000000000,0.000000000,-20.482261658,-108.646011353,0.000000000,-19.028999329,14.130020142
1747398435.010151,46.930000000,0.000000000,0.000000000,0.000000000,0.000000000,-20.468761444,-107.466583252,0.000000000,-19.028999329,14.130020142
1747398435.012593,46.933000000,0.000000000,0.000000000,0.000000000,0.000000000,-20.482261658,-106.891632080,0.000000000,-19.028999329,14.130020142
1747398435.015063,46.935000000,0.000000000,0.000000000,0.000000000,0.000000000,-20.482261658,-108.646499634,0.000000000,-19.028999329,14.130020142
1747398435.017508,46.938000000,0.000000000,0.000000000,0.000000000,0.000000000,-20.482261658,-108.646667480,0.000000000,-19.028999329,14.130020142
1747398435.019970,46.940000000,0.000000000,0.000000000,0.000000000,0.000000000,-20.482261658,-108.646835327,0.000000000,-19.028999329,14.130020142
1747398435.022578,46.943000000,0.000000000,0.000000000,0.000000000,0.000000000,-20.468761444,-107.410324097,0.000000000,-19.028999329,14.130020142
1747398435.024982,46.945000000,0.000000000,0.000000000,0.000000000,0.000000000,-20.482261658,-107.012313843,0.000000000,-19.028999329,14.130020142
1747398435.027461,46.948000000,0.000000000,0.000000000,0.000000000,0.000000000,-20.482261658,-108.647338867,0.000000000,-19.028999329,14.130020142
1747398435.029999,46.950000000,0.000000000,0.000000000,0.000000000,0.000000000,-20.482261658,-108.647506714,0.000000000,-19.028999329,14.130020142
1747398435.032452,46.953000000,0.000000000,0.000000000,0.000000000,0.000000000,-20.482261658,-108.647689819,0.000000000,-19.028999329,14.130020142
1747398435.034975,46.955000000,0.000000000,0.000000000,0.000000000,0.000000000,-20.482261658,-108.647857666,0.000000000,-19.028999329,14.130020142
1747398435.037363,46.958000000,0.000000000,0.000000000,0.000000000,0.000000000,-20.482261658,-108.648010254,0.000000000,-19.028999329,14.130020142
1747398435.039714,46.960000000,0.000000000,0.000000000,0.000000000,0.000000000,-20.468761444,-107.419342041,0.000000000,-19.028999329,14.130020142
1747398435.042132,46.962000000,0.000000000,0.000000000,0.000000000,0.000000000,-20.482261658,-106.867385864,0.000000000,-19.028999329,14.130020142
1747398435.044616,46.965000000,0.000000000,0.000000000,0.000000000,0.000000000,-20.482261658,-108.648513794,0.000000000,-19.028999329,14.130020142
1747398435.047046,46.967000000,0.000000000,0.000000000,0.000000000,0.000000000,-20.482261658,-108.648681641,0.000000000,-19.028999329,14.130020142
1747398435.049517,46.970000000,0.000000000,0.000000000,0.000000000,0.000000000,-20.482261658,-108.648849487,0.000000000,-19.028999329,14.130020142
1747398435.051933,46.972000000,0.000000000,0.000000000,0.000000000,0.000000000,-20.468761444,-107.436035156,0.000000000,-19.028999329,14.130020142
1747398435.054388,46.975000000,0.000000000,0.000000000,0.000000000,0.000000000,-20.468761444,-105.669921875,0.000000000,-19.028999329,14.130020142
1747398435.056831,46.977000000,0.000000000,0.000000000,0.000000000,0.000000000,-20.482261658,-106.903930664,0.000000000,-19.028999329,14.130020142
1747398435.059277,46.980000000,0.000000000,0.000000000,0.000000000,0.000000000,-20.482261658,-108.649505615,0.000000000,-19.028999329,14.130020142
1747398435.061669,46.982000000,0.000000000,0.000000000,0.000000000,0.000000000,-20.482261658,-108.649673462,0.000000000,-19.028999329,14.130020142
1747398435.064065,46.984000000,0.000000000,0.000000000,0.000000000,0.000000000,-20.482261658,-108.649826050,0.000000000,-19.028999329,14.130020142
1747398435.066438,46.987000000,0.000000000,0.000000000,0.000000000,0.000000000,-20.482261658,-108.649993896,0.000000000,-19.028999329,14.130020142
1747398435.068837,46.989000000,0.000000000,0.000000000,0.000000000,0.000000000,-20.482261658,-108.650146484,0.000000000,-19.028999329,14.130020142
1747398435.071201,46.992000000,0.000000000,0.000000000,0.000000000,0.000000000,-20.468761444,-107.464691162,0.000000000,-19.028999329,14.130020142
1747398435.073567,46.994000000,0.000000000,0.000000000,0.000000000,0.000000000,-20.482261658,-106.843994141,0.000000000,-19.028999329,14.130020142
1747398435.075949,46.996000000,0.000000000,0.000000000,0.000000000,0.000000000,-20.482261658,-108.650634766,0.000000000,-19.028999329,14.130020142
1747398435.078363,46.999000000,0.000000000,0.000000000,0.000000000,0.000000000,-20.482261658,-108.650802612,0.000000000,-19.028999329,14.130020142
1747398435.080794,47.001000000,0.000000000,0.000000000,0.000000000,0.000000000,-20.482261658,-108.650955200,0.000000000,-19.028999329,14.130020142
1747398435.083218,47.004000000,0.000000000,0.000000000,0.000000000,0.000000000,-20.482261658,-108.651123047,0.000000000,-19.028999329,14.130020142
1747398435.085632,47.006000000,0.000000000,0.000000000,0.000000000,0.000000000,-20.482261658,-108.651290894,0.000000000,-19.028999329,14.130020142
1747398435.087989,47.008000000,0.000000000,0.000000000,0.000000000,0.000000000,-20.468761444,-107.468078613,0.000000000,-19.028999329,14.130020142
1747398435.090391,47.011000000,0.000000000,0.000000000,0.000000000,0.000000000,-20.482261658,-106.848937988,0.000000000,-19.028999329,14.130020142
1747398435.092731,47.013000000,0.000000000,0.000000000,0.000000000,0.000000000,-20.482261658,-108.651779175,0.000000000,-19.028999329,14.130020142
1747398435.095114,47.015000000,0.000000000,0.000000000,0.000000000,0.000000000,-20.482261658,-108.651931763,0.000000000,-19.028999329,14.130020142
1747398435.097466,47.018000000,0.000000000,0.000000000,0.000000000,0.000000000,-20.482261658,-108.652099609,0.000000000,-19.028999329,14.130020142
1747398435.099812,47.020000000,0.000000000,0.000000000,0.000000000,0.000000000,-20.468761444,-107.496398926,0.000000000,-19.028999329,14.130020142
1747398435.102190,47.023000000,0.000000000,0.000000000,0.000000000,0.000000000,-20.482261658,-106.832122803,0.000000000,-19.028999329,14.130020142
1747398435.104572,47.025000000,0.000000000,0.000000000,0.000000000,0.000000000,-20.482261658,-108.652572632,0.000000000,-19.028999329,14.130020142
1747398435.106983,47.027000000,0.000000000,0.000000000,0.000000000,0.000000000,-20.482261658,-108.652740479,0.000000000,-19.028999329,14.130020142
1747398435.109322,47.030000000,0.000000000,0.000000000,0.000000000,0.000000000,-20.482261658,-108.652893066,0.000000000,-19.028999329,14.130020142
1747398435.111827,47.032000000,0.000000000,0.000000000,0.000000000,0.000000000,-20.482261658,-108.653060913,0.000000000,-19.028999329,14.130020142
1747398435.114158,47.034000000,0.000000000,0.000000000,0.000000000,0.000000000,-20.482261658,-108.653228760,0.000000000,-19.028999329,14.130020142
1747398435.116546,47.037000000,0.000000000,0.000000000,0.000000000,0.000000000,-20.482261658,-108.653381348,0.000000000,-19.028999329,14.130020142
1747398435.118912,47.039000000,0.000000000,0.000000000,0.000000000,0.000000000,-20.482261658,-108.653549194,0.000000000,-19.028999329,14.130020142
1747398435.121290,47.042000000,0.000000000,0.000000000,0.000000000,0.000000000,-20.482261658,-108.653701782,0.000000000,-19.028999329,14.130020142
1747398435.123649,47.044000000,0.000000000,0.000000000,0.000000000,0.000000000,-20.482261658,-108.653869629,0.000000000,-19.028999329,14.130020142
1747398435.126027,47.046000000,0.000000000,0.000000000,0.000000000,0.000000000,-20.482261658,-108.654037476,0.000000000,-19.028999329,14.130020142
1747398435.128429,47.049000000,0.000000000,0.000000000,0.000000000,0.000000000,-20.482261658,-108.654190063,0.000000000,-19.028999329,14.130020142
1747398435.130804,47.051000000,0.000000000,0.000000000,0.000000000,0.000000000,-20.482261658,-108.654357910,0.000000000,-19.028999329,14.130020142
1747398435.133151,47.053000000,0.000000000,0.000000000,0.000000000,0.000000000,-20.482261658,-108.654525757,0.000000000,-19.028999329,14.130020142
1747398435.135494,47.056000000,0.000000000,0.000000000,0.000000000,0.000000000,-20.482261658,-108.654678345,0.000000000,-19.028999329,14.130020142
1747398435.137859,47.058000000,0.000000000,0.000000000,0.000000000,0.000000000,-20.482261658,-108.654846191,0.000000000,-19.028999329,14.130020142
1747398435.140264,47.061000000,0.000000000,0.000000000,0.000000000,0.000000000,-20.482261658,-108.654998779,0.000000000,-19.028999329,14.130020142
1747398435.142636,47.063000000,0.000000000,0.000000000,0.000000000,0.000000000,-20.482261658,-108.655166626,0.000000000,-19.028999329,14.130020142
1747398435.145072,47.065000000,0.000000000,0.000000000,0.000000000,0.000000000,-20.482261658,-108.655334473,0.000000000,-19.028999329,14.130020142
1747398435.147427,47.068000000,0.000000000,0.000000000,0.000000000,0.000000000,-20.468761444,-107.463150024,0.000000000,-19.028999329,14.130020142
1747398435.149812,47.070000000,0.000000000,0.000000000,0.000000000,0.000000000,-20.468761444,-105.676406860,0.000000000,-19.028999329,14.130020142
1747398435.152197,47.072000000,0.000000000,0.000000000,0.000000000,0.000000000,-20.482261658,-106.847045898,0.000000000,-19.028999329,14.130020142
1747398435.154559,47.075000000,0.000000000,0.000000000,0.000000000,0.000000000,-20.482261658,-108.655975342,0.000000000,-19.028999329,14.130020142
1747398435.156941,47.077000000,0.000000000,0.000000000,0.000000000,0.000000000,-20.482261658,-108.656143188,0.000000000,-19.028999329,14.130020142
1747398435.159452,47.080000000,0.000000000,0.000000000,0.000000000,0.000000000,-20.482261658,-108.656295776,0.000000000,-19.028999329,14.130020142
1747398435.161900,47.082000000,0.000000000,0.000000000,0.000000000,0.000000000,-20.482261658,-108.656478882,0.000000000,-19.028999329,14.130020142
1747398435.164314,47.085000000,0.000000000,0.000000000,0.000000000,0.000000000,-20.482261658,-108.656646729,0.000000000,-19.028999329,14.130020142
1747398435.166725,47.087000000,0.000000000,0.000000000,0.000000000,0.000000000,-20.482261658,-108.656799316,0.000000000,-19.028999329,14.130020142
1747398435.169158,47.089000000,0.000000000,0.000000000,0.000000000,0.000000000,-20.482261658,-108.656967163,0.000000000,-19.028999329,14.130020142
1747398435.171566,47.092000000,0.000000000,0.000000000,0.000000000,0.000000000,-20.482261658,-108.657135010,0.000000000,-19.028999329,14.130020142
1747398435.173967,47.094000000,0.000000000,0.000000000,0.000000000,0.000000000,-20.482261658,-108.657302856,0.000000000,-19.028999329,14.130020142
1747398435.176457,47.097000000,0.000000000,0.000000000,0.000000000,0.000000000,-20.482261658,-108.657470703,0.000000000,-19.028999329,14.130020142
1747398435.178904,47.099000000,0.000000000,0.000000000,0.000000000,0.000000000,-20.482261658,-108.657638550,0.000000000,-19.028999329,14.130020142
1747398435.181334,47.102000000,0.000000000,0.000000000,0.000000000,0.000000000,-20.482261658,-108.657806396,0.000000000,-19.028999329,14.130020142
1747398435.183781,47.104000000,0.000000000,0.000000000,0.000000000,0.000000000,-20.482261658,-108.657974243,0.000000000,-19.028999329,14.130020142
1747398435.186218,47.106000000,0.000000000,0.000000000,0.000000000,0.000000000,-20.482261658,-108.658126831,0.000000000,-19.028999329,14.130020142
1747398435.188625,47.109000000,0.000000000,0.000000000,0.000000000,0.000000000,-20.482261658,-108.658294678,0.000000000,-19.028999329,14.130020142
1747398435.190991,47.111000000,0.000000000,0.000000000,0.000000000,0.000000000,-20.482261658,-108.658462524,0.000000000,-19.028999329,14.130020142
1747398435.193375,47.114000000,0.000000000,0.000000000,0.000000000,0.000000000,-20.482261658,-108.658630371,0.000000000,-19.028999329,14.130020142
1747398435.195775,47.116000000,0.000000000,0.000000000,0.000000000,0.000000000,-20.468761444,-107.479202271,0.000000000,-19.028999329,14.130020142
1747398435.198179,47.118000000,0.000000000,0.000000000,0.000000000,0.000000000,-20.468761444,-105.679702759,0.000000000,-19.028999329,14.130020142
1747398435.200601,47.121000000,0.000000000,0.000000000,0.000000000,0.000000000,-20.482261658,-106.879638672,0.000000000,-19.028999329,14.130020142
1747398435.203126,47.123000000,0.000000000,0.000000000,0.000000000,0.000000000,-20.482261658,-108.659271240,0.000000000,-19.028999329,14.130020142
1747398435.205483,47.126000000,0.000000000,0.000000000,0.000000000,0.000000000,-20.468761444,-107.449386597,0.000000000,-19.028999329,14.130020142
1747398435.207889,47.128000000,0.000000000,0.000000000,0.000000000,0.000000000,-20.468761444,-105.680358887,0.000000000,-19.028999329,14.130020142
1747398435.210363,47.131000000,0.000000000,0.000000000,0.000000000,0.000000000,-20.482261658,-106.869873047,0.000000000,-19.028999329,14.130020142
1747398435.212714,47.133000000,0.000000000,0.000000000,0.000000000,0.000000000,-20.468761444,-107.412689209,0.000000000,-19.028999329,14.130020142
1747398435.215145,47.135000000,0.000000000,0.000000000,0.000000000,0.000000000,-20.468761444,-105.680847168,0.000000000,-19.028999329,14.130020142
1747398435.217558,47.138000000,0.000000000,0.000000000,0.000000000,0.000000000,-20.482261658,-106.890335083,0.000000000,-19.028999329,14.130020142
1747398435.219951,47.140000000,0.000000000,0.000000000,0.000000000,0.000000000,-20.482261658,-108.660415649,0.000000000,-19.028999329,14.130020142
1747398435.222363,47.143000000,0.000000000,0.000000000,0.000000000,0.000000000,-20.468761444,-107.476455688,0.000000000,-19.028999329,14.130020142
1747398435.224816,47.145000000,0.000000000,0.000000000,0.000000000,0.000000000,-20.468761444,-105.681488037,0.000000000,-19.028999329,14.130020142
1747398435.227271,47.148000000,0.000000000,0.000000000,0.000000000,0.000000000,-20.482261658,-106.902603149,0.000000000,-19.028999329,14.130020142
