liamjosephnolan/thesis_matlab/pitch_prbs_response/old/prbs_roll_0_pitch_0.csv
__time,/psm_joint_telemetry/header/stamp,/psm_joint_telemetry/insertion/effort,/psm_joint_telemetry/insertion/position,/psm_joint_telemetry/insertion/velocity,/psm_joint_telemetry/pitch/effort,/psm_joint_telemetry/pitch/position,/psm_joint_telemetry/pitch/velocity,/psm_joint_telemetry/roll/effort,/psm_joint_telemetry/roll/position,/psm_joint_telemetry/roll/velocity
1748264180.786899,44.447000000,0.000000000,0.000000000,0.000000000,0.000000000,-1.770793438,-74.281455994,0.000000000,-0.066000223,-16.511642456
1748264180.789445,44.449000000,0.000000000,0.000000000,0.000000000,0.000000000,-1.770793438,-74.281455994,0.000000000,-0.066000223,-16.511642456
1748264180.791988,44.452000000,0.000000000,0.000000000,0.000000000,0.000000000,-1.770793438,-74.281455994,0.000000000,-0.066000223,-16.511642456
1748264180.794539,44.454000000,0.000000000,0.000000000,0.000000000,0.000000000,-1.770793438,-74.281455994,0.000000000,-0.066000223,-16.511642456
1748264180.797005,44.457000000,0.000000000,0.000000000,0.000000000,0.000000000,-1.770793438,-74.281455994,0.000000000,-0.066000223,-16.511642456
1748264180.799386,44.459000000,0.000000000,0.000000000,0.000000000,0.000000000,-1.770793438,-74.281455994,0.000000000,-0.066000223,-16.511642456
1748264180.801760,44.462000000,0.000000000,0.000000000,0.000000000,0.000000000,-1.770793438,-74.281455994,0.000000000,-0.066000223,-16.511642456
1748264180.804134,44.464000000,0.000000000,0.000000000,0.000000000,0.000000000,-1.770793438,-74.281455994,0.000000000,-0.066000223,-16.511642456
1748264180.806504,44.466000000,0.000000000,0.000000000,0.000000000,0.000000000,-1.770793438,-74.281455994,0.000000000,-0.066000223,-16.511642456
1748264180.808894,44.469000000,0.000000000,0.000000000,0.000000000,0.000000000,-1.770793438,-74.281455994,0.000000000,-0.066000223,-16.511642456
1748264180.811636,44.471000000,0.000000000,0.000000000,0.000000000,0.000000000,-1.770793438,-74.281455994,0.000000000,-0.066000223,-16.511642456
1748264180.814070,44.474000000,0.000000000,0.000000000,0.000000000,0.000000000,-1.770793438,-74.281455994,0.000000000,-0.066000223,-16.511642456
1748264180.816505,44.476000000,0.000000000,0.000000000,0.000000000,0.000000000,-1.770793438,-74.281455994,0.000000000,-0.066000223,-16.511642456
1748264180.818978,44.479000000,0.000000000,0.000000000,0.000000000,0.000000000,-1.770793438,-74.281455994,0.000000000,-0.066000223,-16.511642456
1748264180.821421,44.481000000,0.000000000,0.000000000,0.000000000,0.000000000,-1.770793438,-74.281455994,0.000000000,-0.066000223,-16.511642456
1748264180.823973,44.484000000,0.000000000,0.000000000,0.000000000,0.000000000,-1.770793438,-74.281455994,0.000000000,-0.066000223,-16.511642456
1748264180.826488,44.486000000,0.000000000,0.000000000,0.000000000,0.000000000,-1.770793438,-74.281455994,0.000000000,-0.066000223,-16.511642456
1748264180.829031,44.489000000,0.000000000,0.000000000,0.000000000,0.000000000,-1.770793438,-74.281455994,0.000000000,-0.066000223,-16.511642456
1748264180.831507,44.491000000,0.000000000,0.000000000,0.000000000,0.000000000,-1.770793438,-74.281455994,0.000000000,-0.066000223,-16.511642456
1748264180.833930,44.494000000,0.000000000,0.000000000,0.000000000,0.000000000,-1.770793438,-74.281455994,0.000000000,-0.066000223,-16.511642456
1748264180.836252,44.496000000,0.000000000,0.000000000,0.000000000,0.000000000,-1.770793438,-74.281455994,0.000000000,-0.066000223,-16.511642456
1748264180.838595,44.498000000,0.000000000,0.000000000,0.000000000,0.000000000,-1.770793438,-74.281455994,0.000000000,-0.066000223,-16.511642456
1748264180.840941,44.501000000,0.000000000,0.000000000,0.000000000,0.000000000,-1.770793438,-74.281455994,0.000000000,-0.066000223,-16.511642456
1748264180.843328,44.503000000,0.000000000,0.000000000,0.000000000,0.000000000,-1.770793438,-74.281455994,0.000000000,-0.066000223,-16.511642456
1748264180.845712,44.506000000,0.000000000,0.000000000,0.000000000,0.000000000,-1.770793438,-74.281455994,0.000000000,-0.066000223,-16.511642456
1748264180.848099,44.508000000,0.000000000,0.000000000,0.000000000,0.000000000,-1.770793438,-74.281455994,0.000000000,-0.066000223,-16.511642456
1748264180.850428,44.510000000,0.000000000,0.000000000,0.000000000,0.000000000,-1.770793438,-74.281455994,0.000000000,-0.066000223,-16.511642456
1748264180.852809,44.513000000,0.000000000,0.000000000,0.000000000,0.000000000,-1.770793438,-74.281455994,0.000000000,-0.066000223,-16.511642456
1748264180.855205,44.515000000,0.000000000,0.000000000,0.000000000,0.000000000,-1.770793438,-74.281455994,0.000000000,-0.066000223,-16.511642456
1748264180.857580,44.517000000,0.000000000,0.000000000,0.000000000,0.000000000,-1.770793438,-74.281455994,0.000000000,-0.066000223,-16.511642456
1748264180.859955,44.520000000,0.000000000,0.000000000,0.000000000,0.000000000,-1.770793438,-74.281455994,0.000000000,-0.066000223,-16.511642456
1748264180.862325,44.522000000,0.000000000,0.000000000,0.000000000,0.000000000,-1.770793438,-74.281455994,0.000000000,-0.066000223,-16.511642456
1748264180.864711,44.525000000,0.000000000,0.000000000,0.000000000,0.000000000,-1.770793438,-74.281455994,0.000000000,-0.066000223,-16.511642456
1748264180.867105,44.527000000,0.000000000,0.000000000,0.000000000,0.000000000,-1.770793438,-74.281455994,0.000000000,-0.066000223,-16.511642456
1748264180.869483,44.529000000,0.000000000,0.000000000,0.000000000,0.000000000,-1.770793438,-74.281455994,0.000000000,-0.066000223,-16.511642456
1748264180.871878,44.532000000,0.000000000,0.000000000,0.000000000,0.000000000,-1.770793438,-74.281455994,0.000000000,-0.066000223,-16.511642456
1748264180.874251,44.534000000,0.000000000,0.000000000,0.000000000,0.000000000,-1.770793438,-74.281455994,0.000000000,-0.066000223,-16.511642456
1748264180.876647,44.536000000,0.000000000,0.000000000,0.000000000,0.000000000,-1.770793438,-74.281455994,0.000000000,-0.066000223,-16.511642456
1748264180.879044,44.539000000,0.000000000,0.000000000,0.000000000,0.000000000,-1.770793438,-74.281455994,0.000000000,-0.066000223,-16.511642456
1748264180.881443,44.541000000,0.000000000,0.000000000,0.000000000,0.000000000,-1.770793438,-74.281455994,0.000000000,-0.066000223,-16.511642456
1748264180.883827,44.544000000,0.000000000,0.000000000,0.000000000,0.000000000,-1.770793438,-74.281455994,0.000000000,-0.066000223,-16.511642456
1748264180.886239,44.546000000,0.000000000,0.000000000,0.000000000,0.000000000,-1.770793438,-74.281455994,0.000000000,-0.066000223,-16.511642456
1748264180.888650,44.548000000,0.000000000,0.000000000,0.000000000,0.000000000,-1.770793438,-74.281455994,0.000000000,-0.066000223,-16.511642456
1748264180.891102,44.551000000,0.000000000,0.000000000,0.000000000,0.000000000,-1.770793438,-74.281455994,0.000000000,-0.066000223,-16.511642456
1748264180.893492,44.553000000,0.000000000,0.000000000,0.000000000,0.000000000,-1.770793438,-74.281455994,0.000000000,-0.066000223,-16.511642456
1748264180.895984,44.556000000,0.000000000,0.000000000,0.000000000,0.000000000,-1.770793438,-74.281455994,0.000000000,-0.066000223,-16.511642456
1748264180.898447,44.558000000,0.000000000,0.000000000,0.000000000,0.000000000,-1.770793438,-74.281455994,0.000000000,-0.066000223,-16.511642456
1748264180.900823,44.561000000,0.000000000,0.000000000,0.000000000,0.000000000,-1.770793438,-74.281455994,0.000000000,-0.066000223,-16.511642456
1748264180.903165,44.563000000,0.000000000,0.000000000,0.000000000,0.000000000,-1.770793438,-74.281455994,0.000000000,-0.066000223,-16.511642456
1748264180.905521,44.565000000,0.000000000,0.000000000,0.000000000,0.000000000,-1.770793438,-74.281455994,0.000000000,-0.066000223,-16.511642456
1748264180.907897,44.568000000,0.000000000,0.000000000,0.000000000,0.000000000,-1.770793438,-74.281455994,0.000000000,-0.066000223,-16.511642456
1748264180.910282,44.570000000,0.000000000,0.000000000,0.000000000,0.000000000,-1.770793438,-74.281455994,0.000000000,-0.066000223,-16.511642456
1748264180.912689,44.573000000,0.000000000,0.000000000,0.000000000,0.000000000,-1.770793438,-74.281455994,0.000000000,-0.066000223,-16.511642456
1748264180.915146,44.575000000,0.000000000,0.000000000,0.000000000,0.000000000,-1.770793438,-74.281455994,0.000000000,-0.066000223,-16.511642456
1748264180.917628,44.577000000,0.000000000,0.000000000,0.000000000,0.000000000,-1.770793438,-74.281455994,0.000000000,-0.066000223,-16.511642456
1748264180.920011,44.580000000,0.000000000,0.000000000,0.000000000,0.000000000,-1.770793438,-74.281455994,0.000000000,-0.066000223,-16.511642456
1748264180.922444,44.582000000,0.000000000,0.000000000,0.000000000,0.000000000,-1.770793438,-74.281455994,0.000000000,-0.066000223,-16.511642456
1748264180.924914,44.585000000,0.000000000,0.000000000,0.000000000,0.000000000,-1.770793438,-74.281455994,0.000000000,-0.066000223,-16.511642456
1748264180.927413,44.587000000,0.000000000,0.000000000,0.000000000,0.000000000,-1.770793438,-74.281455994,0.000000000,-0.066000223,-16.511642456
1748264180.929924,44.590000000,0.000000000,0.000000000,0.000000000,0.000000000,-1.770793438,-74.281455994,0.000000000,-0.066000223,-16.511642456
1748264180.932381,44.592000000,0.000000000,0.000000000,0.000000000,0.000000000,-1.770793438,-74.281455994,0.000000000,-0.066000223,-16.511642456
1748264180.934847,44.595000000,0.000000000,0.000000000,0.000000000,0.000000000,-1.770793438,-74.281455994,0.000000000,-0.066000223,-16.511642456
1748264180.937270,44.597000000,0.000000000,0.000000000,0.000000000,0.000000000,-1.770793438,-74.281455994,0.000000000,-0.066000223,-16.511642456
1748264180.939738,44.600000000,0.000000000,0.000000000,0.000000000,0.000000000,-1.770793438,-74.281455994,0.000000000,-0.066000223,-16.511642456
1748264180.942225,44.602000000,0.000000000,0.000000000,0.000000000,0.000000000,-1.770793438,-74.281455994,0.000000000,-0.066000223,-16.511642456
1748264180.944626,44.604000000,0.000000000,0.000000000,0.000000000,0.000000000,-1.770793438,-74.281455994,0.000000000,-0.066000223,-16.511642456
1748264180.947025,44.607000000,0.000000000,0.000000000,0.000000000,0.000000000,-1.770793438,-74.281455994,0.000000000,-0.066000223,-16.511642456
1748264180.949476,44.609000000,0.000000000,0.000000000,0.000000000,0.000000000,-1.770793438,-74.281455994,0.000000000,-0.066000223,-16.511642456
1748264180.951948,44.612000000,0.000000000,0.000000000,0.000000000,0.000000000,-1.770793438,-74.281455994,0.000000000,-0.066000223,-16.511642456
1748264180.954400,44.614000000,0.000000000,0.000000000,0.000000000,0.000000000,-1.770793438,-74.281455994,0.000000000,-0.066000223,-16.511642456
1748264180.956903,44.617000000,0.000000000,0.000000000,0.000000000,0.000000000,-1.770793438,-74.281455994,0.000000000,-0.066000223,-16.511642456
1748264180.959390,44.619000000,0.000000000,0.000000000,0.000000000,0.000000000,-1.770793438,-74.281455994,0.000000000,-0.066000223,-16.511642456
1748264180.961798,44.622000000,0.000000000,0.000000000,0.000000000,0.000000000,-1.770793438,-74.281455994,0.000000000,-0.066000223,-16.511642456
1748264180.964138,44.624000000,0.000000000,0.000000000,0.000000000,0.000000000,-1.770793438,-74.281455994,0.000000000,-0.066000223,-16.511642456
1748264180.966587,44.626000000,0.000000000,0.000000000,0.000000000,0.000000000,-1.770793438,-74.281455994,0.000000000,-0.066000223,-16.511642456
1748264180.969036,44.629000000,0.000000000,0.000000000,0.000000000,0.000000000,-1.770793438,-74.281455994,0.000000000,-0.066000223,-16.511642456
1748264180.971491,44.631000000,0.000000000,0.000000000,0.000000000,0.000000000,-1.770793438,-74.281455994,0.000000000,-0.066000223,-16.511642456
1748264180.973946,44.634000000,0.000000000,0.000000000,0.000000000,0.000000000,-1.770793438,-74.281455994,0.000000000,-0.066000223,-16.511642456
1748264180.976391,44.636000000,0.000000000,0.000000000,0.000000000,0.000000000,-1.770793438,-74.281455994,0.000000000,-0.066000223,-16.511642456
1748264180.978776,44.639000000,0.000000000,0.000000000,0.000000000,0.000000000,-1.770793438,-74.281455994,0.000000000,-0.066000223,-16.511642456
1748264180.981184,44.641000000,0.000000000,0.000000000,0.000000000,0.000000000,-1.770793438,-74.281455994,0.000000000,-0.066000223,-16.511642456
1748264180.983646,44.643000000,0.000000000,0.000000000,0.000000000,0.000000000,-1.770793438,-74.281455994,0.000000000,-0.066000223,-16.511642456
1748264180.986127,44.646000000,0.000000000,0.000000000,0.000000000,0.000000000,-1.770793438,-74.281455994,0.000000000,-0.066000223,-16.511642456
1748264180.988609,44.648000000,0.000000000,0.000000000,0.000000000,0.000000000,-1.770793438,-74.281455994,0.000000000,-0.066000223,-16.511642456
1748264180.991071,44.651000000,0.000000000,0.000000000,0.000000000,0.000000000,-1.770793438,-74.281455994,0.000000000,-0.066000223,-16.511642456
1748264180.993532,44.653000000,0.000000000,0.000000000,0.000000000,0.000000000,-1.770793438,-74.281455994,0.000000000,-0.066000223,-16.511642456
1748264180.996010,44.656000000,0.000000000,0.000000000,0.000000000,0.000000000,-1.770793438,-74.281455994,0.000000000,-0.066000223,-16.511642456
1748264180.998423,44.658000000,0.000000000,0.000000000,0.000000000,0.000000000,-1.770793438,-74.281455994,0.000000000,-0.066000223,-16.511642456
1748264181.000843,44.661000000,0.000000000,0.000000000,0.000000000,0.000000000,-1.770793438,-74.281455994,0.000000000,-0.066000223,-16.511642456
1748264181.003210,44.663000000,0.000000000,0.000000000,0.000000000,0.000000000,-1.770793438,-74.281455994,0.000000000,-0.066000223,-16.511642456
1748264181.005586,44.665000000,0.000000000,0.000000000,0.000000000,0.000000000,-1.770793438,-74.281455994,0.000000000,-0.066000223,-16.511642456
1748264181.007975,44.668000000,0.000000000,0.000000000,0.000000000,0.000000000,-1.770793438,-74.281455994,0.000000000,-0.066000223,-16.511642456
1748264181.010407,44.670000000,0.000000000,0.000000000,0.000000000,0.000000000,-1.770793438,-74.281455994,0.000000000,-0.066000223,-16.511642456
1748264181.012813,44.673000000,0.000000000,0.000000000,0.000000000,0.000000000,-1.770793438,-74.281455994,0.000000000,-0.066000223,-16.511642456
1748264181.015197,44.675000000,0.000000000,0.000000000,0.000000000,0.000000000,-1.770793438,-74.281455994,0.000000000,-0.066000223,-16.511642456
1748264181.017580,44.677000000,0.000000000,0.000000000,0.000000000,0.000000000,-1.770793438,-74.281455994,0.000000000,-0.066000223,-16.511642456
1748264181.019968,44.680000000,0.000000000,0.000000000,0.000000000,0.000000000,-1.770793438,-74.281455994,0.000000000,-0.066000223,-16.511642456
1748264181.022353,44.682000000,0.000000000,0.000000000,0.000000000,0.000000000,-1.770793438,-74.281455994,0.000000000,-0.066000223,-16.511642456
1748264181.024765,44.685000000,0.000000000,0.000000000,0.000000000,0.000000000,-1.770793438,-74.281455994,0.000000000,-0.066000223,-16.511642456
1748264181.027630,44.687000000,0.000000000,0.000000000,0.000000000,0.000000000,-1.770793438,-74.281455994,0.000000000,-0.066000223,-16.511642456
1748264181.030132,44.690000000,0.000000000,0.000000000,0.000000000,0.000000000,-1.770793438,-74.281455994,0.000000000,-0.066000223,-16.511642456
1748264181.032601,44.692000000,0.000000000,0.000000000,0.000000000,0.000000000,-1.770793438,-74.281455994,0.000000000,-0.066000223,-16.511642456
1748264181.035038,44.695000000,0.000000000,0.000000000,0.000000000,0.000000000,-1.770793438,-74.281455994,0.000000000,-0.066000223,-16.511642456
1748264181.037504,44.697000000,0.000000000,0.000000000,0.000000000,0.000000000,-1.770793438,-74.281455994,0.000000000,-0.066000223,-16.511642456
1748264181.039979,44.700000000,0.000000000,0.000000000,0.000000000,0.000000000,-1.770793438,-74.281455994,0.000000000,-0.066000223,-16.511642456
1748264181.042480,44.702000000,0.000000000,0.000000000,0.000000000,0.000000000,-1.770793438,-74.281455994,0.000000000,-0.066000223,-16.511642456
1748264181.044907,44.705000000,0.000000000,0.000000000,0.000000000,0.000000000,-1.770793438,-74.281455994,0.000000000,-0.066000223,-16.511642456
1748264181.047274,44.707000000,0.000000000,0.000000000,0.000000000,0.000000000,-1.770793438,-74.281455994,0.000000000,-0.066000223,-16.511642456
1748264181.049644,44.710000000,0.000000000,0.000000000,0.000000000,0.000000000,-1.770793438,-74.281455994,0.000000000,-0.066000223,-16.511642456
1748264181.052076,44.712000000,0.000000000,0.000000000,0.000000000,0.000000000,-1.770793438,-74.281455994,0.000000000,-0.066000223,-16.511642456
1748264181.054435,44.714000000,0.000000000,0.000000000,0.000000000,0.000000000,-1.770793438,-74.281455994,0.000000000,-0.066000223,-16.511642456
1748264181.056818,44.717000000,0.000000000,0.000000000,0.000000000,0.000000000,-1.770793438,-74.281455994,0.000000000,-0.066000223,-16.511642456
1748264181.059180,44.719000000,0.000000000,0.000000000,0.000000000,0.000000000,-1.770793438,-74.281455994,0.000000000,-0.066000223,-16.511642456
1748264181.061552,44.721000000,0.000000000,0.000000000,0.000000000,0.000000000,-1.770793438,-74.281455994,0.000000000,-0.066000223,-16.511642456
1748264181.063949,44.724000000,0.000000000,0.000000000,0.000000000,0.000000000,-1.770793438,-74.281455994,0.000000000,-0.066000223,-16.511642456
1748264181.066495,44.726000000,0.000000000,0.000000000,0.000000000,0.000000000,-1.770793438,-74.281455994,0.000000000,-0.066000223,-16.511642456
1748264181.069025,44.729000000,0.000000000,0.000000000,0.000000000,0.000000000,-1.770793438,-74.281455994,0.000000000,-0.066000223,-16.511642456
1748264181.071515,44.731000000,0.000000000,0.000000000,0.000000000,0.000000000,-1.770793438,-74.281455994,0.000000000,-0.066000223,-16.511642456
1748264181.073960,44.734000000,0.000000000,0.000000000,0.000000000,0.000000000,-1.770793438,-74.281455994,0.000000000,-0.066000223,-16.511642456
1748264181.076403,44.736000000,0.000000000,0.000000000,0.000000000,0.000000000,-1.770793438,-74.281455994,0.000000000,-0.066000223,-16.511642456
1748264181.078857,44.739000000,0.000000000,0.000000000,0.000000000,0.000000000,-1.770793438,-74.281455994,0.000000000,-0.066000223,-16.511642456
1748264181.081310,44.741000000,0.000000000,0.000000000,0.000000000,0.000000000,-1.770793438,-74.281455994,0.000000000,-0.066000223,-16.511642456
1748264181.083705,44.744000000,0.000000000,0.000000000,0.000000000,0.000000000,-1.784295797,-71.633186340,0.000000000,-0.066000223,-16.511913300
1748264181.086073,44.746000000,0.000000000,0.000000000,0.000000000,0.000000000,-1.784295797,-74.962226868,0.000000000,-0.066000223,-16.511913300
1748264181.088442,44.748000000,0.000000000,0.000000000,0.000000000,0.000000000,-1.784295797,-74.962226868,0.000000000,-0.066000223,-16.511913300
1748264181.090826,44.751000000,0.000000000,0.000000000,0.000000000,0.000000000,-1.784295797,-74.962226868,0.000000000,-0.066000223,-16.511913300
1748264181.093207,44.753000000,0.000000000,0.000000000,0.000000000,0.000000000,-1.784295797,-74.962226868,0.000000000,-0.066000223,-16.511913300
1748264181.095600,44.755000000,0.000000000,0.000000000,0.000000000,0.000000000,-1.784295797,-74.962226868,0.000000000,-0.066000223,-16.511913300
1748264181.097992,44.758000000,0.000000000,0.000000000,0.000000000,0.000000000,-1.784295797,-74.962226868,0.000000000,-0.066000223,-16.511913300
1748264181.100370,44.760000000,0.000000000,0.000000000,0.000000000,0.000000000,-1.784295797,-74.962226868,0.000000000,-0.066000223,-16.511913300
1748264181.102754,44.763000000,0.000000000,0.000000000,0.000000000,0.000000000,-1.784295797,-74.962226868,0.000000000,-0.066000223,-16.511913300
1748264181.105196,44.765000000,0.000000000,0.000000000,0.000000000,0.000000000,-1.784295797,-74.962226868,0.000000000,-0.066000223,-16.511913300
1748264181.107564,44.767000000,0.000000000,0.000000000,0.000000000,0.000000000,-1.784295797,-74.962226868,0.000000000,-0.066000223,-16.511913300
1748264181.109947,44.770000000,0.000000000,0.000000000,0.000000000,0.000000000,-1.784295797,-74.962226868,0.000000000,-0.066000223,-16.511913300
1748264181.112380,44.772000000,0.000000000,0.000000000,0.000000000,0.000000000,-1.784295797,-74.962226868,0.000000000,-0.066000223,-16.511913300
1748264181.114866,44.775000000,0.000000000,0.000000000,0.000000000,0.000000000,-1.784295797,-74.962226868,0.000000000,-0.066000223,-16.511913300
1748264181.117304,44.777000000,0.000000000,0.000000000,0.000000000,0.000000000,-1.784295797,-74.962226868,0.000000000,-0.066000223,-16.511913300
1748264181.119780,44.780000000,0.000000000,0.000000000,0.000000000,0.000000000,-1.784295797,-74.962226868,0.000000000,-0.066000223,-16.511913300
1748264181.122312,44.782000000,0.000000000,0.000000000,0.000000000,0.000000000,-1.784295797,-74.962226868,0.000000000,-0.066000223,-16.511913300
1748264181.124822,44.785000000,0.000000000,0.000000000,0.000000000,0.000000000,-1.784295797,-74.962226868,0.000000000,-0.066000223,-16.511913300
1748264181.127272,44.787000000,0.000000000,0.000000000,0.000000000,0.000000000,-1.784295797,-74.962226868,0.000000000,-0.066000223,-16.511913300
1748264181.129796,44.790000000,0.000000000,0.000000000,0.000000000,0.000000000,-1.784295797,-74.962226868,0.000000000,-0.066000223,-16.511913300
1748264181.132268,44.792000000,0.000000000,0.000000000,0.000000000,0.000000000,-1.784295797,-74.962226868,0.000000000,-0.066000223,-16.511913300
1748264181.134770,44.795000000,0.000000000,0.000000000,0.000000000,0.000000000,-1.784295797,-74.962226868,0.000000000,-0.066000223,-16.511913300
1748264181.137307,44.797000000,0.000000000,0.000000000,0.000000000,0.000000000,-1.784295797,-74.962226868,0.000000000,-0.066000223,-16.511913300
1748264181.139775,44.800000000,0.000000000,0.000000000,0.000000000,0.000000000,-1.784295797,-74.962226868,0.000000000,-0.066000223,-16.511913300
1748264181.142288,44.802000000,0.000000000,0.000000000,0.000000000,0.000000000,-1.784295797,-74.962226868,0.000000000,-0.066000223,-16.511913300
1748264181.144832,44.805000000,0.000000000,0.000000000,0.000000000,0.000000000,-1.784295797,-74.962226868,0.000000000,-0.066000223,-16.511913300
1748264181.147374,44.807000000,0.000000000,0.000000000,0.000000000,0.000000000,-1.784295797,-74.962226868,0.000000000,-0.066000223,-16.511913300
1748264181.149937,44.810000000,0.000000000,0.000000000,0.000000000,0.000000000,-1.784295797,-74.962226868,0.000000000,-0.066000223,-16.511913300
1748264181.152464,44.812000000,0.000000000,0.000000000,0.000000000,0.000000000,-1.784295797,-74.962226868,0.000000000,-0.066000223,-16.511913300
1748264181.154984,44.815000000,0.000000000,0.000000000,0.000000000,0.000000000,-1.784295797,-74.962226868,0.000000000,-0.066000223,-16.511913300
1748264181.157497,44.817000000,0.000000000,0.000000000,0.000000000,0.000000000,-1.784295797,-74.962226868,0.000000000,-0.066000223,-16.511913300
1748264181.160002,44.820000000,0.000000000,0.000000000,0.000000000,0.000000000,-1.784295797,-74.962226868,0.000000000,-0.066000223,-16.511913300
1748264181.162526,44.822000000,0.000000000,0.000000000,0.000000000,0.000000000,-1.784295797,-74.962226868,0.000000000,-0.066000223,-16.511913300
1748264181.164992,44.825000000,0.000000000,0.000000000,0.000000000,0.000000000,-1.784295797,-74.962226868,0.000000000,-0.066000223,-16.511913300
1748264181.167481,44.827000000,0.000000000,0.000000000,0.000000000,0.000000000,-1.784295797,-74.962226868,0.000000000,-0.066000223,-16.511913300
1748264181.169961,44.830000000,0.000000000,0.000000000,0.000000000,0.000000000,-1.784295797,-74.962226868,0.000000000,-0.066000223,-16.511913300
1748264181.172422,44.832000000,0.000000000,0.000000000,0.000000000,0.000000000,-1.770793438,-77.497604370,0.000000000,-0.066000223,-16.511642456
1748264181.174931,44.835000000,0.000000000,0.000000000,0.000000000,0.000000000,-1.770793438,-74.281455994,0.000000000,-0.066000223,-16.511642456
1748264181.177349,44.837000000,0.000000000,0.000000000,0.000000000,0.000000000,-1.770793438,-74.281455994,0.000000000,-0.066000223,-16.511642456
1748264181.179735,44.840000000,0.000000000,0.000000000,0.000000000,0.000000000,-1.770793438,-74.281455994,0.000000000,-0.066000223,-16.511642456
1748264181.182075,44.842000000,0.000000000,0.000000000,0.000000000,0.000000000,-1.770793438,-74.281455994,0.000000000,-0.066000223,-16.511642456
1748264181.184460,44.844000000,0.000000000,0.000000000,0.000000000,0.000000000,-1.770793438,-74.281455994,0.000000000,-0.066000223,-16.511642456
1748264181.186870,44.847000000,0.000000000,0.000000000,0.000000000,0.000000000,-1.770793438,-74.281455994,0.000000000,-0.066000223,-16.511642456
1748264181.189223,44.849000000,0.000000000,0.000000000,0.000000000,0.000000000,-1.770793438,-74.281455994,0.000000000,-0.066000223,-16.511642456
1748264181.191620,44.851000000,0.000000000,0.000000000,0.000000000,0.000000000,-1.770793438,-74.281455994,0.000000000,-0.066000223,-16.511642456
1748264181.194006,44.854000000,0.000000000,0.000000000,0.000000000,0.000000000,-1.770793438,-74.281455994,0.000000000,-0.066000223,-16.511642456
1748264181.196398,44.856000000,0.000000000,0.000000000,0.000000000,0.000000000,-1.770793438,-74.281455994,0.000000000,-0.066000223,-16.511642456
1748264181.198764,44.859000000,0.000000000,0.000000000,0.000000000,0.000000000,-1.770793438,-74.281455994,0.000000000,-0.066000223,-16.511642456
1748264181.201146,44.861000000,0.000000000,0.000000000,0.000000000,0.000000000,-1.770793438,-74.281455994,0.000000000,-0.066000223,-16.511642456
1748264181.203512,44.863000000,0.000000000,0.000000000,0.000000000,0.000000000,-1.770793438,-74.281455994,0.000000000,-0.066000223,-16.511642456
1748264181.205888,44.866000000,0.000000000,0.000000000,0.000000000,0.000000000,-1.770793438,-74.281455994,0.000000000,-0.066000223,-16.511642456
1748264181.208296,44.868000000,0.000000000,0.000000000,0.000000000,0.000000000,-1.770793438,-74.281455994,0.000000000,-0.066000223,-16.511642456
1748264181.210666,44.871000000,0.000000000,0.000000000,0.000000000,0.000000000,-1.770793438,-74.281455994,0.000000000,-0.066000223,-16.511642456
1748264181.213104,44.873000000,0.000000000,0.000000000,0.000000000,0.000000000,-1.770793438,-74.281455994,0.000000000,-0.066000223,-16.511642456
1748264181.215666,44.875000000,0.000000000,0.000000000,0.000000000,0.000000000,-1.770793438,-74.281455994,0.000000000,-0.066000223,-16.511642456
1748264181.218045,44.878000000,0.000000000,0.000000000,0.000000000,0.000000000,-1.770793438,-74.281455994,0.000000000,-0.066000223,-16.511642456
1748264181.220451,44.880000000,0.000000000,0.000000000,0.000000000,0.000000000,-1.770793438,-74.281455994,0.000000000,-0.066000223,-16.511642456
1748264181.222896,44.883000000,0.000000000,0.000000000,0.000000000,0.000000000,-1.770793438,-74.281455994,0.000000000,-0.066000223,-16.511642456
1748264181.225228,44.885000000,0.000000000,0.000000000,0.000000000,0.000000000,-1.770793438,-74.281455994,0.000000000,-0.066000223,-16.511642456
1748264181.227659,44.887000000,0.000000000,0.000000000,0.000000000,0.000000000,-1.770793438,-74.281455994,0.000000000,-0.066000223,-16.511642456
1748264181.230039,44.890000000,0.000000000,0.000000000,0.000000000,0.000000000,-1.770793438,-74.281455994,0.000000000,-0.066000223,-16.511642456
1748264181.232402,44.892000000,0.000000000,0.000000000,0.000000000,0.000000000,-1.770793438,-74.281455994,0.000000000,-0.066000223,-16.511642456
1748264181.234773,44.895000000,0.000000000,0.000000000,0.000000000,0.000000000,-1.770793438,-104.281455994,0.000000000,-0.066000223,-16.511642456
1748264181.237161,44.897000000,0.000000000,0.000000000,0.000000000,0.000000000,-1.730292082,-112.262832642,0.000000000,-0.066000223,-16.510828018
1748264181.239522,44.899000000,0.000000000,0.000000000,0.000000000,0.000000000,-1.662791729,-115.569412231,0.000000000,-0.066000223,-16.509468079
1748264181.241918,44.902000000,0.000000000,0.000000000,0.000000000,0.000000000,-1.622290373,-106.906578064,0.000000000,-0.066000223,-16.508653641
1748264181.244279,44.904000000,0.000000000,0.000000000,0.000000000,0.000000000,-1.595291138,-102.174064636,0.000000000,-0.066000223,-16.508110046
1748264181.246662,44.906000000,0.000000000,0.000000000,0.000000000,0.000000000,-1.595291138,-95.432823181,0.000000000,-0.066000223,-16.508110046
1748264181.249051,44.909000000,0.000000000,0.000000000,0.000000000,0.000000000,-1.608790755,-92.778121948,0.000000000,-0.066000223,-16.508380890
1748264181.251507,44.911000000,0.000000000,0.000000000,0.000000000,0.000000000,-1.622290373,-93.457366943,0.000000000,-0.066000223,-16.508653641
1748264181.253957,44.914000000,0.000000000,0.000000000,0.000000000,0.000000000,-1.608790755,-99.356445313,0.000000000,-0.066000223,-16.508380890
1748264181.256391,44.916000000,0.000000000,0.000000000,0.000000000,0.000000000,-1.595291138,-98.689064026,0.000000000,-0.066000223,-16.508110046
1748264181.258843,44.919000000,0.000000000,0.000000000,0.000000000,0.000000000,-1.581789017,-98.024963379,0.000000000,-0.066000223,-16.507839203
1748264181.261291,44.921000000,0.000000000,0.000000000,0.000000000,0.000000000,-1.568289399,-97.323684692,0.000000000,-0.066000223,-16.507566452
1748264181.263712,44.923000000,0.000000000,0.000000000,0.000000000,0.000000000,-1.568289399,-94.071426392,0.000000000,-0.066000223,-16.507566452
1748264181.266189,44.926000000,0.000000000,0.000000000,0.000000000,0.000000000,-1.568289399,-94.071426392,0.000000000,-0.066000223,-16.507566452
1748264181.268588,44.928000000,0.000000000,0.000000000,0.000000000,0.000000000,-1.554789782,-96.586929321,0.000000000,-0.066000223,-16.507295609
1748264181.270991,44.931000000,0.000000000,0.000000000,0.000000000,0.000000000,-1.541287661,-96.012786865,0.000000000,-0.066000223,-16.507022858
1748264181.273367,44.933000000,0.000000000,0.000000000,0.000000000,0.000000000,-1.527788043,-95.343902588,0.000000000,-0.066000223,-16.506750107
1748264181.275760,44.936000000,0.000000000,0.000000000,0.000000000,0.000000000,-1.514288425,-94.688285828,0.000000000,-0.066000223,-16.506479263
1748264181.278150,44.938000000,0.000000000,0.000000000,0.000000000,0.000000000,-1.514288425,-91.348754883,0.000000000,-0.066000223,-16.506479263
1748264181.280536,44.940000000,0.000000000,0.000000000,0.000000000,0.000000000,-1.500786304,-94.017974854,0.000000000,-0.066000223,-16.506208420
1748264181.282917,44.943000000,0.000000000,0.000000000,0.000000000,0.000000000,-1.487286687,-93.324089050,0.000000000,-0.066000223,-16.505935669
1748264181.285306,44.945000000,0.000000000,0.000000000,0.000000000,0.000000000,-1.487286687,-89.987358093,0.000000000,-0.066000223,-16.505935669
1748264181.287697,44.948000000,0.000000000,0.000000000,0.000000000,0.000000000,-1.487286687,-89.987358093,0.000000000,-0.066000223,-16.505935669
1748264181.290175,44.950000000,0.000000000,0.000000000,0.000000000,0.000000000,-1.487286687,-89.987358093,0.000000000,-0.066000223,-16.505935669
1748264181.292558,44.952000000,0.000000000,0.000000000,0.000000000,0.000000000,-1.487286687,-89.987358093,0.000000000,-0.066000223,-16.505935669
1748264181.294940,44.955000000,0.000000000,0.000000000,0.000000000,0.000000000,-1.487286687,-89.987358093,0.000000000,-0.066000223,-16.505935669
1748264181.297315,44.957000000,0.000000000,0.000000000,0.000000000,0.000000000,-1.473787069,-92.656082153,0.000000000,-0.066000223,-16.505664825
1748264181.299690,44.960000000,0.000000000,0.000000000,0.000000000,0.000000000,-1.473787069,-89.306724548,0.000000000,-0.066000223,-16.505664825
1748264181.302122,44.962000000,0.000000000,0.000000000,0.000000000,0.000000000,-1.473787069,-89.306724548,0.000000000,-0.066000223,-16.505664825
1748264181.304498,44.964000000,0.000000000,0.000000000,0.000000000,0.000000000,-1.460287571,-91.898361206,0.000000000,-0.066000223,-16.505392075
1748264181.306885,44.967000000,0.000000000,0.000000000,0.000000000,0.000000000,-1.460287571,-88.626091003,0.000000000,-0.066000223,-16.505392075
1748264181.309259,44.969000000,0.000000000,0.000000000,0.000000000,0.000000000,-1.460287571,-88.626091003,0.000000000,-0.066000223,-16.505392075
1748264181.311638,44.971000000,0.000000000,0.000000000,0.000000000,0.000000000,-1.460287571,-88.626091003,0.000000000,-0.066000223,-16.505392075
1748264181.314011,44.974000000,0.000000000,0.000000000,0.000000000,0.000000000,-1.446785331,-91.299568176,0.000000000,-0.066000223,-16.505121231
1748264181.316402,44.976000000,0.000000000,0.000000000,0.000000000,0.000000000,-1.433285713,-60.621101379,0.000000000,-0.066000223,-16.504850388
1748264181.318774,44.979000000,0.000000000,0.000000000,0.000000000,0.000000000,-1.473787069,-49.258026123,0.000000000,-0.066000223,-16.505664825
1748264181.321149,44.981000000,0.000000000,0.000000000,0.000000000,0.000000000,-1.527788043,-48.591777802,0.000000000,-0.066000223,-16.506750107
1748264181.323591,44.983000000,0.000000000,0.000000000,0.000000000,0.000000000,-1.554789782,-56.694267273,0.000000000,-0.066000223,-16.507295609
1748264181.326051,44.986000000,0.000000000,0.000000000,0.000000000,0.000000000,-1.527788043,-68.521247864,0.000000000,-0.066000223,-16.506750107
1748264181.328479,44.988000000,0.000000000,0.000000000,0.000000000,0.000000000,-1.514288425,-64.579902649,0.000000000,-0.066000223,-16.506479263
1748264181.330919,44.991000000,0.000000000,0.000000000,0.000000000,0.000000000,-1.514288425,-61.348754883,0.000000000,-0.066000223,-16.506479263
1748264181.333290,44.993000000,0.000000000,0.000000000,0.000000000,0.000000000,-1.527788043,-58.758430481,0.000000000,-0.066000223,-16.506750107
1748264181.335666,44.995000000,0.000000000,0.000000000,0.000000000,0.000000000,-1.514288425,-64.693893433,0.000000000,-0.066000223,-16.506479263
1748264181.338023,44.998000000,0.000000000,0.000000000,0.000000000,0.000000000,-1.514288425,-61.348754883,0.000000000,-0.074999034,-18.265277863
1748264181.340408,45.000000000,0.000000000,0.000000000,0.000000000,0.000000000,-1.500786304,-64.040664673,0.000000000,-0.074999034,-18.314270020
1748264181.342780,45.003000000,0.000000000,0.000000000,0.000000000,0.000000000,-1.500786304,-60.667991638,0.000000000,-0.074999034,-18.358541489
1748264181.345172,45.005000000,0.000000000,0.000000000,0.000000000,0.000000000,-1.500786304,-60.667991638,0.000000000,-0.074999034,-18.398386002
1748264181.347552,45.007000000,0.000000000,0.000000000,0.000000000,0.000000000,-1.514288425,-58.023941040,0.000000000,-0.074999034,-18.434482574
1748264181.349928,45.010000000,0.000000000,0.000000000,0.000000000,0.000000000,-1.514288425,-61.348754883,0.000000000,-0.074999034,-18.466762543
1748264181.352295,45.012000000,0.000000000,0.000000000,0.000000000,0.000000000,-1.500786304,-64.025032043,0.000000000,-0.074999034,-18.495565414
1748264181.354690,45.015000000,0.000000000,0.000000000,0.000000000,0.000000000,-1.500786304,-60.667991638,0.000000000,-0.074999034,-18.521707535
1748264181.357072,45.017000000,0.000000000,0.000000000,0.000000000,0.000000000,-1.487286687,-63.311553955,0.000000000,-0.074999034,-18.544975281
1748264181.359492,45.019000000,0.000000000,0.000000000,0.000000000,0.000000000,-1.487286687,-59.987358093,0.000000000,-0.074999034,-18.566144943
1748264181.361919,45.022000000,0.000000000,0.000000000,0.000000000,0.000000000,-1.487286687,-59.987358093,0.000000000,-0.074999034,-18.585197449
1748264181.364340,45.024000000,0.000000000,0.000000000,0.000000000,0.000000000,-1.487286687,-59.987358093,0.000000000,-0.074999034,-18.602346420
1748264181.366699,45.027000000,0.000000000,0.000000000,0.000000000,0.000000000,-1.487286687,-59.987358093,0.000000000,-0.074999034,-18.617778778
1748264181.369100,45.029000000,0.000000000,0.000000000,0.000000000,0.000000000,-1.487286687,-59.987358093,0.000000000,-0.074999034,-18.631668091
1748264181.371478,45.031000000,0.000000000,0.000000000,0.000000000,0.000000000,-1.473787069,-62.619857788,0.000000000,-0.074999034,-18.643884659
1748264181.373900,45.034000000,0.000000000,0.000000000,0.000000000,0.000000000,-1.460287571,-61.989562988,0.000000000,-0.074999034,-18.654848099
1748264181.376247,45.036000000,0.000000000,0.000000000,0.000000000,0.000000000,-1.460287571,-58.626091003,0.000000000,-0.074999034,-18.664968491
1748264181.378645,45.038000000,0.000000000,0.000000000,0.000000000,0.000000000,-1.460287571,-58.626091003,0.000000000,-0.074999034,-18.674077988
1748264181.381113,45.041000000,0.000000000,0.000000000,0.000000000,0.000000000,-1.460287571,-58.626091003,0.000000000,-0.074999034,-18.682275772
1748264181.383563,45.043000000,0.000000000,0.000000000,0.000000000,0.000000000,-1.446785331,-61.223648071,0.000000000,-0.074999034,-18.689361572
1748264181.386055,45.046000000,0.000000000,0.000000000,0.000000000,0.000000000,-1.433285713,-60.493209839,0.000000000,-0.074999034,-18.695705414
1748264181.388514,45.048000000,0.000000000,0.000000000,0.000000000,0.000000000,-1.433285713,-57.264686584,0.000000000,-0.074999034,-18.701679230
1748264181.390984,45.051000000,0.000000000,0.000000000,0.000000000,0.000000000,-1.433285713,-57.264686584,0.000000000,-0.066000223,-16.923439026
1748264181.393466,45.053000000,0.000000000,0.000000000,0.000000000,0.000000000,-1.433285713,-57.264686584,0.000000000,-0.066000223,-16.881580353
1748264181.395975,45.056000000,0.000000000,0.000000000,0.000000000,0.000000000,-1.433285713,-57.264686584,0.000000000,-0.066000223,-16.843908310
1748264181.398441,45.058000000,0.000000000,0.000000000,0.000000000,0.000000000,-1.433285713,-57.264686584,0.000000000,-0.066000223,-16.810001373
1748264181.400915,45.061000000,0.000000000,0.000000000,0.000000000,0.000000000,-1.433285713,-57.264686584,0.000000000,-0.066000223,-16.779485703
1748264181.403416,45.063000000,0.000000000,0.000000000,0.000000000,0.000000000,-1.433285713,-57.264686584,0.000000000,-0.066000223,-16.752023697
1748264181.405880,45.066000000,0.000000000,0.000000000,0.000000000,0.000000000,-1.433285713,-57.264686584,0.000000000,-0.066000223,-16.727306366
1748264181.408319,45.068000000,0.000000000,0.000000000,0.000000000,0.000000000,-1.433285713,-57.264686584,0.000000000,-0.066000223,-16.705060959
1748264181.410765,45.071000000,0.000000000,0.000000000,0.000000000,0.000000000,-1.433285713,-57.264686584,0.000000000,-0.066000223,-16.685039520
1748264181.413215,45.073000000,0.000000000,0.000000000,0.000000000,0.000000000,-1.433285713,-57.264686584,0.000000000,-0.074999034,-18.445261002
1748264181.415659,45.075000000,0.000000000,0.000000000,0.000000000,0.000000000,-1.446785331,-54.675712585,0.000000000,-0.066000223,-16.703191757
1748264181.418242,45.078000000,0.000000000,0.000000000,0.000000000,0.000000000,-1.446785331,-57.945327759,0.000000000,-0.074999034,-18.458663940
1748264181.420553,45.080000000,0.000000000,0.000000000,0.000000000,0.000000000,-1.460287571,-55.479835510,0.000000000,-0.066000223,-16.697444916
1748264181.422914,45.083000000,0.000000000,0.000000000,0.000000000,0.000000000,-1.460287571,-58.626091003,0.000000000,-0.066000223,-16.678239822
1748264181.425244,45.085000000,0.000000000,0.000000000,0.000000000,0.000000000,-1.460287571,-58.626091003,0.000000000,-0.066000223,-16.660955429
1748264181.427641,45.087000000,0.000000000,0.000000000,0.000000000,0.000000000,-1.460287571,-58.626091003,0.000000000,-0.066000223,-16.645399094
1748264181.430000,45.090000000,0.000000000,0.000000000,0.000000000,0.000000000,-1.460287571,-58.626091003,0.000000000,-0.066000223,-16.631397247
1748264181.432407,45.092000000,0.000000000,0.000000000,0.000000000,0.000000000,-1.473787069,-55.946090698,0.000000000,-0.066000223,-16.619094849
1748264181.434752,45.095000000,0.000000000,0.000000000,0.000000000,0.000000000,-1.473787069,-59.306724548,0.000000000,-0.066000223,-16.607751846
1748264181.437191,45.097000000,0.000000000,0.000000000,0.000000000,0.000000000,-1.487286687,-56.628112793,0.000000000,-0.066000223,-16.597835541
1748264181.439601,45.099000000,0.000000000,0.000000000,0.000000000,0.000000000,-1.487286687,-59.987358093,0.000000000,-0.066000223,-16.588645935
1748264181.441993,45.102000000,0.000000000,0.000000000,0.000000000,0.000000000,-1.500786304,-57.382194519,0.000000000,-0.066000223,-16.580663681
1748264181.444466,45.104000000,0.000000000,0.000000000,0.000000000,0.000000000,-1.514288425,-58.005805969,0.000000000,-0.066000223,-16.573503494
1748264181.446889,45.107000000,0.000000000,0.000000000,0.000000000,0.000000000,-1.541287661,-56.168121338,0.000000000,-0.066000223,-16.567373276
1748264181.449250,45.109000000,0.000000000,0.000000000,0.000000000,0.000000000,-1.527788043,-65.330162048,0.000000000,-0.066000223,-16.561052322
1748264181.451632,45.111000000,0.000000000,0.000000000,0.000000000,0.000000000,-1.527788043,-62.029388428,0.000000000,-0.066000223,-16.555622101
1748264181.454032,45.114000000,0.000000000,0.000000000,0.000000000,0.000000000,-1.527788043,-62.029388428,0.000000000,-0.066000223,-16.550735474
1748264181.456513,45.116000000,0.000000000,0.000000000,0.000000000,0.000000000,-1.541287661,-59.377487183,0.000000000,-0.066000223,-16.546617508
1748264181.458998,45.119000000,0.000000000,0.000000000,0.000000000,0.000000000,-1.554789782,-60.219512939,0.000000000,-0.066000223,-16.542940140
1748264181.461521,45.121000000,0.000000000,0.000000000,0.000000000,0.000000000,-1.568289399,-60.891876221,0.000000000,-0.066000223,-16.539653778
1748264181.463977,45.124000000,0.000000000,0.000000000,0.000000000,0.000000000,-1.568289399,-64.071426392,0.000000000,-0.066000223,-16.536443710
1748264181.466472,45.126000000,0.000000000,0.000000000,0.000000000,0.000000000,-1.581789017,-61.522224426,0.000000000,-0.066000223,-16.533834457
1748264181.468963,45.129000000,0.000000000,0.000000000,0.000000000,0.000000000,-1.595291138,-62.246322632,0.000000000,-0.066000223,-16.531511307
1748264181.471422,45.131000000,0.000000000,0.000000000,0.000000000,0.000000000,-1.608790755,-62.883621216,0.000000000,-0.066000223,-16.529447556
1748264181.473933,45.134000000,0.000000000,0.000000000,0.000000000,0.000000000,-1.608790755,-66.113456726,0.000000000,-0.066000223,-16.527339935
1748264181.476343,45.136000000,0.000000000,0.000000000,0.000000000,0.000000000,-1.608790755,-66.113456726,0.000000000,-0.066000223,-16.525444031
1748264181.478752,45.139000000,0.000000000,0.000000000,0.000000000,0.000000000,-1.608790755,-66.113456726,0.000000000,-0.066000223,-16.523738861
1748264181.481179,45.141000000,0.000000000,0.000000000,0.000000000,0.000000000,-1.622290373,-63.491950989,0.000000000,-0.066000223,-16.522478104
1748264181.483690,45.143000000,0.000000000,0.000000000,0.000000000,0.000000000,-1.635789871,-64.207824707,0.000000000,-0.066000223,-16.521369934
1748264181.486175,45.146000000,0.000000000,0.000000000,0.000000000,0.000000000,-1.649292111,-95.028991699,0.000000000,-0.066000223,-16.520401001
1748264181.488534,45.148000000,0.000000000,0.000000000,0.000000000,0.000000000,-1.608790755,-106.008193970,0.000000000,-0.066000223,-16.518457413
1748264181.490914,45.151000000,0.000000000,0.000000000,0.000000000,0.000000000,-1.541287661,-109.360038757,0.000000000,-0.066000223,-16.516080856
1748264181.493287,45.153000000,0.000000000,0.000000000,0.000000000,0.000000000,-1.500786304,-100.687194824,0.000000000,-0.066000223,-16.514354706
1748264181.495700,45.156000000,0.000000000,0.000000000,0.000000000,0.000000000,-1.487286687,-93.345191956,0.000000000,-0.066000223,-16.513265610
1748264181.498078,45.158000000,0.000000000,0.000000000,0.000000000,0.000000000,-1.500786304,-87.361732483,0.000000000,-0.056998730,-14.744849205
1748264181.500486,45.160000000,0.000000000,0.000000000,0.000000000,0.000000000,-1.514288425,-88.012802124,0.000000000,-0.056998730,-14.696182251
1748264181.502923,45.163000000,0.000000000,0.000000000,0.000000000,0.000000000,-1.541287661,-86.061637878,0.000000000,-0.056998730,-14.652717590
1748264181.505298,45.165000000,0.000000000,0.000000000,0.000000000,0.000000000,-1.541287661,-92.710029602,0.000000000,-0.056998730,-14.612998009
1748264181.507685,45.168000000,0.000000000,0.000000000,0.000000000,0.000000000,-1.527788043,-95.377342224,0.000000000,-0.056998730,-14.576943398
1748264181.510068,45.170000000,0.000000000,0.000000000,0.000000000,0.000000000,-1.514288425,-94.684089661,0.000000000,-0.056998730,-14.544477463
1748264181.512447,45.172000000,0.000000000,0.000000000,0.000000000,0.000000000,-1.514288425,-91.348754883,0.000000000,-0.056998730,-14.515535355
1748264181.514879,45.175000000,0.000000000,0.000000000,0.000000000,0.000000000,-1.514288425,-91.348754883,0.000000000,-0.056998730,-14.489486694
1748264181.517278,45.177000000,0.000000000,0.000000000,0.000000000,0.000000000,-1.514288425,-91.348754883,0.000000000,-0.056998730,-14.466043472
1748264181.519657,45.180000000,0.000000000,0.000000000,0.000000000,0.000000000,-1.514288425,-91.348754883,0.000000000,-0.056998730,-14.444944382
1748264181.522022,45.182000000,0.000000000,0.000000000,0.000000000,0.000000000,-1.514288425,-91.348754883,0.000000000,-0.056998730,-14.425954819
1748264181.524368,45.184000000,0.000000000,0.000000000,0.000000000,0.000000000,-1.514288425,-91.348754883,0.000000000,-0.056998730,-14.408864975
1748264181.526748,45.187000000,0.000000000,0.000000000,0.000000000,0.000000000,-1.514288425,-91.348754883,0.000000000,-0.056998730,-14.393483162
1748264181.529129,45.189000000,0.000000000,0.000000000,0.000000000,0.000000000,-1.500786304,-94.030700684,0.000000000,-0.056998730,-14.379375458
1748264181.531579,45.191000000,0.000000000,0.000000000,0.000000000,0.000000000,-1.500786304,-90.667991638,0.000000000,-0.056998730,-14.366919518
1748264181.533973,45.194000000,0.000000000,0.000000000,0.000000000,0.000000000,-1.500786304,-90.667991638,0.000000000,-0.066000223,-16.124574661
1748264181.536349,45.196000000,0.000000000,0.000000000,0.000000000,0.000000000,-1.500786304,-90.667991638,0.000000000,-0.066000223,-16.162736893
1748264181.538812,45.199000000,0.000000000,0.000000000,0.000000000,0.000000000,-1.500786304,-90.667991638,0.000000000,-0.066000223,-16.197084427
1748264181.541246,45.201000000,0.000000000,0.000000000,0.000000000,0.000000000,-1.500786304,-90.667991638,0.000000000,-0.066000223,-16.227996826
1748264181.543699,45.204000000,0.000000000,0.000000000,0.000000000,0.000000000,-1.500786304,-90.667991638,0.000000000,-0.066000223,-16.255817413
1748264181.546225,45.206000000,0.000000000,0.000000000,0.000000000,0.000000000,-1.514288425,-88.102523804,0.000000000,-0.066000223,-16.281076431
1748264181.548684,45.208000000,0.000000000,0.000000000,0.000000000,0.000000000,-1.514288425,-91.348754883,0.000000000,-0.066000223,-16.303617477
1748264181.551138,45.211000000,0.000000000,0.000000000,0.000000000,0.000000000,-1.514288425,-91.348754883,0.000000000,-0.066000223,-16.323904037
1748264181.553598,45.213000000,0.000000000,0.000000000,0.000000000,0.000000000,-1.514288425,-91.348754883,0.000000000,-0.066000223,-16.342161179
1748264181.556003,45.216000000,0.000000000,0.000000000,0.000000000,0.000000000,-1.514288425,-91.348754883,0.000000000,-0.066000223,-16.358592987
1748264181.558512,45.218000000,0.000000000,0.000000000,0.000000000,0.000000000,-1.514288425,-91.348754883,0.000000000,-0.066000223,-16.373380661
1748264181.560912,45.221000000,0.000000000,0.000000000,0.000000000,0.000000000,-1.514288425,-91.348754883,0.000000000,-0.066000223,-16.386692047
1748264181.563327,45.223000000,0.000000000,0.000000000,0.000000000,0.000000000,-1.514288425,-91.348754883,0.000000000,-0.066000223,-16.398670197
1748264181.565718,45.226000000,0.000000000,0.000000000,0.000000000,0.000000000,-1.514288425,-91.348754883,0.000000000,-0.066000223,-16.409450531
1748264181.568174,45.228000000,0.000000000,0.000000000,0.000000000,0.000000000,-1.514288425,-91.348754883,0.000000000,-0.066000223,-16.419153214
1748264181.570668,45.230000000,0.000000000,0.000000000,0.000000000,0.000000000,-1.514288425,-91.348754883,0.000000000,-0.066000223,-16.427886963
1748264181.573116,45.233000000,0.000000000,0.000000000,0.000000000,0.000000000,-1.514288425,-91.348754883,0.000000000,-0.066000223,-16.435745239
1748264181.575548,45.235000000,0.000000000,0.000000000,0.000000000,0.000000000,-1.514288425,-91.348754883,0.000000000,-0.066000223,-16.442819595
1748264181.578056,45.238000000,0.000000000,0.000000000,0.000000000,0.000000000,-1.500786304,-93.938209534,0.000000000,-0.066000223,-16.448926926
1748264181.580553,45.240000000,0.000000000,0.000000000,0.000000000,0.000000000,-1.500786304,-90.667991638,0.000000000,-0.066000223,-16.454654694
1748264181.583114,45.243000000,0.000000000,0.000000000,0.000000000,0.000000000,-1.500786304,-90.667991638,0.000000000,-0.066000223,-16.459810257
1748264181.585651,45.245000000,0.000000000,0.000000000,0.000000000,0.000000000,-1.487286687,-93.116935730,0.000000000,-0.066000223,-16.464187622
1748264181.588220,45.248000000,0.000000000,0.000000000,0.000000000,0.000000000,-1.473787069,-92.435073853,0.000000000,-0.066000223,-16.468099594
1748264181.590757,45.251000000,0.000000000,0.000000000,0.000000000,0.000000000,-1.446785331,-94.212448120,0.000000000,-0.066000223,-16.471326828
1748264181.593629,45.253000000,0.000000000,0.000000000,0.000000000,0.000000000,-1.446785331,-87.945327759,0.000000000,-0.066000223,-16.474706650
1748264181.596639,45.256000000,0.000000000,0.000000000,0.000000000,0.000000000,-1.446785331,-87.945327759,0.000000000,-0.066000223,-16.477748871
1748264181.599474,45.259000000,0.000000000,0.000000000,0.000000000,0.000000000,-1.433285713,-89.908157349,0.000000000,-0.066000223,-16.480220795
1748264181.602048,45.262000000,0.000000000,0.000000000,0.000000000,0.000000000,-1.433285713,-87.264686584,0.000000000,-0.066000223,-16.482683182
1748264181.604532,45.264000000,0.000000000,0.000000000,0.000000000,0.000000000,-1.419786215,-89.730918884,0.000000000,-0.066000223,-16.484632492
1748264181.607125,45.267000000,0.000000000,0.000000000,0.000000000,0.000000000,-1.406283975,-89.072074890,0.000000000,-0.066000223,-16.486358643
1748264181.609541,45.269000000,0.000000000,0.000000000,0.000000000,0.000000000,-1.392784357,-88.346099854,0.000000000,-0.074999034,-18.282405853
1748264181.611980,45.272000000,0.000000000,0.000000000,0.000000000,0.000000000,-1.379284859,-87.734291077,0.000000000,-0.074999034,-18.329402924
1748264181.614457,45.274000000,0.000000000,0.000000000,0.000000000,0.000000000,-1.379284859,-84.542022705,0.000000000,-0.074999034,-18.371883392
1748264181.616979,45.277000000,0.000000000,0.000000000,0.000000000,0.000000000,-1.379284859,-84.542022705,0.000000000,-0.074999034,-18.410116196
1748264181.619468,45.279000000,0.000000000,0.000000000,0.000000000,0.000000000,-1.365785360,-87.048553467,0.000000000,-0.074999034,-18.444286346
1748264181.621966,45.282000000,0.000000000,0.000000000,0.000000000,0.000000000,-1.352283001,-86.362083435,0.000000000,-0.084000528,-20.262128830
1748264181.624427,45.284000000,0.000000000,0.000000000,0.000000000,0.000000000,-1.352283001,-83.180618286,0.000000000,-0.084000528,-20.336383820
1748264181.626878,45.287000000,0.000000000,0.000000000,0.000000000,0.000000000,-1.352283001,-83.180618286,0.000000000,-0.084000528,-20.403215408
1748264181.629340,45.289000000,0.000000000,0.000000000,0.000000000,0.000000000,-1.338783503,-85.746917725,0.000000000,-0.084000528,-20.463138580
1748264181.631851,45.292000000,0.000000000,0.000000000,0.000000000,0.000000000,-1.325284004,-85.074241638,0.000000000,-0.084000528,-20.517024994
1748264181.634323,45.294000000,0.000000000,0.000000000,0.000000000,0.000000000,-1.311781645,-84.303619385,0.000000000,-0.084000528,-20.565477371
1748264181.636769,45.297000000,0.000000000,0.000000000,0.000000000,0.000000000,-1.298282146,-83.664360046,0.000000000,-0.084000528,-20.609035492
1748264181.639224,45.299000000,0.000000000,0.000000000,0.000000000,0.000000000,-1.298282146,-80.457954407,0.000000000,-0.084000528,-20.648464203
1748264181.641663,45.302000000,0.000000000,0.000000000,0.000000000,0.000000000,-1.284782648,-83.049598694,0.000000000,-0.084000528,-20.683677673
1748264181.644108,45.304000000,0.000000000,0.000000000,0.000000000,0.000000000,-1.271283031,-82.335723877,0.000000000,-0.084000528,-20.715322495
1748264181.646550,45.306000000,0.000000000,0.000000000,0.000000000,0.000000000,-1.257780790,-81.692893982,0.000000000,-0.084000528,-20.743766785
1748264181.648969,45.309000000,0.000000000,0.000000000,0.000000000,0.000000000,-1.244281292,-81.002197266,0.000000000,-0.084000528,-20.769325256
1748264181.651408,45.311000000,0.000000000,0.000000000,0.000000000,0.000000000,-1.230781674,-80.349967957,0.000000000,-0.084000528,-20.792285919
1748264181.653869,45.314000000,0.000000000,0.000000000,0.000000000,0.000000000,-1.217279434,-79.620147705,0.000000000,-0.084000528,-20.812913895
1748264181.656337,45.316000000,0.000000000,0.000000000,0.000000000,0.000000000,-1.217279434,-76.373886108,0.000000000,-0.084000528,-20.831745148
1748264181.658837,45.319000000,0.000000000,0.000000000,0.000000000,0.000000000,-1.203779936,-78.919143677,0.000000000,-0.084000528,-20.848384857
1748264181.661232,45.321000000,0.000000000,0.000000000,0.000000000,0.000000000,-1.190280318,-78.246391296,0.000000000,-0.084000528,-20.863321304
1748264181.663665,45.323000000,0.000000000,0.000000000,0.000000000,0.000000000,-1.190280318,-75.012619019,0.000000000,-0.084000528,-20.877042770
1748264181.666086,45.326000000,0.000000000,0.000000000,0.000000000,0.000000000,-1.176780701,-77.585571289,0.000000000,-0.084000528,-20.889072418
1748264181.668528,45.328000000,0.000000000,0.000000000,0.000000000,0.000000000,-1.163278580,-76.951248169,0.000000000,-0.084000528,-20.899864197
1748264181.670976,45.331000000,0.000000000,0.000000000,0.000000000,0.000000000,-1.149778962,-76.217544556,0.000000000,-0.084000528,-20.909538269
1748264181.673416,45.333000000,0.000000000,0.000000000,0.000000000,0.000000000,-1.149778962,-72.970588684,0.000000000,-0.084000528,-20.918535233
1748264181.675900,45.336000000,0.000000000,0.000000000,0.000000000,0.000000000,-1.149778962,-72.970588684,0.000000000,-0.084000528,-20.926631927
1748264181.678392,45.338000000,0.000000000,0.000000000,0.000000000,0.000000000,-1.136279345,-75.460647583,0.000000000,-0.084000528,-20.933589935
1748264181.680912,45.341000000,0.000000000,0.000000000,0.000000000,0.000000000,-1.122777224,-74.850143433,0.000000000,-0.084000528,-20.939815521
1748264181.683368,45.343000000,0.000000000,0.000000000,0.000000000,0.000000000,-1.109277606,-74.103034973,0.000000000,-0.084000528,-20.945383072
1748264181.685808,45.346000000,0.000000000,0.000000000,0.000000000,0.000000000,-1.109277606,-70.928558350,0.000000000,-0.084000528,-20.950691223
1748264181.688278,45.348000000,0.000000000,0.000000000,0.000000000,0.000000000,-1.109277606,-70.928558350,0.000000000,-0.084000528,-20.955471039
1748264181.690717,45.351000000,0.000000000,0.000000000,0.000000000,0.000000000,-1.109277606,-70.928558350,0.000000000,-0.084000528,-20.959770203
1748264181.693187,45.353000000,0.000000000,0.000000000,0.000000000,0.000000000,-1.095777988,-73.505493164,0.000000000,-0.084000528,-20.963302612
1748264181.695633,45.355000000,0.000000000,0.000000000,0.000000000,0.000000000,-1.082275867,-72.808105469,0.000000000,-0.084000528,-20.966447830
1748264181.698107,45.358000000,0.000000000,0.000000000,0.000000000,0.000000000,-1.082275867,-69.567153931,0.000000000,-0.084000528,-20.969581604
1748264181.700495,45.360000000,0.000000000,0.000000000,0.000000000,0.000000000,-1.082275867,-69.567153931,0.000000000,-0.084000528,-20.972402573
1748264181.702890,45.363000000,0.000000000,0.000000000,0.000000000,0.000000000,-1.082275867,-69.567153931,0.000000000,-0.084000528,-20.974939346
1748264181.705324,45.365000000,0.000000000,0.000000000,0.000000000,0.000000000,-1.082275867,-69.567153931,0.000000000,-0.084000528,-20.977224350
1748264181.707710,45.368000000,0.000000000,0.000000000,0.000000000,0.000000000,-1.068776250,-72.156135559,0.000000000,-0.084000528,-20.978939056
1748264181.710087,45.370000000,0.000000000,0.000000000,0.000000000,0.000000000,-1.068776250,-68.886520386,0.000000000,-0.084000528,-20.980789185
1748264181.712473,45.372000000,0.000000000,0.000000000,0.000000000,0.000000000,-1.068776250,-68.886520386,0.000000000,-0.084000528,-20.982454300
1748264181.714890,45.375000000,0.000000000,0.000000000,0.000000000,0.000000000,-1.068776250,-68.886520386,0.000000000,-0.084000528,-20.983951569
1748264181.717272,45.377000000,0.000000000,0.000000000,0.000000000,0.000000000,-1.055276632,-71.513519287,0.000000000,-0.074999034,-19.214744568
1748264181.719665,45.380000000,0.000000000,0.000000000,0.000000000,0.000000000,-1.055276632,-68.205886841,0.000000000,-0.074999034,-19.167951584
1748264181.722088,45.382000000,0.000000000,0.000000000,0.000000000,0.000000000,-1.055276632,-68.205886841,0.000000000,-0.074999034,-19.125835419
1748264181.724463,45.384000000,0.000000000,0.000000000,0.000000000,0.000000000,-1.041777134,-70.817817688,0.000000000,-0.074999034,-19.087545395
1748264181.726856,45.387000000,0.000000000,0.000000000,0.000000000,0.000000000,-1.028274894,-70.190277100,0.000000000,-0.074999034,-19.053062439
1748264181.729256,45.389000000,0.000000000,0.000000000,0.000000000,0.000000000,-1.028274894,-66.844490051,0.000000000,-0.074999034,-19.022375107
1748264181.731642,45.391000000,0.000000000,0.000000000,0.000000000,0.000000000,-1.028274894,-66.844490051,0.000000000,-0.074999034,-18.994754791
1748264181.734044,45.394000000,0.000000000,0.000000000,0.000000000,0.000000000,-1.014775276,-69.494995117,0.000000000,-0.074999034,-18.969539642
1748264181.736466,45.396000000,0.000000000,0.000000000,0.000000000,0.000000000,-1.001275778,-38.800468445,0.000000000,-0.074999034,-18.946817398
1748264181.738858,45.399000000,0.000000000,0.000000000,0.000000000,0.000000000,-1.041777134,-27.593502045,0.000000000,-0.074999034,-18.927743912
1748264181.741249,45.401000000,0.000000000,0.000000000,0.000000000,0.000000000,-1.122777224,-21.771064758,0.000000000,-0.074999034,-18.911691666
1748264181.743662,45.403000000,0.000000000,0.000000000,0.000000000,0.000000000,-1.163278580,-33.682182312,0.000000000,-0.066000223,-17.129379272
1748264181.746057,45.406000000,0.000000000,0.000000000,0.000000000,0.000000000,-1.149778962,-46.293399811,0.000000000,-0.066000223,-17.065982819
1748264181.748471,45.408000000,0.000000000,0.000000000,0.000000000,0.000000000,-1.136279345,-45.605846405,0.000000000,-0.066000223,-17.008911133
1748264181.750893,45.411000000,0.000000000,0.000000000,0.000000000,0.000000000,-1.149778962,-39.664329529,0.000000000,-0.066000223,-16.958282471
1748264181.753272,45.413000000,0.000000000,0.000000000,0.000000000,0.000000000,-1.163278580,-40.365428925,0.000000000,-0.066000223,-16.912734985
1748264181.755656,45.416000000,0.000000000,0.000000000,0.000000000,0.000000000,-1.176780701,-40.990440369,0.000000000,-0.066000223,-16.871757507
1748264181.758045,45.418000000,0.000000000,0.000000000,0.000000000,0.000000000,-1.176780701,-44.331989288,0.000000000,-0.066000223,-16.834550858
1748264181.760508,45.420000000,0.000000000,0.000000000,0.000000000,0.000000000,-1.176780701,-44.331989288,0.000000000,-0.066000223,-16.801063538
1748264181.762903,45.423000000,0.000000000,0.000000000,0.000000000,0.000000000,-1.176780701,-44.331989288,0.000000000,-0.066000223,-16.770925522
1748264181.765297,45.425000000,0.000000000,0.000000000,0.000000000,0.000000000,-1.190280318,-41.684257507,0.000000000,-0.066000223,-16.744131088
1748264181.767654,45.427000000,0.000000000,0.000000000,0.000000000,0.000000000,-1.203779936,-42.360717773,0.000000000,-0.066000223,-16.720035553
1748264181.770082,45.430000000,0.000000000,0.000000000,0.000000000,0.000000000,-1.230781674,-40.366569519,0.000000000,-0.066000223,-16.698686600
1748264181.772464,45.432000000,0.000000000,0.000000000,0.000000000,0.000000000,-1.230781674,-47.054656982,0.000000000,-0.066000223,-16.678895950
1748264181.774903,45.435000000,0.000000000,0.000000000,0.000000000,0.000000000,-1.230781674,-47.054656982,0.000000000,-0.066000223,-16.661083221
1748264181.777241,45.437000000,0.000000000,0.000000000,0.000000000,0.000000000,-1.230781674,-47.054656982,0.000000000,-0.066000223,-16.645051956
1748264181.779630,45.439000000,0.000000000,0.000000000,0.000000000,0.000000000,-1.230781674,-47.054656982,0.000000000,-0.066000223,-16.630624771
1748264181.781987,45.442000000,0.000000000,0.000000000,0.000000000,0.000000000,-1.244281292,-44.418022156,0.000000000,-0.066000223,-16.617937088
1748264181.784377,45.444000000,0.000000000,0.000000000,0.000000000,0.000000000,-1.257780790,-45.060951233,0.000000000,-0.066000223,-16.606542587
1748264181.786750,45.447000000,0.000000000,0.000000000,0.000000000,0.000000000,-1.271283031,-45.745277405,0.000000000,-0.066000223,-16.596315384
1748264181.789140,45.449000000,0.000000000,0.000000000,0.000000000,0.000000000,-1.271283031,-49.096694946,0.000000000,-0.066000223,-16.586841583
1748264181.791530,45.451000000,0.000000000,0.000000000,0.000000000,0.000000000,-1.271283031,-49.096694946,0.000000000,-0.066000223,-16.578317642
1748264181.793909,45.454000000,0.000000000,0.000000000,0.000000000,0.000000000,-1.271283031,-49.096694946,0.000000000,-0.066000223,-16.570644379
1748264181.796298,45.456000000,0.000000000,0.000000000,0.000000000,0.000000000,-1.271283031,-49.096694946,0.000000000,-0.066000223,-16.563737869
1748264181.798687,45.458000000,0.000000000,0.000000000,0.000000000,0.000000000,-1.271283031,-49.096694946,0.000000000,-0.066000223,-16.557523727
1748264181.801092,45.461000000,0.000000000,0.000000000,0.000000000,0.000000000,-1.271283031,-49.096694946,0.000000000,-0.066000223,-16.551929474
1748264181.803455,45.463000000,0.000000000,0.000000000,0.000000000,0.000000000,-1.271283031,-49.096694946,0.000000000,-0.066000223,-16.546895981
1748264181.805859,45.466000000,0.000000000,0.000000000,0.000000000,0.000000000,-1.271283031,-49.096694946,0.000000000,-0.066000223,-16.542366028
1748264181.808163,45.468000000,0.000000000,0.000000000,0.000000000,0.000000000,-1.284782648,-46.409561157,0.000000000,-0.066000223,-16.538566589
1748264181.810528,45.470000000,0.000000000,0.000000000,0.000000000,0.000000000,-1.298282146,-47.114250183,0.000000000,-0.066000223,-16.535175323
1748264181.812950,45.473000000,0.000000000,0.000000000,0.000000000,0.000000000,-1.298282146,-50.457954407,0.000000000,-0.066000223,-16.531869888
1748264181.815338,45.475000000,0.000000000,0.000000000,0.000000000,0.000000000,-1.298282146,-50.457954407,0.000000000,-0.056998730,-14.757463455
1748264181.817706,45.478000000,0.000000000,0.000000000,0.000000000,0.000000000,-1.298282146,-50.457954407,0.000000000,-0.056998730,-14.706846237
1748264181.820068,45.480000000,0.000000000,0.000000000,0.000000000,0.000000000,-1.325284004,-45.117172241,0.000000000,-0.056998730,-14.661946297
1748264181.822443,45.482000000,0.000000000,0.000000000,0.000000000,0.000000000,-1.338783503,-49.136520386,0.000000000,-0.056998730,-14.621247292
1748264181.824837,45.485000000,0.000000000,0.000000000,0.000000000,0.000000000,-1.338783503,-52.499992371,0.000000000,-0.056998730,-14.584321976
1748264181.827217,45.487000000,0.000000000,0.000000000,0.000000000,0.000000000,-1.338783503,-52.499992371,0.000000000,-0.056998730,-14.551089287
1748264181.829645,45.489000000,0.000000000,0.000000000,0.000000000,0.000000000,-1.338783503,-52.499992371,0.000000000,-0.056998730,-14.521181107
1748264181.832097,45.492000000,0.000000000,0.000000000,0.000000000,0.000000000,-1.365785360,-47.326904297,0.000000000,-0.056998730,-14.494841576
1748264181.834532,45.494000000,0.000000000,0.000000000,0.000000000,0.000000000,-1.392784357,-48.739379883,0.000000000,-0.056998730,-14.471172333
1748264181.836998,45.497000000,0.000000000,0.000000000,0.000000000,0.000000000,-1.419786215,-50.057594299,0.000000000,-0.056998730,-14.449907303
1748264181.839473,45.499000000,0.000000000,0.000000000,0.000000000,0.000000000,-1.433285713,-53.996444702,0.000000000,-0.056998730,-14.430531502
1748264181.841971,45.502000000,0.000000000,0.000000000,0.000000000,0.000000000,-1.446785331,-54.714179993,0.000000000,-0.056998730,-14.413113594
1748264181.844487,45.504000000,0.000000000,0.000000000,0.000000000,0.000000000,-1.473787069,-52.941955566,0.000000000,-0.056998730,-14.397725105
1748264181.846847,45.507000000,0.000000000,0.000000000,0.000000000,0.000000000,-1.500786304,-54.242195129,0.000000000,-0.056998730,-14.383913994
1748264181.849258,45.509000000,0.000000000,0.000000000,0.000000000,0.000000000,-1.514288425,-58.033630371,0.000000000,-0.056998730,-14.371267319
1748264181.851643,45.511000000,0.000000000,0.000000000,0.000000000,0.000000000,-1.541287661,-56.092018127,0.000000000,-0.056998730,-14.360161781
1748264181.854021,45.514000000,0.000000000,0.000000000,0.000000000,0.000000000,-1.541287661,-62.710029602,0.000000000,-0.056998730,-14.349698067
1748264181.856517,45.516000000,0.000000000,0.000000000,0.000000000,0.000000000,-1.554789782,-60.047843933,0.000000000,-0.056998730,-14.340534210
1748264181.858984,45.519000000,0.000000000,0.000000000,0.000000000,0.000000000,-1.581789017,-58.271362305,0.000000000,-0.056998730,-14.332561493
1748264181.861431,45.521000000,0.000000000,0.000000000,0.000000000,0.000000000,-1.608790755,-59.653182983,0.000000000,-0.056998730,-14.325428009
1748264181.863911,45.524000000,0.000000000,0.000000000,0.000000000,0.000000000,-1.608790755,-66.113456726,0.000000000,-0.056998730,-14.318554878
1748264181.866380,45.526000000,0.000000000,0.000000000,0.000000000,0.000000000,-1.608790755,-66.113456726,0.000000000,-0.056998730,-14.312368393
1748264181.868882,45.529000000,0.000000000,0.000000000,0.000000000,0.000000000,-1.608790755,-66.113456726,0.000000000,-0.056998730,-14.306801796
1748264181.871368,45.531000000,0.000000000,0.000000000,0.000000000,0.000000000,-1.608790755,-66.113456726,0.000000000,-0.056998730,-14.301791191
1748264181.873926,45.534000000,0.000000000,0.000000000,0.000000000,0.000000000,-1.622290373,-63.605636597,0.000000000,-0.056998730,-14.297525406
1748264181.876378,45.536000000,0.000000000,0.000000000,0.000000000,0.000000000,-1.649292111,-61.871063232,0.000000000,-0.056998730,-14.293951988
1748264181.878928,45.539000000,0.000000000,0.000000000,0.000000000,0.000000000,-1.689793468,-60.534851074,0.000000000,-0.056998730,-14.291024208
1748264181.881384,45.541000000,0.000000000,0.000000000,0.000000000,0.000000000,-1.703293085,-67.702415466,0.000000000,-0.056998730,-14.287973404
1748264181.883926,45.544000000,0.000000000,0.000000000,0.000000000,0.000000000,-1.689793468,-73.384712219,0.000000000,-0.056998730,-14.284769058
1748264181.886490,45.546000000,0.000000000,0.000000000,0.000000000,0.000000000,-1.689793468,-70.197525024,0.000000000,-0.056998730,-14.282102585
1748264181.889020,45.549000000,0.000000000,0.000000000,0.000000000,0.000000000,-1.716792583,-65.272491455,0.000000000,-0.056998730,-14.280181885
1748264181.891561,45.551000000,0.000000000,0.000000000,0.000000000,0.000000000,-1.743794441,-66.650581360,0.000000000,-0.066000223,-16.070453644
1748264181.894107,45.554000000,0.000000000,0.000000000,0.000000000,0.000000000,-1.770793438,-68.054168701,0.000000000,-0.066000223,-16.114883423
1748264181.896667,45.556000000,0.000000000,0.000000000,0.000000000,0.000000000,-1.770793438,-74.281455994,0.000000000,-0.066000223,-16.154560089
1748264181.899231,45.559000000,0.000000000,0.000000000,0.000000000,0.000000000,-1.770793438,-74.281455994,0.000000000,-0.066000223,-16.190267563
1748264181.901740,45.561000000,0.000000000,0.000000000,0.000000000,0.000000000,-1.784295797,-71.823379517,0.000000000,-0.066000223,-16.222610474
1748264181.904250,45.564000000,0.000000000,0.000000000,0.000000000,0.000000000,-1.824794412,-67.518547058,0.000000000,-0.066000223,-16.252182007
1748264181.906713,45.566000000,0.000000000,0.000000000,0.000000000,0.000000000,-1.838296652,-74.517364502,0.000000000,-0.066000223,-16.278455734
1748264181.909187,45.569000000,0.000000000,0.000000000,0.000000000,0.000000000,-1.824794412,-80.249061584,0.000000000,-0.066000223,-16.301685333
1748264181.911661,45.571000000,0.000000000,0.000000000,0.000000000,0.000000000,-1.824794412,-77.004127502,0.000000000,-0.066000223,-16.322790146
1748264181.914153,45.574000000,0.000000000,0.000000000,0.000000000,0.000000000,-1.838296652,-74.439956665,0.000000000,-0.066000223,-16.342016220
1748264181.916618,45.576000000,0.000000000,0.000000000,0.000000000,0.000000000,-1.878798008,-70.183876038,0.000000000,-0.066000223,-16.359828949
1748264181.919144,45.579000000,0.000000000,0.000000000,0.000000000,0.000000000,-1.919296741,-72.153434753,0.000000000,-0.066000223,-16.375947952
1748264181.921592,45.581000000,0.000000000,0.000000000,0.000000000,0.000000000,-1.919296741,-81.768829346,0.000000000,-0.066000223,-16.389816284
1748264181.924060,45.584000000,0.000000000,0.000000000,0.000000000,0.000000000,-1.919296741,-81.768829346,0.000000000,-0.066000223,-16.402297974
1748264181.926579,45.586000000,0.000000000,0.000000000,0.000000000,0.000000000,-1.919296741,-81.768829346,0.000000000,-0.066000223,-16.413530350
1748264181.929123,45.589000000,0.000000000,0.000000000,0.000000000,0.000000000,-1.932798862,-79.361900330,0.000000000,-0.066000223,-16.423892975
1748264181.931648,45.591000000,0.000000000,0.000000000,0.000000000,0.000000000,-1.946298480,-79.946861267,0.000000000,-0.066000223,-16.433246613
1748264181.934252,45.594000000,0.000000000,0.000000000,0.000000000,0.000000000,-1.959798098,-80.642692566,0.000000000,-0.066000223,-16.441696167
1748264181.936772,45.596000000,0.000000000,0.000000000,0.000000000,0.000000000,-1.973300219,-81.389503479,0.000000000,-0.066000223,-16.449327469
1748264181.939179,45.599000000,0.000000000,0.000000000,0.000000000,0.000000000,-1.986799836,-82.061027527,0.000000000,-0.066000223,-16.456224442
1748264181.941593,45.601000000,0.000000000,0.000000000,0.000000000,0.000000000,-2.000299454,-82.571159363,0.000000000,-0.066000223,-16.462461472
1748264181.944023,45.604000000,0.000000000,0.000000000,0.000000000,0.000000000,-2.013801575,-83.244537354,0.000000000,-0.066000223,-16.468101501
1748264181.946446,45.606000000,0.000000000,0.000000000,0.000000000,0.000000000,-2.013801575,-86.533660889,0.000000000,-0.066000223,-16.472944260
1748264181.948851,45.609000000,0.000000000,0.000000000,0.000000000,0.000000000,-2.013801575,-86.533660889,0.000000000,-0.066000223,-16.477302551
1748264181.951221,45.611000000,0.000000000,0.000000000,0.000000000,0.000000000,-2.013801575,-86.533660889,0.000000000,-0.066000223,-16.481225967
1748264181.953608,45.613000000,0.000000000,0.000000000,0.000000000,0.000000000,-2.027301311,-83.867729187,0.000000000,-0.066000223,-16.485021591
1748264181.956015,45.616000000,0.000000000,0.000000000,0.000000000,0.000000000,-2.040800810,-84.548416138,0.000000000,-0.066000223,-16.488466263
1748264181.958388,45.618000000,0.000000000,0.000000000,0.000000000,0.000000000,-2.040800810,-87.894927979,0.000000000,-0.066000223,-16.491329193
1748264181.960887,45.621000000,0.000000000,0.000000000,0.000000000,0.000000000,-2.040800810,-87.894927979,0.000000000,-0.074999034,-18.253961563
1748264181.963159,45.623000000,0.000000000,0.000000000,0.000000000,0.000000000,-2.054300308,-85.230453491,0.000000000,-0.066000223,-16.547151566
1748264181.965571,45.625000000,0.000000000,0.000000000,0.000000000,0.000000000,-2.054300308,-88.575561523,0.000000000,-0.074999034,-18.306427002
1748264181.967959,45.628000000,0.000000000,0.000000000,0.000000000,0.000000000,-2.054300308,-88.575561523,0.000000000,-0.066000223,-16.590276718
1748264181.970309,45.630000000,0.000000000,0.000000000,0.000000000,0.000000000,-2.054300308,-88.575561523,0.000000000,-0.074999034,-18.341749191
1748264181.972701,45.633000000,0.000000000,0.000000000,0.000000000,0.000000000,-2.054300308,-88.575561523,0.000000000,-0.074999034,-18.384538651
1748264181.975082,45.635000000,0.000000000,0.000000000,0.000000000,0.000000000,-2.067802429,-85.943954468,0.000000000,-0.074999034,-18.423278809
1748264181.977463,45.637000000,0.000000000,0.000000000,0.000000000,0.000000000,-2.081302166,-86.588989258,0.000000000,-0.074999034,-18.458185196
1748264181.979913,45.640000000,0.000000000,0.000000000,0.000000000,0.000000000,-2.081302166,-89.936965942,0.000000000,-0.074999034,-18.489391327
1748264181.982360,45.642000000,0.000000000,0.000000000,0.000000000,0.000000000,-2.081302166,-89.936965942,0.000000000,-0.074999034,-18.517477036
1748264181.984875,45.645000000,0.000000000,0.000000000,0.000000000,0.000000000,-2.081302166,-89.936965942,0.000000000,-0.084000528,-20.314888000
1748264181.987326,45.647000000,0.000000000,0.000000000,0.000000000,0.000000000,-2.094801664,-87.409896851,0.000000000,-0.084000528,-20.385936737
1748264181.989747,45.650000000,0.000000000,0.000000000,0.000000000,0.000000000,-2.108304024,-88.049430847,0.000000000,-0.084000528,-20.449926376
1748264181.992234,45.652000000,0.000000000,0.000000000,0.000000000,0.000000000,-2.108304024,-91.298370361,0.000000000,-0.084000528,-20.507335663
1748264181.994638,45.654000000,0.000000000,0.000000000,0.000000000,0.000000000,-2.108304024,-91.298370361,0.000000000,-0.084000528,-20.559005737
1748264181.997029,45.657000000,0.000000000,0.000000000,0.000000000,0.000000000,-2.108304024,-91.298370361,0.000000000,-0.084000528,-20.605506897
1748264181.999427,45.659000000,0.000000000,0.000000000,0.000000000,0.000000000,-2.121803522,-88.645088196,0.000000000,-0.084000528,-20.647621155
1748264182.001853,45.662000000,0.000000000,0.000000000,0.000000000,0.000000000,-2.121803522,-91.978996277,0.000000000,-0.084000528,-20.685295105
1748264182.004321,45.664000000,0.000000000,0.000000000,0.000000000,0.000000000,-2.121803522,-91.978996277,0.000000000,-0.084000528,-20.719203949
1748264182.006793,45.667000000,0.000000000,0.000000000,0.000000000,0.000000000,-2.121803522,-91.978996277,0.000000000,-0.084000528,-20.749719620
1748264182.009306,45.669000000,0.000000000,0.000000000,0.000000000,0.000000000,-2.121803522,-91.978996277,0.000000000,-0.084000528,-20.777185440
1748264182.011737,45.672000000,0.000000000,0.000000000,0.000000000,0.000000000,-2.121803522,-91.978996277,0.000000000,-0.084000528,-20.801904678
1748264182.014132,45.674000000,0.000000000,0.000000000,0.000000000,0.000000000,-2.121803522,-91.978996277,0.000000000,-0.084000528,-20.824151993
1748264182.016520,45.676000000,0.000000000,0.000000000,0.000000000,0.000000000,-2.121803522,-91.978996277,0.000000000,-0.084000528,-20.844173431
1748264182.018913,45.679000000,0.000000000,0.000000000,0.000000000,0.000000000,-2.121803522,-91.978996277,0.000000000,-0.084000528,-20.862192154
1748264182.021291,45.681000000,0.000000000,0.000000000,0.000000000,0.000000000,-2.121803522,-91.978996277,0.000000000,-0.084000528,-20.878410339
1748264182.023672,45.684000000,0.000000000,0.000000000,0.000000000,0.000000000,-2.121803522,-91.978996277,0.000000000,-0.084000528,-20.893007278
1748264182.026110,45.686000000,0.000000000,0.000000000,0.000000000,0.000000000,-2.108304024,-94.640670776,0.000000000,-0.084000528,-20.905824661
1748264182.028547,45.688000000,0.000000000,0.000000000,0.000000000,0.000000000,-2.108304024,-91.298370361,0.000000000,-0.084000528,-20.917644501
1748264182.030968,45.691000000,0.000000000,0.000000000,0.000000000,0.000000000,-2.108304024,-91.298370361,0.000000000,-0.084000528,-20.928283691
1748264182.033376,45.693000000,0.000000000,0.000000000,0.000000000,0.000000000,-2.094801664,-93.904060364,0.000000000,-0.084000528,-20.937534332
1748264182.035724,45.696000000,0.000000000,0.000000000,0.000000000,0.000000000,-2.094801664,-90.617591858,0.000000000,-0.084000528,-20.946147919
1748264182.038139,45.698000000,0.000000000,0.000000000,0.000000000,0.000000000,-2.094801664,-90.617591858,0.000000000,-0.084000528,-20.953901291
1748264182.040537,45.700000000,0.000000000,0.000000000,0.000000000,0.000000000,-2.081302166,-93.224090576,0.000000000,-0.084000528,-20.960546494
1748264182.042920,45.703000000,0.000000000,0.000000000,0.000000000,0.000000000,-2.067802429,-92.580551147,0.000000000,-0.084000528,-20.966493607
1748264182.045333,45.705000000,0.000000000,0.000000000,0.000000000,0.000000000,-2.054300308,-91.914306641,0.000000000,-0.084000528,-20.971809387
1748264182.047723,45.708000000,0.000000000,0.000000000,0.000000000,0.000000000,-2.054300308,-88.575561523,0.000000000,-0.084000528,-20.976892471
1748264182.050142,45.710000000,0.000000000,0.000000000,0.000000000,0.000000000,-2.054300308,-88.575561523,0.000000000,-0.084000528,-20.981468201
1748264182.052545,45.712000000,0.000000000,0.000000000,0.000000000,0.000000000,-2.054300308,-88.575561523,0.000000000,-0.084000528,-20.985586166
1748264182.054999,45.715000000,0.000000000,0.000000000,0.000000000,0.000000000,-2.040800810,-91.235824585,0.000000000,-0.084000528,-20.988954544
1748264182.057392,45.717000000,0.000000000,0.000000000,0.000000000,0.000000000,-2.040800810,-87.894927979,0.000000000,-0.084000528,-20.992288589
1748264182.059763,45.720000000,0.000000000,0.000000000,0.000000000,0.000000000,-2.040800810,-87.894927979,0.000000000,-0.084000528,-20.995290756
1748264182.062283,45.722000000,0.000000000,0.000000000,0.000000000,0.000000000,-2.027301311,-90.562225342,0.000000000,-0.084000528,-20.997652054
1748264182.064747,45.725000000,0.000000000,0.000000000,0.000000000,0.000000000,-2.027301311,-87.214302063,0.000000000,-0.084000528,-21.000082016
1748264182.067206,45.727000000,0.000000000,0.000000000,0.000000000,0.000000000,-2.027301311,-87.214302063,0.000000000,-0.084000528,-21.002269745
1748264182.069661,45.729000000,0.000000000,0.000000000,0.000000000,0.000000000,-2.013801575,-89.746589661,0.000000000,-0.084000528,-21.003896713
1748264182.072171,45.732000000,0.000000000,0.000000000,0.000000000,0.000000000,-2.013801575,-86.533660889,0.000000000,-0.084000528,-21.005668640
1748264182.074621,45.734000000,0.000000000,0.000000000,0.000000000,0.000000000,-2.013801575,-86.533660889,0.000000000,-0.084000528,-21.007261276
1748264182.077132,45.737000000,0.000000000,0.000000000,0.000000000,0.000000000,-2.013801575,-86.533660889,0.000000000,-0.084000528,-21.008697510
1748264182.079542,45.739000000,0.000000000,0.000000000,0.000000000,0.000000000,-2.013801575,-86.533660889,0.000000000,-0.084000528,-21.009988785
1748264182.081927,45.742000000,0.000000000,0.000000000,0.000000000,0.000000000,-2.000299454,-89.170783997,0.000000000,-0.084000528,-21.010807037
1748264182.084315,45.744000000,0.000000000,0.000000000,0.000000000,0.000000000,-1.986799836,-88.504806519,0.000000000,-0.084000528,-21.011510849
1748264182.086704,45.747000000,0.000000000,0.000000000,0.000000000,0.000000000,-1.986799836,-85.172264099,0.000000000,-0.084000528,-21.012451172
1748264182.089118,45.749000000,0.000000000,0.000000000,0.000000000,0.000000000,-1.986799836,-85.172264099,0.000000000,-0.084000528,-21.013298035
1748264182.091494,45.751000000,0.000000000,0.000000000,0.000000000,0.000000000,-1.986799836,-85.172264099,0.000000000,-0.084000528,-21.014060974
1748264182.093879,45.754000000,0.000000000,0.000000000,0.000000000,0.000000000,-1.973300219,-87.843803406,0.000000000,-0.084000528,-21.014402390
1748264182.096417,45.756000000,0.000000000,0.000000000,0.000000000,0.000000000,-1.959798098,-87.151008606,0.000000000,-0.084000528,-21.014675140
1748264182.098878,45.759000000,0.000000000,0.000000000,0.000000000,0.000000000,-1.959798098,-83.810859680,0.000000000,-0.084000528,-21.015230179
1748264182.101358,45.761000000,0.000000000,0.000000000,0.000000000,0.000000000,-1.959798098,-83.810859680,0.000000000,-0.084000528,-21.015729904
1748264182.103831,45.764000000,0.000000000,0.000000000,0.000000000,0.000000000,-1.946298480,-86.358749390,0.000000000,-0.074999034,-19.238548279
1748264182.106292,45.766000000,0.000000000,0.000000000,0.000000000,0.000000000,-1.905797124,-90.813796997,0.000000000,-0.074999034,-19.190198898
1748264182.108810,45.769000000,0.000000000,0.000000000,0.000000000,0.000000000,-1.905797124,-81.088195801,0.000000000,-0.074999034,-19.147804260
1748264182.111310,45.771000000,0.000000000,0.000000000,0.000000000,0.000000000,-1.905797124,-81.088195801,0.000000000,-0.074999034,-19.109647751
1748264182.113798,45.774000000,0.000000000,0.000000000,0.000000000,0.000000000,-1.905797124,-81.088195801,0.000000000,-0.066000223,-17.291372299
1748264182.116277,45.776000000,0.000000000,0.000000000,0.000000000,0.000000000,-1.905797124,-81.088195801,0.000000000,-0.066000223,-17.213670731
1748264182.118734,45.779000000,0.000000000,0.000000000,0.000000000,0.000000000,-1.892297506,-83.615280151,0.000000000,-0.066000223,-17.143327713
1748264182.121191,45.781000000,0.000000000,0.000000000,0.000000000,0.000000000,-1.892297506,-80.407554626,0.000000000,-0.066000223,-17.080404282
1748264182.123657,45.783000000,0.000000000,0.000000000,0.000000000,0.000000000,-1.892297506,-80.407554626,0.000000000,-0.066000223,-17.023773193
1748264182.126200,45.786000000,0.000000000,0.000000000,0.000000000,0.000000000,-1.892297506,-80.407554626,0.000000000,-0.066000223,-16.972803116
1748264182.128691,45.788000000,0.000000000,0.000000000,0.000000000,0.000000000,-1.892297506,-80.407554626,0.000000000,-0.066000223,-16.926931381
1748264182.131164,45.791000000,0.000000000,0.000000000,0.000000000,0.000000000,-1.878798008,-82.946289063,0.000000000,-0.066000223,-16.885293961
1748264182.133634,45.793000000,0.000000000,0.000000000,0.000000000,0.000000000,-1.865295768,-82.254501343,0.000000000,-0.066000223,-16.847797394
1748264182.136140,45.796000000,0.000000000,0.000000000,0.000000000,0.000000000,-1.851796150,-81.599296570,0.000000000,-0.066000223,-16.814035416
1748264182.138605,45.798000000,0.000000000,0.000000000,0.000000000,0.000000000,-1.851796150,-78.365524292,0.000000000,-0.066000223,-16.783958435
1748264182.141075,45.801000000,0.000000000,0.000000000,0.000000000,0.000000000,-1.838296652,-80.929168701,0.000000000,-0.066000223,-16.756563187
1748264182.143597,45.803000000,0.000000000,0.000000000,0.000000000,0.000000000,-1.838296652,-77.684890747,0.000000000,-0.066000223,-16.732206345
1748264182.146147,45.806000000,0.000000000,0.000000000,0.000000000,0.000000000,-1.838296652,-77.684890747,0.000000000,-0.066000223,-16.710285187
1748264182.148648,45.808000000,0.000000000,0.000000000,0.000000000,0.000000000,-1.811294794,-82.595581055,0.000000000,-0.066000223,-16.689935684
1748264182.151085,45.811000000,0.000000000,0.000000000,0.000000000,0.000000000,-1.811294794,-76.323493958,0.000000000,-0.066000223,-16.672187805
1748264182.153483,45.813000000,0.000000000,0.000000000,0.000000000,0.000000000,-1.811294794,-76.323493958,0.000000000,-0.066000223,-16.656215668
1748264182.155805,45.816000000,0.000000000,0.000000000,0.000000000,0.000000000,-1.811294794,-76.323493958,0.000000000,-0.066000223,-16.641839981
1748264182.158126,45.818000000,0.000000000,0.000000000,0.000000000,0.000000000,-1.811294794,-76.323493958,0.000000000,-0.066000223,-16.628900528
1748264182.160509,45.820000000,0.000000000,0.000000000,0.000000000,0.000000000,-1.811294794,-76.323493958,0.000000000,-0.066000223,-16.617258072
1748264182.162860,45.823000000,0.000000000,0.000000000,0.000000000,0.000000000,-1.797795296,-78.999244690,0.000000000,-0.066000223,-16.606483459
1748264182.165251,45.825000000,0.000000000,0.000000000,0.000000000,0.000000000,-1.784295797,-78.337104797,0.000000000,-0.066000223,-16.596761703
1748264182.167624,45.827000000,0.000000000,0.000000000,0.000000000,0.000000000,-1.784295797,-74.962226868,0.000000000,-0.066000223,-16.588277817
1748264182.170033,45.830000000,0.000000000,0.000000000,0.000000000,0.000000000,-1.784295797,-74.962226868,0.000000000,-0.066000223,-16.580640793
1748264182.172364,45.832000000,0.000000000,0.000000000,0.000000000,0.000000000,-1.770793438,-77.585639954,0.000000000,-0.066000223,-16.573482513
1748264182.174754,45.835000000,0.000000000,0.000000000,0.000000000,0.000000000,-1.757293940,-77.007461548,0.000000000,-0.066000223,-16.567014694
1748264182.177165,45.837000000,0.000000000,0.000000000,0.000000000,0.000000000,-1.743794441,-76.266708374,0.000000000,-0.066000223,-16.561166763
1748264182.179516,45.839000000,0.000000000,0.000000000,0.000000000,0.000000000,-1.730292082,-75.579627991,0.000000000,-0.066000223,-16.555879593
1748264182.181882,45.842000000,0.000000000,0.000000000,0.000000000,0.000000000,-1.743794441,-69.564514160,0.000000000,-0.066000223,-16.551654816
1748264182.184268,45.844000000,0.000000000,0.000000000,0.000000000,0.000000000,-1.730292082,-75.607879639,0.000000000,-0.066000223,-16.547319412
1748264182.186643,45.846000000,0.000000000,0.000000000,0.000000000,0.000000000,-1.716792583,-74.884346008,0.000000000,-0.056998730,-14.779419899
1748264182.189035,45.849000000,0.000000000,0.000000000,0.000000000,0.000000000,-1.703293085,-74.238800049,0.000000000,-0.066000223,-16.486083984
1748264182.191479,45.851000000,0.000000000,0.000000000,0.000000000,0.000000000,-1.703293085,-70.878166199,0.000000000,-0.056998730,-14.725495338
1748264182.193979,45.854000000,0.000000000,0.000000000,0.000000000,0.000000000,-1.703293085,-70.878166199,0.000000000,-0.056998730,-14.678779602
1748264182.196391,45.856000000,0.000000000,0.000000000,0.000000000,0.000000000,-1.689793468,-73.389816284,0.000000000,-0.056998730,-14.636416435
1748264182.198774,45.859000000,0.000000000,0.000000000,0.000000000,0.000000000,-1.703293085,-67.605865479,0.000000000,-0.056998730,-14.598896027
1748264182.201169,45.861000000,0.000000000,0.000000000,0.000000000,0.000000000,-1.689793468,-73.523109436,0.000000000,-0.056998730,-14.564537048
1748264182.203550,45.863000000,0.000000000,0.000000000,0.000000000,0.000000000,-1.689793468,-70.197525024,0.000000000,-0.056998730,-14.533893585
1748264182.205963,45.866000000,0.000000000,0.000000000,0.000000000,0.000000000,-1.703293085,-67.541435242,0.000000000,-0.056998730,-14.506605148
1748264182.208381,45.868000000,0.000000000,0.000000000,0.000000000,0.000000000,-1.703293085,-70.878166199,0.000000000,-0.056998730,-14.481779099
1748264182.210738,45.871000000,0.000000000,0.000000000,0.000000000,0.000000000,-1.689793468,-73.505157471,0.000000000,-0.056998730,-14.459155083
1748264182.213161,45.873000000,0.000000000,0.000000000,0.000000000,0.000000000,-1.689793468,-70.197525024,0.000000000,-0.056998730,-14.439049721
1748264182.215539,45.875000000,0.000000000,0.000000000,0.000000000,0.000000000,-1.689793468,-70.197525024,0.000000000,-0.056998730,-14.420955658
1748264182.217926,45.878000000,0.000000000,0.000000000,0.000000000,0.000000000,-1.689793468,-70.197525024,0.000000000,-0.066000223,-16.165410995
1748264182.220300,45.880000000,0.000000000,0.000000000,0.000000000,0.000000000,-1.689793468,-70.197525024,0.000000000,-0.056998730,-14.437681198
1748264182.222703,45.883000000,0.000000000,0.000000000,0.000000000,0.000000000,-1.689793468,-70.197525024,0.000000000,-0.066000223,-16.181909561
1748264182.225099,45.885000000,0.000000000,0.000000000,0.000000000,0.000000000,-1.689793468,-70.197525024,0.000000000,-0.056998730,-14.449060440
1748264182.227470,45.887000000,0.000000000,0.000000000,0.000000000,0.000000000,-1.689793468,-70.197525024,0.000000000,-0.056998730,-14.429965019
1748264182.229875,45.890000000,0.000000000,0.000000000,0.000000000,0.000000000,-1.689793468,-70.197525024,0.000000000,-0.056998730,-14.412778854
1748264182.232275,45.892000000,0.000000000,0.000000000,0.000000000,0.000000000,-1.689793468,-70.197525024,0.000000000,-0.056998730,-14.397311211
1748264182.234668,45.895000000,0.000000000,0.000000000,0.000000000,0.000000000,-1.689793468,-70.197525024,0.000000000,-0.056998730,-14.383390427
1748264182.237098,45.897000000,0.000000000,0.000000000,0.000000000,0.000000000,-1.689793468,-70.197525024,0.000000000,-0.056998730,-14.370862007
1748264182.239519,45.899000000,0.000000000,0.000000000,0.000000000,0.000000000,-1.689793468,-70.197525024,0.000000000,-0.056998730,-14.359586716
1748264182.241913,45.902000000,0.000000000,0.000000000,0.000000000,0.000000000,-1.689793468,-70.197525024,0.000000000,-0.056998730,-14.349438667
1748264182.244323,45.904000000,0.000000000,0.000000000,0.000000000,0.000000000,-1.689793468,-70.197525024,0.000000000,-0.056998730,-14.340305328
1748264182.246714,45.907000000,0.000000000,0.000000000,0.000000000,0.000000000,-1.689793468,-70.197525024,0.000000000,-0.056998730,-14.332084656
1748264182.249109,45.909000000,0.000000000,0.000000000,0.000000000,0.000000000,-1.689793468,-70.197525024,0.000000000,-0.056998730,-14.324687004
1748264182.251491,45.911000000,0.000000000,0.000000000,0.000000000,0.000000000,-1.689793468,-70.197525024,0.000000000,-0.056998730,-14.318028450
1748264182.253886,45.914000000,0.000000000,0.000000000,0.000000000,0.000000000,-1.689793468,-70.197525024,0.000000000,-0.056998730,-14.312036514
1748264182.256272,45.916000000,0.000000000,0.000000000,0.000000000,0.000000000,-1.689793468,-70.197525024,0.000000000,-0.056998730,-14.306643486
1748264182.258665,45.919000000,0.000000000,0.000000000,0.000000000,0.000000000,-1.689793468,-70.197525024,0.000000000,-0.056998730,-14.301789284
1748264182.261107,45.921000000,0.000000000,0.000000000,0.000000000,0.000000000,-1.689793468,-70.197525024,0.000000000,-0.056998730,-14.297421455
1748264182.263510,45.923000000,0.000000000,0.000000000,0.000000000,0.000000000,-1.689793468,-70.197525024,0.000000000,-0.056998730,-14.293489456
1748264182.265942,45.926000000,0.000000000,0.000000000,0.000000000,0.000000000,-1.689793468,-70.197525024,0.000000000,-0.066000223,-16.052310944
1748264182.268307,45.928000000,0.000000000,0.000000000,0.000000000,0.000000000,-1.689793468,-70.197525024,0.000000000,-0.066000223,-16.098079681
1748264182.270703,45.931000000,0.000000000,0.000000000,0.000000000,0.000000000,-1.689793468,-70.197525024,0.000000000,-0.066000223,-16.139272690
1748264182.273086,45.933000000,0.000000000,0.000000000,0.000000000,0.000000000,-1.689793468,-70.197525024,0.000000000,-0.066000223,-16.176347733
1748264182.275520,45.935000000,0.000000000,0.000000000,0.000000000,0.000000000,-1.689793468,-70.197525024,0.000000000,-0.066000223,-16.209712982
1748264182.277884,45.938000000,0.000000000,0.000000000,0.000000000,0.000000000,-1.689793468,-70.197525024,0.000000000,-0.066000223,-16.239744186
1748264182.280254,45.940000000,0.000000000,0.000000000,0.000000000,0.000000000,-1.689793468,-70.197525024,0.000000000,-0.066000223,-16.266771317
1748264182.282665,45.943000000,0.000000000,0.000000000,0.000000000,0.000000000,-1.689793468,-70.197525024,0.000000000,-0.066000223,-16.291093826
1748264182.285085,45.945000000,0.000000000,0.000000000,0.000000000,0.000000000,-1.689793468,-70.197525024,0.000000000,-0.066000223,-16.312986374
1748264182.287486,45.947000000,0.000000000,0.000000000,0.000000000,0.000000000,-1.689793468,-70.197525024,0.000000000,-0.066000223,-16.332689285
1748264182.289886,45.950000000,0.000000000,0.000000000,0.000000000,0.000000000,-1.703293085,-67.555358887,0.000000000,-0.066000223,-16.350658417
1748264182.292393,45.952000000,0.000000000,0.000000000,0.000000000,0.000000000,-1.703293085,-70.878166199,0.000000000,-0.066000223,-16.366621017
1748264182.294885,45.955000000,0.000000000,0.000000000,0.000000000,0.000000000,-1.703293085,-70.878166199,0.000000000,-0.066000223,-16.380987167
1748264182.297338,45.957000000,0.000000000,0.000000000,0.000000000,0.000000000,-1.716792583,-68.301246643,0.000000000,-0.066000223,-16.394161224
1748264182.299813,45.960000000,0.000000000,0.000000000,0.000000000,0.000000000,-1.716792583,-71.558792114,0.000000000,-0.066000223,-16.405801773
1748264182.302300,45.962000000,0.000000000,0.000000000,0.000000000,0.000000000,-1.716792583,-71.558792114,0.000000000,-0.066000223,-16.416276932
1748264182.304775,45.965000000,0.000000000,0.000000000,0.000000000,0.000000000,-1.716792583,-71.558792114,0.000000000,-0.066000223,-16.425704956
1748264182.307264,45.967000000,0.000000000,0.000000000,0.000000000,0.000000000,-1.716792583,-71.558792114,0.000000000,-0.066000223,-16.434188843
1748264182.309752,45.970000000,0.000000000,0.000000000,0.000000000,0.000000000,-1.716792583,-71.558792114,0.000000000,-0.066000223,-16.441825867
1748264182.312251,45.972000000,0.000000000,0.000000000,0.000000000,0.000000000,-1.716792583,-71.558792114,0.000000000,-0.066000223,-16.448698044
1748264182.314767,45.975000000,0.000000000,0.000000000,0.000000000,0.000000000,-1.716792583,-71.558792114,0.000000000,-0.066000223,-16.454883575
1748264182.317291,45.977000000,0.000000000,0.000000000,0.000000000,0.000000000,-1.716792583,-71.558792114,0.000000000,-0.066000223,-16.460451126
1748264182.319819,45.980000000,0.000000000,0.000000000,0.000000000,0.000000000,-1.716792583,-71.558792114,0.000000000,-0.074999034,-18.256940842
1748264182.322320,45.982000000,0.000000000,0.000000000,0.000000000,0.000000000,-1.716792583,-71.558792114,0.000000000,-0.074999034,-18.307439804
1748264182.324812,45.985000000,0.000000000,0.000000000,0.000000000,0.000000000,-1.716792583,-71.558792114,0.000000000,-0.074999034,-18.352888107
1748264182.327311,45.987000000,0.000000000,0.000000000,0.000000000,0.000000000,-1.716792583,-71.558792114,0.000000000,-0.074999034,-18.393791199
1748264182.329737,45.990000000,0.000000000,0.000000000,0.000000000,0.000000000,-1.716792583,-71.558792114,0.000000000,-0.074999034,-18.430603027
1748264182.332164,45.992000000,0.000000000,0.000000000,0.000000000,0.000000000,-1.716792583,-71.558792114,0.000000000,-0.074999034,-18.463735580
1748264182.334603,45.994000000,0.000000000,0.000000000,0.000000000,0.000000000,-1.716792583,-71.558792114,0.000000000,-0.074999034,-18.493555069
1748264182.337045,45.997000000,0.000000000,0.000000000,0.000000000,0.000000000,-1.716792583,-71.558792114,0.000000000,-0.074999034,-18.520391464
1748264182.339443,45.999000000,0.000000000,0.000000000,0.000000000,0.000000000,-1.716792583,-71.558792114,0.000000000,-0.084000528,-20.315637589
1748264182.341893,46.002000000,0.000000000,0.000000000,0.000000000,0.000000000,-1.716792583,-71.558792114,0.000000000,-0.074999034,-18.619359970
1748264182.344318,46.004000000,0.000000000,0.000000000,0.000000000,0.000000000,-1.716792583,-71.558792114,0.000000000,-0.084000528,-20.402145386
1748264182.346689,46.006000000,0.000000000,0.000000000,0.000000000,0.000000000,-1.716792583,-71.558792114,0.000000000,-0.084000528,-20.463333130
1748264182.349086,46.009000000,0.000000000,0.000000000,0.000000000,0.000000000,-1.716792583,-71.558792114,0.000000000,-0.084000528,-20.518400192
1748264182.351419,46.011000000,0.000000000,0.000000000,0.000000000,0.000000000,-1.716792583,-71.558792114,0.000000000,-0.084000528,-20.567962646
1748264182.353780,46.014000000,0.000000000,0.000000000,0.000000000,0.000000000,-1.716792583,-71.558792114,0.000000000,-0.084000528,-20.612567902
1748264182.356165,46.016000000,0.000000000,0.000000000,0.000000000,0.000000000,-1.716792583,-71.558792114,0.000000000,-0.084000528,-20.652711868
1748264182.358535,46.018000000,0.000000000,0.000000000,0.000000000,0.000000000,-1.730292082,-68.887275696,0.000000000,-0.084000528,-20.689113617
1748264182.360901,46.021000000,0.000000000,0.000000000,0.000000000,0.000000000,-1.743794441,-69.557434082,0.000000000,-0.084000528,-20.721918106
1748264182.363311,46.023000000,0.000000000,0.000000000,0.000000000,0.000000000,-1.770793438,-67.554512024,0.000000000,-0.084000528,-20.751768112
1748264182.365686,46.026000000,0.000000000,0.000000000,0.000000000,0.000000000,-1.757293940,-76.924995422,0.000000000,-0.084000528,-20.777839661
1748264182.368104,46.028000000,0.000000000,0.000000000,0.000000000,0.000000000,-1.743794441,-76.273757935,0.000000000,-0.084000528,-20.801263809
1748264182.370494,46.030000000,0.000000000,0.000000000,0.000000000,0.000000000,-1.743794441,-72.920196533,0.000000000,-0.084000528,-20.822607040
1748264182.372877,46.033000000,0.000000000,0.000000000,0.000000000,0.000000000,-1.743794441,-72.920196533,0.000000000,-0.084000528,-20.841815948
1748264182.375268,46.035000000,0.000000000,0.000000000,0.000000000,0.000000000,-1.757293940,-70.255722046,0.000000000,-0.084000528,-20.859415054
1748264182.377668,46.037000000,0.000000000,0.000000000,0.000000000,0.000000000,-1.757293940,-73.600830078,0.000000000,-0.084000528,-20.874979019
1748264182.380116,46.040000000,0.000000000,0.000000000,0.000000000,0.000000000,-1.770793438,-70.941955566,0.000000000,-0.084000528,-20.889303207
1748264182.382547,46.042000000,0.000000000,0.000000000,0.000000000,0.000000000,-1.757293940,-76.869071960,0.000000000,-0.084000528,-20.901592255
1748264182.384986,46.045000000,0.000000000,0.000000000,0.000000000,0.000000000,-1.757293940,-73.600830078,0.000000000,-0.084000528,-20.912937164
1748264182.387385,46.047000000,0.000000000,0.000000000,0.000000000,0.000000000,-1.770793438,-71.018569946,0.000000000,-0.084000528,-20.923473358
1748264182.389876,46.050000000,0.000000000,0.000000000,0.000000000,0.000000000,-1.770793438,-74.281455994,0.000000000,-0.084000528,-20.932664871
1748264182.392357,46.052000000,0.000000000,0.000000000,0.000000000,0.000000000,-1.784295797,-71.736968994,0.000000000,-0.084000528,-20.941267014
1748264182.394832,46.055000000,0.000000000,0.000000000,0.000000000,0.000000000,-1.770793438,-77.449005127,0.000000000,-0.084000528,-20.948383331
1748264182.397268,46.057000000,0.000000000,0.000000000,0.000000000,0.000000000,-1.770793438,-74.281455994,0.000000000,-0.084000528,-20.955085754
1748264182.399746,46.060000000,0.000000000,0.000000000,0.000000000,0.000000000,-1.784295797,-71.710639954,0.000000000,-0.084000528,-20.961448669
1748264182.402208,46.062000000,0.000000000,0.000000000,0.000000000,0.000000000,-1.797795296,-72.451873779,0.000000000,-0.084000528,-20.967212677
1748264182.404670,46.064000000,0.000000000,0.000000000,0.000000000,0.000000000,-1.784295797,-78.205184937,0.000000000,-0.084000528,-20.971763611
1748264182.407128,46.067000000,0.000000000,0.000000000,0.000000000,0.000000000,-1.784295797,-74.962226868,0.000000000,-0.084000528,-20.976161957
1748264182.409625,46.069000000,0.000000000,0.000000000,0.000000000,0.000000000,-1.784295797,-74.962226868,0.000000000,-0.084000528,-20.980119705
1748264182.412056,46.072000000,0.000000000,0.000000000,0.000000000,0.000000000,-1.784295797,-74.962226868,0.000000000,-0.084000528,-20.983680725
1748264182.414544,46.074000000,0.000000000,0.000000000,0.000000000,0.000000000,-1.784295797,-74.962226868,0.000000000,-0.084000528,-20.986886978
1748264182.416983,46.077000000,0.000000000,0.000000000,0.000000000,0.000000000,-1.784295797,-74.962226868,0.000000000,-0.084000528,-20.989772797
1748264182.419380,46.079000000,0.000000000,0.000000000,0.000000000,0.000000000,-1.784295797,-74.962226868,0.000000000,-0.084000528,-20.992368698
1748264182.421912,46.082000000,0.000000000,0.000000000,0.000000000,0.000000000,-1.784295797,-74.962226868,0.000000000,-0.084000528,-20.994707108
1748264182.424353,46.084000000,0.000000000,0.000000000,0.000000000,0.000000000,-1.784295797,-74.962226868,0.000000000,-0.084000528,-20.996809006
1748264182.426791,46.087000000,0.000000000,0.000000000,0.000000000,0.000000000,-1.784295797,-74.962226868,0.000000000,-0.084000528,-20.998703003
1748264182.429318,46.089000000,0.000000000,0.000000000,0.000000000,0.000000000,-1.784295797,-74.962226868,0.000000000,-0.084000528,-21.000406265
1748264182.431773,46.092000000,0.000000000,0.000000000,0.000000000,0.000000000,-1.784295797,-74.962226868,0.000000000,-0.074999034,-19.223051071
1748264182.434204,46.094000000,0.000000000,0.000000000,0.000000000,0.000000000,-1.784295797,-74.962226868,0.000000000,-0.074999034,-19.177091599
1748264182.436616,46.096000000,0.000000000,0.000000000,0.000000000,0.000000000,-1.784295797,-74.962226868,0.000000000,-0.074999034,-19.135728836
1748264182.439050,46.099000000,0.000000000,0.000000000,0.000000000,0.000000000,-1.784295797,-74.962226868,0.000000000,-0.074999034,-19.098503113
1748264182.441462,46.101000000,0.000000000,0.000000000,0.000000000,0.000000000,-1.784295797,-74.962226868,0.000000000,-0.074999034,-19.064998627
1748264182.443920,46.104000000,0.000000000,0.000000000,0.000000000,0.000000000,-1.784295797,-74.962226868,0.000000000,-0.074999034,-19.034845352
1748264182.446345,46.106000000,0.000000000,0.000000000,0.000000000,0.000000000,-1.784295797,-74.962226868,0.000000000,-0.074999034,-19.007707596
1748264182.448711,46.109000000,0.000000000,0.000000000,0.000000000,0.000000000,-1.784295797,-74.962226868,0.000000000,-0.066000223,-17.212192535
1748264182.451148,46.111000000,0.000000000,0.000000000,0.000000000,0.000000000,-1.784295797,-74.962226868,0.000000000,-0.066000223,-17.142164230
1748264182.453630,46.113000000,0.000000000,0.000000000,0.000000000,0.000000000,-1.784295797,-74.962226868,0.000000000,-0.066000223,-17.079137802
1748264182.456244,46.116000000,0.000000000,0.000000000,0.000000000,0.000000000,-1.784295797,-74.962226868,0.000000000,-0.066000223,-17.022417068
