liamjosephnolan/thesis_matlab/pitch_prbs_response/old/prbs_roll_0_pitch_m15.csv
__time,/psm_joint_telemetry/header/stamp,/psm_joint_telemetry/insertion/effort,/psm_joint_telemetry/insertion/position,/psm_joint_telemetry/insertion/velocity,/psm_joint_telemetry/pitch/effort,/psm_joint_telemetry/pitch/position,/psm_joint_telemetry/pitch/velocity,/psm_joint_telemetry/roll/effort,/psm_joint_telemetry/roll/position,/psm_joint_telemetry/roll/velocity
1748263748.010428,30.500000000,0.000000000,-333.357879639,0.000000000,0.000000000,-16.904672623,-84.375373840,0.000000000,-0.074999034,-19.114686966
1748263748.012809,30.502000000,0.000000000,-333.357879639,0.000000000,0.000000000,-16.904672623,-81.031494141,0.000000000,-0.074999034,-19.114122391
1748263748.015207,30.505000000,0.000000000,-333.357879639,0.000000000,0.000000000,-16.918172836,-78.366882324,0.000000000,-0.074999034,-19.113924026
1748263748.017581,30.507000000,0.000000000,-333.357879639,0.000000000,0.000000000,-16.918172836,-81.712165833,0.000000000,-0.074999034,-19.113466263
1748263748.019961,30.510000000,0.000000000,-333.357879639,0.000000000,0.000000000,-16.918172836,-81.712165833,0.000000000,-0.074999034,-19.113054276
1748263748.022371,30.512000000,0.000000000,-333.357879639,0.000000000,0.000000000,-16.918172836,-81.712165833,0.000000000,-0.074999034,-19.112684250
1748263748.024757,30.514000000,0.000000000,-333.357879639,0.000000000,0.000000000,-16.918172836,-81.712165833,0.000000000,-0.074999034,-19.112350464
1748263748.027144,30.517000000,0.000000000,-333.357879639,0.000000000,0.000000000,-16.918172836,-81.712165833,0.000000000,-0.074999034,-19.112051010
1748263748.029632,30.519000000,0.000000000,-333.357879639,0.000000000,0.000000000,-16.918172836,-81.712165833,0.000000000,-0.074999034,-19.111780167
1748263748.032115,30.522000000,0.000000000,-333.357879639,0.000000000,0.000000000,-16.918172836,-81.712165833,0.000000000,-0.074999034,-19.111536026
1748263748.034515,30.524000000,0.000000000,-333.357879639,0.000000000,0.000000000,-16.918172836,-81.712165833,0.000000000,-0.074999034,-19.111318588
1748263748.036912,30.527000000,0.000000000,-333.357879639,0.000000000,0.000000000,-16.918172836,-81.712165833,0.000000000,-0.074999034,-19.111120224
1748263748.039316,30.529000000,0.000000000,-333.357879639,0.000000000,0.000000000,-16.918172836,-81.712165833,0.000000000,-0.074999034,-19.110944748
1748263748.041683,30.531000000,0.000000000,-333.357879639,0.000000000,0.000000000,-16.918172836,-81.712165833,0.000000000,-0.074999034,-19.110784531
1748263748.044070,30.534000000,0.000000000,-333.357879639,0.000000000,0.000000000,-16.918172836,-81.712165833,0.000000000,-0.074999034,-19.110641479
1748263748.046519,30.536000000,0.000000000,-333.357879639,0.000000000,0.000000000,-16.918172836,-81.712165833,0.000000000,-0.074999034,-19.110511780
1748263748.049005,30.539000000,0.000000000,-333.357879639,0.000000000,0.000000000,-16.918172836,-81.712165833,0.000000000,-0.074999034,-19.110395432
1748263748.051540,30.541000000,0.000000000,-333.357879639,0.000000000,0.000000000,-16.918172836,-81.712165833,0.000000000,-0.074999034,-19.110290527
1748263748.054005,30.544000000,0.000000000,-333.357879639,0.000000000,0.000000000,-16.918172836,-81.712165833,0.000000000,-0.074999034,-19.110197067
1748263748.056535,30.546000000,0.000000000,-333.357879639,0.000000000,0.000000000,-16.918172836,-81.712165833,0.000000000,-0.074999034,-19.110111237
1748263748.059034,30.549000000,0.000000000,-333.357879639,0.000000000,0.000000000,-16.918172836,-81.712165833,0.000000000,-0.074999034,-19.110034943
1748263748.061414,30.551000000,0.000000000,-333.357879639,0.000000000,0.000000000,-16.918172836,-81.712165833,0.000000000,-0.074999034,-19.109966278
1748263748.063817,30.553000000,0.000000000,-333.357879639,0.000000000,0.000000000,-16.918172836,-81.712165833,0.000000000,-0.074999034,-19.109905243
1748263748.066217,30.556000000,0.000000000,-333.357879639,0.000000000,0.000000000,-16.918172836,-81.712165833,0.000000000,-0.074999034,-19.109849930
1748263748.068609,30.558000000,0.000000000,-333.357879639,0.000000000,0.000000000,-16.918172836,-81.712165833,0.000000000,-0.074999034,-19.109798431
1748263748.071007,30.561000000,0.000000000,-333.357879639,0.000000000,0.000000000,-16.918172836,-81.712165833,0.000000000,-0.074999034,-19.109754562
1748263748.073413,30.563000000,0.000000000,-333.357879639,0.000000000,0.000000000,-16.918172836,-81.712165833,0.000000000,-0.074999034,-19.109712601
1748263748.075733,30.565000000,0.000000000,-333.357879639,0.000000000,0.000000000,-16.918172836,-81.712165833,0.000000000,-0.074999034,-19.109676361
1748263748.078120,30.568000000,0.000000000,-333.357879639,0.000000000,0.000000000,-16.918172836,-81.712165833,0.000000000,-0.074999034,-19.109643936
1748263748.080459,30.570000000,0.000000000,-333.357879639,0.000000000,0.000000000,-16.918172836,-81.712165833,0.000000000,-0.074999034,-19.109615326
1748263748.082883,30.572000000,0.000000000,-333.357879639,0.000000000,0.000000000,-16.918172836,-81.712165833,0.000000000,-0.074999034,-19.109588623
1748263748.085200,30.575000000,0.000000000,-333.357879639,0.000000000,0.000000000,-16.918172836,-81.712165833,0.000000000,-0.074999034,-19.109563828
1748263748.087620,30.577000000,0.000000000,-333.357879639,0.000000000,0.000000000,-16.918172836,-81.712165833,0.000000000,-0.074999034,-19.109542847
1748263748.090006,30.580000000,0.000000000,-333.357879639,0.000000000,0.000000000,-16.918172836,-81.712165833,0.000000000,-0.074999034,-19.109523773
1748263748.092390,30.582000000,0.000000000,-333.357879639,0.000000000,0.000000000,-16.918172836,-81.712165833,0.000000000,-0.074999034,-19.109504700
1748263748.094764,30.584000000,0.000000000,-333.357879639,0.000000000,0.000000000,-16.918172836,-81.712165833,0.000000000,-0.074999034,-19.109489441
1748263748.097182,30.587000000,0.000000000,-333.357879639,0.000000000,0.000000000,-16.918172836,-81.712165833,0.000000000,-0.074999034,-19.109476089
1748263748.099589,30.589000000,0.000000000,-333.357879639,0.000000000,0.000000000,-16.918172836,-81.712165833,0.000000000,-0.074999034,-19.109462738
1748263748.102044,30.592000000,0.000000000,-333.357879639,0.000000000,0.000000000,-16.918172836,-81.712165833,0.000000000,-0.074999034,-19.109451294
1748263748.104459,30.594000000,0.000000000,-333.357879639,0.000000000,0.000000000,-16.918172836,-81.712165833,0.000000000,-0.074999034,-19.109441757
1748263748.106856,30.596000000,0.000000000,-333.357879639,0.000000000,0.000000000,-16.918172836,-81.712165833,0.000000000,-0.074999034,-19.109432220
1748263748.109296,30.599000000,0.000000000,-333.357879639,0.000000000,0.000000000,-16.918172836,-81.712165833,0.000000000,-0.074999034,-19.109422684
1748263748.111737,30.601000000,0.000000000,-333.357879639,0.000000000,0.000000000,-16.918172836,-81.712165833,0.000000000,-0.074999034,-19.109415054
1748263748.114092,30.604000000,0.000000000,-333.357879639,0.000000000,0.000000000,-16.918172836,-81.712165833,0.000000000,-0.074999034,-19.109409332
1748263748.116519,30.606000000,0.000000000,-333.357879639,0.000000000,0.000000000,-16.918172836,-81.712165833,0.000000000,-0.074999034,-19.109403610
1748263748.118927,30.609000000,0.000000000,-333.357879639,0.000000000,0.000000000,-16.918172836,-81.712165833,0.000000000,-0.074999034,-19.109397888
1748263748.121325,30.611000000,0.000000000,-333.357879639,0.000000000,0.000000000,-16.918172836,-81.712165833,0.000000000,-0.074999034,-19.109392166
1748263748.123714,30.613000000,0.000000000,-333.357879639,0.000000000,0.000000000,-16.918172836,-81.712165833,0.000000000,-0.074999034,-19.109388351
1748263748.126093,30.616000000,0.000000000,-333.357879639,0.000000000,0.000000000,-16.918172836,-81.712165833,0.000000000,-0.074999034,-19.109384537
1748263748.128526,30.618000000,0.000000000,-333.357879639,0.000000000,0.000000000,-16.918172836,-81.712165833,0.000000000,-0.074999034,-19.109380722
1748263748.130944,30.621000000,0.000000000,-333.357879639,0.000000000,0.000000000,-16.918172836,-81.712165833,0.000000000,-0.074999034,-19.109376907
1748263748.133318,30.623000000,0.000000000,-333.357879639,0.000000000,0.000000000,-16.918172836,-81.712165833,0.000000000,-0.074999034,-19.109375000
1748263748.135716,30.625000000,0.000000000,-333.357879639,0.000000000,0.000000000,-16.918172836,-81.712165833,0.000000000,-0.074999034,-19.109371185
1748263748.138103,30.628000000,0.000000000,-333.357879639,0.000000000,0.000000000,-16.918172836,-81.712165833,0.000000000,-0.074999034,-19.109369278
1748263748.140517,30.630000000,0.000000000,-333.357879639,0.000000000,0.000000000,-16.918172836,-81.712165833,0.000000000,-0.074999034,-19.109367371
1748263748.142896,30.633000000,0.000000000,-333.357879639,0.000000000,0.000000000,-16.918172836,-81.712165833,0.000000000,-0.074999034,-19.109365463
1748263748.145293,30.635000000,0.000000000,-333.357879639,0.000000000,0.000000000,-16.918172836,-81.712165833,0.000000000,-0.074999034,-19.109363556
1748263748.147681,30.637000000,0.000000000,-333.357879639,0.000000000,0.000000000,-16.918172836,-81.712165833,0.000000000,-0.074999034,-19.109361649
1748263748.150114,30.640000000,0.000000000,-333.357879639,0.000000000,0.000000000,-16.918172836,-81.712165833,0.000000000,-0.074999034,-19.109361649
1748263748.152502,30.642000000,0.000000000,-333.357879639,0.000000000,0.000000000,-16.918172836,-81.712165833,0.000000000,-0.074999034,-19.109359741
1748263748.154882,30.645000000,0.000000000,-333.357879639,0.000000000,0.000000000,-16.918172836,-81.712165833,0.000000000,-0.074999034,-19.109357834
1748263748.157253,30.647000000,0.000000000,-333.357879639,0.000000000,0.000000000,-16.918172836,-81.712165833,0.000000000,-0.074999034,-19.109357834
1748263748.159623,30.649000000,0.000000000,-333.357879639,0.000000000,0.000000000,-16.918172836,-81.712165833,0.000000000,-0.074999034,-19.109355927
1748263748.162017,30.652000000,0.000000000,-333.357879639,0.000000000,0.000000000,-16.918172836,-81.712165833,0.000000000,-0.074999034,-19.109355927
1748263748.164421,30.654000000,0.000000000,-333.357879639,0.000000000,0.000000000,-16.918172836,-81.712165833,0.000000000,-0.074999034,-19.109354019
1748263748.166808,30.656000000,0.000000000,-333.357879639,0.000000000,0.000000000,-16.918172836,-81.712165833,0.000000000,-0.074999034,-19.109354019
1748263748.169191,30.659000000,0.000000000,-333.357879639,0.000000000,0.000000000,-16.918172836,-81.712165833,0.000000000,-0.074999034,-19.109354019
1748263748.171643,30.661000000,0.000000000,-333.357879639,0.000000000,0.000000000,-16.918172836,-81.712165833,0.000000000,-0.074999034,-19.109354019
1748263748.173966,30.664000000,0.000000000,-333.357879639,0.000000000,0.000000000,-16.918172836,-81.712165833,0.000000000,-0.074999034,-19.109352112
1748263748.176359,30.666000000,0.000000000,-333.357879639,0.000000000,0.000000000,-16.918172836,-81.712165833,0.000000000,-0.074999034,-19.109352112
1748263748.178725,30.668000000,0.000000000,-333.357879639,0.000000000,0.000000000,-16.918172836,-81.712165833,0.000000000,-0.074999034,-19.109352112
1748263748.181124,30.671000000,0.000000000,-333.357879639,0.000000000,0.000000000,-16.918172836,-81.712165833,0.000000000,-0.074999034,-19.109352112
1748263748.183489,30.673000000,0.000000000,-333.357879639,0.000000000,0.000000000,-16.918172836,-81.712165833,0.000000000,-0.074999034,-19.109352112
1748263748.185883,30.676000000,0.000000000,-333.357879639,0.000000000,0.000000000,-16.918172836,-81.712165833,0.000000000,-0.074999034,-19.109350204
1748263748.188260,30.678000000,0.000000000,-333.357879639,0.000000000,0.000000000,-16.918172836,-81.712165833,0.000000000,-0.074999034,-19.109350204
1748263748.190620,30.680000000,0.000000000,-333.357879639,0.000000000,0.000000000,-16.918172836,-81.712165833,0.000000000,-0.074999034,-19.109350204
1748263748.192999,30.683000000,0.000000000,-333.357879639,0.000000000,0.000000000,-16.918172836,-81.712165833,0.000000000,-0.074999034,-19.109350204
1748263748.195363,30.685000000,0.000000000,-333.357879639,0.000000000,0.000000000,-16.918172836,-81.712165833,0.000000000,-0.074999034,-19.109350204
1748263748.197749,30.687000000,0.000000000,-333.357879639,0.000000000,0.000000000,-16.918172836,-81.712165833,0.000000000,-0.074999034,-19.109350204
1748263748.200129,30.690000000,0.000000000,-333.357879639,0.000000000,0.000000000,-16.918172836,-81.712165833,0.000000000,-0.074999034,-19.109350204
1748263748.202501,30.692000000,0.000000000,-333.357879639,0.000000000,0.000000000,-16.918172836,-81.712165833,0.000000000,-0.074999034,-19.109350204
1748263748.204891,30.695000000,0.000000000,-333.357879639,0.000000000,0.000000000,-16.918172836,-81.712165833,0.000000000,-0.074999034,-19.109350204
1748263748.207298,30.697000000,0.000000000,-333.357879639,0.000000000,0.000000000,-16.918172836,-81.712165833,0.000000000,-0.074999034,-19.109350204
1748263748.209671,30.699000000,0.000000000,-333.357879639,0.000000000,0.000000000,-16.918172836,-81.712165833,0.000000000,-0.074999034,-19.109348297
1748263748.212065,30.702000000,0.000000000,-333.357879639,0.000000000,0.000000000,-16.918172836,-81.712165833,0.000000000,-0.074999034,-19.109348297
1748263748.214435,30.704000000,0.000000000,-333.357879639,0.000000000,0.000000000,-16.918172836,-81.712165833,0.000000000,-0.074999034,-19.109348297
1748263748.216847,30.706000000,0.000000000,-333.357879639,0.000000000,0.000000000,-16.918172836,-81.712165833,0.000000000,-0.074999034,-19.109348297
1748263748.219247,30.709000000,0.000000000,-333.357879639,0.000000000,0.000000000,-16.931673050,-79.091911316,0.000000000,-0.074999034,-19.109657288
1748263748.221650,30.711000000,0.000000000,-333.357879639,0.000000000,0.000000000,-16.931673050,-82.392829895,0.000000000,-0.074999034,-19.109657288
1748263748.224084,30.714000000,0.000000000,-333.357879639,0.000000000,0.000000000,-16.931673050,-82.392829895,0.000000000,-0.074999034,-19.109657288
1748263748.226648,30.716000000,0.000000000,-333.357879639,0.000000000,0.000000000,-16.931673050,-82.392829895,0.000000000,-0.074999034,-19.109657288
1748263748.229115,30.719000000,0.000000000,-333.357879639,0.000000000,0.000000000,-16.931673050,-82.392829895,0.000000000,-0.074999034,-19.109657288
1748263748.231428,30.721000000,0.000000000,-333.357879639,0.000000000,0.000000000,-16.931673050,-82.392829895,0.000000000,-0.074999034,-19.109657288
1748263748.233764,30.723000000,0.000000000,-333.357879639,0.000000000,0.000000000,-16.931673050,-82.392829895,0.000000000,-0.074999034,-19.109657288
1748263748.236180,30.726000000,0.000000000,-333.357879639,0.000000000,0.000000000,-16.931673050,-82.392829895,0.000000000,-0.074999034,-19.109657288
1748263748.238520,30.728000000,0.000000000,-333.357879639,0.000000000,0.000000000,-16.931673050,-82.392829895,0.000000000,-0.074999034,-19.109657288
1748263748.240921,30.731000000,0.000000000,-333.357879639,0.000000000,0.000000000,-16.931673050,-82.392829895,0.000000000,-0.074999034,-19.109657288
1748263748.243274,30.733000000,0.000000000,-333.357879639,0.000000000,0.000000000,-16.931673050,-82.392829895,0.000000000,-0.074999034,-19.109657288
1748263748.245652,30.735000000,0.000000000,-333.357879639,0.000000000,0.000000000,-16.931673050,-82.392829895,0.000000000,-0.074999034,-19.109657288
1748263748.248040,30.738000000,0.000000000,-333.357879639,0.000000000,0.000000000,-16.931673050,-82.392829895,0.000000000,-0.074999034,-19.109657288
1748263748.250419,30.740000000,0.000000000,-333.357879639,0.000000000,0.000000000,-16.931673050,-82.392829895,0.000000000,-0.074999034,-19.109657288
1748263748.252812,30.742000000,0.000000000,-333.357879639,0.000000000,0.000000000,-16.931673050,-82.392829895,0.000000000,-0.074999034,-19.109657288
1748263748.255183,30.745000000,0.000000000,-333.357879639,0.000000000,0.000000000,-16.931673050,-82.392829895,0.000000000,-0.074999034,-19.109657288
1748263748.257561,30.747000000,0.000000000,-333.357879639,0.000000000,0.000000000,-16.931673050,-82.392829895,0.000000000,-0.074999034,-19.109657288
1748263748.260009,30.750000000,0.000000000,-333.357879639,0.000000000,0.000000000,-16.931673050,-82.392829895,0.000000000,-0.074999034,-19.109657288
1748263748.262471,30.752000000,0.000000000,-333.357879639,0.000000000,0.000000000,-16.931673050,-82.392829895,0.000000000,-0.074999034,-19.109657288
1748263748.264895,30.755000000,0.000000000,-333.357879639,0.000000000,0.000000000,-16.931673050,-82.392829895,0.000000000,-0.074999034,-19.109657288
1748263748.267322,30.757000000,0.000000000,-333.357879639,0.000000000,0.000000000,-16.931673050,-82.392829895,0.000000000,-0.074999034,-19.109657288
1748263748.269690,30.759000000,0.000000000,-333.357879639,0.000000000,0.000000000,-16.931673050,-82.392829895,0.000000000,-0.074999034,-19.109657288
1748263748.272106,30.762000000,0.000000000,-333.357879639,0.000000000,0.000000000,-16.931673050,-82.392829895,0.000000000,-0.074999034,-19.109657288
1748263748.274486,30.764000000,0.000000000,-333.357879639,0.000000000,0.000000000,-16.931673050,-82.392829895,0.000000000,-0.074999034,-19.109657288
1748263748.276932,30.767000000,0.000000000,-333.357879639,0.000000000,0.000000000,-16.931673050,-82.392829895,0.000000000,-0.074999034,-19.109657288
1748263748.279416,30.769000000,0.000000000,-333.357879639,0.000000000,0.000000000,-16.931673050,-82.392829895,0.000000000,-0.074999034,-19.109657288
1748263748.281947,30.772000000,0.000000000,-333.357879639,0.000000000,0.000000000,-16.931673050,-82.392829895,0.000000000,-0.074999034,-19.109657288
1748263748.284338,30.774000000,0.000000000,-333.357879639,0.000000000,0.000000000,-16.931673050,-82.392829895,0.000000000,-0.074999034,-19.109657288
1748263748.286774,30.776000000,0.000000000,-333.357879639,0.000000000,0.000000000,-16.931673050,-82.392829895,0.000000000,-0.074999034,-19.109657288
1748263748.289214,30.779000000,0.000000000,-333.357879639,0.000000000,0.000000000,-16.931673050,-82.392829895,0.000000000,-0.074999034,-19.109657288
1748263748.291660,30.781000000,0.000000000,-333.357879639,0.000000000,0.000000000,-16.931673050,-82.392829895,0.000000000,-0.074999034,-19.109657288
1748263748.294100,30.784000000,0.000000000,-333.357879639,0.000000000,0.000000000,-16.931673050,-82.392829895,0.000000000,-0.074999034,-19.109657288
1748263748.296569,30.786000000,0.000000000,-333.357879639,0.000000000,0.000000000,-16.931673050,-82.392829895,0.000000000,-0.074999034,-19.109657288
1748263748.298980,30.789000000,0.000000000,-333.357879639,0.000000000,0.000000000,-16.931673050,-82.392829895,0.000000000,-0.074999034,-19.109657288
1748263748.301369,30.791000000,0.000000000,-333.357879639,0.000000000,0.000000000,-16.931673050,-82.392829895,0.000000000,-0.074999034,-19.109657288
1748263748.303755,30.793000000,0.000000000,-333.357879639,0.000000000,0.000000000,-16.931673050,-82.392829895,0.000000000,-0.074999034,-19.109657288
1748263748.306130,30.796000000,0.000000000,-333.357879639,0.000000000,0.000000000,-16.931673050,-82.392829895,0.000000000,-0.074999034,-19.109657288
1748263748.308606,30.798000000,0.000000000,-333.357879639,0.000000000,0.000000000,-16.931673050,-82.392829895,0.000000000,-0.074999034,-19.109657288
1748263748.311091,30.801000000,0.000000000,-333.357879639,0.000000000,0.000000000,-16.931673050,-82.392829895,0.000000000,-0.074999034,-19.109657288
1748263748.313569,30.803000000,0.000000000,-333.357879639,0.000000000,0.000000000,-16.931673050,-82.392829895,0.000000000,-0.074999034,-19.109657288
1748263748.315981,30.806000000,0.000000000,-333.357879639,0.000000000,0.000000000,-16.931673050,-82.392829895,0.000000000,-0.074999034,-19.109657288
1748263748.318376,30.808000000,0.000000000,-333.357879639,0.000000000,0.000000000,-16.931673050,-82.392829895,0.000000000,-0.074999034,-19.109657288
1748263748.320813,30.810000000,0.000000000,-333.357879639,0.000000000,0.000000000,-16.931673050,-82.392829895,0.000000000,-0.074999034,-19.109657288
1748263748.323267,30.813000000,0.000000000,-333.357879639,0.000000000,0.000000000,-16.931673050,-82.392829895,0.000000000,-0.074999034,-19.109657288
1748263748.325755,30.815000000,0.000000000,-333.357879639,0.000000000,0.000000000,-16.931673050,-82.392829895,0.000000000,-0.074999034,-19.109657288
1748263748.328266,30.818000000,0.000000000,-333.357879639,0.000000000,0.000000000,-16.931673050,-82.392829895,0.000000000,-0.074999034,-19.109657288
1748263748.330650,30.820000000,0.000000000,-333.357879639,0.000000000,0.000000000,-16.931673050,-82.392829895,0.000000000,-0.074999034,-19.109657288
1748263748.333048,30.823000000,0.000000000,-333.357879639,0.000000000,0.000000000,-16.931673050,-82.392829895,0.000000000,-0.074999034,-19.109657288
1748263748.335443,30.825000000,0.000000000,-333.357879639,0.000000000,0.000000000,-16.931673050,-82.392829895,0.000000000,-0.074999034,-19.109657288
1748263748.337844,30.827000000,0.000000000,-333.357879639,0.000000000,0.000000000,-16.931673050,-82.392829895,0.000000000,-0.074999034,-19.109657288
1748263748.340212,30.830000000,0.000000000,-333.357879639,0.000000000,0.000000000,-16.931673050,-82.392829895,0.000000000,-0.074999034,-19.109657288
1748263748.342592,30.832000000,0.000000000,-333.357879639,0.000000000,0.000000000,-16.931673050,-82.392829895,0.000000000,-0.074999034,-19.109657288
1748263748.344978,30.835000000,0.000000000,-333.357879639,0.000000000,0.000000000,-16.931673050,-82.392829895,0.000000000,-0.074999034,-19.109657288
1748263748.347348,30.837000000,0.000000000,-333.357879639,0.000000000,0.000000000,-16.931673050,-82.392829895,0.000000000,-0.074999034,-19.109657288
1748263748.349761,30.839000000,0.000000000,-333.357879639,0.000000000,0.000000000,-16.931673050,-82.392829895,0.000000000,-0.074999034,-19.109657288
1748263748.352218,30.842000000,0.000000000,-333.357879639,0.000000000,0.000000000,-16.931673050,-82.392829895,0.000000000,-0.074999034,-19.109657288
1748263748.354706,30.844000000,0.000000000,-333.357879639,0.000000000,0.000000000,-16.931673050,-82.392829895,0.000000000,-0.074999034,-19.109657288
1748263748.357146,30.847000000,0.000000000,-333.357879639,0.000000000,0.000000000,-16.931673050,-82.392829895,0.000000000,-0.074999034,-19.109657288
1748263748.359540,30.849000000,0.000000000,-333.357879639,0.000000000,0.000000000,-16.931673050,-82.392829895,0.000000000,-0.074999034,-19.109657288
1748263748.361932,30.852000000,0.000000000,-333.357879639,0.000000000,0.000000000,-16.931673050,-82.392829895,0.000000000,-0.074999034,-19.109657288
1748263748.364326,30.854000000,0.000000000,-333.357879639,0.000000000,0.000000000,-16.931673050,-82.392829895,0.000000000,-0.074999034,-19.109657288
1748263748.366735,30.856000000,0.000000000,-333.357879639,0.000000000,0.000000000,-16.931673050,-82.392829895,0.000000000,-0.074999034,-19.109657288
1748263748.369112,30.859000000,0.000000000,-333.357879639,0.000000000,0.000000000,-16.931673050,-82.392829895,0.000000000,-0.074999034,-19.109657288
1748263748.371496,30.861000000,0.000000000,-333.357879639,0.000000000,0.000000000,-16.931673050,-82.392829895,0.000000000,-0.074999034,-19.109657288
1748263748.373895,30.863000000,0.000000000,-333.357879639,0.000000000,0.000000000,-16.931673050,-82.392829895,0.000000000,-0.074999034,-19.109657288
1748263748.376211,30.866000000,0.000000000,-333.357879639,0.000000000,0.000000000,-16.931673050,-82.392829895,0.000000000,-0.074999034,-19.109657288
1748263748.378619,30.868000000,0.000000000,-333.357879639,0.000000000,0.000000000,-16.931673050,-82.392829895,0.000000000,-0.074999034,-19.109657288
1748263748.381009,30.871000000,0.000000000,-333.357879639,0.000000000,0.000000000,-16.931673050,-82.392829895,0.000000000,-0.074999034,-19.109657288
1748263748.383382,30.873000000,0.000000000,-333.357879639,0.000000000,0.000000000,-16.931673050,-82.392829895,0.000000000,-0.074999034,-19.109657288
1748263748.385762,30.875000000,0.000000000,-333.357879639,0.000000000,0.000000000,-16.931673050,-82.392829895,0.000000000,-0.074999034,-19.109657288
1748263748.388138,30.878000000,0.000000000,-333.357879639,0.000000000,0.000000000,-16.931673050,-82.392829895,0.000000000,-0.074999034,-19.109657288
1748263748.390514,30.880000000,0.000000000,-333.357879639,0.000000000,0.000000000,-16.931673050,-82.392829895,0.000000000,-0.074999034,-19.109657288
1748263748.392891,30.883000000,0.000000000,-333.357879639,0.000000000,0.000000000,-16.931673050,-82.392829895,0.000000000,-0.074999034,-19.109657288
1748263748.395427,30.885000000,0.000000000,-333.357879639,0.000000000,0.000000000,-16.931673050,-82.392829895,0.000000000,-0.074999034,-19.109657288
1748263748.397923,30.887000000,0.000000000,-333.357879639,0.000000000,0.000000000,-16.931673050,-82.392829895,0.000000000,-0.074999034,-19.109657288
1748263748.400379,30.890000000,0.000000000,-333.357879639,0.000000000,0.000000000,-16.931673050,-82.392829895,0.000000000,-0.074999034,-19.109657288
1748263748.402885,30.892000000,0.000000000,-333.357879639,0.000000000,0.000000000,-16.931673050,-82.392829895,0.000000000,-0.074999034,-19.109657288
1748263748.405373,30.895000000,0.000000000,-333.357879639,0.000000000,0.000000000,-16.931673050,-82.392829895,0.000000000,-0.074999034,-19.109657288
1748263748.407889,30.897000000,0.000000000,-333.357879639,0.000000000,0.000000000,-16.931673050,-82.392829895,0.000000000,-0.074999034,-19.109657288
1748263748.410375,30.900000000,0.000000000,-333.357879639,0.000000000,0.000000000,-16.931673050,-82.392829895,0.000000000,-0.074999034,-19.109657288
1748263748.412847,30.902000000,0.000000000,-333.357879639,0.000000000,0.000000000,-16.931673050,-82.392829895,0.000000000,-0.074999034,-19.109657288
1748263748.415382,30.905000000,0.000000000,-333.357879639,0.000000000,0.000000000,-16.931673050,-82.392829895,0.000000000,-0.074999034,-19.109657288
1748263748.417925,30.907000000,0.000000000,-333.357879639,0.000000000,0.000000000,-16.931673050,-82.392829895,0.000000000,-0.074999034,-19.109657288
1748263748.420389,30.910000000,0.000000000,-333.357879639,0.000000000,0.000000000,-16.931673050,-82.392829895,0.000000000,-0.074999034,-19.109657288
1748263748.422885,30.912000000,0.000000000,-333.357879639,0.000000000,0.000000000,-16.931673050,-82.392829895,0.000000000,-0.074999034,-19.109657288
1748263748.425351,30.915000000,0.000000000,-333.357879639,0.000000000,0.000000000,-16.931673050,-82.392829895,0.000000000,-0.074999034,-19.109657288
1748263748.427823,30.917000000,0.000000000,-333.357879639,0.000000000,0.000000000,-16.931673050,-82.392829895,0.000000000,-0.074999034,-19.109657288
1748263748.430401,30.920000000,0.000000000,-333.357879639,0.000000000,0.000000000,-16.931673050,-82.392829895,0.000000000,-0.074999034,-19.109657288
1748263748.432821,30.922000000,0.000000000,-333.357879639,0.000000000,0.000000000,-16.931673050,-82.392829895,0.000000000,-0.074999034,-19.109657288
1748263748.435281,30.925000000,0.000000000,-333.357879639,0.000000000,0.000000000,-16.931673050,-82.392829895,0.000000000,-0.074999034,-19.109657288
1748263748.437757,30.927000000,0.000000000,-333.357879639,0.000000000,0.000000000,-16.931673050,-82.392829895,0.000000000,-0.074999034,-19.109657288
1748263748.440259,30.930000000,0.000000000,-333.357879639,0.000000000,0.000000000,-16.931673050,-82.392829895,0.000000000,-0.074999034,-19.109657288
1748263748.442765,30.932000000,0.000000000,-333.357879639,0.000000000,0.000000000,-16.931673050,-82.392829895,0.000000000,-0.074999034,-19.109657288
1748263748.445215,30.935000000,0.000000000,-333.357879639,0.000000000,0.000000000,-16.931673050,-82.392829895,0.000000000,-0.074999034,-19.109657288
1748263748.447686,30.937000000,0.000000000,-333.357879639,0.000000000,0.000000000,-16.931673050,-82.392829895,0.000000000,-0.074999034,-19.109657288
1748263748.450276,30.940000000,0.000000000,-333.357879639,0.000000000,0.000000000,-16.931673050,-82.392829895,0.000000000,-0.074999034,-19.109657288
1748263748.452754,30.942000000,0.000000000,-333.357879639,0.000000000,0.000000000,-16.931673050,-82.392829895,0.000000000,-0.074999034,-19.109657288
1748263748.455222,30.945000000,0.000000000,-333.357879639,0.000000000,0.000000000,-16.931673050,-82.392829895,0.000000000,-0.074999034,-19.109657288
1748263748.457670,30.947000000,0.000000000,-333.357879639,0.000000000,0.000000000,-16.931673050,-82.392829895,0.000000000,-0.074999034,-19.109657288
1748263748.460168,30.950000000,0.000000000,-333.357879639,0.000000000,0.000000000,-16.931673050,-82.392829895,0.000000000,-0.074999034,-19.109657288
1748263748.462652,30.952000000,0.000000000,-333.357879639,0.000000000,0.000000000,-16.931673050,-82.392829895,0.000000000,-0.074999034,-19.109657288
1748263748.465092,30.955000000,0.000000000,-333.357879639,0.000000000,0.000000000,-16.931673050,-82.392829895,0.000000000,-0.074999034,-19.109657288
1748263748.467587,30.957000000,0.000000000,-333.357879639,0.000000000,0.000000000,-16.931673050,-82.392829895,0.000000000,-0.074999034,-19.109657288
1748263748.470042,30.960000000,0.000000000,-333.357879639,0.000000000,0.000000000,-16.931673050,-82.392829895,0.000000000,-0.074999034,-19.109657288
1748263748.472503,30.962000000,0.000000000,-333.357879639,0.000000000,0.000000000,-16.931673050,-82.392829895,0.000000000,-0.074999034,-19.109657288
1748263748.475021,30.965000000,0.000000000,-333.357879639,0.000000000,0.000000000,-16.931673050,-82.392829895,0.000000000,-0.074999034,-19.109657288
1748263748.477524,30.967000000,0.000000000,-333.357879639,0.000000000,0.000000000,-16.931673050,-82.392829895,0.000000000,-0.074999034,-19.109657288
1748263748.480064,30.970000000,0.000000000,-333.357879639,0.000000000,0.000000000,-16.931673050,-82.392829895,0.000000000,-0.074999034,-19.109657288
1748263748.482619,30.972000000,0.000000000,-333.357879639,0.000000000,0.000000000,-16.931673050,-82.392829895,0.000000000,-0.074999034,-19.109657288
1748263748.485133,30.975000000,0.000000000,-333.357879639,0.000000000,0.000000000,-16.931673050,-82.392829895,0.000000000,-0.074999034,-19.109657288
1748263748.487705,30.977000000,0.000000000,-333.357879639,0.000000000,0.000000000,-16.931673050,-82.392829895,0.000000000,-0.074999034,-19.109657288
1748263748.490154,30.980000000,0.000000000,-333.357879639,0.000000000,0.000000000,-16.931673050,-82.392829895,0.000000000,-0.074999034,-19.109657288
1748263748.492626,30.982000000,0.000000000,-333.357879639,0.000000000,0.000000000,-16.931673050,-82.392829895,0.000000000,-0.074999034,-19.109657288
1748263748.495111,30.985000000,0.000000000,-333.357879639,0.000000000,0.000000000,-16.931673050,-82.392829895,0.000000000,-0.074999034,-19.109657288
1748263748.497598,30.987000000,0.000000000,-333.357879639,0.000000000,0.000000000,-16.931673050,-82.392829895,0.000000000,-0.074999034,-19.109657288
1748263748.500113,30.990000000,0.000000000,-333.357879639,0.000000000,0.000000000,-16.931673050,-82.392829895,0.000000000,-0.074999034,-19.109657288
1748263748.502571,30.992000000,0.000000000,-333.357879639,0.000000000,0.000000000,-16.931673050,-82.392829895,0.000000000,-0.074999034,-19.109657288
1748263748.505039,30.995000000,0.000000000,-333.357879639,0.000000000,0.000000000,-16.931673050,-82.392829895,0.000000000,-0.074999034,-19.109657288
1748263748.507496,30.997000000,0.000000000,-333.357879639,0.000000000,0.000000000,-16.931673050,-82.392829895,0.000000000,-0.074999034,-19.109657288
1748263748.509982,30.999000000,0.000000000,-333.357879639,0.000000000,0.000000000,-16.931673050,-82.392829895,0.000000000,-0.074999034,-19.109657288
1748263748.512363,31.002000000,0.000000000,-333.357879639,0.000000000,0.000000000,-16.931673050,-82.392829895,0.000000000,-0.074999034,-19.109657288
1748263748.514816,31.004000000,0.000000000,-333.357879639,0.000000000,0.000000000,-16.931673050,-82.392829895,0.000000000,-0.074999034,-19.109657288
1748263748.517197,31.007000000,0.000000000,-333.357879639,0.000000000,0.000000000,-16.931673050,-82.392829895,0.000000000,-0.074999034,-19.109657288
1748263748.519552,31.009000000,0.000000000,-333.357879639,0.000000000,0.000000000,-16.931673050,-82.392829895,0.000000000,-0.074999034,-19.109657288
1748263748.521926,31.012000000,0.000000000,-333.357879639,0.000000000,0.000000000,-16.931673050,-82.392829895,0.000000000,-0.074999034,-19.109657288
1748263748.524537,31.014000000,0.000000000,-333.357879639,0.000000000,0.000000000,-16.931673050,-82.392829895,0.000000000,-0.074999034,-19.109657288
1748263748.526949,31.017000000,0.000000000,-333.357879639,0.000000000,0.000000000,-16.931673050,-82.392829895,0.000000000,-0.074999034,-19.109657288
1748263748.529380,31.019000000,0.000000000,-333.357879639,0.000000000,0.000000000,-16.931673050,-82.392829895,0.000000000,-0.074999034,-19.109657288
1748263748.531893,31.021000000,0.000000000,-333.357879639,0.000000000,0.000000000,-16.931673050,-82.392829895,0.000000000,-0.074999034,-19.109657288
1748263748.534305,31.024000000,0.000000000,-333.357879639,0.000000000,0.000000000,-16.931673050,-82.392829895,0.000000000,-0.074999034,-19.109657288
1748263748.536746,31.026000000,0.000000000,-333.357879639,0.000000000,0.000000000,-16.931673050,-82.392829895,0.000000000,-0.074999034,-19.109657288
1748263748.539221,31.029000000,0.000000000,-333.357879639,0.000000000,0.000000000,-16.931673050,-82.392829895,0.000000000,-0.074999034,-19.109657288
1748263748.541666,31.031000000,0.000000000,-333.357879639,0.000000000,0.000000000,-16.931673050,-82.392829895,0.000000000,-0.074999034,-19.109657288
1748263748.544117,31.034000000,0.000000000,-333.357879639,0.000000000,0.000000000,-16.931673050,-112.392829895,0.000000000,-0.074999034,-19.109657288
1748263748.546536,31.036000000,0.000000000,-333.357879639,0.000000000,0.000000000,-16.891172409,-120.270042419,0.000000000,-0.074999034,-19.108730316
1748263748.548892,31.039000000,0.000000000,-333.357879639,0.000000000,0.000000000,-16.837169647,-120.948150635,0.000000000,-0.074999034,-19.107496262
1748263748.551263,31.041000000,0.000000000,-333.357879639,0.000000000,0.000000000,-16.810169220,-82.982696533,0.000000000,-0.074999034,-19.106880188
1748263748.553631,31.043000000,0.000000000,-333.357879639,0.000000000,0.000000000,-16.864170074,-65.591377258,0.000000000,-0.074999034,-19.108114243
1748263748.556000,31.046000000,0.000000000,-333.357879639,0.000000000,0.000000000,-16.972173691,-57.468208313,0.000000000,-0.074999034,-19.110582352
1748263748.558369,31.048000000,0.000000000,-333.357879639,0.000000000,0.000000000,-16.999174118,-79.071693420,0.000000000,-0.074999034,-19.111200333
1748263748.560734,31.050000000,0.000000000,-333.357879639,0.000000000,0.000000000,-16.958673477,-93.811134338,0.000000000,-0.074999034,-19.110273361
1748263748.563153,31.053000000,0.000000000,-333.357879639,0.000000000,0.000000000,-16.904672623,-94.497474670,0.000000000,-0.074999034,-19.109039307
1748263748.565556,31.055000000,0.000000000,-333.357879639,0.000000000,0.000000000,-16.904672623,-81.031494141,0.000000000,-0.074999034,-19.109039307
1748263748.568003,31.058000000,0.000000000,-333.357879639,0.000000000,0.000000000,-16.931673050,-75.853317261,0.000000000,-0.074999034,-19.109657288
1748263748.570515,31.060000000,0.000000000,-333.357879639,0.000000000,0.000000000,-16.945173264,-79.823745728,0.000000000,-0.074999034,-19.109964371
1748263748.572902,31.063000000,0.000000000,-333.357879639,0.000000000,0.000000000,-16.945173264,-83.073493958,0.000000000,-0.074999034,-19.109964371
1748263748.575341,31.065000000,0.000000000,-333.357879639,0.000000000,0.000000000,-16.945173264,-83.073493958,0.000000000,-0.074999034,-19.109964371
1748263748.577762,31.067000000,0.000000000,-333.357879639,0.000000000,0.000000000,-16.945173264,-83.073493958,0.000000000,-0.084000528,-20.806312561
1748263748.580221,31.070000000,0.000000000,-333.357879639,0.000000000,0.000000000,-16.945173264,-83.073493958,0.000000000,-0.074999034,-19.177562714
1748263748.582575,31.072000000,0.000000000,-333.357879639,0.000000000,0.000000000,-16.945173264,-83.073493958,0.000000000,-0.084000528,-20.861267090
1748263748.584996,31.075000000,0.000000000,-333.357879639,0.000000000,0.000000000,-16.945173264,-83.073493958,0.000000000,-0.074999034,-19.236137390
1748263748.587372,31.077000000,0.000000000,-333.357879639,0.000000000,0.000000000,-16.945173264,-83.073493958,0.000000000,-0.074999034,-19.223520279
1748263748.589951,31.079000000,0.000000000,-333.357879639,0.000000000,0.000000000,-16.945173264,-83.073493958,0.000000000,-0.074999034,-19.212165833
1748263748.592333,31.082000000,0.000000000,-333.357879639,0.000000000,0.000000000,-16.945173264,-83.073493958,0.000000000,-0.074999034,-19.201944351
1748263748.594767,31.084000000,0.000000000,-333.357879639,0.000000000,0.000000000,-16.945173264,-83.073493958,0.000000000,-0.074999034,-19.192747116
1748263748.597175,31.087000000,0.000000000,-333.357879639,0.000000000,0.000000000,-16.958673477,-80.492439270,0.000000000,-0.074999034,-19.184791565
1748263748.599565,31.089000000,0.000000000,-333.357879639,0.000000000,0.000000000,-16.972173691,-81.127052307,0.000000000,-0.074999034,-19.177659988
1748263748.601978,31.092000000,0.000000000,-333.357879639,0.000000000,0.000000000,-16.972173691,-84.434829712,0.000000000,-0.074999034,-19.170951843
1748263748.604358,31.094000000,0.000000000,-333.357879639,0.000000000,0.000000000,-16.972173691,-84.434829712,0.000000000,-0.074999034,-19.164915085
1748263748.606740,31.096000000,0.000000000,-333.357879639,0.000000000,0.000000000,-16.958673477,-87.096633911,0.000000000,-0.074999034,-19.159164429
1748263748.609123,31.099000000,0.000000000,-333.357879639,0.000000000,0.000000000,-16.958673477,-83.754158020,0.000000000,-0.074999034,-19.154275894
1748263748.611508,31.101000000,0.000000000,-333.357879639,0.000000000,0.000000000,-16.958673477,-83.754158020,0.000000000,-0.074999034,-19.149875641
1748263748.614083,31.104000000,0.000000000,-333.357879639,0.000000000,0.000000000,-16.958673477,-83.754158020,0.000000000,-0.074999034,-19.145914078
1748263748.616519,31.106000000,0.000000000,-333.357879639,0.000000000,0.000000000,-16.958673477,-83.754158020,0.000000000,-0.084000528,-20.868247986
1748263748.618899,31.109000000,0.000000000,-333.357879639,0.000000000,0.000000000,-16.958673477,-83.754158020,0.000000000,-0.074999034,-19.232151031
1748263748.621265,31.111000000,0.000000000,-333.357879639,0.000000000,0.000000000,-16.958673477,-83.754158020,0.000000000,-0.084000528,-20.897951126
1748263748.623642,31.113000000,0.000000000,-333.357879639,0.000000000,0.000000000,-16.958673477,-83.754158020,0.000000000,-0.084000528,-20.948545456
1748263748.626056,31.116000000,0.000000000,-333.357879639,0.000000000,0.000000000,-16.958673477,-83.754158020,0.000000000,-0.084000528,-20.994077682
1748263748.628456,31.118000000,0.000000000,-333.357879639,0.000000000,0.000000000,-16.945173264,-86.420188904,0.000000000,-0.084000528,-21.034778595
1748263748.630844,31.120000000,0.000000000,-333.357879639,0.000000000,0.000000000,-16.945173264,-83.073493958,0.000000000,-0.074999034,-19.387161255
1748263748.633285,31.123000000,0.000000000,-333.357879639,0.000000000,0.000000000,-16.945173264,-83.073493958,0.000000000,-0.074999034,-19.359441757
1748263748.635643,31.125000000,0.000000000,-333.357879639,0.000000000,0.000000000,-16.931673050,-85.680130005,0.000000000,-0.074999034,-19.334146500
1748263748.638022,31.128000000,0.000000000,-333.357879639,0.000000000,0.000000000,-16.918172836,-85.064491272,0.000000000,-0.074999034,-19.311351776
1748263748.640399,31.130000000,0.000000000,-333.357879639,0.000000000,0.000000000,-16.931673050,-79.043327332,0.000000000,-0.074999034,-19.291494370
1748263748.642761,31.132000000,0.000000000,-333.357879639,0.000000000,0.000000000,-16.931673050,-82.392829895,0.000000000,-0.074999034,-19.273309708
1748263748.645132,31.135000000,0.000000000,-333.357879639,0.000000000,0.000000000,-16.918172836,-85.075813293,0.000000000,-0.074999034,-19.256608963
1748263748.647531,31.137000000,0.000000000,-333.357879639,0.000000000,0.000000000,-16.918172836,-81.712165833,0.000000000,-0.084000528,-20.917240143
1748263748.649911,31.140000000,0.000000000,-333.357879639,0.000000000,0.000000000,-16.931673050,-79.067100525,0.000000000,-0.074999034,-19.284322739
1748263748.652287,31.142000000,0.000000000,-333.357879639,0.000000000,0.000000000,-16.931673050,-82.392829895,0.000000000,-0.084000528,-20.945516586
1748263748.654675,31.144000000,0.000000000,-333.357879639,0.000000000,0.000000000,-16.931673050,-82.392829895,0.000000000,-0.074999034,-19.311840057
1748263748.657053,31.147000000,0.000000000,-333.357879639,0.000000000,0.000000000,-16.931673050,-82.392829895,0.000000000,-0.084000528,-20.968734741
1748263748.659456,31.149000000,0.000000000,-333.357879639,0.000000000,0.000000000,-16.931673050,-82.392829895,0.000000000,-0.084000528,-21.012180328
1748263748.661918,31.151000000,0.000000000,-333.357879639,0.000000000,0.000000000,-16.931673050,-82.392829895,0.000000000,-0.084000528,-21.051280975
1748263748.664300,31.154000000,0.000000000,-333.357879639,0.000000000,0.000000000,-16.931673050,-82.392829895,0.000000000,-0.074999034,-19.400642395
1748263748.666723,31.156000000,0.000000000,-333.357879639,0.000000000,0.000000000,-16.931673050,-82.392829895,0.000000000,-0.084000528,-21.056863785
1748263748.669090,31.159000000,0.000000000,-333.357879639,0.000000000,0.000000000,-16.931673050,-82.392829895,0.000000000,-0.074999034,-19.408704758
1748263748.671468,31.161000000,0.000000000,-333.357879639,0.000000000,0.000000000,-16.931673050,-82.392829895,0.000000000,-0.084000528,-21.062854767
1748263748.673897,31.163000000,0.000000000,-333.357879639,0.000000000,0.000000000,-16.931673050,-82.392829895,0.000000000,-0.074999034,-19.417938232
1748263748.676261,31.166000000,0.000000000,-333.357879639,0.000000000,0.000000000,-16.931673050,-82.392829895,0.000000000,-0.084000528,-21.074695587
1748263748.678646,31.168000000,0.000000000,-333.357879639,0.000000000,0.000000000,-16.931673050,-82.392829895,0.000000000,-0.074999034,-19.429626465
1748263748.681026,31.171000000,0.000000000,-333.357879639,0.000000000,0.000000000,-16.931673050,-82.392829895,0.000000000,-0.084000528,-21.074764252
1748263748.683394,31.173000000,0.000000000,-333.357879639,0.000000000,0.000000000,-16.931673050,-82.392829895,0.000000000,-0.074999034,-19.431762695
1748263748.685778,31.175000000,0.000000000,-333.357879639,0.000000000,0.000000000,-16.931673050,-82.392829895,0.000000000,-0.084000528,-21.079013824
1748263748.688165,31.178000000,0.000000000,-333.357879639,0.000000000,0.000000000,-16.931673050,-82.392829895,0.000000000,-0.074999034,-19.437677383
1748263748.690562,31.180000000,0.000000000,-333.357879639,0.000000000,0.000000000,-16.931673050,-82.392829895,0.000000000,-0.084000528,-21.087665558
1748263748.692962,31.183000000,0.000000000,-333.357879639,0.000000000,0.000000000,-16.931673050,-82.392829895,0.000000000,-0.074999034,-19.437440872
1748263748.695345,31.185000000,0.000000000,-333.357879639,0.000000000,0.000000000,-16.931673050,-82.392829895,0.000000000,-0.084000528,-21.087707520
1748263748.697762,31.187000000,0.000000000,-333.357879639,0.000000000,0.000000000,-16.931673050,-82.392829895,0.000000000,-0.074999034,-19.440299988
1748263748.700236,31.190000000,0.000000000,-333.357879639,0.000000000,0.000000000,-16.931673050,-82.392829895,0.000000000,-0.084000528,-21.096326828
1748263748.702697,31.192000000,0.000000000,-333.357879639,0.000000000,0.000000000,-16.931673050,-82.392829895,0.000000000,-0.084000528,-21.127014160
1748263748.705169,31.195000000,0.000000000,-333.357879639,0.000000000,0.000000000,-16.931673050,-82.392829895,0.000000000,-0.084000528,-21.154630661
1748263748.707616,31.197000000,0.000000000,-333.357879639,0.000000000,0.000000000,-16.931673050,-82.392829895,0.000000000,-0.084000528,-21.179487228
1748263748.710087,31.200000000,0.000000000,-333.357879639,0.000000000,0.000000000,-16.931673050,-82.392829895,0.000000000,-0.084000528,-21.201856613
1748263748.712477,31.202000000,0.000000000,-333.357879639,0.000000000,0.000000000,-16.931673050,-82.392829895,0.000000000,-0.084000528,-21.221990585
1748263748.714922,31.205000000,0.000000000,-333.357879639,0.000000000,0.000000000,-16.931673050,-82.392829895,0.000000000,-0.084000528,-21.240110397
1748263748.717302,31.207000000,0.000000000,-333.357879639,0.000000000,0.000000000,-16.931673050,-82.392829895,0.000000000,-0.084000528,-21.256418228
1748263748.719755,31.209000000,0.000000000,-333.357879639,0.000000000,0.000000000,-16.931673050,-82.392829895,0.000000000,-0.074999034,-19.589284897
1748263748.722157,31.212000000,0.000000000,-333.357879639,0.000000000,0.000000000,-16.931673050,-82.392829895,0.000000000,-0.084000528,-21.227434158
1748263748.724555,31.214000000,0.000000000,-333.357879639,0.000000000,0.000000000,-16.931673050,-82.392829895,0.000000000,-0.074999034,-19.564741135
1748263748.726949,31.217000000,0.000000000,-333.357879639,0.000000000,0.000000000,-16.931673050,-82.392829895,0.000000000,-0.084000528,-21.201793671
1748263748.729349,31.219000000,0.000000000,-333.357879639,0.000000000,0.000000000,-16.931673050,-82.392829895,0.000000000,-0.074999034,-19.539367676
1748263748.731739,31.221000000,0.000000000,-333.357879639,0.000000000,0.000000000,-16.931673050,-82.392829895,0.000000000,-0.084000528,-21.181489944
1748263748.734207,31.224000000,0.000000000,-333.357879639,0.000000000,0.000000000,-16.931673050,-82.392829895,0.000000000,-0.074999034,-19.523401260
1748263748.736680,31.226000000,0.000000000,-333.357879639,0.000000000,0.000000000,-16.931673050,-82.392829895,0.000000000,-0.084000528,-21.184783936
1748263748.739113,31.229000000,0.000000000,-333.357879639,0.000000000,0.000000000,-16.931673050,-82.392829895,0.000000000,-0.074999034,-19.505773544
1748263748.741483,31.231000000,0.000000000,-333.357879639,0.000000000,0.000000000,-16.931673050,-82.392829895,0.000000000,-0.084000528,-21.158243179
1748263748.743876,31.234000000,0.000000000,-333.357879639,0.000000000,0.000000000,-16.931673050,-82.392829895,0.000000000,-0.074999034,-19.500436783
1748263748.746259,31.236000000,0.000000000,-333.357879639,0.000000000,0.000000000,-16.931673050,-82.392829895,0.000000000,-0.084000528,-21.144416809
1748263748.748640,31.238000000,0.000000000,-333.357879639,0.000000000,0.000000000,-16.931673050,-82.392829895,0.000000000,-0.074999034,-19.492101669
1748263748.751054,31.241000000,0.000000000,-333.357879639,0.000000000,0.000000000,-16.931673050,-82.392829895,0.000000000,-0.084000528,-21.131782532
1748263748.753428,31.243000000,0.000000000,-333.357879639,0.000000000,0.000000000,-16.931673050,-82.392829895,0.000000000,-0.074999034,-19.473329544
1748263748.755820,31.245000000,0.000000000,-333.357879639,0.000000000,0.000000000,-16.931673050,-82.392829895,0.000000000,-0.084000528,-21.114366531
1748263748.758203,31.248000000,0.000000000,-333.357879639,0.000000000,0.000000000,-16.931673050,-82.392829895,0.000000000,-0.074999034,-19.464029312
1748263748.760611,31.250000000,0.000000000,-333.357879639,0.000000000,0.000000000,-16.931673050,-82.392829895,0.000000000,-0.084000528,-21.111898422
1748263748.763049,31.253000000,0.000000000,-333.357879639,0.000000000,0.000000000,-16.931673050,-82.392829895,0.000000000,-0.074999034,-19.458734512
1748263748.765379,31.255000000,0.000000000,-333.357879639,0.000000000,0.000000000,-16.931673050,-82.392829895,0.000000000,-0.084000528,-21.103292465
1748263748.767770,31.257000000,0.000000000,-333.357879639,0.000000000,0.000000000,-16.931673050,-82.392829895,0.000000000,-0.074999034,-19.454067230
1748263748.770143,31.260000000,0.000000000,-333.357879639,0.000000000,0.000000000,-16.931673050,-82.392829895,0.000000000,-0.074999034,-19.419626236
1748263748.772508,31.262000000,0.000000000,-333.357879639,0.000000000,0.000000000,-16.931673050,-82.392829895,0.000000000,-0.074999034,-19.388629913
1748263748.774888,31.265000000,0.000000000,-333.357879639,0.000000000,0.000000000,-16.931673050,-82.392829895,0.000000000,-0.074999034,-19.360731125
1748263748.777244,31.267000000,0.000000000,-333.357879639,0.000000000,0.000000000,-16.931673050,-82.392829895,0.000000000,-0.074999034,-19.335624695
1748263748.779617,31.269000000,0.000000000,-333.357879639,0.000000000,0.000000000,-16.931673050,-82.392829895,0.000000000,-0.074999034,-19.313028336
1748263748.782005,31.272000000,0.000000000,-333.357879639,0.000000000,0.000000000,-16.931673050,-82.392829895,0.000000000,-0.074999034,-19.292690277
1748263748.784366,31.274000000,0.000000000,-333.357879639,0.000000000,0.000000000,-16.931673050,-82.392829895,0.000000000,-0.074999034,-19.274387360
1748263748.786726,31.276000000,0.000000000,-333.357879639,0.000000000,0.000000000,-16.931673050,-82.392829895,0.000000000,-0.074999034,-19.257913589
1748263748.789099,31.279000000,0.000000000,-333.357879639,0.000000000,0.000000000,-16.931673050,-82.392829895,0.000000000,-0.074999034,-19.243087769
1748263748.791468,31.281000000,0.000000000,-333.357879639,0.000000000,0.000000000,-16.931673050,-82.392829895,0.000000000,-0.074999034,-19.229745865
1748263748.793855,31.284000000,0.000000000,-333.357879639,0.000000000,0.000000000,-16.931673050,-82.392829895,0.000000000,-0.074999034,-19.217737198
1748263748.796268,31.286000000,0.000000000,-333.357879639,0.000000000,0.000000000,-16.931673050,-82.392829895,0.000000000,-0.074999034,-19.206928253
1748263748.798716,31.288000000,0.000000000,-333.357879639,0.000000000,0.000000000,-16.931673050,-82.392829895,0.000000000,-0.074999034,-19.197200775
1748263748.801157,31.291000000,0.000000000,-333.357879639,0.000000000,0.000000000,-16.931673050,-82.392829895,0.000000000,-0.074999034,-19.188447952
1748263748.803607,31.293000000,0.000000000,-333.357879639,0.000000000,0.000000000,-16.931673050,-82.392829895,0.000000000,-0.074999034,-19.180568695
1748263748.806059,31.296000000,0.000000000,-333.357879639,0.000000000,0.000000000,-16.931673050,-82.392829895,0.000000000,-0.074999034,-19.173477173
1748263748.808515,31.298000000,0.000000000,-333.357879639,0.000000000,0.000000000,-16.931673050,-82.392829895,0.000000000,-0.074999034,-19.167095184
1748263748.810967,31.301000000,0.000000000,-333.357879639,0.000000000,0.000000000,-16.931673050,-82.392829895,0.000000000,-0.074999034,-19.161352158
1748263748.813456,31.303000000,0.000000000,-333.357879639,0.000000000,0.000000000,-16.931673050,-82.392829895,0.000000000,-0.074999034,-19.156181335
1748263748.815946,31.306000000,0.000000000,-333.357879639,0.000000000,0.000000000,-16.931673050,-82.392829895,0.000000000,-0.074999034,-19.151529312
1748263748.818388,31.308000000,0.000000000,-333.357879639,0.000000000,0.000000000,-16.931673050,-82.392829895,0.000000000,-0.074999034,-19.147342682
1748263748.820881,31.310000000,0.000000000,-333.357879639,0.000000000,0.000000000,-16.931673050,-82.392829895,0.000000000,-0.074999034,-19.143573761
1748263748.823342,31.313000000,0.000000000,-333.357879639,0.000000000,0.000000000,-16.931673050,-82.392829895,0.000000000,-0.074999034,-19.140182495
1748263748.825730,31.315000000,0.000000000,-333.357879639,0.000000000,0.000000000,-16.931673050,-82.392829895,0.000000000,-0.074999034,-19.137128830
1748263748.828168,31.318000000,0.000000000,-333.357879639,0.000000000,0.000000000,-16.931673050,-82.392829895,0.000000000,-0.074999034,-19.134382248
1748263748.830631,31.320000000,0.000000000,-333.357879639,0.000000000,0.000000000,-16.931673050,-82.392829895,0.000000000,-0.074999034,-19.131910324
1748263748.833040,31.323000000,0.000000000,-333.357879639,0.000000000,0.000000000,-16.931673050,-82.392829895,0.000000000,-0.074999034,-19.129684448
1748263748.835492,31.325000000,0.000000000,-333.357879639,0.000000000,0.000000000,-16.931673050,-82.392829895,0.000000000,-0.074999034,-19.127681732
1748263748.837923,31.328000000,0.000000000,-333.357879639,0.000000000,0.000000000,-16.931673050,-112.392829895,0.000000000,-0.074999034,-19.125879288
1748263748.840355,31.330000000,0.000000000,-333.357879639,0.000000000,0.000000000,-16.891172409,-120.104042053,0.000000000,-0.074999034,-19.123321533
1748263748.842887,31.332000000,0.000000000,-333.357879639,0.000000000,0.000000000,-16.837169647,-120.712936401,0.000000000,-0.074999034,-19.120618820
1748263748.845277,31.335000000,0.000000000,-333.357879639,0.000000000,0.000000000,-16.823671341,-110.166580200,0.000000000,-0.074999034,-19.118997574
1748263748.847667,31.337000000,0.000000000,-333.357879639,0.000000000,0.000000000,-16.823671341,-106.947502136,0.000000000,-0.074999034,-19.117816925
1748263748.850073,31.340000000,0.000000000,-333.357879639,0.000000000,0.000000000,-16.823671341,-106.947502136,0.000000000,-0.074999034,-19.116754532
1748263748.852426,31.342000000,0.000000000,-333.357879639,0.000000000,0.000000000,-16.810169220,-109.587394714,0.000000000,-0.074999034,-19.115488052
1748263748.854811,31.344000000,0.000000000,-333.357879639,0.000000000,0.000000000,-16.796670914,-108.970787048,0.000000000,-0.074999034,-19.114316940
1748263748.857170,31.347000000,0.000000000,-333.357879639,0.000000000,0.000000000,-16.783168793,-108.255393982,0.000000000,-0.074999034,-19.113231659
1748263748.859540,31.349000000,0.000000000,-333.357879639,0.000000000,0.000000000,-16.783168793,-104.905410767,0.000000000,-0.074999034,-19.112535477
1748263748.861922,31.352000000,0.000000000,-333.357879639,0.000000000,0.000000000,-16.783168793,-104.905410767,0.000000000,-0.074999034,-19.111907959
1748263748.864323,31.354000000,0.000000000,-333.357879639,0.000000000,0.000000000,-16.769668579,-107.577064514,0.000000000,-0.074999034,-19.111032486
1748263748.866738,31.356000000,0.000000000,-333.357879639,0.000000000,0.000000000,-16.756168365,-106.849105835,0.000000000,-0.074999034,-19.110216141
1748263748.869140,31.359000000,0.000000000,-333.357879639,0.000000000,0.000000000,-16.742668152,-106.160232544,0.000000000,-0.074999034,-19.109449387
1748263748.871514,31.361000000,0.000000000,-333.357879639,0.000000000,0.000000000,-16.729167938,-105.514038086,0.000000000,-0.074999034,-19.108728409
1748263748.873890,31.364000000,0.000000000,-333.357879639,0.000000000,0.000000000,-16.729167938,-102.182746887,0.000000000,-0.074999034,-19.108358383
1748263748.876261,31.366000000,0.000000000,-333.357879639,0.000000000,0.000000000,-16.729167938,-102.182746887,0.000000000,-0.074999034,-19.108026505
1748263748.878629,31.368000000,0.000000000,-333.357879639,0.000000000,0.000000000,-16.729167938,-102.182746887,0.000000000,-0.074999034,-19.107727051
1748263748.881076,31.371000000,0.000000000,-333.357879639,0.000000000,0.000000000,-16.715667725,-104.861473083,0.000000000,-0.074999034,-19.107147217
1748263748.883524,31.373000000,0.000000000,-333.357879639,0.000000000,0.000000000,-16.702167511,-104.077796936,0.000000000,-0.074999034,-19.106594086
1748263748.885972,31.376000000,0.000000000,-333.357879639,0.000000000,0.000000000,-16.702167511,-100.821411133,0.000000000,-0.074999034,-19.106376648
1748263748.888426,31.378000000,0.000000000,-333.357879639,0.000000000,0.000000000,-16.702167511,-100.821411133,0.000000000,-0.074999034,-19.106180191
1748263748.890864,31.380000000,0.000000000,-333.357879639,0.000000000,0.000000000,-16.702167511,-100.821411133,0.000000000,-0.074999034,-19.106002808
1748263748.893274,31.383000000,0.000000000,-333.357879639,0.000000000,0.000000000,-16.702167511,-100.821411133,0.000000000,-0.074999034,-19.105844498
1748263748.895668,31.385000000,0.000000000,-333.357879639,0.000000000,0.000000000,-16.702167511,-100.821411133,0.000000000,-0.074999034,-19.105699539
1748263748.898049,31.388000000,0.000000000,-333.357879639,0.000000000,0.000000000,-16.688667297,-103.463699341,0.000000000,-0.074999034,-19.105264664
1748263748.900422,31.390000000,0.000000000,-333.357879639,0.000000000,0.000000000,-16.688667297,-100.140747070,0.000000000,-0.074999034,-19.105148315
1748263748.902804,31.392000000,0.000000000,-333.357879639,0.000000000,0.000000000,-16.688667297,-100.140747070,0.000000000,-0.074999034,-19.105043411
1748263748.905166,31.395000000,0.000000000,-333.357879639,0.000000000,0.000000000,-16.688667297,-100.140747070,0.000000000,-0.074999034,-19.104949951
1748263748.907539,31.397000000,0.000000000,-333.357879639,0.000000000,0.000000000,-16.675167084,-102.816650391,0.000000000,-0.074999034,-19.104555130
1748263748.909921,31.400000000,0.000000000,-333.357879639,0.000000000,0.000000000,-16.675167084,-99.460083008,0.000000000,-0.074999034,-19.104478836
1748263748.912297,31.402000000,0.000000000,-333.357879639,0.000000000,0.000000000,-16.675167084,-99.460083008,0.000000000,-0.074999034,-19.104410172
1748263748.914741,31.404000000,0.000000000,-333.357879639,0.000000000,0.000000000,-16.675167084,-99.460083008,0.000000000,-0.074999034,-19.104349136
1748263748.917190,31.407000000,0.000000000,-333.357879639,0.000000000,0.000000000,-16.661666870,-102.043807983,0.000000000,-0.084000528,-20.798395157
1748263748.919638,31.409000000,0.000000000,-333.357879639,0.000000000,0.000000000,-16.661666870,-98.779411316,0.000000000,-0.084000528,-20.858184814
1748263748.922102,31.412000000,0.000000000,-333.357879639,0.000000000,0.000000000,-16.648166656,-101.359130859,0.000000000,-0.074999034,-19.216497421
1748263748.924541,31.414000000,0.000000000,-333.357879639,0.000000000,0.000000000,-16.648166656,-98.098747253,0.000000000,-0.074999034,-19.205163956
1748263748.926995,31.417000000,0.000000000,-333.357879639,0.000000000,0.000000000,-16.648166656,-98.098747253,0.000000000,-0.074999034,-19.194965363
1748263748.929448,31.419000000,0.000000000,-333.357879639,0.000000000,0.000000000,-16.634666443,-100.665176392,0.000000000,-0.074999034,-19.185462952
1748263748.931914,31.422000000,0.000000000,-333.357879639,0.000000000,0.000000000,-16.621166229,-99.988487244,0.000000000,-0.074999034,-19.176881790
1748263748.934372,31.424000000,0.000000000,-333.357879639,0.000000000,0.000000000,-16.621166229,-96.737419128,0.000000000,-0.074999034,-19.169448853
1748263748.936828,31.426000000,0.000000000,-333.357879639,0.000000000,0.000000000,-16.607664108,-99.296287537,0.000000000,-0.074999034,-19.162441254
1748263748.939298,31.429000000,0.000000000,-333.357879639,0.000000000,0.000000000,-16.594165802,-98.628021240,0.000000000,-0.074999034,-19.156103134
1748263748.941740,31.431000000,0.000000000,-333.357879639,0.000000000,0.000000000,-16.567165375,-100.422737122,0.000000000,-0.074999034,-19.150053024
1748263748.944186,31.434000000,0.000000000,-333.357879639,0.000000000,0.000000000,-16.553663254,-96.588180542,0.000000000,-0.074999034,-19.144863129
1748263748.946636,31.436000000,0.000000000,-333.357879639,0.000000000,0.000000000,-16.540163040,-95.909713745,0.000000000,-0.074999034,-19.140163422
1748263748.949116,31.439000000,0.000000000,-333.357879639,0.000000000,0.000000000,-16.540163040,-92.653327942,0.000000000,-0.084000528,-20.845613480
1748263748.951586,31.441000000,0.000000000,-333.357879639,0.000000000,0.000000000,-16.526662827,-95.229042053,0.000000000,-0.074999034,-19.203504562
1748263748.953994,31.444000000,0.000000000,-333.357879639,0.000000000,0.000000000,-16.513162613,-94.569824219,0.000000000,-0.084000528,-20.885622025
1748263748.956417,31.446000000,0.000000000,-333.357879639,0.000000000,0.000000000,-16.499662399,-93.913619995,0.000000000,-0.084000528,-20.936046600
1748263748.958842,31.448000000,0.000000000,-333.357879639,0.000000000,0.000000000,-16.486162186,-93.213897705,0.000000000,-0.084000528,-20.981382370
1748263748.961231,31.451000000,0.000000000,-333.357879639,0.000000000,0.000000000,-16.472661972,-92.527824402,0.000000000,-0.074999034,-19.329151154
1748263748.963619,31.453000000,0.000000000,-333.357879639,0.000000000,0.000000000,-16.459161758,-91.921653748,0.000000000,-0.074999034,-19.305805206
1748263748.966005,31.456000000,0.000000000,-333.357879639,0.000000000,0.000000000,-16.459161758,-88.569328308,0.000000000,-0.074999034,-19.285110474
1748263748.968378,31.458000000,0.000000000,-333.357879639,0.000000000,0.000000000,-16.459161758,-88.569328308,0.000000000,-0.074999034,-19.266485214
1748263748.970770,31.460000000,0.000000000,-333.357879639,0.000000000,0.000000000,-16.445659637,-91.242774963,0.000000000,-0.074999034,-19.249385834
1748263748.973167,31.463000000,0.000000000,-333.357879639,0.000000000,0.000000000,-16.432161331,-90.537429810,0.000000000,-0.074999034,-19.233968735
1748263748.975644,31.465000000,0.000000000,-333.357879639,0.000000000,0.000000000,-16.418659210,-89.847892761,0.000000000,-0.074999034,-19.220066071
1748263748.978114,31.468000000,0.000000000,-333.357879639,0.000000000,0.000000000,-16.405160904,-89.068344116,0.000000000,-0.074999034,-19.207525253
1748263748.980611,31.470000000,0.000000000,-333.357879639,0.000000000,0.000000000,-16.391658783,-88.401580811,0.000000000,-0.074999034,-19.196207047
1748263748.983103,31.473000000,0.000000000,-333.357879639,0.000000000,0.000000000,-16.378160477,-87.660774231,0.000000000,-0.074999034,-19.185993195
1748263748.985634,31.475000000,0.000000000,-333.357879639,0.000000000,0.000000000,-16.364658356,-87.014183044,0.000000000,-0.074999034,-19.176771164
1748263748.988131,31.478000000,0.000000000,-333.357879639,0.000000000,0.000000000,-16.364658356,-83.804573059,0.000000000,-0.074999034,-19.168764114
1748263748.990506,31.480000000,0.000000000,-333.357879639,0.000000000,0.000000000,-16.364658356,-83.804573059,0.000000000,-0.074999034,-19.161558151
1748263748.992937,31.483000000,0.000000000,-333.357879639,0.000000000,0.000000000,-16.351158142,-86.463584900,0.000000000,-0.074999034,-19.154750824
1748263748.995436,31.485000000,0.000000000,-333.357879639,0.000000000,0.000000000,-16.324157715,-88.278015137,0.000000000,-0.074999034,-19.148281097
1748263748.997926,31.488000000,0.000000000,-333.357879639,0.000000000,0.000000000,-16.310657501,-84.254005432,0.000000000,-0.074999034,-19.142711639
1748263749.000463,31.490000000,0.000000000,-333.357879639,0.000000000,0.000000000,-16.297157288,-83.607818604,0.000000000,-0.074999034,-19.137672424
1748263749.002955,31.493000000,0.000000000,-333.357879639,0.000000000,0.000000000,-16.297157288,-80.401245117,0.000000000,-0.074999034,-19.133420944
1748263749.005514,31.495000000,0.000000000,-333.357879639,0.000000000,0.000000000,-16.283657074,-82.888877869,0.000000000,-0.074999034,-19.129278183
1748263749.007982,31.498000000,0.000000000,-333.357879639,0.000000000,0.000000000,-16.283657074,-79.720573425,0.000000000,-0.074999034,-19.125835419
1748263749.010463,31.500000000,0.000000000,-333.357879639,0.000000000,0.000000000,-16.283657074,-79.720573425,0.000000000,-0.074999034,-19.122735977
1748263749.012898,31.503000000,0.000000000,-333.357879639,0.000000000,0.000000000,-16.270156860,-82.273818970,0.000000000,-0.084000528,-20.821666718
1748263749.015377,31.505000000,0.000000000,-333.357879639,0.000000000,0.000000000,-16.270156860,-79.039909363,0.000000000,-0.074999034,-19.178245544
1748263749.017886,31.508000000,0.000000000,-333.357879639,0.000000000,0.000000000,-16.256656647,-81.585296631,0.000000000,-0.074999034,-19.169551849
1748263749.020463,31.510000000,0.000000000,-333.357879639,0.000000000,0.000000000,-16.229656219,-83.321952820,0.000000000,-0.074999034,-19.161378860
1748263749.022978,31.513000000,0.000000000,-333.357879639,0.000000000,0.000000000,-16.229656219,-76.997909546,0.000000000,-0.074999034,-19.154602051
1748263749.025524,31.515000000,0.000000000,-333.357879639,0.000000000,0.000000000,-16.229656219,-76.997909546,0.000000000,-0.074999034,-19.148502350
1748263749.028085,31.518000000,0.000000000,-333.357879639,0.000000000,0.000000000,-16.229656219,-76.997909546,0.000000000,-0.074999034,-19.143013000
1748263749.030630,31.520000000,0.000000000,-333.357879639,0.000000000,0.000000000,-16.229656219,-76.997909546,0.000000000,-0.074999034,-19.138072968
1748263749.033132,31.523000000,0.000000000,-333.357879639,0.000000000,0.000000000,-16.229656219,-76.997909546,0.000000000,-0.074999034,-19.133626938
1748263749.035573,31.525000000,0.000000000,-333.357879639,0.000000000,0.000000000,-16.229656219,-76.997909546,0.000000000,-0.074999034,-19.129625320
1748263749.038052,31.528000000,0.000000000,-333.357879639,0.000000000,0.000000000,-16.229656219,-76.997909546,0.000000000,-0.074999034,-19.126024246
1748263749.040491,31.530000000,0.000000000,-333.357879639,0.000000000,0.000000000,-16.229656219,-76.997909546,0.000000000,-0.074999034,-19.122783661
1748263749.042916,31.533000000,0.000000000,-333.357879639,0.000000000,0.000000000,-16.229656219,-76.997909546,0.000000000,-0.074999034,-19.119867325
1748263749.045385,31.535000000,0.000000000,-333.357879639,0.000000000,0.000000000,-16.229656219,-76.997909546,0.000000000,-0.074999034,-19.117240906
1748263749.047834,31.537000000,0.000000000,-333.357879639,0.000000000,0.000000000,-16.229656219,-76.997909546,0.000000000,-0.074999034,-19.114877701
1748263749.050297,31.540000000,0.000000000,-333.357879639,0.000000000,0.000000000,-16.229656219,-76.997909546,0.000000000,-0.074999034,-19.112751007
1748263749.052718,31.542000000,0.000000000,-333.357879639,0.000000000,0.000000000,-16.229656219,-76.997909546,0.000000000,-0.074999034,-19.110837936
1748263749.055188,31.545000000,0.000000000,-333.357879639,0.000000000,0.000000000,-16.229656219,-76.997909546,0.000000000,-0.074999034,-19.109115601
1748263749.057628,31.547000000,0.000000000,-333.357879639,0.000000000,0.000000000,-16.216156006,-79.559059143,0.000000000,-0.074999034,-19.107254028
1748263749.060089,31.550000000,0.000000000,-333.357879639,0.000000000,0.000000000,-16.202655792,-78.881027222,0.000000000,-0.074999034,-19.105546951
1748263749.062558,31.552000000,0.000000000,-333.357879639,0.000000000,0.000000000,-16.202655792,-75.636581421,0.000000000,-0.074999034,-19.104291916
1748263749.065063,31.555000000,0.000000000,-333.357879639,0.000000000,0.000000000,-16.202655792,-75.636581421,0.000000000,-0.074999034,-19.103162766
1748263749.067510,31.557000000,0.000000000,-333.357879639,0.000000000,0.000000000,-16.202655792,-75.636581421,0.000000000,-0.074999034,-19.102146149
1748263749.069944,31.560000000,0.000000000,-333.357879639,0.000000000,0.000000000,-16.189153671,-78.199401855,0.000000000,-0.074999034,-19.100921631
1748263749.072390,31.562000000,0.000000000,-333.357879639,0.000000000,0.000000000,-16.189153671,-74.955818176,0.000000000,-0.074999034,-19.100097656
1748263749.074842,31.564000000,0.000000000,-333.357879639,0.000000000,0.000000000,-16.189153671,-74.955818176,0.000000000,-0.074999034,-19.099357605
1748263749.077299,31.567000000,0.000000000,-333.357879639,0.000000000,0.000000000,-16.189153671,-74.955818176,0.000000000,-0.074999034,-19.098690033
1748263749.079751,31.569000000,0.000000000,-333.357879639,0.000000000,0.000000000,-16.189153671,-74.955818176,0.000000000,-0.074999034,-19.098089218
1748263749.082187,31.572000000,0.000000000,-333.357879639,0.000000000,0.000000000,-16.189153671,-74.955818176,0.000000000,-0.074999034,-19.097549438
1748263749.084633,31.574000000,0.000000000,-333.357879639,0.000000000,0.000000000,-16.175655365,-77.537841797,0.000000000,-0.074999034,-19.096754074
1748263749.087125,31.577000000,0.000000000,-333.357879639,0.000000000,0.000000000,-16.162153244,-76.852661133,0.000000000,-0.074999034,-19.096006393
1748263749.089562,31.579000000,0.000000000,-333.357879639,0.000000000,0.000000000,-16.162153244,-73.594482422,0.000000000,-0.074999034,-19.095613480
1748263749.092014,31.582000000,0.000000000,-333.357879639,0.000000000,0.000000000,-16.162153244,-73.594482422,0.000000000,-0.074999034,-19.095258713
1748263749.094378,31.584000000,0.000000000,-333.357879639,0.000000000,0.000000000,-16.148654938,-76.203468323,0.000000000,-0.074999034,-19.094629288
1748263749.096803,31.586000000,0.000000000,-333.357879639,0.000000000,0.000000000,-16.135152817,-75.598701477,0.000000000,-0.074999034,-19.094034195
1748263749.099193,31.589000000,0.000000000,-333.357879639,0.000000000,0.000000000,-16.135152817,-72.233154297,0.000000000,-0.074999034,-19.093774796
1748263749.101555,31.591000000,0.000000000,-333.357879639,0.000000000,0.000000000,-16.135152817,-72.233154297,0.000000000,-0.074999034,-19.093544006
1748263749.103958,31.594000000,0.000000000,-333.357879639,0.000000000,0.000000000,-16.121652603,-74.909057617,0.000000000,-0.074999034,-19.093027115
1748263749.106383,31.596000000,0.000000000,-333.357879639,0.000000000,0.000000000,-16.121652603,-71.552490234,0.000000000,-0.074999034,-19.092838287
1748263749.108810,31.598000000,0.000000000,-333.357879639,0.000000000,0.000000000,-16.121652603,-71.552490234,0.000000000,-0.074999034,-19.092668533
1748263749.111207,31.601000000,0.000000000,-333.357879639,0.000000000,0.000000000,-16.121652603,-71.552490234,0.000000000,-0.074999034,-19.092515945
1748263749.113569,31.603000000,0.000000000,-333.357879639,0.000000000,0.000000000,-16.121652603,-71.552490234,0.000000000,-0.074999034,-19.092378616
1748263749.115948,31.606000000,0.000000000,-333.357879639,0.000000000,0.000000000,-16.121652603,-71.552490234,0.000000000,-0.074999034,-19.092256546
1748263749.118360,31.608000000,0.000000000,-333.357879639,0.000000000,0.000000000,-16.121652603,-71.552490234,0.000000000,-0.074999034,-19.092144012
1748263749.120773,31.610000000,0.000000000,-333.357879639,0.000000000,0.000000000,-16.121652603,-71.552490234,0.000000000,-0.074999034,-19.092044830
1748263749.123177,31.613000000,0.000000000,-333.357879639,0.000000000,0.000000000,-16.121652603,-71.552490234,0.000000000,-0.074999034,-19.091955185
1748263749.125612,31.615000000,0.000000000,-333.357879639,0.000000000,0.000000000,-16.121652603,-71.552490234,0.000000000,-0.074999034,-19.091873169
1748263749.128021,31.618000000,0.000000000,-333.357879639,0.000000000,0.000000000,-16.121652603,-71.552490234,0.000000000,-0.074999034,-19.091800690
1748263749.130424,31.620000000,0.000000000,-333.357879639,0.000000000,0.000000000,-16.121652603,-71.552490234,0.000000000,-0.074999034,-19.091735840
1748263749.132833,31.622000000,0.000000000,-333.357879639,0.000000000,0.000000000,-16.121652603,-71.552490234,0.000000000,-0.074999034,-19.091676712
1748263749.135293,31.625000000,0.000000000,-333.357879639,0.000000000,0.000000000,-16.135152817,-69.003173828,0.000000000,-0.074999034,-19.091930389
1748263749.137808,31.627000000,0.000000000,-333.357879639,0.000000000,0.000000000,-16.148654938,-69.675605774,0.000000000,-0.074999034,-19.092191696
1748263749.140248,31.630000000,0.000000000,-333.357879639,0.000000000,0.000000000,-16.148654938,-72.913917542,0.000000000,-0.074999034,-19.092147827
1748263749.142705,31.632000000,0.000000000,-333.357879639,0.000000000,0.000000000,-16.135152817,-75.467521667,0.000000000,-0.074999034,-19.091800690
1748263749.145179,31.635000000,0.000000000,-333.357879639,0.000000000,0.000000000,-16.135152817,-72.233154297,0.000000000,-0.074999034,-19.091766357
1748263749.147637,31.637000000,0.000000000,-333.357879639,0.000000000,0.000000000,-16.148654938,-69.693923950,0.000000000,-0.074999034,-19.092042923
1748263749.150104,31.640000000,0.000000000,-333.357879639,0.000000000,0.000000000,-16.148654938,-72.913917542,0.000000000,-0.074999034,-19.092014313
1748263749.152580,31.642000000,0.000000000,-333.357879639,0.000000000,0.000000000,-16.135152817,-75.480712891,0.000000000,-0.074999034,-19.091680527
1748263749.155078,31.645000000,0.000000000,-333.357879639,0.000000000,0.000000000,-16.135152817,-72.233154297,0.000000000,-0.074999034,-19.091657639
1748263749.157573,31.647000000,0.000000000,-333.357879639,0.000000000,0.000000000,-16.148654938,-69.737579346,0.000000000,-0.074999034,-19.091945648
1748263749.160010,31.650000000,0.000000000,-333.357879639,0.000000000,0.000000000,-16.148654938,-72.913917542,0.000000000,-0.074999034,-19.091926575
1748263749.162458,31.652000000,0.000000000,-333.357879639,0.000000000,0.000000000,-16.148654938,-72.913917542,0.000000000,-0.074999034,-19.091911316
1748263749.164937,31.655000000,0.000000000,-333.357879639,0.000000000,0.000000000,-16.148654938,-72.913917542,0.000000000,-0.074999034,-19.091896057
1748263749.167433,31.657000000,0.000000000,-333.357879639,0.000000000,0.000000000,-16.148654938,-72.913917542,0.000000000,-0.074999034,-19.091882706
1748263749.169892,31.660000000,0.000000000,-333.357879639,0.000000000,0.000000000,-16.148654938,-72.913917542,0.000000000,-0.074999034,-19.091869354
1748263749.172343,31.662000000,0.000000000,-333.357879639,0.000000000,0.000000000,-16.148654938,-72.913917542,0.000000000,-0.074999034,-19.091859818
1748263749.174809,31.664000000,0.000000000,-333.357879639,0.000000000,0.000000000,-16.148654938,-72.913917542,0.000000000,-0.074999034,-19.091848373
1748263749.177290,31.667000000,0.000000000,-333.357879639,0.000000000,0.000000000,-16.148654938,-72.913917542,0.000000000,-0.074999034,-19.091840744
1748263749.179771,31.669000000,0.000000000,-333.357879639,0.000000000,0.000000000,-16.148654938,-72.913917542,0.000000000,-0.074999034,-19.091833115
1748263749.182234,31.672000000,0.000000000,-333.357879639,0.000000000,0.000000000,-16.148654938,-72.913917542,0.000000000,-0.074999034,-19.091825485
1748263749.184687,31.674000000,0.000000000,-333.357879639,0.000000000,0.000000000,-16.148654938,-72.913917542,0.000000000,-0.074999034,-19.091819763
1748263749.187179,31.677000000,0.000000000,-333.357879639,0.000000000,0.000000000,-16.148654938,-72.913917542,0.000000000,-0.074999034,-19.091812134
1748263749.189627,31.679000000,0.000000000,-333.357879639,0.000000000,0.000000000,-16.148654938,-72.913917542,0.000000000,-0.074999034,-19.091808319
1748263749.192091,31.682000000,0.000000000,-333.357879639,0.000000000,0.000000000,-16.148654938,-72.913917542,0.000000000,-0.074999034,-19.091802597
1748263749.194547,31.684000000,0.000000000,-333.357879639,0.000000000,0.000000000,-16.148654938,-72.913917542,0.000000000,-0.074999034,-19.091798782
1748263749.197004,31.687000000,0.000000000,-333.357879639,0.000000000,0.000000000,-16.148654938,-72.913917542,0.000000000,-0.074999034,-19.091794968
1748263749.199528,31.689000000,0.000000000,-333.357879639,0.000000000,0.000000000,-16.148654938,-72.913917542,0.000000000,-0.074999034,-19.091791153
1748263749.201996,31.692000000,0.000000000,-333.357879639,0.000000000,0.000000000,-16.148654938,-72.913917542,0.000000000,-0.074999034,-19.091789246
1748263749.204494,31.694000000,0.000000000,-333.357879639,0.000000000,0.000000000,-16.148654938,-72.913917542,0.000000000,-0.074999034,-19.091785431
1748263749.207017,31.697000000,0.000000000,-333.357879639,0.000000000,0.000000000,-16.148654938,-72.913917542,0.000000000,-0.074999034,-19.091783524
1748263749.209468,31.699000000,0.000000000,-333.357879639,0.000000000,0.000000000,-16.148654938,-72.913917542,0.000000000,-0.074999034,-19.091781616
1748263749.212071,31.702000000,0.000000000,-333.357879639,0.000000000,0.000000000,-16.148654938,-72.913917542,0.000000000,-0.074999034,-19.091779709
1748263749.214467,31.704000000,0.000000000,-333.357879639,0.000000000,0.000000000,-16.148654938,-72.913917542,0.000000000,-0.074999034,-19.091777802
1748263749.216908,31.707000000,0.000000000,-333.357879639,0.000000000,0.000000000,-16.148654938,-72.913917542,0.000000000,-0.074999034,-19.091775894
1748263749.219349,31.709000000,0.000000000,-333.357879639,0.000000000,0.000000000,-16.148654938,-72.913917542,0.000000000,-0.074999034,-19.091773987
1748263749.221809,31.711000000,0.000000000,-333.357879639,0.000000000,0.000000000,-16.148654938,-72.913917542,0.000000000,-0.074999034,-19.091772079
1748263749.224258,31.714000000,0.000000000,-333.357879639,0.000000000,0.000000000,-16.148654938,-72.913917542,0.000000000,-0.074999034,-19.091772079
1748263749.226688,31.716000000,0.000000000,-333.357879639,0.000000000,0.000000000,-16.148654938,-72.913917542,0.000000000,-0.074999034,-19.091770172
1748263749.229148,31.719000000,0.000000000,-333.357879639,0.000000000,0.000000000,-16.148654938,-72.913917542,0.000000000,-0.074999034,-19.091770172
1748263749.231655,31.721000000,0.000000000,-333.357879639,0.000000000,0.000000000,-16.148654938,-72.913917542,0.000000000,-0.074999034,-19.091768265
1748263749.234195,31.724000000,0.000000000,-333.357879639,0.000000000,0.000000000,-16.148654938,-72.913917542,0.000000000,-0.074999034,-19.091768265
1748263749.236726,31.726000000,0.000000000,-333.357879639,0.000000000,0.000000000,-16.148654938,-72.913917542,0.000000000,-0.074999034,-19.091766357
1748263749.239168,31.729000000,0.000000000,-333.357879639,0.000000000,0.000000000,-16.148654938,-72.913917542,0.000000000,-0.074999034,-19.091766357
1748263749.241615,31.731000000,0.000000000,-333.357879639,0.000000000,0.000000000,-16.148654938,-72.913917542,0.000000000,-0.074999034,-19.091766357
1748263749.244078,31.734000000,0.000000000,-333.357879639,0.000000000,0.000000000,-16.148654938,-72.913917542,0.000000000,-0.074999034,-19.091764450
1748263749.246570,31.736000000,0.000000000,-333.357879639,0.000000000,0.000000000,-16.148654938,-72.913917542,0.000000000,-0.074999034,-19.091764450
1748263749.249060,31.739000000,0.000000000,-333.357879639,0.000000000,0.000000000,-16.148654938,-72.913917542,0.000000000,-0.074999034,-19.091764450
1748263749.251533,31.741000000,0.000000000,-333.357879639,0.000000000,0.000000000,-16.148654938,-72.913917542,0.000000000,-0.074999034,-19.091764450
1748263749.253967,31.744000000,0.000000000,-333.357879639,0.000000000,0.000000000,-16.148654938,-72.913917542,0.000000000,-0.084000528,-20.795373917
1748263749.256443,31.746000000,0.000000000,-333.357879639,0.000000000,0.000000000,-16.148654938,-72.913917542,0.000000000,-0.084000528,-20.854152679
1748263749.258884,31.749000000,0.000000000,-333.357879639,0.000000000,0.000000000,-16.148654938,-72.913917542,0.000000000,-0.084000528,-20.907052994
1748263749.261324,31.751000000,0.000000000,-333.357879639,0.000000000,0.000000000,-16.148654938,-72.913917542,0.000000000,-0.084000528,-20.954664230
1748263749.263866,31.753000000,0.000000000,-333.357879639,0.000000000,0.000000000,-16.148654938,-72.913917542,0.000000000,-0.084000528,-20.997512817
1748263749.266380,31.756000000,0.000000000,-333.357879639,0.000000000,0.000000000,-16.148654938,-72.913917542,0.000000000,-0.084000528,-21.036077499
1748263749.268865,31.758000000,0.000000000,-333.357879639,0.000000000,0.000000000,-16.148654938,-72.913917542,0.000000000,-0.074999034,-19.354301453
1748263749.271416,31.761000000,0.000000000,-333.357879639,0.000000000,0.000000000,-16.148654938,-72.913917542,0.000000000,-0.084000528,-21.033843994
1748263749.274017,31.764000000,0.000000000,-333.357879639,0.000000000,0.000000000,-16.148654938,-72.913917542,0.000000000,-0.074999034,-19.336982727
1748263749.276592,31.766000000,0.000000000,-333.357879639,0.000000000,0.000000000,-16.148654938,-72.913917542,0.000000000,-0.084000528,-21.043600082
1748263749.279185,31.769000000,0.000000000,-333.357879639,0.000000000,0.000000000,-16.148654938,-72.913917542,0.000000000,-0.084000528,-21.077554703
1748263749.281798,31.771000000,0.000000000,-333.357879639,0.000000000,0.000000000,-16.148654938,-72.913917542,0.000000000,-0.074999034,-19.375883102
1748263749.284356,31.774000000,0.000000000,-333.357879639,0.000000000,0.000000000,-16.148654938,-72.913917542,0.000000000,-0.084000528,-21.076662064
1748263749.286926,31.777000000,0.000000000,-333.357879639,0.000000000,0.000000000,-16.148654938,-72.913917542,0.000000000,-0.084000528,-21.107311249
1748263749.289506,31.779000000,0.000000000,-333.357879639,0.000000000,0.000000000,-16.148654938,-72.913917542,0.000000000,-0.084000528,-21.134897232
1748263749.291983,31.782000000,0.000000000,-333.357879639,0.000000000,0.000000000,-16.148654938,-72.913917542,0.000000000,-0.084000528,-21.159723282
1748263749.294435,31.784000000,0.000000000,-333.357879639,0.000000000,0.000000000,-16.148654938,-72.913917542,0.000000000,-0.084000528,-21.182065964
1748263749.296953,31.787000000,0.000000000,-333.357879639,0.000000000,0.000000000,-16.148654938,-72.913917542,0.000000000,-0.084000528,-21.202175140
1748263749.299464,31.789000000,0.000000000,-333.357879639,0.000000000,0.000000000,-16.148654938,-72.913917542,0.000000000,-0.084000528,-21.220273972
1748263749.301903,31.792000000,0.000000000,-333.357879639,0.000000000,0.000000000,-16.148654938,-72.913917542,0.000000000,-0.084000528,-21.236562729
1748263749.304324,31.794000000,0.000000000,-333.357879639,0.000000000,0.000000000,-16.148654938,-72.913917542,0.000000000,-0.084000528,-21.251222610
1748263749.306766,31.796000000,0.000000000,-333.357879639,0.000000000,0.000000000,-16.148654938,-72.913917542,0.000000000,-0.084000528,-21.264415741
1748263749.309207,31.799000000,0.000000000,-333.357879639,0.000000000,0.000000000,-16.148654938,-72.913917542,0.000000000,-0.084000528,-21.276290894
1748263749.311648,31.801000000,0.000000000,-333.357879639,0.000000000,0.000000000,-16.135152817,-75.499351501,0.000000000,-0.084000528,-21.286649704
1748263749.314154,31.804000000,0.000000000,-333.357879639,0.000000000,0.000000000,-16.135152817,-72.233154297,0.000000000,-0.084000528,-21.296266556
1748263749.316593,31.806000000,0.000000000,-333.357879639,0.000000000,0.000000000,-16.135152817,-72.233154297,0.000000000,-0.084000528,-21.304920197
1748263749.319005,31.809000000,0.000000000,-333.357879639,0.000000000,0.000000000,-16.135152817,-72.233154297,0.000000000,-0.084000528,-21.312709808
1748263749.321440,31.811000000,0.000000000,-333.357879639,0.000000000,0.000000000,-16.135152817,-72.233154297,0.000000000,-0.074999034,-19.623649597
1748263749.323866,31.814000000,0.000000000,-333.357879639,0.000000000,0.000000000,-16.135152817,-72.233154297,0.000000000,-0.084000528,-21.271820068
1748263749.326306,31.816000000,0.000000000,-333.357879639,0.000000000,0.000000000,-16.135152817,-72.233154297,0.000000000,-0.074999034,-19.586612701
1748263749.328763,31.818000000,0.000000000,-333.357879639,0.000000000,0.000000000,-16.135152817,-72.233154297,0.000000000,-0.084000528,-21.236068726
1748263749.331218,31.821000000,0.000000000,-333.357879639,0.000000000,0.000000000,-16.135152817,-72.233154297,0.000000000,-0.074999034,-19.548877716
1748263749.333694,31.823000000,0.000000000,-333.357879639,0.000000000,0.000000000,-16.135152817,-72.233154297,0.000000000,-0.084000528,-21.203548431
1748263749.336233,31.826000000,0.000000000,-333.357879639,0.000000000,0.000000000,-16.135152817,-72.233154297,0.000000000,-0.074999034,-19.515806198
1748263749.338677,31.828000000,0.000000000,-333.357879639,0.000000000,0.000000000,-16.135152817,-72.233154297,0.000000000,-0.084000528,-21.188806534
1748263749.341095,31.831000000,0.000000000,-333.357879639,0.000000000,0.000000000,-16.135152817,-72.233154297,0.000000000,-0.074999034,-19.509241104
1748263749.343596,31.833000000,0.000000000,-333.357879639,0.000000000,0.000000000,-16.135152817,-72.233154297,0.000000000,-0.084000528,-21.161043167
1748263749.346117,31.836000000,0.000000000,-333.357879639,0.000000000,0.000000000,-16.135152817,-72.233154297,0.000000000,-0.074999034,-19.473564148
1748263749.348657,31.838000000,0.000000000,-333.357879639,0.000000000,0.000000000,-16.135152817,-72.233154297,0.000000000,-0.084000528,-21.151466370
1748263749.351157,31.841000000,0.000000000,-333.357879639,0.000000000,0.000000000,-16.135152817,-72.233154297,0.000000000,-0.074999034,-19.452161789
1748263749.353643,31.843000000,0.000000000,-333.357879639,0.000000000,0.000000000,-16.135152817,-72.233154297,0.000000000,-0.084000528,-21.125501633
1748263749.356158,31.846000000,0.000000000,-333.357879639,0.000000000,0.000000000,-16.135152817,-72.233154297,0.000000000,-0.074999034,-19.436721802
1748263749.358666,31.848000000,0.000000000,-333.357879639,0.000000000,0.000000000,-16.135152817,-72.233154297,0.000000000,-0.084000528,-21.116468430
1748263749.361204,31.851000000,0.000000000,-333.357879639,0.000000000,0.000000000,-16.135152817,-72.233154297,0.000000000,-0.074999034,-19.426536560
1748263749.363672,31.853000000,0.000000000,-333.357879639,0.000000000,0.000000000,-16.135152817,-72.233154297,0.000000000,-0.084000528,-21.110271454
1748263749.366112,31.856000000,0.000000000,-333.357879639,0.000000000,0.000000000,-16.135152817,-72.233154297,0.000000000,-0.074999034,-19.433773041
1748263749.368635,31.858000000,0.000000000,-333.357879639,0.000000000,0.000000000,-16.135152817,-72.233154297,0.000000000,-0.074999034,-19.399539948
1748263749.371155,31.861000000,0.000000000,-333.357879639,0.000000000,0.000000000,-16.135152817,-72.233154297,0.000000000,-0.074999034,-19.368730545
1748263749.373655,31.863000000,0.000000000,-333.357879639,0.000000000,0.000000000,-16.135152817,-72.233154297,0.000000000,-0.074999034,-19.341003418
1748263749.376186,31.866000000,0.000000000,-333.357879639,0.000000000,0.000000000,-16.135152817,-72.233154297,0.000000000,-0.074999034,-19.316047668
1748263749.378732,31.868000000,0.000000000,-333.357879639,0.000000000,0.000000000,-16.135152817,-72.233154297,0.000000000,-0.074999034,-19.293588638
1748263749.381159,31.871000000,0.000000000,-333.357879639,0.000000000,0.000000000,-16.135152817,-72.233154297,0.000000000,-0.074999034,-19.273374557
1748263749.383589,31.873000000,0.000000000,-333.357879639,0.000000000,0.000000000,-16.135152817,-72.233154297,0.000000000,-0.074999034,-19.255182266
1748263749.386084,31.876000000,0.000000000,-333.357879639,0.000000000,0.000000000,-16.135152817,-72.233154297,0.000000000,-0.074999034,-19.238809586
1748263749.388528,31.878000000,0.000000000,-333.357879639,0.000000000,0.000000000,-16.135152817,-72.233154297,0.000000000,-0.074999034,-19.224073410
1748263749.391004,31.881000000,0.000000000,-333.357879639,0.000000000,0.000000000,-16.135152817,-72.233154297,0.000000000,-0.074999034,-19.210811615
1748263749.393432,31.883000000,0.000000000,-333.357879639,0.000000000,0.000000000,-16.135152817,-72.233154297,0.000000000,-0.074999034,-19.198875427
1748263749.395864,31.886000000,0.000000000,-333.357879639,0.000000000,0.000000000,-16.135152817,-72.233154297,0.000000000,-0.074999034,-19.188133240
1748263749.398325,31.888000000,0.000000000,-333.357879639,0.000000000,0.000000000,-16.135152817,-72.233154297,0.000000000,-0.074999034,-19.178464890
1748263749.400804,31.890000000,0.000000000,-333.357879639,0.000000000,0.000000000,-16.135152817,-72.233154297,0.000000000,-0.074999034,-19.169763565
1748263749.403280,31.893000000,0.000000000,-333.357879639,0.000000000,0.000000000,-16.135152817,-72.233154297,0.000000000,-0.074999034,-19.161931992
1748263749.405697,31.895000000,0.000000000,-333.357879639,0.000000000,0.000000000,-16.135152817,-72.233154297,0.000000000,-0.074999034,-19.154884338
1748263749.408096,31.898000000,0.000000000,-333.357879639,0.000000000,0.000000000,-16.135152817,-72.233154297,0.000000000,-0.074999034,-19.148540497
1748263749.410519,31.900000000,0.000000000,-333.357879639,0.000000000,0.000000000,-16.135152817,-72.233154297,0.000000000,-0.074999034,-19.142831802
1748263749.412887,31.902000000,0.000000000,-333.357879639,0.000000000,0.000000000,-16.135152817,-72.233154297,0.000000000,-0.074999034,-19.137693405
1748263749.415253,31.905000000,0.000000000,-333.357879639,0.000000000,0.000000000,-16.135152817,-72.233154297,0.000000000,-0.074999034,-19.133069992
1748263749.417640,31.907000000,0.000000000,-333.357879639,0.000000000,0.000000000,-16.135152817,-72.233154297,0.000000000,-0.074999034,-19.128908157
1748263749.420051,31.910000000,0.000000000,-333.357879639,0.000000000,0.000000000,-16.135152817,-72.233154297,0.000000000,-0.074999034,-19.125162125
1748263749.422418,31.912000000,0.000000000,-333.357879639,0.000000000,0.000000000,-16.135152817,-72.233154297,0.000000000,-0.074999034,-19.121791840
1748263749.424805,31.914000000,0.000000000,-333.357879639,0.000000000,0.000000000,-16.135152817,-72.233154297,0.000000000,-0.074999034,-19.118757248
1748263749.427160,31.917000000,0.000000000,-333.357879639,0.000000000,0.000000000,-16.135152817,-72.233154297,0.000000000,-0.074999034,-19.116025925
1748263749.429547,31.919000000,0.000000000,-333.357879639,0.000000000,0.000000000,-16.135152817,-72.233154297,0.000000000,-0.074999034,-19.113569260
1748263749.431963,31.922000000,0.000000000,-333.357879639,0.000000000,0.000000000,-16.135152817,-72.233154297,0.000000000,-0.074999034,-19.111356735
1748263749.434391,31.924000000,0.000000000,-333.357879639,0.000000000,0.000000000,-16.135152817,-72.233154297,0.000000000,-0.074999034,-19.109367371
1748263749.436834,31.926000000,0.000000000,-333.357879639,0.000000000,0.000000000,-16.135152817,-72.233154297,0.000000000,-0.074999034,-19.107574463
1748263749.439185,31.929000000,0.000000000,-333.357879639,0.000000000,0.000000000,-16.135152817,-72.233154297,0.000000000,-0.074999034,-19.105962753
1748263749.441556,31.931000000,0.000000000,-333.357879639,0.000000000,0.000000000,-16.135152817,-72.233154297,0.000000000,-0.074999034,-19.104511261
1748263749.443909,31.934000000,0.000000000,-333.357879639,0.000000000,0.000000000,-16.135152817,-72.233154297,0.000000000,-0.074999034,-19.103206635
1748263749.446305,31.936000000,0.000000000,-333.357879639,0.000000000,0.000000000,-16.135152817,-72.233154297,0.000000000,-0.074999034,-19.102029800
1748263749.448711,31.938000000,0.000000000,-333.357879639,0.000000000,0.000000000,-16.135152817,-72.233154297,0.000000000,-0.074999034,-19.100973129
1748263749.451116,31.941000000,0.000000000,-333.357879639,0.000000000,0.000000000,-16.135152817,-72.233154297,0.000000000,-0.074999034,-19.100021362
1748263749.453491,31.943000000,0.000000000,-333.357879639,0.000000000,0.000000000,-16.135152817,-72.233154297,0.000000000,-0.074999034,-19.099163055
1748263749.455884,31.946000000,0.000000000,-333.357879639,0.000000000,0.000000000,-16.135152817,-72.233154297,0.000000000,-0.074999034,-19.098392487
1748263749.458284,31.948000000,0.000000000,-333.357879639,0.000000000,0.000000000,-16.135152817,-72.233154297,0.000000000,-0.074999034,-19.097698212
1748263749.460652,31.950000000,0.000000000,-333.357879639,0.000000000,0.000000000,-16.135152817,-72.233154297,0.000000000,-0.074999034,-19.097074509
1748263749.463135,31.953000000,0.000000000,-333.357879639,0.000000000,0.000000000,-16.135152817,-72.233154297,0.000000000,-0.074999034,-19.096511841
1748263749.465467,31.955000000,0.000000000,-333.357879639,0.000000000,0.000000000,-16.135152817,-72.233154297,0.000000000,-0.074999034,-19.096006393
1748263749.467861,31.957000000,0.000000000,-333.357879639,0.000000000,0.000000000,-16.135152817,-72.233154297,0.000000000,-0.074999034,-19.095550537
1748263749.470248,31.960000000,0.000000000,-333.357879639,0.000000000,0.000000000,-16.135152817,-72.233154297,0.000000000,-0.074999034,-19.095140457
1748263749.472647,31.962000000,0.000000000,-333.357879639,0.000000000,0.000000000,-16.135152817,-72.233154297,0.000000000,-0.074999034,-19.094770432
1748263749.475085,31.965000000,0.000000000,-333.357879639,0.000000000,0.000000000,-16.135152817,-72.233154297,0.000000000,-0.074999034,-19.094438553
1748263749.477481,31.967000000,0.000000000,-333.357879639,0.000000000,0.000000000,-16.135152817,-72.233154297,0.000000000,-0.074999034,-19.094141006
1748263749.479982,31.969000000,0.000000000,-333.357879639,0.000000000,0.000000000,-16.135152817,-72.233154297,0.000000000,-0.074999034,-19.093872070
1748263749.482387,31.972000000,0.000000000,-333.357879639,0.000000000,0.000000000,-16.135152817,-72.233154297,0.000000000,-0.074999034,-19.093629837
1748263749.484854,31.974000000,0.000000000,-333.357879639,0.000000000,0.000000000,-16.135152817,-72.233154297,0.000000000,-0.074999034,-19.093412399
1748263749.487327,31.977000000,0.000000000,-333.357879639,0.000000000,0.000000000,-16.135152817,-72.233154297,0.000000000,-0.074999034,-19.093215942
1748263749.489657,31.979000000,0.000000000,-333.357879639,0.000000000,0.000000000,-16.135152817,-72.233154297,0.000000000,-0.074999034,-19.093038559
1748263749.492075,31.982000000,0.000000000,-333.357879639,0.000000000,0.000000000,-16.135152817,-72.233154297,0.000000000,-0.074999034,-19.092880249
1748263749.494464,31.984000000,0.000000000,-333.357879639,0.000000000,0.000000000,-16.135152817,-72.233154297,0.000000000,-0.074999034,-19.092737198
1748263749.496916,31.987000000,0.000000000,-333.357879639,0.000000000,0.000000000,-16.135152817,-72.233154297,0.000000000,-0.074999034,-19.092609406
1748263749.499344,31.989000000,0.000000000,-333.357879639,0.000000000,0.000000000,-16.135152817,-72.233154297,0.000000000,-0.074999034,-19.092493057
1748263749.501768,31.991000000,0.000000000,-333.357879639,0.000000000,0.000000000,-16.135152817,-72.233154297,0.000000000,-0.074999034,-19.092390060
1748263749.504248,31.994000000,0.000000000,-333.357879639,0.000000000,0.000000000,-16.135152817,-72.233154297,0.000000000,-0.074999034,-19.092294693
1748263749.506702,31.996000000,0.000000000,-333.357879639,0.000000000,0.000000000,-16.135152817,-72.233154297,0.000000000,-0.074999034,-19.092210770
1748263749.509180,31.999000000,0.000000000,-333.357879639,0.000000000,0.000000000,-16.135152817,-72.233154297,0.000000000,-0.074999034,-19.092134476
1748263749.511695,32.001000000,0.000000000,-333.357879639,0.000000000,0.000000000,-16.135152817,-72.233154297,0.000000000,-0.074999034,-19.092067719
1748263749.514107,32.004000000,0.000000000,-333.357879639,0.000000000,0.000000000,-16.135152817,-72.233154297,0.000000000,-0.074999034,-19.092004776
1748263749.516519,32.006000000,0.000000000,-333.357879639,0.000000000,0.000000000,-16.135152817,-72.233154297,0.000000000,-0.074999034,-19.091949463
1748263749.518910,32.009000000,0.000000000,-333.357879639,0.000000000,0.000000000,-16.135152817,-72.233154297,0.000000000,-0.074999034,-19.091899872
1748263749.521327,32.011000000,0.000000000,-333.357879639,0.000000000,0.000000000,-16.135152817,-72.233154297,0.000000000,-0.074999034,-19.091856003
1748263749.523716,32.013000000,0.000000000,-333.357879639,0.000000000,0.000000000,-16.135152817,-72.233154297,0.000000000,-0.074999034,-19.091814041
1748263749.526122,32.016000000,0.000000000,-333.357879639,0.000000000,0.000000000,-16.135152817,-72.233154297,0.000000000,-0.074999034,-19.091777802
1748263749.528533,32.018000000,0.000000000,-333.357879639,0.000000000,0.000000000,-16.135152817,-72.233154297,0.000000000,-0.074999034,-19.091745377
1748263749.530978,32.021000000,0.000000000,-333.357879639,0.000000000,0.000000000,-16.135152817,-72.233154297,0.000000000,-0.074999034,-19.091716766
1748263749.533406,32.023000000,0.000000000,-333.357879639,0.000000000,0.000000000,-16.135152817,-72.233154297,0.000000000,-0.074999034,-19.091690063
1748263749.535813,32.025000000,0.000000000,-333.357879639,0.000000000,0.000000000,-16.135152817,-72.233154297,0.000000000,-0.074999034,-19.091665268
1748263749.538179,32.028000000,0.000000000,-333.357879639,0.000000000,0.000000000,-16.135152817,-72.233154297,0.000000000,-0.074999034,-19.091644287
1748263749.540687,32.030000000,0.000000000,-333.357879639,0.000000000,0.000000000,-16.135152817,-72.233154297,0.000000000,-0.074999034,-19.091625214
1748263749.543137,32.033000000,0.000000000,-333.357879639,0.000000000,0.000000000,-16.135152817,-72.233154297,0.000000000,-0.074999034,-19.091608047
1748263749.545769,32.035000000,0.000000000,-333.357879639,0.000000000,0.000000000,-16.135152817,-72.233154297,0.000000000,-0.074999034,-19.091592789
1748263749.548327,32.038000000,0.000000000,-333.357879639,0.000000000,0.000000000,-16.135152817,-72.233154297,0.000000000,-0.074999034,-19.091577530
1748263749.550883,32.040000000,0.000000000,-333.357879639,0.000000000,0.000000000,-16.135152817,-72.233154297,0.000000000,-0.074999034,-19.091566086
1748263749.553457,32.043000000,0.000000000,-333.357879639,0.000000000,0.000000000,-16.135152817,-72.233154297,0.000000000,-0.074999034,-19.091554642
1748263749.556039,32.046000000,0.000000000,-333.357879639,0.000000000,0.000000000,-16.135152817,-72.233154297,0.000000000,-0.074999034,-19.091543198
1748263749.558575,32.048000000,0.000000000,-333.357879639,0.000000000,0.000000000,-16.135152817,-72.233154297,0.000000000,-0.074999034,-19.091535568
1748263749.561125,32.051000000,0.000000000,-333.357879639,0.000000000,0.000000000,-16.135152817,-72.233154297,0.000000000,-0.074999034,-19.091526031
1748263749.563619,32.053000000,0.000000000,-333.357879639,0.000000000,0.000000000,-16.135152817,-72.233154297,0.000000000,-0.074999034,-19.091518402
1748263749.566082,32.056000000,0.000000000,-333.357879639,0.000000000,0.000000000,-16.135152817,-72.233154297,0.000000000,-0.074999034,-19.091512680
1748263749.568468,32.058000000,0.000000000,-333.357879639,0.000000000,0.000000000,-16.135152817,-72.233154297,0.000000000,-0.074999034,-19.091506958
1748263749.570851,32.060000000,0.000000000,-333.357879639,0.000000000,0.000000000,-16.135152817,-72.233154297,0.000000000,-0.074999034,-19.091501236
1748263749.573242,32.063000000,0.000000000,-333.357879639,0.000000000,0.000000000,-16.135152817,-72.233154297,0.000000000,-0.074999034,-19.091495514
1748263749.575657,32.065000000,0.000000000,-333.357879639,0.000000000,0.000000000,-16.135152817,-72.233154297,0.000000000,-0.074999034,-19.091491699
1748263749.578116,32.068000000,0.000000000,-333.357879639,0.000000000,0.000000000,-16.135152817,-72.233154297,0.000000000,-0.074999034,-19.091487885
1748263749.580482,32.070000000,0.000000000,-333.357879639,0.000000000,0.000000000,-16.135152817,-72.233154297,0.000000000,-0.074999034,-19.091484070
1748263749.582916,32.073000000,0.000000000,-333.357879639,0.000000000,0.000000000,-16.135152817,-72.233154297,0.000000000,-0.074999034,-19.091480255
1748263749.585313,32.075000000,0.000000000,-333.357879639,0.000000000,0.000000000,-16.135152817,-72.233154297,0.000000000,-0.074999034,-19.091478348
1748263749.587694,32.077000000,0.000000000,-333.357879639,0.000000000,0.000000000,-16.135152817,-42.233154297,0.000000000,-0.074999034,-19.091474533
1748263749.590082,32.080000000,0.000000000,-333.357879639,0.000000000,0.000000000,-16.202655792,-28.944732666,0.000000000,-0.074999034,-19.093015671
1748263749.592485,32.082000000,0.000000000,-333.357879639,0.000000000,0.000000000,-16.324157715,-21.805976868,0.000000000,-0.074999034,-19.095790863
1748263749.594927,32.085000000,0.000000000,-333.357879639,0.000000000,0.000000000,-16.405160904,-35.900138855,0.000000000,-0.074999034,-19.097640991
1748263749.597309,32.087000000,0.000000000,-333.357879639,0.000000000,0.000000000,-16.405160904,-55.846664429,0.000000000,-0.084000528,-20.788965225
1748263749.599697,32.089000000,0.000000000,-333.357879639,0.000000000,0.000000000,-16.364658356,-63.794746399,0.000000000,-0.084000528,-20.848297119
1748263749.602174,32.092000000,0.000000000,-333.357879639,0.000000000,0.000000000,-16.337657928,-59.111404419,0.000000000,-0.084000528,-20.901821136
1748263749.604620,32.094000000,0.000000000,-333.357879639,0.000000000,0.000000000,-16.351158142,-49.880783081,0.000000000,-0.084000528,-20.950704575
1748263749.607110,32.097000000,0.000000000,-333.357879639,0.000000000,0.000000000,-16.405160904,-42.910560608,0.000000000,-0.092999339,-22.696168900
1748263749.609661,32.099000000,0.000000000,-333.357879639,0.000000000,0.000000000,-16.432161331,-50.823127747,0.000000000,-0.092999339,-22.795108795
1748263749.612108,32.102000000,0.000000000,-333.357879639,0.000000000,0.000000000,-16.432161331,-57.208000183,0.000000000,-0.092999339,-22.883789063
1748263749.614492,32.104000000,0.000000000,-333.357879639,0.000000000,0.000000000,-16.418659210,-59.749832153,0.000000000,-0.092999339,-22.963346481
1748263749.616902,32.107000000,0.000000000,-333.357879639,0.000000000,0.000000000,-16.432161331,-53.865051270,0.000000000,-0.092999339,-23.035429001
1748263749.619322,32.109000000,0.000000000,-333.357879639,0.000000000,0.000000000,-16.472661972,-49.339012146,0.000000000,-0.092999339,-23.100906372
1748263749.621703,32.111000000,0.000000000,-333.357879639,0.000000000,0.000000000,-16.513162613,-51.393325806,0.000000000,-0.092999339,-23.159980774
1748263749.624211,32.114000000,0.000000000,-333.357879639,0.000000000,0.000000000,-16.513162613,-61.291992188,0.000000000,-0.084000528,-21.528785706
1748263749.626621,32.116000000,0.000000000,-333.357879639,0.000000000,0.000000000,-16.499662399,-63.815322876,0.000000000,-0.084000528,-21.514789581
1748263749.629019,32.119000000,0.000000000,-333.357879639,0.000000000,0.000000000,-16.499662399,-60.611328125,0.000000000,-0.084000528,-21.502525330
1748263749.631428,32.121000000,0.000000000,-333.357879639,0.000000000,0.000000000,-16.513162613,-57.974571228,0.000000000,-0.084000528,-21.491847992
1748263749.633859,32.123000000,0.000000000,-333.357879639,0.000000000,0.000000000,-16.540163040,-56.054214478,0.000000000,-0.084000528,-21.482635498
