liamjosephnolan/thesis_matlab/pitch_prbs_response/prbs_roll_20_pitch_0.csv
__time,/psm_joint_telemetry/header/stamp,/psm_joint_telemetry/insertion/effort,/psm_joint_telemetry/insertion/position,/psm_joint_telemetry/insertion/velocity,/psm_joint_telemetry/pitch/effort,/psm_joint_telemetry/pitch/position,/psm_joint_telemetry/pitch/velocity,/psm_joint_telemetry/roll/effort,/psm_joint_telemetry/roll/position,/psm_joint_telemetry/roll/velocity
1748602217.151320,40.443000000,0.000000000,0.000000000,0.000000000,0.000000000,-2.418809891,-58.577537537,0.000000000,19.887001038,-27.504528046
1748602217.153823,40.445000000,0.000000000,0.000000000,0.000000000,0.000000000,-2.418809891,-58.577537537,0.000000000,19.887001038,-27.504528046
1748602217.156171,40.448000000,0.000000000,0.000000000,0.000000000,0.000000000,-2.432312012,-56.872619629,0.000000000,19.887001038,-27.505464554
1748602217.158606,40.450000000,0.000000000,0.000000000,0.000000000,0.000000000,-2.432312012,-58.988258362,0.000000000,19.887001038,-27.505462646
1748602217.161001,40.453000000,0.000000000,0.000000000,0.000000000,0.000000000,-2.432312012,-58.988258362,0.000000000,19.887001038,-27.505462646
1748602217.163403,40.455000000,0.000000000,0.000000000,0.000000000,0.000000000,-2.432312012,-58.988258362,0.000000000,19.887001038,-27.505462646
1748602217.165791,40.457000000,0.000000000,0.000000000,0.000000000,0.000000000,-2.432312012,-58.988258362,0.000000000,19.887001038,-27.505460739
1748602217.168177,40.460000000,0.000000000,0.000000000,0.000000000,0.000000000,-2.432312012,-58.988258362,0.000000000,19.887001038,-27.505460739
1748602217.170606,40.462000000,0.000000000,0.000000000,0.000000000,0.000000000,-2.432312012,-58.988258362,0.000000000,19.887001038,-27.505460739
1748602217.173032,40.465000000,0.000000000,0.000000000,0.000000000,0.000000000,-2.432312012,-58.988258362,0.000000000,19.887001038,-27.505460739
1748602217.175495,40.467000000,0.000000000,0.000000000,0.000000000,0.000000000,-2.432312012,-58.988258362,0.000000000,19.887001038,-27.505460739
1748602217.177947,40.469000000,0.000000000,0.000000000,0.000000000,0.000000000,-2.459311247,-55.520454407,0.000000000,19.887001038,-27.507331848
1748602217.180314,40.472000000,0.000000000,0.000000000,0.000000000,0.000000000,-2.513312101,-52.713462830,0.000000000,19.887001038,-27.511075974
1748602217.182785,40.474000000,0.000000000,0.000000000,0.000000000,0.000000000,-2.526814461,-59.649414063,0.000000000,19.887001038,-27.512012482
1748602217.185240,40.477000000,0.000000000,0.000000000,0.000000000,0.000000000,-2.513312101,-63.600662231,0.000000000,19.887001038,-27.511075974
1748602217.187658,40.479000000,0.000000000,0.000000000,0.000000000,0.000000000,-2.513312101,-61.452186584,0.000000000,19.887001038,-27.511075974
1748602217.190079,40.482000000,0.000000000,0.000000000,0.000000000,0.000000000,-2.513312101,-61.452186584,0.000000000,19.887001038,-27.511075974
1748602217.192422,40.484000000,0.000000000,0.000000000,0.000000000,0.000000000,-2.540313959,-57.971786499,0.000000000,19.887001038,-27.512950897
1748602217.194839,40.486000000,0.000000000,0.000000000,0.000000000,0.000000000,-2.580815315,-56.815376282,0.000000000,19.887001038,-27.515760422
1748602217.197242,40.489000000,0.000000000,0.000000000,0.000000000,0.000000000,-2.594314814,-61.733444214,0.000000000,19.887001038,-27.516695023
1748602217.199926,40.491000000,0.000000000,0.000000000,0.000000000,0.000000000,-2.594314814,-63.916198730,0.000000000,19.887001038,-27.516695023
1748602217.202258,40.494000000,0.000000000,0.000000000,0.000000000,0.000000000,-2.594314814,-63.916198730,0.000000000,19.887001038,-27.516693115
1748602217.204609,40.496000000,0.000000000,0.000000000,0.000000000,0.000000000,-2.607814312,-62.079811096,0.000000000,19.887001038,-27.517629623
1748602217.207052,40.499000000,0.000000000,0.000000000,0.000000000,0.000000000,-2.621316671,-62.498657227,0.000000000,19.887001038,-27.518566132
1748602217.209394,40.501000000,0.000000000,0.000000000,0.000000000,0.000000000,-2.634816170,-62.961830139,0.000000000,19.887001038,-27.519502640
1748602217.211787,40.503000000,0.000000000,0.000000000,0.000000000,0.000000000,-2.648315668,-63.335533142,0.000000000,19.887001038,-27.520439148
1748602217.214160,40.506000000,0.000000000,0.000000000,0.000000000,0.000000000,-2.648315668,-65.558845520,0.000000000,19.887001038,-27.520439148
1748602217.216485,40.508000000,0.000000000,0.000000000,0.000000000,0.000000000,-2.661815166,-63.748054504,0.000000000,19.887001038,-27.521375656
1748602217.218862,40.510000000,0.000000000,0.000000000,0.000000000,0.000000000,-2.688817024,-62.278976440,0.000000000,19.887001038,-27.523248672
1748602217.221240,40.513000000,0.000000000,0.000000000,0.000000000,0.000000000,-2.715818882,-63.187545776,0.000000000,19.887001038,-27.525121689
1748602217.223611,40.515000000,0.000000000,0.000000000,0.000000000,0.000000000,-2.715818882,-67.612220764,0.000000000,19.887001038,-27.525121689
1748602217.225991,40.518000000,0.000000000,0.000000000,0.000000000,0.000000000,-2.715818882,-67.612220764,0.000000000,19.896001816,-25.558603287
1748602217.228359,40.520000000,0.000000000,0.000000000,0.000000000,0.000000000,-2.715818882,-67.612220764,0.000000000,19.887001038,-27.503337860
1748602217.230736,40.522000000,0.000000000,0.000000000,0.000000000,0.000000000,-2.742817879,-63.992500305,0.000000000,19.896001816,-25.540952682
1748602217.233118,40.525000000,0.000000000,0.000000000,0.000000000,0.000000000,-2.756320238,-66.621383667,0.000000000,19.887001038,-27.487218857
1748602217.235479,40.527000000,0.000000000,0.000000000,0.000000000,0.000000000,-2.769819736,-67.044624329,0.000000000,19.896001816,-25.524738312
1748602217.237854,40.529000000,0.000000000,0.000000000,0.000000000,0.000000000,-2.769819736,-69.254867554,0.000000000,19.887001038,-27.472166061
1748602217.240228,40.532000000,0.000000000,0.000000000,0.000000000,0.000000000,-2.769819736,-69.254867554,0.000000000,19.896001816,-25.511606216
1748602217.242609,40.534000000,0.000000000,0.000000000,0.000000000,0.000000000,-2.783319473,-67.447776794,0.000000000,19.887001038,-27.461542130
1748602217.245037,40.537000000,0.000000000,0.000000000,0.000000000,0.000000000,-2.810321093,-66.060379028,0.000000000,19.896001816,-25.503105164
1748602217.247391,40.539000000,0.000000000,0.000000000,0.000000000,0.000000000,-2.823820591,-68.696510315,0.000000000,19.896001816,-25.487535477
1748602217.249772,40.541000000,0.000000000,0.000000000,0.000000000,0.000000000,-2.823820591,-70.897514343,0.000000000,19.896001816,-25.472705841
1748602217.252171,40.544000000,0.000000000,0.000000000,0.000000000,0.000000000,-2.823820591,-70.897514343,0.000000000,19.896001816,-25.459356308
1748602217.254568,40.546000000,0.000000000,0.000000000,0.000000000,0.000000000,-2.823820591,-70.897514343,0.000000000,19.896001816,-25.447343826
1748602217.256955,40.549000000,0.000000000,0.000000000,0.000000000,0.000000000,-2.837320328,-69.114448547,0.000000000,19.896001816,-25.437423706
1748602217.259330,40.551000000,0.000000000,0.000000000,0.000000000,0.000000000,-2.877821684,-65.920082092,0.000000000,19.896001816,-25.430356979
1748602217.261757,40.553000000,0.000000000,0.000000000,0.000000000,0.000000000,-2.904823303,-68.931304932,0.000000000,19.896001816,-25.423360825
1748602217.264226,40.556000000,0.000000000,0.000000000,0.000000000,0.000000000,-2.918323040,-71.616203308,0.000000000,19.896001816,-25.416347504
1748602217.266617,40.558000000,0.000000000,0.000000000,0.000000000,0.000000000,-2.918323040,-73.772178650,0.000000000,19.896001816,-25.409238815
1748602217.269085,40.561000000,0.000000000,0.000000000,0.000000000,0.000000000,-2.918323040,-73.772178650,0.000000000,19.896001816,-25.402841568
1748602217.271553,40.563000000,0.000000000,0.000000000,0.000000000,0.000000000,-2.918323040,-73.772178650,0.000000000,19.896001816,-25.397083282
1748602217.273972,40.565000000,0.000000000,0.000000000,0.000000000,0.000000000,-2.931822538,-72.025993347,0.000000000,19.896001816,-25.392776489
1748602217.276434,40.568000000,0.000000000,0.000000000,0.000000000,0.000000000,-2.931822538,-74.182815552,0.000000000,19.896001816,-25.388113022
1748602217.278862,40.570000000,0.000000000,0.000000000,0.000000000,0.000000000,-2.931822538,-74.182815552,0.000000000,19.896001816,-25.383913040
1748602217.281305,40.573000000,0.000000000,0.000000000,0.000000000,0.000000000,-2.931822538,-74.182815552,0.000000000,19.896001816,-25.380134583
1748602217.283735,40.575000000,0.000000000,0.000000000,0.000000000,0.000000000,-2.931822538,-74.182815552,0.000000000,19.896001816,-25.376733780
1748602217.286122,40.578000000,0.000000000,0.000000000,0.000000000,0.000000000,-2.945324898,-72.422927856,0.000000000,19.896001816,-25.374542236
1748602217.288531,40.580000000,0.000000000,0.000000000,0.000000000,0.000000000,-2.972323895,-71.009132385,0.000000000,19.896001816,-25.373525620
1748602217.290946,40.582000000,0.000000000,0.000000000,0.000000000,0.000000000,-2.985823393,-73.648124695,0.000000000,19.896001816,-25.371913910
1748602217.293400,40.585000000,0.000000000,0.000000000,0.000000000,0.000000000,-3.026324749,-70.508743286,0.000000000,19.896001816,-25.372283936
1748602217.295766,40.587000000,0.000000000,0.000000000,0.000000000,0.000000000,-3.053326607,-73.562965393,0.000000000,19.896001816,-25.372007370
1748602217.298223,40.590000000,0.000000000,0.000000000,0.000000000,0.000000000,-3.066826105,-76.066162109,0.000000000,19.896001816,-25.371061325
1748602217.300695,40.592000000,0.000000000,0.000000000,0.000000000,0.000000000,-3.066826105,-78.289474487,0.000000000,19.896001816,-25.369430542
1748602217.303248,40.595000000,0.000000000,0.000000000,0.000000000,0.000000000,-3.080325603,-76.575492859,0.000000000,19.896001816,-25.368827820
1748602217.305661,40.597000000,0.000000000,0.000000000,0.000000000,0.000000000,-3.093827963,-77.031913757,0.000000000,19.887001038,-27.349449158
1748602217.308072,40.600000000,0.000000000,0.000000000,0.000000000,0.000000000,-3.120827198,-75.655242920,0.000000000,19.896001816,-25.396633148
1748602217.310503,40.602000000,0.000000000,0.000000000,0.000000000,0.000000000,-3.134329319,-78.157859802,0.000000000,19.887001038,-27.363775253
1748602217.312959,40.604000000,0.000000000,0.000000000,0.000000000,0.000000000,-3.134329319,-80.342849731,0.000000000,19.887001038,-27.382812500
1748602217.315340,40.607000000,0.000000000,0.000000000,0.000000000,0.000000000,-3.134329319,-80.342849731,0.000000000,19.887001038,-27.399946213
1748602217.317742,40.609000000,0.000000000,0.000000000,0.000000000,0.000000000,-3.147828817,-78.585113525,0.000000000,19.887001038,-27.416261673
1748602217.320121,40.612000000,0.000000000,0.000000000,0.000000000,0.000000000,-3.174830675,-77.155746460,0.000000000,19.887001038,-27.431940079
1748602217.322505,40.614000000,0.000000000,0.000000000,0.000000000,0.000000000,-3.201829910,-77.984870911,0.000000000,19.887001038,-27.446247101
1748602217.324897,40.616000000,0.000000000,0.000000000,0.000000000,0.000000000,-3.215329409,-80.604858398,0.000000000,19.887001038,-27.458414078
1748602217.327270,40.619000000,0.000000000,0.000000000,0.000000000,0.000000000,-3.215329409,-82.806785583,0.000000000,19.887001038,-27.468549728
1748602217.329647,40.621000000,0.000000000,0.000000000,0.000000000,0.000000000,-3.215329409,-82.806785583,0.000000000,19.887001038,-27.477670670
1748602217.331996,40.624000000,0.000000000,0.000000000,0.000000000,0.000000000,-3.228831530,-80.994689941,0.000000000,19.887001038,-27.486795425
1748602217.334392,40.626000000,0.000000000,0.000000000,0.000000000,0.000000000,-3.255830765,-79.595878601,0.000000000,19.887001038,-27.496019363
1748602217.336776,40.628000000,0.000000000,0.000000000,0.000000000,0.000000000,-3.242331028,-85.831954956,0.000000000,19.887001038,-27.501756668
1748602217.339148,40.631000000,0.000000000,0.000000000,0.000000000,0.000000000,-3.242331028,-83.628143311,0.000000000,19.887001038,-27.507745743
1748602217.341554,40.633000000,0.000000000,0.000000000,0.000000000,0.000000000,-3.255830765,-81.828506470,0.000000000,19.887001038,-27.514057159
1748602217.343978,40.636000000,0.000000000,0.000000000,0.000000000,0.000000000,-3.255830765,-84.038787842,0.000000000,19.887001038,-27.518909454
1748602217.346339,40.638000000,0.000000000,0.000000000,0.000000000,0.000000000,-3.242331028,-85.812751770,0.000000000,19.887001038,-27.522352219
1748602217.348784,40.640000000,0.000000000,0.000000000,0.000000000,0.000000000,-3.242331028,-83.628143311,0.000000000,19.887001038,-27.526281357
1748602217.351166,40.643000000,0.000000000,0.000000000,0.000000000,0.000000000,-3.255830765,-81.886337280,0.000000000,19.887001038,-27.530744553
1748602217.353544,40.645000000,0.000000000,0.000000000,0.000000000,0.000000000,-3.242331028,-85.854316711,0.000000000,19.887001038,-27.532999039
1748602217.355940,40.647000000,0.000000000,0.000000000,0.000000000,0.000000000,-3.242331028,-83.628143311,0.000000000,19.887001038,-27.535863876
1748602217.358328,40.650000000,0.000000000,0.000000000,0.000000000,0.000000000,-3.255830765,-81.837745667,0.000000000,19.887001038,-27.539371490
1748602217.360721,40.652000000,0.000000000,0.000000000,0.000000000,0.000000000,-3.242331028,-85.831031799,0.000000000,19.878000259,-29.508943558
1748602217.363062,40.655000000,0.000000000,0.000000000,0.000000000,0.000000000,-3.242331028,-83.628143311,0.000000000,19.878000259,-29.533786774
1748602217.365473,40.657000000,0.000000000,0.000000000,0.000000000,0.000000000,-3.242331028,-83.628143311,0.000000000,19.878000259,-29.556146622
1748602217.367878,40.659000000,0.000000000,0.000000000,0.000000000,0.000000000,-3.242331028,-83.628143311,0.000000000,19.878000259,-29.576269150
1748602217.370250,40.662000000,0.000000000,0.000000000,0.000000000,0.000000000,-3.255830765,-81.849639893,0.000000000,19.878000259,-29.595342636
1748602217.372637,40.664000000,0.000000000,0.000000000,0.000000000,0.000000000,-3.242331028,-85.851493835,0.000000000,19.878000259,-29.610681534
1748602217.374991,40.667000000,0.000000000,0.000000000,0.000000000,0.000000000,-3.242331028,-83.628143311,0.000000000,19.878000259,-29.625350952
1748602217.377355,40.669000000,0.000000000,0.000000000,0.000000000,0.000000000,-3.242331028,-83.628143311,0.000000000,19.878000259,-29.638553619
1748602217.379737,40.671000000,0.000000000,0.000000000,0.000000000,0.000000000,-3.242331028,-83.628143311,0.000000000,19.878000259,-29.650436401
1748602217.382124,40.674000000,0.000000000,0.000000000,0.000000000,0.000000000,-3.242331028,-83.628143311,0.000000000,19.878000259,-29.661130905
1748602217.384488,40.676000000,0.000000000,0.000000000,0.000000000,0.000000000,-3.242331028,-83.628143311,0.000000000,19.878000259,-29.670757294
1748602217.386863,40.678000000,0.000000000,0.000000000,0.000000000,0.000000000,-3.228831530,-85.437995911,0.000000000,19.868997574,-31.645101547
1748602217.389237,40.681000000,0.000000000,0.000000000,0.000000000,0.000000000,-3.228831530,-83.217498779,0.000000000,19.868997574,-31.675848007
1748602217.391632,40.683000000,0.000000000,0.000000000,0.000000000,0.000000000,-3.242331028,-81.408576965,0.000000000,19.868997574,-31.704528809
1748602217.394011,40.686000000,0.000000000,0.000000000,0.000000000,0.000000000,-3.242331028,-83.628143311,0.000000000,19.868997574,-31.729440689
1748602217.396385,40.688000000,0.000000000,0.000000000,0.000000000,0.000000000,-3.242331028,-83.628143311,0.000000000,19.868997574,-31.751859665
1748602217.398805,40.690000000,0.000000000,0.000000000,0.000000000,0.000000000,-3.242331028,-83.628143311,0.000000000,19.878000259,-29.805585861
1748602217.401187,40.693000000,0.000000000,0.000000000,0.000000000,0.000000000,-3.242331028,-83.628143311,0.000000000,19.868997574,-31.772987366
1748602217.403548,40.695000000,0.000000000,0.000000000,0.000000000,0.000000000,-3.242331028,-83.628143311,0.000000000,19.878000259,-29.824588776
1748602217.405932,40.697000000,0.000000000,0.000000000,0.000000000,0.000000000,-3.242331028,-83.628143311,0.000000000,19.878000259,-29.817869186
1748602217.408404,40.700000000,0.000000000,0.000000000,0.000000000,0.000000000,-3.242331028,-83.628143311,0.000000000,19.878000259,-29.811819077
1748602217.410857,40.702000000,0.000000000,0.000000000,0.000000000,0.000000000,-3.242331028,-83.628143311,0.000000000,19.878000259,-29.806375504
1748602217.413297,40.705000000,0.000000000,0.000000000,0.000000000,0.000000000,-3.242331028,-83.628143311,0.000000000,19.878000259,-29.801477432
1748602217.415710,40.707000000,0.000000000,0.000000000,0.000000000,0.000000000,-3.242331028,-83.628143311,0.000000000,19.878000259,-29.797067642
1748602217.418021,40.710000000,0.000000000,0.000000000,0.000000000,0.000000000,-3.242331028,-83.628143311,0.000000000,19.878000259,-29.793098450
1748602217.420385,40.712000000,0.000000000,0.000000000,0.000000000,0.000000000,-3.242331028,-83.628143311,0.000000000,19.878000259,-29.789525986
1748602217.422744,40.714000000,0.000000000,0.000000000,0.000000000,0.000000000,-3.242331028,-83.628143311,0.000000000,19.878000259,-29.786312103
1748602217.425115,40.717000000,0.000000000,0.000000000,0.000000000,0.000000000,-3.242331028,-83.628143311,0.000000000,19.878000259,-29.783418655
1748602217.427487,40.719000000,0.000000000,0.000000000,0.000000000,0.000000000,-3.228831530,-85.452133179,0.000000000,19.878000259,-29.779796600
1748602217.429852,40.721000000,0.000000000,0.000000000,0.000000000,0.000000000,-3.228831530,-83.217498779,0.000000000,19.878000259,-29.777454376
1748602217.432237,40.724000000,0.000000000,0.000000000,0.000000000,0.000000000,-3.215329409,-85.034294128,0.000000000,19.878000259,-29.774330139
1748602217.434629,40.726000000,0.000000000,0.000000000,0.000000000,0.000000000,-3.215329409,-82.806785583,0.000000000,19.878000259,-29.772432327
1748602217.436980,40.729000000,0.000000000,0.000000000,0.000000000,0.000000000,-3.201829910,-84.606384277,0.000000000,19.878000259,-29.769710541
1748602217.439355,40.731000000,0.000000000,0.000000000,0.000000000,0.000000000,-3.201829910,-82.396141052,0.000000000,19.878000259,-29.768173218
1748602217.441732,40.733000000,0.000000000,0.000000000,0.000000000,0.000000000,-3.188330173,-84.205101013,0.000000000,19.878000259,-29.765777588
1748602217.444122,40.736000000,0.000000000,0.000000000,0.000000000,0.000000000,-3.188330173,-81.985496521,0.000000000,19.878000259,-29.764532089
1748602217.446486,40.738000000,0.000000000,0.000000000,0.000000000,0.000000000,-3.188330173,-81.985496521,0.000000000,19.878000259,-29.763412476
1748602217.448905,40.740000000,0.000000000,0.000000000,0.000000000,0.000000000,-3.174830675,-83.797225952,0.000000000,19.878000259,-29.761392593
1748602217.451281,40.743000000,0.000000000,0.000000000,0.000000000,0.000000000,-3.174830675,-81.574851990,0.000000000,19.878000259,-29.760486603
1748602217.453730,40.745000000,0.000000000,0.000000000,0.000000000,0.000000000,-3.174830675,-81.574851990,0.000000000,19.878000259,-29.759670258
1748602217.456179,40.748000000,0.000000000,0.000000000,0.000000000,0.000000000,-3.174830675,-81.574851990,0.000000000,19.878000259,-29.758935928
1748602217.458597,40.750000000,0.000000000,0.000000000,0.000000000,0.000000000,-3.174830675,-81.574851990,0.000000000,19.878000259,-29.758274078
1748602217.460990,40.753000000,0.000000000,0.000000000,0.000000000,0.000000000,-3.174830675,-81.574851990,0.000000000,19.878000259,-29.757678986
1748602217.463359,40.755000000,0.000000000,0.000000000,0.000000000,0.000000000,-3.174830675,-81.574851990,0.000000000,19.878000259,-29.757144928
1748602217.465799,40.757000000,0.000000000,0.000000000,0.000000000,0.000000000,-3.161328316,-83.384162903,0.000000000,19.878000259,-29.755651474
1748602217.468193,40.760000000,0.000000000,0.000000000,0.000000000,0.000000000,-3.161328316,-81.164131165,0.000000000,19.878000259,-29.755216599
1748602217.470587,40.762000000,0.000000000,0.000000000,0.000000000,0.000000000,-3.161328316,-81.164131165,0.000000000,19.878000259,-29.754827499
1748602217.472977,40.765000000,0.000000000,0.000000000,0.000000000,0.000000000,-3.161328316,-81.164131165,0.000000000,19.878000259,-29.754476547
1748602217.475345,40.767000000,0.000000000,0.000000000,0.000000000,0.000000000,-3.147828817,-82.971183777,0.000000000,19.878000259,-29.753149033
1748602217.477762,40.769000000,0.000000000,0.000000000,0.000000000,0.000000000,-3.147828817,-80.753486633,0.000000000,19.878000259,-29.752864838
1748602217.480139,40.772000000,0.000000000,0.000000000,0.000000000,0.000000000,-3.147828817,-80.753486633,0.000000000,19.878000259,-29.752607346
1748602217.482531,40.774000000,0.000000000,0.000000000,0.000000000,0.000000000,-3.147828817,-80.753486633,0.000000000,19.878000259,-29.752378464
1748602217.484934,40.776000000,0.000000000,0.000000000,0.000000000,0.000000000,-3.134329319,-82.532867432,0.000000000,19.878000259,-29.751161575
1748602217.487304,40.779000000,0.000000000,0.000000000,0.000000000,0.000000000,-3.134329319,-80.342849731,0.000000000,19.878000259,-29.750974655
1748602217.489761,40.781000000,0.000000000,0.000000000,0.000000000,0.000000000,-3.134329319,-80.342849731,0.000000000,19.878000259,-29.750806808
1748602217.492238,40.784000000,0.000000000,0.000000000,0.000000000,0.000000000,-3.134329319,-80.342849731,0.000000000,19.878000259,-29.750656128
1748602217.494672,40.786000000,0.000000000,0.000000000,0.000000000,0.000000000,-3.120827198,-82.055442810,0.000000000,19.878000259,-29.749507904
1748602217.497180,40.789000000,0.000000000,0.000000000,0.000000000,0.000000000,-3.107327461,-81.643569946,0.000000000,19.878000259,-29.748374939
1748602217.499740,40.791000000,0.000000000,0.000000000,0.000000000,0.000000000,-3.093827963,-81.231178284,0.000000000,19.878000259,-29.747253418
1748602217.502184,40.794000000,0.000000000,0.000000000,0.000000000,0.000000000,-3.093827963,-79.110839844,0.000000000,19.878000259,-29.747154236
1748602217.504552,40.796000000,0.000000000,0.000000000,0.000000000,0.000000000,-3.080325603,-80.848587036,0.000000000,19.878000259,-29.746053696
1748602217.507000,40.799000000,0.000000000,0.000000000,0.000000000,0.000000000,-3.066826105,-80.463218689,0.000000000,19.878000259,-29.744962692
1748602217.509421,40.801000000,0.000000000,0.000000000,0.000000000,0.000000000,-3.053326607,-80.019874573,0.000000000,19.878000259,-29.743881226
1748602217.511881,40.803000000,0.000000000,0.000000000,0.000000000,0.000000000,-3.053326607,-77.878837585,0.000000000,19.878000259,-29.743816376
1748602217.514373,40.806000000,0.000000000,0.000000000,0.000000000,0.000000000,-3.039827108,-79.622367859,0.000000000,19.878000259,-29.742748260
1748602217.516721,40.808000000,0.000000000,0.000000000,0.000000000,0.000000000,-3.026324749,-79.197219849,0.000000000,19.878000259,-29.741683960
1748602217.519114,40.811000000,0.000000000,0.000000000,0.000000000,0.000000000,-3.012825251,-78.851516724,0.000000000,19.878000259,-29.740625381
1748602217.521489,40.813000000,0.000000000,0.000000000,0.000000000,0.000000000,-3.012825251,-76.646827698,0.000000000,19.878000259,-29.740583420
1748602217.523856,40.815000000,0.000000000,0.000000000,0.000000000,0.000000000,-3.012825251,-76.646827698,0.000000000,19.878000259,-29.740545273
1748602217.526213,40.818000000,0.000000000,0.000000000,0.000000000,0.000000000,-2.999325752,-78.460441589,0.000000000,19.878000259,-29.739500046
1748602217.528578,40.820000000,0.000000000,0.000000000,0.000000000,0.000000000,-2.985823393,-78.058677673,0.000000000,19.878000259,-29.738456726
1748602217.531006,40.823000000,0.000000000,0.000000000,0.000000000,0.000000000,-2.985823393,-75.825462341,0.000000000,19.878000259,-29.738430023
1748602217.533361,40.825000000,0.000000000,0.000000000,0.000000000,0.000000000,-2.958824396,-79.357055664,0.000000000,19.878000259,-29.736381531
1748602217.535750,40.827000000,0.000000000,0.000000000,0.000000000,0.000000000,-2.958824396,-75.004180908,0.000000000,19.878000259,-29.736360550
1748602217.538136,40.830000000,0.000000000,0.000000000,0.000000000,0.000000000,-2.958824396,-75.004180908,0.000000000,19.878000259,-29.736339569
1748602217.540529,40.832000000,0.000000000,0.000000000,0.000000000,0.000000000,-2.958824396,-75.004180908,0.000000000,19.878000259,-29.736320496
1748602217.542923,40.834000000,0.000000000,0.000000000,0.000000000,0.000000000,-2.958824396,-75.004180908,0.000000000,19.887001038,-27.767843246
1748602217.545307,40.837000000,0.000000000,0.000000000,0.000000000,0.000000000,-2.945324898,-76.790878296,0.000000000,19.887001038,-27.744258881
1748602217.547696,40.839000000,0.000000000,0.000000000,0.000000000,0.000000000,-2.945324898,-74.593544006,0.000000000,19.887001038,-27.723937988
1748602217.550080,40.842000000,0.000000000,0.000000000,0.000000000,0.000000000,-2.931822538,-76.388900757,0.000000000,19.887001038,-27.704662323
1748602217.552465,40.844000000,0.000000000,0.000000000,0.000000000,0.000000000,-2.931822538,-74.182815552,0.000000000,19.887001038,-27.688205719
1748602217.554867,40.846000000,0.000000000,0.000000000,0.000000000,0.000000000,-2.931822538,-74.182815552,0.000000000,19.887001038,-27.673395157
1748602217.557276,40.849000000,0.000000000,0.000000000,0.000000000,0.000000000,-2.931822538,-74.182815552,0.000000000,19.887001038,-27.660066605
1748602217.559726,40.851000000,0.000000000,0.000000000,0.000000000,0.000000000,-2.931822538,-74.182815552,0.000000000,19.887001038,-27.648069382
1748602217.562172,40.854000000,0.000000000,0.000000000,0.000000000,0.000000000,-2.918323040,-75.918449402,0.000000000,19.887001038,-27.636308670
1748602217.564600,40.856000000,0.000000000,0.000000000,0.000000000,0.000000000,-2.918323040,-73.772178650,0.000000000,19.887001038,-27.626594543
1748602217.567047,40.859000000,0.000000000,0.000000000,0.000000000,0.000000000,-2.918323040,-73.772178650,0.000000000,19.887001038,-27.617851257
1748602217.569496,40.861000000,0.000000000,0.000000000,0.000000000,0.000000000,-2.918323040,-73.772178650,0.000000000,19.896001816,-25.634674072
1748602217.571894,40.863000000,0.000000000,0.000000000,0.000000000,0.000000000,-2.904823303,-75.513099670,0.000000000,19.887001038,-27.578199387
1748602217.574336,40.866000000,0.000000000,0.000000000,0.000000000,0.000000000,-2.904823303,-73.361526489,0.000000000,19.896001816,-25.604465485
1748602217.576760,40.868000000,0.000000000,0.000000000,0.000000000,0.000000000,-2.891321182,-75.097496033,0.000000000,19.896001816,-25.577524185
1748602217.579148,40.871000000,0.000000000,0.000000000,0.000000000,0.000000000,-2.891321182,-72.950805664,0.000000000,19.896001816,-25.554124832
1748602217.581508,40.873000000,0.000000000,0.000000000,0.000000000,0.000000000,-2.891321182,-72.950805664,0.000000000,19.896001816,-25.533067703
1748602217.583895,40.875000000,0.000000000,0.000000000,0.000000000,0.000000000,-2.891321182,-72.950805664,0.000000000,19.896001816,-25.514114380
1748602217.586285,40.878000000,0.000000000,0.000000000,0.000000000,0.000000000,-2.877821684,-74.742095947,0.000000000,19.896001816,-25.496147156
1748602217.588681,40.880000000,0.000000000,0.000000000,0.000000000,0.000000000,-2.864322186,-74.331459045,0.000000000,19.896001816,-25.479896545
1748602217.591064,40.883000000,0.000000000,0.000000000,0.000000000,0.000000000,-2.864322186,-72.129531860,0.000000000,19.896001816,-25.466089249
1748602217.593457,40.885000000,0.000000000,0.000000000,0.000000000,0.000000000,-2.864322186,-72.129531860,0.000000000,19.896001816,-25.453660965
1748602217.595869,40.887000000,0.000000000,0.000000000,0.000000000,0.000000000,-2.864322186,-72.129531860,0.000000000,19.896001816,-25.442476273
1748602217.598284,40.890000000,0.000000000,0.000000000,0.000000000,0.000000000,-2.864322186,-72.129531860,0.000000000,19.896001816,-25.432411194
1748602217.600699,40.892000000,0.000000000,0.000000000,0.000000000,0.000000000,-2.850822449,-73.905296326,0.000000000,19.896001816,-25.422466278
1748602217.603091,40.895000000,0.000000000,0.000000000,0.000000000,0.000000000,-2.850822449,-71.718879700,0.000000000,19.896001816,-25.414314270
1748602217.605503,40.897000000,0.000000000,0.000000000,0.000000000,0.000000000,-2.850822449,-71.718879700,0.000000000,19.896001816,-25.406978607
1748602217.607891,40.899000000,0.000000000,0.000000000,0.000000000,0.000000000,-2.850822449,-71.718879700,0.000000000,19.896001816,-25.400375366
1748602217.610323,40.902000000,0.000000000,0.000000000,0.000000000,0.000000000,-2.850822449,-71.718879700,0.000000000,19.896001816,-25.394433975
1748602217.612759,40.904000000,0.000000000,0.000000000,0.000000000,0.000000000,-2.837320328,-73.482322693,0.000000000,19.896001816,-25.388206482
1748602217.615170,40.907000000,0.000000000,0.000000000,0.000000000,0.000000000,-2.837320328,-71.308158875,0.000000000,19.887001038,-27.355379105
1748602217.617626,40.909000000,0.000000000,0.000000000,0.000000000,0.000000000,-2.837320328,-71.308158875,0.000000000,19.896001816,-25.402576447
1748602217.620046,40.912000000,0.000000000,0.000000000,0.000000000,0.000000000,-2.837320328,-71.308158875,0.000000000,19.887001038,-27.369585037
1748602217.622387,40.914000000,0.000000000,0.000000000,0.000000000,0.000000000,-2.837320328,-71.308158875,0.000000000,19.896001816,-25.415634155
1748602217.624789,40.916000000,0.000000000,0.000000000,0.000000000,0.000000000,-2.823820591,-73.134086609,0.000000000,19.887001038,-27.371749878
1748602217.627178,40.919000000,0.000000000,0.000000000,0.000000000,0.000000000,-2.823820591,-70.897514343,0.000000000,19.896001816,-25.419075012
1748602217.629516,40.921000000,0.000000000,0.000000000,0.000000000,0.000000000,-2.823820591,-70.897514343,0.000000000,19.896001816,-25.411090851
1748602217.631922,40.923000000,0.000000000,0.000000000,0.000000000,0.000000000,-2.823820591,-70.897514343,0.000000000,19.896001816,-25.403903961
1748602217.634365,40.926000000,0.000000000,0.000000000,0.000000000,0.000000000,-2.823820591,-70.897514343,0.000000000,19.896001816,-25.397436142
1748602217.636815,40.928000000,0.000000000,0.000000000,0.000000000,0.000000000,-2.823820591,-70.897514343,0.000000000,19.896001816,-25.391614914
1748602217.639260,40.931000000,0.000000000,0.000000000,0.000000000,0.000000000,-2.823820591,-70.897514343,0.000000000,19.896001816,-25.386377335
1748602217.641645,40.933000000,0.000000000,0.000000000,0.000000000,0.000000000,-2.823820591,-70.897514343,0.000000000,19.896001816,-25.381662369
1748602217.644002,40.936000000,0.000000000,0.000000000,0.000000000,0.000000000,-2.823820591,-70.897514343,0.000000000,19.896001816,-25.377418518
1748602217.646397,40.938000000,0.000000000,0.000000000,0.000000000,0.000000000,-2.823820591,-70.897514343,0.000000000,19.896001816,-25.373600006
1748602217.648763,40.940000000,0.000000000,0.000000000,0.000000000,0.000000000,-2.823820591,-70.897514343,0.000000000,19.896001816,-25.370162964
1748602217.651197,40.943000000,0.000000000,0.000000000,0.000000000,0.000000000,-2.823820591,-70.897514343,0.000000000,19.896001816,-25.367069244
1748602217.653621,40.945000000,0.000000000,0.000000000,0.000000000,0.000000000,-2.823820591,-70.897514343,0.000000000,19.896001816,-25.364284515
1748602217.656024,40.948000000,0.000000000,0.000000000,0.000000000,0.000000000,-2.823820591,-70.897514343,0.000000000,19.896001816,-25.361778259
1748602217.658535,40.950000000,0.000000000,0.000000000,0.000000000,0.000000000,-2.823820591,-70.897514343,0.000000000,19.896001816,-25.359523773
1748602217.660904,40.952000000,0.000000000,0.000000000,0.000000000,0.000000000,-2.823820591,-70.897514343,0.000000000,19.896001816,-25.357494354
1748602217.663303,40.955000000,0.000000000,0.000000000,0.000000000,0.000000000,-2.823820591,-70.897514343,0.000000000,19.896001816,-25.355667114
1748602217.665701,40.957000000,0.000000000,0.000000000,0.000000000,0.000000000,-2.823820591,-70.897514343,0.000000000,19.896001816,-25.354022980
1748602217.668085,40.960000000,0.000000000,0.000000000,0.000000000,0.000000000,-2.823820591,-70.897514343,0.000000000,19.896001816,-25.352544785
1748602217.670449,40.962000000,0.000000000,0.000000000,0.000000000,0.000000000,-2.823820591,-70.897514343,0.000000000,19.896001816,-25.351211548
1748602217.672829,40.964000000,0.000000000,0.000000000,0.000000000,0.000000000,-2.823820591,-70.897514343,0.000000000,19.896001816,-25.350013733
1748602217.675220,40.967000000,0.000000000,0.000000000,0.000000000,0.000000000,-2.823820591,-70.897514343,0.000000000,19.896001816,-25.348936081
1748602217.677591,40.969000000,0.000000000,0.000000000,0.000000000,0.000000000,-2.823820591,-70.897514343,0.000000000,19.896001816,-25.347965240
1748602217.679982,40.971000000,0.000000000,0.000000000,0.000000000,0.000000000,-2.823820591,-70.897514343,0.000000000,19.896001816,-25.347091675
1748602217.682423,40.974000000,0.000000000,0.000000000,0.000000000,0.000000000,-2.823820591,-70.897514343,0.000000000,19.896001816,-25.346303940
1748602217.684874,40.976000000,0.000000000,0.000000000,0.000000000,0.000000000,-2.823820591,-70.897514343,0.000000000,19.896001816,-25.345596313
1748602217.687309,40.979000000,0.000000000,0.000000000,0.000000000,0.000000000,-2.823820591,-70.897514343,0.000000000,19.896001816,-25.344959259
1748602217.689799,40.981000000,0.000000000,0.000000000,0.000000000,0.000000000,-2.823820591,-70.897514343,0.000000000,19.896001816,-25.344387054
1748602217.692152,40.984000000,0.000000000,0.000000000,0.000000000,0.000000000,-2.823820591,-70.897514343,0.000000000,19.896001816,-25.343870163
1748602217.694525,40.986000000,0.000000000,0.000000000,0.000000000,0.000000000,-2.823820591,-70.897514343,0.000000000,19.896001816,-25.343406677
1748602217.696937,40.988000000,0.000000000,0.000000000,0.000000000,0.000000000,-2.823820591,-70.897514343,0.000000000,19.896001816,-25.342988968
1748602217.699341,40.991000000,0.000000000,0.000000000,0.000000000,0.000000000,-2.823820591,-70.897514343,0.000000000,19.896001816,-25.342613220
1748602217.701781,40.993000000,0.000000000,0.000000000,0.000000000,0.000000000,-2.837320328,-69.103431702,0.000000000,19.896001816,-25.343137741
1748602217.704195,40.996000000,0.000000000,0.000000000,0.000000000,0.000000000,-2.837320328,-71.308158875,0.000000000,19.887001038,-27.316780090
1748602217.706588,40.998000000,0.000000000,0.000000000,0.000000000,0.000000000,-2.837320328,-71.308158875,0.000000000,19.896001816,-25.367120743
1748602217.708956,41.000000000,0.000000000,0.000000000,0.000000000,0.000000000,-2.837320328,-71.308158875,0.000000000,19.887001038,-27.330980301
1748602217.711467,41.003000000,0.000000000,0.000000000,0.000000000,0.000000000,-2.837320328,-71.308158875,0.000000000,19.887001038,-27.351236343
1748602217.713923,41.005000000,0.000000000,0.000000000,0.000000000,0.000000000,-2.837320328,-71.308158875,0.000000000,19.887001038,-27.369466782
1748602217.716378,41.008000000,0.000000000,0.000000000,0.000000000,0.000000000,-2.837320328,-71.308158875,0.000000000,19.887001038,-27.385875702
1748602217.718808,41.010000000,0.000000000,0.000000000,0.000000000,0.000000000,-2.837320328,-71.308158875,0.000000000,19.887001038,-27.400642395
1748602217.721243,41.013000000,0.000000000,0.000000000,0.000000000,0.000000000,-2.837320328,-71.308158875,0.000000000,19.887001038,-27.413932800
1748602217.723680,41.015000000,0.000000000,0.000000000,0.000000000,0.000000000,-2.837320328,-71.308158875,0.000000000,19.887001038,-27.425895691
1748602217.726186,41.018000000,0.000000000,0.000000000,0.000000000,0.000000000,-2.837320328,-71.308158875,0.000000000,19.887001038,-27.436660767
1748602217.728719,41.020000000,0.000000000,0.000000000,0.000000000,0.000000000,-2.837320328,-71.308158875,0.000000000,19.887001038,-27.446348190
1748602217.731231,41.023000000,0.000000000,0.000000000,0.000000000,0.000000000,-2.837320328,-71.308158875,0.000000000,19.887001038,-27.455068588
1748602217.733752,41.025000000,0.000000000,0.000000000,0.000000000,0.000000000,-2.837320328,-71.308158875,0.000000000,19.887001038,-27.462917328
1748602217.736253,41.028000000,0.000000000,0.000000000,0.000000000,0.000000000,-2.837320328,-71.308158875,0.000000000,19.887001038,-27.469980240
1748602217.738786,41.030000000,0.000000000,0.000000000,0.000000000,0.000000000,-2.837320328,-71.308158875,0.000000000,19.887001038,-27.476337433
1748602217.741317,41.033000000,0.000000000,0.000000000,0.000000000,0.000000000,-2.837320328,-71.308158875,0.000000000,19.887001038,-27.482057571
1748602217.743836,41.035000000,0.000000000,0.000000000,0.000000000,0.000000000,-2.837320328,-71.308158875,0.000000000,19.887001038,-27.487207413
1748602217.746329,41.038000000,0.000000000,0.000000000,0.000000000,0.000000000,-2.837320328,-71.308158875,0.000000000,19.887001038,-27.491840363
1748602217.748847,41.040000000,0.000000000,0.000000000,0.000000000,0.000000000,-2.837320328,-71.308158875,0.000000000,19.887001038,-27.496011734
1748602217.751222,41.043000000,0.000000000,0.000000000,0.000000000,0.000000000,-2.837320328,-71.308158875,0.000000000,19.887001038,-27.499765396
1748602217.753607,41.045000000,0.000000000,0.000000000,0.000000000,0.000000000,-2.837320328,-71.308158875,0.000000000,19.878000259,-29.470085144
1748602217.755967,41.047000000,0.000000000,0.000000000,0.000000000,0.000000000,-2.837320328,-71.308158875,0.000000000,19.887001038,-27.529113770
1748602217.758361,41.050000000,0.000000000,0.000000000,0.000000000,0.000000000,-2.837320328,-71.308158875,0.000000000,19.878000259,-29.494882584
1748602217.760733,41.052000000,0.000000000,0.000000000,0.000000000,0.000000000,-2.837320328,-71.308158875,0.000000000,19.878000259,-29.518098831
1748602217.763095,41.055000000,0.000000000,0.000000000,0.000000000,0.000000000,-2.837320328,-71.308158875,0.000000000,19.878000259,-29.538995743
1748602217.765496,41.057000000,0.000000000,0.000000000,0.000000000,0.000000000,-2.837320328,-71.308158875,0.000000000,19.878000259,-29.557802200
1748602217.767858,41.059000000,0.000000000,0.000000000,0.000000000,0.000000000,-2.837320328,-71.308158875,0.000000000,19.878000259,-29.574728012
1748602217.770227,41.062000000,0.000000000,0.000000000,0.000000000,0.000000000,-2.837320328,-71.308158875,0.000000000,19.878000259,-29.589962006
1748602217.772666,41.064000000,0.000000000,0.000000000,0.000000000,0.000000000,-2.837320328,-71.308158875,0.000000000,19.878000259,-29.603672028
1748602217.775039,41.067000000,0.000000000,0.000000000,0.000000000,0.000000000,-2.837320328,-71.308158875,0.000000000,19.878000259,-29.616010666
1748602217.777711,41.069000000,0.000000000,0.000000000,0.000000000,0.000000000,-2.837320328,-71.308158875,0.000000000,19.878000259,-29.627115250
1748602217.780204,41.072000000,0.000000000,0.000000000,0.000000000,0.000000000,-2.837320328,-71.308158875,0.000000000,19.878000259,-29.637109756
1748602217.782687,41.074000000,0.000000000,0.000000000,0.000000000,0.000000000,-2.837320328,-71.308158875,0.000000000,19.878000259,-29.646104813
1748602217.785164,41.077000000,0.000000000,0.000000000,0.000000000,0.000000000,-2.837320328,-71.308158875,0.000000000,19.878000259,-29.654199600
1748602217.787643,41.079000000,0.000000000,0.000000000,0.000000000,0.000000000,-2.837320328,-71.308158875,0.000000000,19.878000259,-29.661485672
1748602217.790118,41.082000000,0.000000000,0.000000000,0.000000000,0.000000000,-2.837320328,-71.308158875,0.000000000,19.878000259,-29.668043137
1748602217.792576,41.084000000,0.000000000,0.000000000,0.000000000,0.000000000,-2.837320328,-71.308158875,0.000000000,19.878000259,-29.673944473
1748602217.795036,41.087000000,0.000000000,0.000000000,0.000000000,0.000000000,-2.837320328,-71.308158875,0.000000000,19.878000259,-29.679256439
1748602217.797437,41.089000000,0.000000000,0.000000000,0.000000000,0.000000000,-2.837320328,-71.308158875,0.000000000,19.878000259,-29.684036255
1748602217.799872,41.091000000,0.000000000,0.000000000,0.000000000,0.000000000,-2.837320328,-71.308158875,0.000000000,19.878000259,-29.688339233
1748602217.802283,41.094000000,0.000000000,0.000000000,0.000000000,0.000000000,-2.837320328,-71.308158875,0.000000000,19.878000259,-29.692211151
1748602217.804743,41.096000000,0.000000000,0.000000000,0.000000000,0.000000000,-2.837320328,-71.308158875,0.000000000,19.878000259,-29.695695877
1748602217.807184,41.099000000,0.000000000,0.000000000,0.000000000,0.000000000,-2.837320328,-71.308158875,0.000000000,19.878000259,-29.698833466
1748602217.809578,41.101000000,0.000000000,0.000000000,0.000000000,0.000000000,-2.837320328,-71.308158875,0.000000000,19.878000259,-29.701656342
1748602217.812042,41.104000000,0.000000000,0.000000000,0.000000000,0.000000000,-2.837320328,-71.308158875,0.000000000,19.878000259,-29.704196930
1748602217.814393,41.106000000,0.000000000,0.000000000,0.000000000,0.000000000,-2.837320328,-71.308158875,0.000000000,19.878000259,-29.706481934
1748602217.816819,41.108000000,0.000000000,0.000000000,0.000000000,0.000000000,-2.837320328,-71.308158875,0.000000000,19.878000259,-29.708539963
1748602217.819270,41.111000000,0.000000000,0.000000000,0.000000000,0.000000000,-2.837320328,-71.308158875,0.000000000,19.878000259,-29.710391998
1748602217.821749,41.113000000,0.000000000,0.000000000,0.000000000,0.000000000,-2.837320328,-71.308158875,0.000000000,19.878000259,-29.712059021
1748602217.824184,41.116000000,0.000000000,0.000000000,0.000000000,0.000000000,-2.837320328,-71.308158875,0.000000000,19.878000259,-29.713560104
1748602217.826772,41.118000000,0.000000000,0.000000000,0.000000000,0.000000000,-2.837320328,-71.308158875,0.000000000,19.878000259,-29.714908600
1748602217.829168,41.121000000,0.000000000,0.000000000,0.000000000,0.000000000,-2.837320328,-71.308158875,0.000000000,19.878000259,-29.716123581
1748602217.831597,41.123000000,0.000000000,0.000000000,0.000000000,0.000000000,-2.837320328,-71.308158875,0.000000000,19.887001038,-27.749481201
1748602217.833957,41.126000000,0.000000000,0.000000000,0.000000000,0.000000000,-2.837320328,-71.308158875,0.000000000,19.878000259,-29.701602936
1748602217.836334,41.128000000,0.000000000,0.000000000,0.000000000,0.000000000,-2.837320328,-71.308158875,0.000000000,19.887001038,-27.737464905
1748602217.838706,41.130000000,0.000000000,0.000000000,0.000000000,0.000000000,-2.837320328,-71.308158875,0.000000000,19.887001038,-27.717073441
1748602217.841124,41.133000000,0.000000000,0.000000000,0.000000000,0.000000000,-2.837320328,-71.308158875,0.000000000,19.887001038,-27.698720932
1748602217.843517,41.135000000,0.000000000,0.000000000,0.000000000,0.000000000,-2.837320328,-71.308158875,0.000000000,19.887001038,-27.682203293
1748602217.845974,41.137000000,0.000000000,0.000000000,0.000000000,0.000000000,-2.837320328,-71.308158875,0.000000000,19.887001038,-27.667337418
1748602217.848365,41.140000000,0.000000000,0.000000000,0.000000000,0.000000000,-2.837320328,-71.308158875,0.000000000,19.887001038,-27.653959274
1748602217.850742,41.142000000,0.000000000,0.000000000,0.000000000,0.000000000,-2.837320328,-71.308158875,0.000000000,19.887001038,-27.641918182
1748602217.853073,41.145000000,0.000000000,0.000000000,0.000000000,0.000000000,-2.837320328,-71.308158875,0.000000000,19.887001038,-27.631080627
1748602217.855427,41.147000000,0.000000000,0.000000000,0.000000000,0.000000000,-2.837320328,-71.308158875,0.000000000,19.887001038,-27.621328354
1748602217.857806,41.149000000,0.000000000,0.000000000,0.000000000,0.000000000,-2.837320328,-71.308158875,0.000000000,19.887001038,-27.612548828
1748602217.860190,41.152000000,0.000000000,0.000000000,0.000000000,0.000000000,-2.837320328,-71.308158875,0.000000000,19.887001038,-27.604648590
1748602217.862567,41.154000000,0.000000000,0.000000000,0.000000000,0.000000000,-2.837320328,-71.308158875,0.000000000,19.887001038,-27.597539902
1748602217.864924,41.156000000,0.000000000,0.000000000,0.000000000,0.000000000,-2.837320328,-71.308158875,0.000000000,19.887001038,-27.591140747
1748602217.867329,41.159000000,0.000000000,0.000000000,0.000000000,0.000000000,-2.837320328,-71.308158875,0.000000000,19.887001038,-27.585380554
1748602217.869690,41.161000000,0.000000000,0.000000000,0.000000000,0.000000000,-2.837320328,-71.308158875,0.000000000,19.887001038,-27.580198288
1748602217.872093,41.164000000,0.000000000,0.000000000,0.000000000,0.000000000,-2.837320328,-71.308158875,0.000000000,19.887001038,-27.575532913
1748602217.874458,41.166000000,0.000000000,0.000000000,0.000000000,0.000000000,-2.837320328,-71.308158875,0.000000000,19.887001038,-27.571334839
1748602217.876828,41.168000000,0.000000000,0.000000000,0.000000000,0.000000000,-2.837320328,-71.308158875,0.000000000,19.887001038,-27.567556381
1748602217.879205,41.171000000,0.000000000,0.000000000,0.000000000,0.000000000,-2.837320328,-71.308158875,0.000000000,19.887001038,-27.564155579
1748602217.881615,41.173000000,0.000000000,0.000000000,0.000000000,0.000000000,-2.837320328,-71.308158875,0.000000000,19.887001038,-27.561094284
1748602217.883994,41.175000000,0.000000000,0.000000000,0.000000000,0.000000000,-2.837320328,-71.308158875,0.000000000,19.887001038,-27.558340073
1748602217.886364,41.178000000,0.000000000,0.000000000,0.000000000,0.000000000,-2.837320328,-71.308158875,0.000000000,19.887001038,-27.555860519
1748602217.888827,41.180000000,0.000000000,0.000000000,0.000000000,0.000000000,-2.837320328,-71.308158875,0.000000000,19.887001038,-27.553628922
1748602217.891325,41.183000000,0.000000000,0.000000000,0.000000000,0.000000000,-2.837320328,-71.308158875,0.000000000,19.887001038,-27.551620483
1748602217.893715,41.185000000,0.000000000,0.000000000,0.000000000,0.000000000,-2.837320328,-71.308158875,0.000000000,19.887001038,-27.549814224
1748602217.896150,41.188000000,0.000000000,0.000000000,0.000000000,0.000000000,-2.837320328,-71.308158875,0.000000000,19.887001038,-27.548187256
1748602217.898515,41.190000000,0.000000000,0.000000000,0.000000000,0.000000000,-2.837320328,-71.308158875,0.000000000,19.887001038,-27.546724319
1748602217.900891,41.192000000,0.000000000,0.000000000,0.000000000,0.000000000,-2.837320328,-71.308158875,0.000000000,19.887001038,-27.545406342
1748602217.903253,41.195000000,0.000000000,0.000000000,0.000000000,0.000000000,-2.837320328,-71.308158875,0.000000000,19.887001038,-27.544219971
1748602217.905649,41.197000000,0.000000000,0.000000000,0.000000000,0.000000000,-2.837320328,-71.308158875,0.000000000,19.887001038,-27.543153763
1748602217.908032,41.200000000,0.000000000,0.000000000,0.000000000,0.000000000,-2.837320328,-71.308158875,0.000000000,19.887001038,-27.542192459
1748602217.910424,41.202000000,0.000000000,0.000000000,0.000000000,0.000000000,-2.837320328,-71.308158875,0.000000000,19.887001038,-27.541328430
1748602217.912854,41.204000000,0.000000000,0.000000000,0.000000000,0.000000000,-2.837320328,-71.308158875,0.000000000,19.887001038,-27.540550232
1748602217.915231,41.207000000,0.000000000,0.000000000,0.000000000,0.000000000,-2.837320328,-71.308158875,0.000000000,19.887001038,-27.539850235
1748602217.917628,41.209000000,0.000000000,0.000000000,0.000000000,0.000000000,-2.837320328,-71.308158875,0.000000000,19.887001038,-27.539218903
1748602217.920000,41.212000000,0.000000000,0.000000000,0.000000000,0.000000000,-2.837320328,-71.308158875,0.000000000,19.887001038,-27.538652420
1748602217.922365,41.214000000,0.000000000,0.000000000,0.000000000,0.000000000,-2.837320328,-71.308158875,0.000000000,19.887001038,-27.538143158
1748602217.924765,41.216000000,0.000000000,0.000000000,0.000000000,0.000000000,-2.837320328,-71.308158875,0.000000000,19.887001038,-27.537683487
1748602217.927140,41.219000000,0.000000000,0.000000000,0.000000000,0.000000000,-2.837320328,-71.308158875,0.000000000,19.887001038,-27.537269592
1748602217.929508,41.221000000,0.000000000,0.000000000,0.000000000,0.000000000,-2.837320328,-71.308158875,0.000000000,19.887001038,-27.536897659
1748602217.931951,41.223000000,0.000000000,0.000000000,0.000000000,0.000000000,-2.837320328,-71.308158875,0.000000000,19.887001038,-27.536561966
1748602217.934296,41.226000000,0.000000000,0.000000000,0.000000000,0.000000000,-2.837320328,-71.308158875,0.000000000,19.887001038,-27.536260605
1748602217.936667,41.228000000,0.000000000,0.000000000,0.000000000,0.000000000,-2.837320328,-71.308158875,0.000000000,19.887001038,-27.535989761
1748602217.939088,41.231000000,0.000000000,0.000000000,0.000000000,0.000000000,-2.837320328,-71.308158875,0.000000000,19.887001038,-27.535745621
1748602217.941472,41.233000000,0.000000000,0.000000000,0.000000000,0.000000000,-2.837320328,-71.308158875,0.000000000,19.887001038,-27.535526276
1748602217.943876,41.235000000,0.000000000,0.000000000,0.000000000,0.000000000,-2.837320328,-71.308158875,0.000000000,19.887001038,-27.535327911
1748602217.946310,41.238000000,0.000000000,0.000000000,0.000000000,0.000000000,-2.837320328,-71.308158875,0.000000000,19.887001038,-27.535150528
1748602217.948763,41.240000000,0.000000000,0.000000000,0.000000000,0.000000000,-2.837320328,-71.308158875,0.000000000,19.887001038,-27.534990311
1748602217.951215,41.243000000,0.000000000,0.000000000,0.000000000,0.000000000,-2.837320328,-71.308158875,0.000000000,19.887001038,-27.534845352
1748602217.953663,41.245000000,0.000000000,0.000000000,0.000000000,0.000000000,-2.837320328,-71.308158875,0.000000000,19.887001038,-27.534715652
1748602217.956124,41.248000000,0.000000000,0.000000000,0.000000000,0.000000000,-2.837320328,-71.308158875,0.000000000,19.887001038,-27.534599304
1748602217.958688,41.250000000,0.000000000,0.000000000,0.000000000,0.000000000,-2.837320328,-71.308158875,0.000000000,19.887001038,-27.534494400
1748602217.961087,41.253000000,0.000000000,0.000000000,0.000000000,0.000000000,-2.837320328,-71.308158875,0.000000000,19.887001038,-27.534399033
1748602217.963530,41.255000000,0.000000000,0.000000000,0.000000000,0.000000000,-2.837320328,-71.308158875,0.000000000,19.887001038,-27.534315109
1748602217.966000,41.257000000,0.000000000,0.000000000,0.000000000,0.000000000,-2.837320328,-71.308158875,0.000000000,19.887001038,-27.534238815
1748602217.968433,41.260000000,0.000000000,0.000000000,0.000000000,0.000000000,-2.837320328,-71.308158875,0.000000000,19.887001038,-27.534168243
1748602217.970885,41.262000000,0.000000000,0.000000000,0.000000000,0.000000000,-2.837320328,-71.308158875,0.000000000,19.887001038,-27.534107208
1748602217.973291,41.265000000,0.000000000,0.000000000,0.000000000,0.000000000,-2.837320328,-71.308158875,0.000000000,19.887001038,-27.534051895
1748602217.975716,41.267000000,0.000000000,0.000000000,0.000000000,0.000000000,-2.837320328,-71.308158875,0.000000000,19.887001038,-27.534000397
1748602217.978150,41.270000000,0.000000000,0.000000000,0.000000000,0.000000000,-2.837320328,-71.308158875,0.000000000,19.887001038,-27.533954620
1748602217.980632,41.272000000,0.000000000,0.000000000,0.000000000,0.000000000,-2.837320328,-71.308158875,0.000000000,19.887001038,-27.533914566
1748602217.983086,41.275000000,0.000000000,0.000000000,0.000000000,0.000000000,-2.837320328,-71.308158875,0.000000000,19.887001038,-27.533878326
1748602217.985535,41.277000000,0.000000000,0.000000000,0.000000000,0.000000000,-2.837320328,-71.308158875,0.000000000,19.887001038,-27.533845901
1748602217.988017,41.280000000,0.000000000,0.000000000,0.000000000,0.000000000,-2.837320328,-71.308158875,0.000000000,19.887001038,-27.533815384
1748602217.990463,41.282000000,0.000000000,0.000000000,0.000000000,0.000000000,-2.837320328,-71.308158875,0.000000000,19.887001038,-27.533788681
1748602217.992917,41.284000000,0.000000000,0.000000000,0.000000000,0.000000000,-2.837320328,-71.308158875,0.000000000,19.887001038,-27.533763885
1748602217.995383,41.287000000,0.000000000,0.000000000,0.000000000,0.000000000,-2.837320328,-71.308158875,0.000000000,19.887001038,-27.533742905
1748602217.997830,41.289000000,0.000000000,0.000000000,0.000000000,0.000000000,-2.837320328,-71.308158875,0.000000000,19.887001038,-27.533723831
1748602218.000298,41.292000000,0.000000000,0.000000000,0.000000000,0.000000000,-2.837320328,-71.308158875,0.000000000,19.887001038,-27.533706665
1748602218.002761,41.294000000,0.000000000,0.000000000,0.000000000,0.000000000,-2.837320328,-71.308158875,0.000000000,19.887001038,-27.533689499
1748602218.005199,41.297000000,0.000000000,0.000000000,0.000000000,0.000000000,-2.837320328,-71.308158875,0.000000000,19.887001038,-27.533676147
1748602218.007659,41.299000000,0.000000000,0.000000000,0.000000000,0.000000000,-2.837320328,-71.308158875,0.000000000,19.887001038,-27.533662796
1748602218.010178,41.302000000,0.000000000,0.000000000,0.000000000,0.000000000,-2.837320328,-71.308158875,0.000000000,19.887001038,-27.533651352
1748602218.012658,41.304000000,0.000000000,0.000000000,0.000000000,0.000000000,-2.837320328,-71.308158875,0.000000000,19.887001038,-27.533641815
1748602218.015129,41.307000000,0.000000000,0.000000000,0.000000000,0.000000000,-2.837320328,-71.308158875,0.000000000,19.887001038,-27.533632278
1748602218.017541,41.309000000,0.000000000,0.000000000,0.000000000,0.000000000,-2.837320328,-71.308158875,0.000000000,19.887001038,-27.533624649
1748602218.019915,41.311000000,0.000000000,0.000000000,0.000000000,0.000000000,-2.837320328,-71.308158875,0.000000000,19.887001038,-27.533617020
1748602218.022293,41.314000000,0.000000000,0.000000000,0.000000000,0.000000000,-2.837320328,-71.308158875,0.000000000,19.887001038,-27.533609390
1748602218.024670,41.316000000,0.000000000,0.000000000,0.000000000,0.000000000,-2.837320328,-71.308158875,0.000000000,19.887001038,-27.533603668
1748602218.027015,41.319000000,0.000000000,0.000000000,0.000000000,0.000000000,-2.837320328,-71.308158875,0.000000000,19.887001038,-27.533597946
1748602218.029339,41.321000000,0.000000000,0.000000000,0.000000000,0.000000000,-2.837320328,-71.308158875,0.000000000,19.887001038,-27.533592224
1748602218.031671,41.323000000,0.000000000,0.000000000,0.000000000,0.000000000,-2.837320328,-71.308158875,0.000000000,19.887001038,-27.533588409
1748602218.034029,41.326000000,0.000000000,0.000000000,0.000000000,0.000000000,-2.837320328,-71.308158875,0.000000000,19.887001038,-27.533584595
1748602218.036361,41.328000000,0.000000000,0.000000000,0.000000000,0.000000000,-2.837320328,-71.308158875,0.000000000,19.887001038,-27.533580780
1748602218.038685,41.330000000,0.000000000,0.000000000,0.000000000,0.000000000,-2.837320328,-71.308158875,0.000000000,19.887001038,-27.533576965
1748602218.041013,41.333000000,0.000000000,0.000000000,0.000000000,0.000000000,-2.837320328,-71.308158875,0.000000000,19.887001038,-27.533575058
1748602218.043351,41.335000000,0.000000000,0.000000000,0.000000000,0.000000000,-2.837320328,-71.308158875,0.000000000,19.887001038,-27.533571243
1748602218.045684,41.337000000,0.000000000,0.000000000,0.000000000,0.000000000,-2.837320328,-71.308158875,0.000000000,19.887001038,-27.533569336
1748602218.048009,41.340000000,0.000000000,0.000000000,0.000000000,0.000000000,-2.837320328,-71.308158875,0.000000000,19.887001038,-27.533567429
1748602218.050347,41.342000000,0.000000000,0.000000000,0.000000000,0.000000000,-2.837320328,-71.308158875,0.000000000,19.887001038,-27.533565521
1748602218.052679,41.344000000,0.000000000,0.000000000,0.000000000,0.000000000,-2.837320328,-71.308158875,0.000000000,19.887001038,-27.533563614
1748602218.055009,41.347000000,0.000000000,0.000000000,0.000000000,0.000000000,-2.837320328,-71.308158875,0.000000000,19.887001038,-27.533561707
1748602218.057341,41.349000000,0.000000000,0.000000000,0.000000000,0.000000000,-2.837320328,-71.308158875,0.000000000,19.887001038,-27.533561707
1748602218.059701,41.351000000,0.000000000,0.000000000,0.000000000,0.000000000,-2.837320328,-71.308158875,0.000000000,19.887001038,-27.533559799
1748602218.062029,41.354000000,0.000000000,0.000000000,0.000000000,0.000000000,-2.837320328,-71.308158875,0.000000000,19.887001038,-27.533557892
1748602218.064362,41.356000000,0.000000000,0.000000000,0.000000000,0.000000000,-2.837320328,-71.308158875,0.000000000,19.887001038,-27.533557892
1748602218.066706,41.358000000,0.000000000,0.000000000,0.000000000,0.000000000,-2.837320328,-71.308158875,0.000000000,19.887001038,-27.533555984
1748602218.069051,41.361000000,0.000000000,0.000000000,0.000000000,0.000000000,-2.837320328,-71.308158875,0.000000000,19.887001038,-27.533555984
1748602218.071423,41.363000000,0.000000000,0.000000000,0.000000000,0.000000000,-2.837320328,-71.308158875,0.000000000,19.887001038,-27.533555984
1748602218.073732,41.365000000,0.000000000,0.000000000,0.000000000,0.000000000,-2.837320328,-71.308158875,0.000000000,19.887001038,-27.533554077
1748602218.076066,41.368000000,0.000000000,0.000000000,0.000000000,0.000000000,-2.837320328,-71.308158875,0.000000000,19.887001038,-27.533554077
1748602218.078400,41.370000000,0.000000000,0.000000000,0.000000000,0.000000000,-2.837320328,-71.308158875,0.000000000,19.887001038,-27.533554077
1748602218.080800,41.372000000,0.000000000,0.000000000,0.000000000,0.000000000,-2.837320328,-71.308158875,0.000000000,19.887001038,-27.533552170
1748602218.083193,41.375000000,0.000000000,0.000000000,0.000000000,0.000000000,-2.837320328,-71.308158875,0.000000000,19.887001038,-27.533552170
1748602218.085488,41.377000000,0.000000000,0.000000000,0.000000000,0.000000000,-2.837320328,-71.308158875,0.000000000,19.887001038,-27.533552170
1748602218.087863,41.379000000,0.000000000,0.000000000,0.000000000,0.000000000,-2.837320328,-71.308158875,0.000000000,19.887001038,-27.533552170
1748602218.090195,41.382000000,0.000000000,0.000000000,0.000000000,0.000000000,-2.837320328,-101.308158875,0.000000000,19.887001038,-27.533552170
1748602218.092507,41.384000000,0.000000000,0.000000000,0.000000000,0.000000000,-2.796818972,-106.757850647,0.000000000,19.887001038,-27.530740738
1748602218.094887,41.386000000,0.000000000,0.000000000,0.000000000,0.000000000,-2.729318380,-109.350418091,0.000000000,19.887001038,-27.526060104
1748602218.097221,41.389000000,0.000000000,0.000000000,0.000000000,0.000000000,-2.715818882,-99.831787109,0.000000000,19.887001038,-27.525123596
1748602218.099634,41.391000000,0.000000000,0.000000000,0.000000000,0.000000000,-2.715818882,-97.612220764,0.000000000,19.887001038,-27.525123596
1748602218.102013,41.394000000,0.000000000,0.000000000,0.000000000,0.000000000,-2.715818882,-97.612220764,0.000000000,19.887001038,-27.525123596
1748602218.104377,41.396000000,0.000000000,0.000000000,0.000000000,0.000000000,-2.715818882,-97.612220764,0.000000000,19.887001038,-27.525123596
1748602218.106740,41.398000000,0.000000000,0.000000000,0.000000000,0.000000000,-2.715818882,-97.612220764,0.000000000,19.887001038,-27.525123596
1748602218.109139,41.401000000,0.000000000,0.000000000,0.000000000,0.000000000,-2.702316761,-99.429008484,0.000000000,19.887001038,-27.524185181
1748602218.111528,41.403000000,0.000000000,0.000000000,0.000000000,0.000000000,-2.688817024,-99.005790710,0.000000000,19.887001038,-27.523250580
1748602218.113892,41.405000000,0.000000000,0.000000000,0.000000000,0.000000000,-2.688817024,-96.790855408,0.000000000,19.887001038,-27.523250580
1748602218.116259,41.408000000,0.000000000,0.000000000,0.000000000,0.000000000,-2.675317526,-98.599784851,0.000000000,19.887001038,-27.522312164
1748602218.118669,41.410000000,0.000000000,0.000000000,0.000000000,0.000000000,-2.675317526,-96.380218506,0.000000000,19.887001038,-27.522312164
1748602218.121105,41.413000000,0.000000000,0.000000000,0.000000000,0.000000000,-2.661815166,-98.151802063,0.000000000,19.887001038,-27.521375656
1748602218.123551,41.415000000,0.000000000,0.000000000,0.000000000,0.000000000,-2.661815166,-95.969490051,0.000000000,19.887001038,-27.521375656
1748602218.125993,41.418000000,0.000000000,0.000000000,0.000000000,0.000000000,-2.648315668,-97.713020325,0.000000000,19.887001038,-27.520439148
1748602218.128417,41.420000000,0.000000000,0.000000000,0.000000000,0.000000000,-2.634816170,-97.303268433,0.000000000,19.887001038,-27.519502640
1748602218.130862,41.422000000,0.000000000,0.000000000,0.000000000,0.000000000,-2.621316671,-96.905944824,0.000000000,19.887001038,-27.518566132
1748602218.133317,41.425000000,0.000000000,0.000000000,0.000000000,0.000000000,-2.607814312,-96.487663269,0.000000000,19.887001038,-27.517629623
1748602218.135731,41.427000000,0.000000000,0.000000000,0.000000000,0.000000000,-2.607814312,-94.326843262,0.000000000,19.887001038,-27.517629623
1748602218.138158,41.430000000,0.000000000,0.000000000,0.000000000,0.000000000,-2.607814312,-94.326843262,0.000000000,19.887001038,-27.517629623
1748602218.140628,41.432000000,0.000000000,0.000000000,0.000000000,0.000000000,-2.607814312,-94.326843262,0.000000000,19.887001038,-27.517629623
1748602218.143024,41.435000000,0.000000000,0.000000000,0.000000000,0.000000000,-2.607814312,-64.326843262,0.000000000,19.887001038,-27.517629623
1748602218.145498,41.437000000,0.000000000,0.000000000,0.000000000,0.000000000,-2.634816170,-60.830566406,0.000000000,19.887001038,-27.519502640
1748602218.147914,41.439000000,0.000000000,0.000000000,0.000000000,0.000000000,-2.702316761,-56.534873962,0.000000000,19.887001038,-27.524183273
1748602218.150343,41.442000000,0.000000000,0.000000000,0.000000000,0.000000000,-2.729318380,-63.694618225,0.000000000,19.887001038,-27.526058197
1748602218.152778,41.444000000,0.000000000,0.000000000,0.000000000,0.000000000,-2.715818882,-69.772583008,0.000000000,19.887001038,-27.525121689
1748602218.155242,41.447000000,0.000000000,0.000000000,0.000000000,0.000000000,-2.715818882,-67.612220764,0.000000000,19.887001038,-27.525121689
1748602218.157664,41.449000000,0.000000000,0.000000000,0.000000000,0.000000000,-2.715818882,-67.612220764,0.000000000,19.887001038,-27.525121689
1748602218.160078,41.452000000,0.000000000,0.000000000,0.000000000,0.000000000,-2.729318380,-65.858947754,0.000000000,19.887001038,-27.526058197
1748602218.162455,41.454000000,0.000000000,0.000000000,0.000000000,0.000000000,-2.742817879,-66.240745544,0.000000000,19.887001038,-27.526994705
1748602218.164883,41.456000000,0.000000000,0.000000000,0.000000000,0.000000000,-2.729318380,-70.244300842,0.000000000,19.887001038,-27.526058197
1748602218.167262,41.459000000,0.000000000,0.000000000,0.000000000,0.000000000,-2.729318380,-68.022865295,0.000000000,19.887001038,-27.526058197
1748602218.169628,41.461000000,0.000000000,0.000000000,0.000000000,0.000000000,-2.729318380,-68.022865295,0.000000000,19.887001038,-27.526058197
1748602218.172022,41.464000000,0.000000000,0.000000000,0.000000000,0.000000000,-2.729318380,-68.022865295,0.000000000,19.887001038,-27.526058197
1748602218.174336,41.466000000,0.000000000,0.000000000,0.000000000,0.000000000,-2.742817879,-66.214874268,0.000000000,19.887001038,-27.526994705
1748602218.176717,41.468000000,0.000000000,0.000000000,0.000000000,0.000000000,-2.742817879,-68.433502197,0.000000000,19.887001038,-27.526994705
1748602218.179127,41.471000000,0.000000000,0.000000000,0.000000000,0.000000000,-2.756320238,-66.626998901,0.000000000,19.887001038,-27.527931213
1748602218.181529,41.473000000,0.000000000,0.000000000,0.000000000,0.000000000,-2.756320238,-68.844230652,0.000000000,19.887001038,-27.527931213
1748602218.183908,41.475000000,0.000000000,0.000000000,0.000000000,0.000000000,-2.756320238,-68.844230652,0.000000000,19.887001038,-27.527931213
1748602218.186275,41.478000000,0.000000000,0.000000000,0.000000000,0.000000000,-2.756320238,-68.844230652,0.000000000,19.887001038,-27.527931213
1748602218.188659,41.480000000,0.000000000,0.000000000,0.000000000,0.000000000,-2.742817879,-70.651664734,0.000000000,19.887001038,-27.526994705
1748602218.191030,41.483000000,0.000000000,0.000000000,0.000000000,0.000000000,-2.742817879,-68.433502197,0.000000000,19.887001038,-27.526994705
1748602218.193412,41.485000000,0.000000000,0.000000000,0.000000000,0.000000000,-2.729318380,-100.242431641,0.000000000,19.887001038,-27.526058197
1748602218.195793,41.487000000,0.000000000,0.000000000,0.000000000,0.000000000,-2.675317526,-105.199455261,0.000000000,19.887001038,-27.522312164
1748602218.198244,41.490000000,0.000000000,0.000000000,0.000000000,0.000000000,-2.594314814,-107.200912476,0.000000000,19.887001038,-27.516693115
1748602218.200615,41.492000000,0.000000000,0.000000000,0.000000000,0.000000000,-2.567312956,-97.477157593,0.000000000,19.887001038,-27.514822006
1748602218.202978,41.494000000,0.000000000,0.000000000,0.000000000,0.000000000,-2.553813457,-94.900024414,0.000000000,19.887001038,-27.513885498
1748602218.205347,41.497000000,0.000000000,0.000000000,0.000000000,0.000000000,-2.540313959,-94.494049072,0.000000000,19.887001038,-27.512948990
1748602218.207729,41.499000000,0.000000000,0.000000000,0.000000000,0.000000000,-2.526814461,-94.079673767,0.000000000,19.887001038,-27.512010574
1748602218.210099,41.502000000,0.000000000,0.000000000,0.000000000,0.000000000,-2.513312101,-93.671287537,0.000000000,19.887001038,-27.511074066
1748602218.212472,41.504000000,0.000000000,0.000000000,0.000000000,0.000000000,-2.499812603,-93.252723694,0.000000000,19.887001038,-27.510137558
1748602218.214848,41.506000000,0.000000000,0.000000000,0.000000000,0.000000000,-2.486312866,-92.843971252,0.000000000,19.887001038,-27.509202957
1748602218.217218,41.509000000,0.000000000,0.000000000,0.000000000,0.000000000,-2.486312866,-90.630897522,0.000000000,19.887001038,-27.509202957
1748602218.219578,41.511000000,0.000000000,0.000000000,0.000000000,0.000000000,-2.486312866,-90.630897522,0.000000000,19.887001038,-27.509202957
1748602218.221982,41.513000000,0.000000000,0.000000000,0.000000000,0.000000000,-2.472810745,-92.442054749,0.000000000,19.887001038,-27.508266449
1748602218.224360,41.516000000,0.000000000,0.000000000,0.000000000,0.000000000,-2.472810745,-90.220184326,0.000000000,19.887001038,-27.508266449
1748602218.226822,41.518000000,0.000000000,0.000000000,0.000000000,0.000000000,-2.445811749,-93.806442261,0.000000000,19.887001038,-27.506393433
1748602218.229228,41.521000000,0.000000000,0.000000000,0.000000000,0.000000000,-2.432312012,-91.136322021,0.000000000,19.887001038,-27.505456924
1748602218.231699,41.523000000,0.000000000,0.000000000,0.000000000,0.000000000,-2.405310154,-92.536483765,0.000000000,19.887001038,-27.503583908
1748602218.234098,41.526000000,0.000000000,0.000000000,0.000000000,0.000000000,-2.391810656,-89.891204834,0.000000000,19.887001038,-27.502649307
1748602218.236496,41.528000000,0.000000000,0.000000000,0.000000000,0.000000000,-2.378308535,-89.547882080,0.000000000,19.887001038,-27.501710892
1748602218.238930,41.530000000,0.000000000,0.000000000,0.000000000,0.000000000,-2.378308535,-87.345527649,0.000000000,19.887001038,-27.501710892
1748602218.241301,41.533000000,0.000000000,0.000000000,0.000000000,0.000000000,-2.378308535,-87.345527649,0.000000000,19.887001038,-27.501710892
1748602218.243652,41.535000000,0.000000000,0.000000000,0.000000000,0.000000000,-2.378308535,-87.345527649,0.000000000,19.887001038,-27.501710892
1748602218.246065,41.538000000,0.000000000,0.000000000,0.000000000,0.000000000,-2.378308535,-87.345527649,0.000000000,19.887001038,-27.501710892
1748602218.248659,41.540000000,0.000000000,0.000000000,0.000000000,0.000000000,-2.378308535,-87.345527649,0.000000000,19.887001038,-27.501710892
1748602218.251036,41.542000000,0.000000000,0.000000000,0.000000000,0.000000000,-2.378308535,-87.345527649,0.000000000,19.887001038,-27.501710892
1748602218.253490,41.545000000,0.000000000,0.000000000,0.000000000,0.000000000,-2.378308535,-87.345527649,0.000000000,19.887001038,-27.501710892
1748602218.255981,41.547000000,0.000000000,0.000000000,0.000000000,0.000000000,-2.391810656,-85.605178833,0.000000000,19.887001038,-27.502649307
1748602218.258462,41.550000000,0.000000000,0.000000000,0.000000000,0.000000000,-2.378308535,-89.457771301,0.000000000,19.887001038,-27.501710892
1748602218.260975,41.552000000,0.000000000,0.000000000,0.000000000,0.000000000,-2.364809036,-89.059509277,0.000000000,19.887001038,-27.500774384
1748602218.263484,41.555000000,0.000000000,0.000000000,0.000000000,0.000000000,-2.364809036,-86.934890747,0.000000000,19.887001038,-27.500774384
1748602218.265998,41.557000000,0.000000000,0.000000000,0.000000000,0.000000000,-2.364809036,-86.934890747,0.000000000,19.887001038,-27.500774384
1748602218.268477,41.560000000,0.000000000,0.000000000,0.000000000,0.000000000,-2.364809036,-86.934890747,0.000000000,19.887001038,-27.500774384
1748602218.271090,41.563000000,0.000000000,0.000000000,0.000000000,0.000000000,-2.351309299,-88.640357971,0.000000000,19.896001816,-25.523109436
1748602218.273528,41.565000000,0.000000000,0.000000000,0.000000000,0.000000000,-2.351309299,-86.524238586,0.000000000,19.887001038,-27.487882614
1748602218.276020,41.567000000,0.000000000,0.000000000,0.000000000,0.000000000,-2.351309299,-86.524238586,0.000000000,19.896001816,-25.515586853
1748602218.278459,41.570000000,0.000000000,0.000000000,0.000000000,0.000000000,-2.351309299,-86.524238586,0.000000000,19.887001038,-27.470260620
1748602218.280986,41.572000000,0.000000000,0.000000000,0.000000000,0.000000000,-2.351309299,-86.524238586,0.000000000,19.887001038,-27.473218918
1748602218.283492,41.575000000,0.000000000,0.000000000,0.000000000,0.000000000,-2.337807178,-88.205627441,0.000000000,19.887001038,-27.474950790
1748602218.285939,41.577000000,0.000000000,0.000000000,0.000000000,0.000000000,-2.337807178,-86.113525391,0.000000000,19.887001038,-27.477346420
1748602218.288379,41.580000000,0.000000000,0.000000000,0.000000000,0.000000000,-2.337807178,-86.113525391,0.000000000,19.887001038,-27.479501724
1748602218.290868,41.582000000,0.000000000,0.000000000,0.000000000,0.000000000,-2.310807943,-89.562187195,0.000000000,19.887001038,-27.479579926
1748602218.293307,41.585000000,0.000000000,0.000000000,0.000000000,0.000000000,-2.297308445,-87.020019531,0.000000000,19.878000259,-29.454729080
1748602218.295735,41.587000000,0.000000000,0.000000000,0.000000000,0.000000000,-2.283806324,-86.611457825,0.000000000,19.878000259,-29.476972580
1748602218.298183,41.590000000,0.000000000,0.000000000,0.000000000,0.000000000,-2.283806324,-84.470878601,0.000000000,19.878000259,-29.497837067
1748602218.300557,41.592000000,0.000000000,0.000000000,0.000000000,0.000000000,-2.270306587,-86.240310669,0.000000000,19.878000259,-29.515657425
1748602218.302904,41.594000000,0.000000000,0.000000000,0.000000000,0.000000000,-2.243304729,-87.670982361,0.000000000,19.878000259,-29.530622482
1748602218.305352,41.597000000,0.000000000,0.000000000,0.000000000,0.000000000,-2.216305733,-86.828811646,0.000000000,19.878000259,-29.543880463
1748602218.307737,41.599000000,0.000000000,0.000000000,0.000000000,0.000000000,-2.202806234,-84.179786682,0.000000000,19.878000259,-29.556577682
1748602218.310128,41.602000000,0.000000000,0.000000000,0.000000000,0.000000000,-2.202806234,-82.006942749,0.000000000,19.878000259,-29.568876266
1748602218.312505,41.604000000,0.000000000,0.000000000,0.000000000,0.000000000,-2.189303875,-83.791259766,0.000000000,19.887001038,-27.610374451
1748602218.314884,41.606000000,0.000000000,0.000000000,0.000000000,0.000000000,-2.175804377,-83.400474548,0.000000000,19.878000259,-29.563661575
1748602218.317219,41.609000000,0.000000000,0.000000000,0.000000000,0.000000000,-2.162304878,-82.983322144,0.000000000,19.887001038,-27.606885910
1748602218.319569,41.611000000,0.000000000,0.000000000,0.000000000,0.000000000,-2.162304878,-80.774932861,0.000000000,19.887001038,-27.594869614
1748602218.321892,41.613000000,0.000000000,0.000000000,0.000000000,0.000000000,-2.162304878,-80.774932861,0.000000000,19.887001038,-27.584054947
1748602218.324245,41.616000000,0.000000000,0.000000000,0.000000000,0.000000000,-2.162304878,-80.774932861,0.000000000,19.887001038,-27.574323654
1748602218.326601,41.618000000,0.000000000,0.000000000,0.000000000,0.000000000,-2.148802519,-82.614601135,0.000000000,19.887001038,-27.564603806
1748602218.329001,41.621000000,0.000000000,0.000000000,0.000000000,0.000000000,-2.148802519,-80.364204407,0.000000000,19.887001038,-27.556722641
1748602218.331407,41.623000000,0.000000000,0.000000000,0.000000000,0.000000000,-2.135303020,-82.151817322,0.000000000,19.887001038,-27.548673630
1748602218.333837,41.625000000,0.000000000,0.000000000,0.000000000,0.000000000,-2.121803522,-81.697105408,0.000000000,19.887001038,-27.541337967
1748602218.336270,41.628000000,0.000000000,0.000000000,0.000000000,0.000000000,-2.108304024,-81.303337097,0.000000000,19.887001038,-27.534645081
1748602218.338757,41.630000000,0.000000000,0.000000000,0.000000000,0.000000000,-2.108304024,-79.132286072,0.000000000,19.887001038,-27.529478073
1748602218.341226,41.633000000,0.000000000,0.000000000,0.000000000,0.000000000,-2.094801664,-80.832153320,0.000000000,19.887001038,-27.523880005
1748602218.343634,41.635000000,0.000000000,0.000000000,0.000000000,0.000000000,-2.081302166,-80.440696716,0.000000000,19.887001038,-27.518749237
1748602218.346024,41.638000000,0.000000000,0.000000000,0.000000000,0.000000000,-2.081302166,-78.310920715,0.000000000,19.887001038,-27.514986038
1748602218.348500,41.640000000,0.000000000,0.000000000,0.000000000,0.000000000,-2.081302166,-78.310920715,0.000000000,19.887001038,-27.511598587
1748602218.350978,41.643000000,0.000000000,0.000000000,0.000000000,0.000000000,-2.067802429,-80.015541077,0.000000000,19.887001038,-27.507604599
1748602218.353430,41.645000000,0.000000000,0.000000000,0.000000000,0.000000000,-2.067802429,-77.900276184,0.000000000,19.887001038,-27.504861832
1748602218.355912,41.647000000,0.000000000,0.000000000,0.000000000,0.000000000,-2.067802429,-77.900276184,0.000000000,19.887001038,-27.502391815
1748602218.358381,41.650000000,0.000000000,0.000000000,0.000000000,0.000000000,-2.067802429,-77.900276184,0.000000000,19.887001038,-27.500171661
1748602218.360842,41.652000000,0.000000000,0.000000000,0.000000000,0.000000000,-2.054300308,-79.620605469,0.000000000,19.887001038,-27.497228622
1748602218.363284,41.655000000,0.000000000,0.000000000,0.000000000,0.000000000,-2.054300308,-47.489555359,0.000000000,19.887001038,-27.495429993
1748602218.365762,41.657000000,0.000000000,0.000000000,0.000000000,0.000000000,-2.094801664,-42.237354279,0.000000000,19.887001038,-27.496633530
1748602218.368227,41.660000000,0.000000000,0.000000000,0.000000000,0.000000000,-2.175804377,-38.442108154,0.000000000,19.887001038,-27.500816345
1748602218.370694,41.662000000,0.000000000,0.000000000,0.000000000,0.000000000,-2.216305733,-46.025215149,0.000000000,19.887001038,-27.502321243
1748602218.373142,41.665000000,0.000000000,0.000000000,0.000000000,0.000000000,-2.189303875,-55.905021667,0.000000000,19.887001038,-27.499258041
1748602218.375588,41.667000000,0.000000000,0.000000000,0.000000000,0.000000000,-2.162304878,-55.065727234,0.000000000,19.887001038,-27.496313095
1748602218.378058,41.670000000,0.000000000,0.000000000,0.000000000,0.000000000,-2.162304878,-50.774932861,0.000000000,19.887001038,-27.495355606
1748602218.380512,41.672000000,0.000000000,0.000000000,0.000000000,0.000000000,-2.189303875,-47.296661377,0.000000000,19.887001038,-27.496370316
1748602218.382968,41.674000000,0.000000000,0.000000000,0.000000000,0.000000000,-2.216305733,-48.152400970,0.000000000,19.887001038,-27.497470856
1748602218.385408,41.677000000,0.000000000,0.000000000,0.000000000,0.000000000,-2.216305733,-52.417579651,0.000000000,19.887001038,-27.496770859
1748602218.387850,41.679000000,0.000000000,0.000000000,0.000000000,0.000000000,-2.216305733,-52.417579651,0.000000000,19.887001038,-27.496141434
1748602218.390292,41.682000000,0.000000000,0.000000000,0.000000000,0.000000000,-2.216305733,-52.417579651,0.000000000,19.887001038,-27.495574951
1748602218.392697,41.684000000,0.000000000,0.000000000,0.000000000,0.000000000,-2.216305733,-52.417579651,0.000000000,19.887001038,-27.495063782
1748602218.395063,41.687000000,0.000000000,0.000000000,0.000000000,0.000000000,-2.229805231,-50.626296997,0.000000000,19.887001038,-27.495542526
1748602218.397514,41.689000000,0.000000000,0.000000000,0.000000000,0.000000000,-2.256807089,-49.221191406,0.000000000,19.887001038,-27.497005463
1748602218.399950,41.691000000,0.000000000,0.000000000,0.000000000,0.000000000,-2.297308445,-48.447566986,0.000000000,19.887001038,-27.499444962
1748602218.402408,41.694000000,0.000000000,0.000000000,0.000000000,0.000000000,-2.297308445,-54.881591797,0.000000000,19.887001038,-27.499111176
1748602218.404880,41.696000000,0.000000000,0.000000000,0.000000000,0.000000000,-2.297308445,-54.881591797,0.000000000,19.887001038,-27.498809814
1748602218.407357,41.699000000,0.000000000,0.000000000,0.000000000,0.000000000,-2.297308445,-54.881591797,0.000000000,19.887001038,-27.498537064
1748602218.409747,41.701000000,0.000000000,0.000000000,0.000000000,0.000000000,-2.297308445,-54.881591797,0.000000000,19.887001038,-27.498292923
1748602218.412167,41.704000000,0.000000000,0.000000000,0.000000000,0.000000000,-2.297308445,-54.881591797,0.000000000,19.887001038,-27.498073578
1748602218.414558,41.706000000,0.000000000,0.000000000,0.000000000,0.000000000,-2.297308445,-54.881591797,0.000000000,19.887001038,-27.497875214
1748602218.416954,41.708000000,0.000000000,0.000000000,0.000000000,0.000000000,-2.297308445,-54.881591797,0.000000000,19.887001038,-27.497697830
1748602218.419335,41.711000000,0.000000000,0.000000000,0.000000000,0.000000000,-2.297308445,-54.881591797,0.000000000,19.887001038,-27.497537613
1748602218.421723,41.713000000,0.000000000,0.000000000,0.000000000,0.000000000,-2.297308445,-54.881591797,0.000000000,19.887001038,-27.497392654
1748602218.424103,41.716000000,0.000000000,0.000000000,0.000000000,0.000000000,-2.297308445,-54.881591797,0.000000000,19.887001038,-27.497262955
1748602218.426497,41.718000000,0.000000000,0.000000000,0.000000000,0.000000000,-2.297308445,-54.881591797,0.000000000,19.887001038,-27.497146606
1748602218.428921,41.720000000,0.000000000,0.000000000,0.000000000,0.000000000,-2.297308445,-54.881591797,0.000000000,19.887001038,-27.497039795
1748602218.431354,41.723000000,0.000000000,0.000000000,0.000000000,0.000000000,-2.297308445,-54.881591797,0.000000000,19.887001038,-27.496946335
1748602218.433671,41.725000000,0.000000000,0.000000000,0.000000000,0.000000000,-2.297308445,-54.881591797,0.000000000,19.887001038,-27.496860504
1748602218.436036,41.728000000,0.000000000,0.000000000,0.000000000,0.000000000,-2.297308445,-54.881591797,0.000000000,19.887001038,-27.496784210
1748602218.438417,41.730000000,0.000000000,0.000000000,0.000000000,0.000000000,-2.297308445,-54.881591797,0.000000000,19.887001038,-27.496715546
1748602218.440808,41.732000000,0.000000000,0.000000000,0.000000000,0.000000000,-2.297308445,-54.881591797,0.000000000,19.887001038,-27.496652603
1748602218.443190,41.735000000,0.000000000,0.000000000,0.000000000,0.000000000,-2.297308445,-54.881591797,0.000000000,19.887001038,-27.496597290
1748602218.445567,41.737000000,0.000000000,0.000000000,0.000000000,0.000000000,-2.297308445,-54.881591797,0.000000000,19.887001038,-27.496545792
1748602218.447943,41.739000000,0.000000000,0.000000000,0.000000000,0.000000000,-2.297308445,-54.881591797,0.000000000,19.887001038,-27.496501923
1748602218.450314,41.742000000,0.000000000,0.000000000,0.000000000,0.000000000,-2.324307442,-51.265617371,0.000000000,19.887001038,-27.498331070
1748602218.452689,41.744000000,0.000000000,0.000000000,0.000000000,0.000000000,-2.337807178,-53.901382446,0.000000000,19.887001038,-27.499231339
1748602218.455051,41.747000000,0.000000000,0.000000000,0.000000000,0.000000000,-2.351309299,-54.303306580,0.000000000,19.887001038,-27.500135422
1748602218.457424,41.749000000,0.000000000,0.000000000,0.000000000,0.000000000,-2.351309299,-56.524238586,0.000000000,19.887001038,-27.500104904
1748602218.459825,41.751000000,0.000000000,0.000000000,0.000000000,0.000000000,-2.351309299,-56.524238586,0.000000000,19.887001038,-27.500078201
1748602218.462191,41.754000000,0.000000000,0.000000000,0.000000000,0.000000000,-2.378308535,-52.934257507,0.000000000,19.887001038,-27.501928329
1748602218.464556,41.756000000,0.000000000,0.000000000,0.000000000,0.000000000,-2.418809891,-51.921180725,0.000000000,19.887001038,-27.504714966
1748602218.466936,41.758000000,0.000000000,0.000000000,0.000000000,0.000000000,-2.459311247,-53.139129639,0.000000000,19.887001038,-27.507505417
1748602218.469383,41.761000000,0.000000000,0.000000000,0.000000000,0.000000000,-2.486312866,-56.196945190,0.000000000,19.887001038,-27.509361267
1748602218.471824,41.763000000,0.000000000,0.000000000,0.000000000,0.000000000,-2.486312866,-60.630897522,0.000000000,19.887001038,-27.509346008
1748602218.474291,41.766000000,0.000000000,0.000000000,0.000000000,0.000000000,-2.486312866,-60.630897522,0.000000000,19.887001038,-27.509330750
1748602218.476764,41.768000000,0.000000000,0.000000000,0.000000000,0.000000000,-2.526814461,-55.496276855,0.000000000,19.887001038,-27.512126923
1748602218.479236,41.771000000,0.000000000,0.000000000,0.000000000,0.000000000,-2.567312956,-56.689964294,0.000000000,19.887001038,-27.514926910
1748602218.481730,41.773000000,0.000000000,0.000000000,0.000000000,0.000000000,-2.594314814,-59.637153625,0.000000000,19.887001038,-27.516786575
1748602218.484186,41.776000000,0.000000000,0.000000000,0.000000000,0.000000000,-2.607814312,-62.199645996,0.000000000,19.887001038,-27.517713547
1748602218.486674,41.778000000,0.000000000,0.000000000,0.000000000,0.000000000,-2.607814312,-64.326843262,0.000000000,19.887001038,-27.517705917
1748602218.489212,41.781000000,0.000000000,0.000000000,0.000000000,0.000000000,-2.621316671,-62.622741699,0.000000000,19.887001038,-27.518634796
1748602218.491704,41.783000000,0.000000000,0.000000000,0.000000000,0.000000000,-2.661815166,-59.623802185,0.000000000,19.887001038,-27.521436691
1748602218.494185,41.786000000,0.000000000,0.000000000,0.000000000,0.000000000,-2.702316761,-60.955703735,0.000000000,19.887001038,-27.524238586
1748602218.496688,41.788000000,0.000000000,0.000000000,0.000000000,0.000000000,-2.715818882,-65.472511292,0.000000000,19.887001038,-27.525171280
1748602218.499135,41.791000000,0.000000000,0.000000000,0.000000000,0.000000000,-2.715818882,-67.612220764,0.000000000,19.896001816,-25.547756195
1748602218.501606,41.793000000,0.000000000,0.000000000,0.000000000,0.000000000,-2.715818882,-67.612220764,0.000000000,19.896001816,-25.526214600
1748602218.504089,41.796000000,0.000000000,0.000000000,0.000000000,0.000000000,-2.729318380,-65.900817871,0.000000000,19.896001816,-25.507740021
1748602218.506574,41.798000000,0.000000000,0.000000000,0.000000000,0.000000000,-2.756320238,-64.596260071,0.000000000,19.896001816,-25.492105484
1748602218.509105,41.801000000,0.000000000,0.000000000,0.000000000,0.000000000,-2.769819736,-67.137939453,0.000000000,19.896001816,-25.477289200
1748602218.511683,41.803000000,0.000000000,0.000000000,0.000000000,0.000000000,-2.783319473,-67.577095032,0.000000000,19.896001816,-25.464040756
1748602218.514188,41.806000000,0.000000000,0.000000000,0.000000000,0.000000000,-2.783319473,-69.665512085,0.000000000,19.896001816,-25.451301575
1748602218.516713,41.808000000,0.000000000,0.000000000,0.000000000,0.000000000,-2.783319473,-69.665512085,0.000000000,19.896001816,-25.439834595
1748602218.519204,41.811000000,0.000000000,0.000000000,0.000000000,0.000000000,-2.796818972,-67.985290527,0.000000000,19.896001816,-25.430406570
1748602218.521742,41.813000000,0.000000000,0.000000000,0.000000000,0.000000000,-2.823820591,-66.678512573,0.000000000,19.896001816,-25.422887802
1748602218.524234,41.816000000,0.000000000,0.000000000,0.000000000,0.000000000,-2.837320328,-69.223052979,0.000000000,19.904998779,-23.435832977
1748602218.526698,41.818000000,0.000000000,0.000000000,0.000000000,0.000000000,-2.850822449,-69.589553833,0.000000000,19.896001816,-25.382881165
1748602218.529164,41.821000000,0.000000000,0.000000000,0.000000000,0.000000000,-2.864322186,-70.015960693,0.000000000,19.904998779,-23.402978897
1748602218.531533,41.823000000,0.000000000,0.000000000,0.000000000,0.000000000,-2.877821684,-70.385108948,0.000000000,19.896001816,-25.350784302
1748602218.533952,41.825000000,0.000000000,0.000000000,0.000000000,0.000000000,-2.891321182,-70.758964539,0.000000000,19.896001816,-25.350837708
1748602218.536326,41.828000000,0.000000000,0.000000000,0.000000000,0.000000000,-2.918323040,-69.384376526,0.000000000,19.896001816,-25.351837158
1748602218.538714,41.830000000,0.000000000,0.000000000,0.000000000,0.000000000,-2.931822538,-71.972572327,0.000000000,19.896001816,-25.352043152
1748602218.541090,41.833000000,0.000000000,0.000000000,0.000000000,0.000000000,-2.945324898,-72.382827759,0.000000000,19.896001816,-25.352313995
1748602218.543515,41.835000000,0.000000000,0.000000000,0.000000000,0.000000000,-2.972323895,-70.996192932,0.000000000,19.896001816,-25.353509903
1748602218.545906,41.837000000,0.000000000,0.000000000,0.000000000,0.000000000,-2.999325752,-71.875640869,0.000000000,19.896001816,-25.354755402
1748602218.548284,41.840000000,0.000000000,0.000000000,0.000000000,0.000000000,-3.012825251,-74.440284729,0.000000000,19.896001816,-25.355188370
1748602218.550680,41.842000000,0.000000000,0.000000000,0.000000000,0.000000000,-3.026324749,-74.857383728,0.000000000,19.896001816,-25.355661392
1748602218.553085,41.845000000,0.000000000,0.000000000,0.000000000,0.000000000,-3.039827108,-75.265800476,0.000000000,19.896001816,-25.356174469
1748602218.555471,41.847000000,0.000000000,0.000000000,0.000000000,0.000000000,-3.066826105,-73.916709900,0.000000000,19.896001816,-25.357585907
1748602218.557901,41.849000000,0.000000000,0.000000000,0.000000000,0.000000000,-3.107327461,-72.895843506,0.000000000,19.896001816,-25.359889984
1748602218.560312,41.852000000,0.000000000,0.000000000,0.000000000,0.000000000,-3.134329319,-76.030517578,0.000000000,19.896001816,-25.361360550
1748602218.562721,41.854000000,0.000000000,0.000000000,0.000000000,0.000000000,-3.161328316,-76.778617859,0.000000000,19.896001816,-25.362854004
1748602218.565148,41.857000000,0.000000000,0.000000000,0.000000000,0.000000000,-3.174830675,-79.369689941,0.000000000,19.896001816,-25.363508224
1748602218.567507,41.859000000,0.000000000,0.000000000,0.000000000,0.000000000,-3.188330173,-79.815338135,0.000000000,19.896001816,-25.364185333
1748602218.569891,41.861000000,0.000000000,0.000000000,0.000000000,0.000000000,-3.174830675,-83.786026001,0.000000000,19.896001816,-25.363153458
1748602218.572287,41.864000000,0.000000000,0.000000000,0.000000000,0.000000000,-3.174830675,-81.574851990,0.000000000,19.896001816,-25.363002777
1748602218.574703,41.866000000,0.000000000,0.000000000,0.000000000,0.000000000,-3.174830675,-81.574851990,0.000000000,19.896001816,-25.362865448
1748602218.577230,41.869000000,0.000000000,0.000000000,0.000000000,0.000000000,-3.188330173,-79.794563293,0.000000000,19.896001816,-25.363607407
1748602218.579698,41.871000000,0.000000000,0.000000000,0.000000000,0.000000000,-3.215329409,-78.615028381,0.000000000,19.896001816,-25.365221024
1748602218.582063,41.874000000,0.000000000,0.000000000,0.000000000,0.000000000,-3.242331028,-79.340423584,0.000000000,19.896001816,-25.366847992
1748602218.584427,41.876000000,0.000000000,0.000000000,0.000000000,0.000000000,-3.269332886,-80.030403137,0.000000000,19.896001816,-25.368480682
1748602218.586809,41.878000000,0.000000000,0.000000000,0.000000000,0.000000000,-3.296332121,-80.855827332,0.000000000,19.896001816,-25.370126724
1748602218.589178,41.881000000,0.000000000,0.000000000,0.000000000,0.000000000,-3.309831619,-83.465606689,0.000000000,19.896001816,-25.370914459
1748602218.591564,41.883000000,0.000000000,0.000000000,0.000000000,0.000000000,-3.309831619,-85.681434631,0.000000000,19.896001816,-25.370849609
1748602218.593952,41.885000000,0.000000000,0.000000000,0.000000000,0.000000000,-3.323333740,-83.885185242,0.000000000,19.896001816,-25.371652603
1748602218.596318,41.888000000,0.000000000,0.000000000,0.000000000,0.000000000,-3.336833477,-84.282264709,0.000000000,19.896001816,-25.372463226
1748602218.598692,41.890000000,0.000000000,0.000000000,0.000000000,0.000000000,-3.350332975,-84.690132141,0.000000000,19.896001816,-25.373277664
1748602218.601069,41.893000000,0.000000000,0.000000000,0.000000000,0.000000000,-3.350332975,-86.913444519,0.000000000,19.896001816,-25.373233795
1748602218.603446,41.895000000,0.000000000,0.000000000,0.000000000,0.000000000,-3.350332975,-86.913444519,0.000000000,19.896001816,-25.373195648
1748602218.605818,41.897000000,0.000000000,0.000000000,0.000000000,0.000000000,-3.350332975,-86.913444519,0.000000000,19.896001816,-25.373161316
1748602218.608205,41.900000000,0.000000000,0.000000000,0.000000000,0.000000000,-3.350332975,-86.913444519,0.000000000,19.887001038,-27.339521408
1748602218.610659,41.902000000,0.000000000,0.000000000,0.000000000,0.000000000,-3.363835335,-85.113449097,0.000000000,19.896001816,-25.395694733
1748602218.613086,41.905000000,0.000000000,0.000000000,0.000000000,0.000000000,-3.377334833,-85.601585388,0.000000000,19.887001038,-27.369911194
1748602218.615499,41.907000000,0.000000000,0.000000000,0.000000000,0.000000000,-3.404333830,-114.185142517,0.000000000,19.887001038,-27.391786575
1748602218.617882,41.909000000,0.000000000,0.000000000,0.000000000,0.000000000,-3.377334833,-122.096702576,0.000000000,19.887001038,-27.408119202
1748602218.620248,41.912000000,0.000000000,0.000000000,0.000000000,0.000000000,-3.309831619,-126.733596802,0.000000000,19.887001038,-27.419942856
1748602218.622647,41.914000000,0.000000000,0.000000000,0.000000000,0.000000000,-3.269332886,-121.088645935,0.000000000,19.887001038,-27.431888580
1748602218.624997,41.917000000,0.000000000,0.000000000,0.000000000,0.000000000,-3.255830765,-116.249465942,0.000000000,19.887001038,-27.444152832
1748602218.627365,41.919000000,0.000000000,0.000000000,0.000000000,0.000000000,-3.255830765,-114.038787842,0.000000000,19.887001038,-27.455995560
1748602218.629749,41.921000000,0.000000000,0.000000000,0.000000000,0.000000000,-3.255830765,-114.038787842,0.000000000,19.887001038,-27.466653824
1748602218.632144,41.924000000,0.000000000,0.000000000,0.000000000,0.000000000,-3.255830765,-114.038787842,0.000000000,19.887001038,-27.476245880
1748602218.634565,41.926000000,0.000000000,0.000000000,0.000000000,0.000000000,-3.255830765,-114.038787842,0.000000000,19.887001038,-27.484878540
1748602218.636968,41.929000000,0.000000000,0.000000000,0.000000000,0.000000000,-3.255830765,-114.038787842,0.000000000,19.887001038,-27.492649078
1748602218.639333,41.931000000,0.000000000,0.000000000,0.000000000,0.000000000,-3.255830765,-114.038787842,0.000000000,19.887001038,-27.499641418
1748602218.641721,41.933000000,0.000000000,0.000000000,0.000000000,0.000000000,-3.255830765,-114.038787842,0.000000000,19.887001038,-27.505935669
1748602218.644123,41.936000000,0.000000000,0.000000000,0.000000000,0.000000000,-3.255830765,-114.038787842,0.000000000,19.887001038,-27.511600494
1748602218.646498,41.938000000,0.000000000,0.000000000,0.000000000,0.000000000,-3.242331028,-115.819114685,0.000000000,19.887001038,-27.515773773
1748602218.648890,41.940000000,0.000000000,0.000000000,0.000000000,0.000000000,-3.242331028,-113.628143311,0.000000000,19.887001038,-27.520360947
1748602218.651249,41.943000000,0.000000000,0.000000000,0.000000000,0.000000000,-3.242331028,-113.628143311,0.000000000,19.887001038,-27.524488449
1748602218.653640,41.945000000,0.000000000,0.000000000,0.000000000,0.000000000,-3.242331028,-113.628143311,0.000000000,19.887001038,-27.528203964
1748602218.656008,41.948000000,0.000000000,0.000000000,0.000000000,0.000000000,-3.242331028,-113.628143311,0.000000000,19.878000259,-29.499534607
1748602218.658380,41.950000000,0.000000000,0.000000000,0.000000000,0.000000000,-3.242331028,-113.628143311,0.000000000,19.878000259,-29.525320053
1748602218.660779,41.952000000,0.000000000,0.000000000,0.000000000,0.000000000,-3.228831530,-115.435195923,0.000000000,19.878000259,-29.547576904
1748602218.663134,41.955000000,0.000000000,0.000000000,0.000000000,0.000000000,-3.228831530,-113.217498779,0.000000000,19.878000259,-29.568456650
1748602218.665527,41.957000000,0.000000000,0.000000000,0.000000000,0.000000000,-3.188330173,-118.689880371,0.000000000,19.878000259,-29.584365845
1748602218.667902,41.959000000,0.000000000,0.000000000,0.000000000,0.000000000,-3.134329319,-119.154701233,0.000000000,19.878000259,-29.597402573
1748602218.670345,41.962000000,0.000000000,0.000000000,0.000000000,0.000000000,-3.093827963,-115.755996704,0.000000000,19.868997574,-31.576745987
1748602218.672724,41.964000000,0.000000000,0.000000000,0.000000000,0.000000000,-3.066826105,-112.593002319,0.000000000,19.878000259,-29.637580872
1748602218.675117,41.967000000,0.000000000,0.000000000,0.000000000,0.000000000,-3.080325603,-106.491722107,0.000000000,19.868997574,-31.617073059
1748602218.677478,41.969000000,0.000000000,0.000000000,0.000000000,0.000000000,-3.080325603,-108.700111389,0.000000000,19.878000259,-29.681091309
1748602218.679825,41.971000000,0.000000000,0.000000000,0.000000000,0.000000000,-3.053326607,-112.319839478,0.000000000,19.868997574,-31.652124405
1748602218.682208,41.974000000,0.000000000,0.000000000,0.000000000,0.000000000,-3.080325603,-104.207954407,0.000000000,19.878000259,-29.718774796
1748602218.684567,41.976000000,0.000000000,0.000000000,0.000000000,0.000000000,-3.080325603,-108.700111389,0.000000000,19.868997574,-31.688634872
1748602218.686941,41.978000000,0.000000000,0.000000000,0.000000000,0.000000000,-3.080325603,-108.700111389,0.000000000,19.868997574,-31.713832855
1748602218.689306,41.981000000,0.000000000,0.000000000,0.000000000,0.000000000,-3.066826105,-110.508102417,0.000000000,19.868997574,-31.735488892
1748602218.691673,41.983000000,0.000000000,0.000000000,0.000000000,0.000000000,-3.053326607,-110.105911255,0.000000000,19.868997574,-31.754861832
1748602218.694069,41.986000000,0.000000000,0.000000000,0.000000000,0.000000000,-3.053326607,-107.878837585,0.000000000,19.868997574,-31.773221970
1748602218.696438,41.988000000,0.000000000,0.000000000,0.000000000,0.000000000,-3.053326607,-107.878837585,0.000000000,19.868997574,-31.789743423
1748602218.698856,41.990000000,0.000000000,0.000000000,0.000000000,0.000000000,-3.039827108,-109.683090210,0.000000000,19.868997574,-31.803571701
1748602218.701375,41.993000000,0.000000000,0.000000000,0.000000000,0.000000000,-3.026324749,-109.243408203,0.000000000,19.868997574,-31.815900803
1748602218.703752,41.995000000,0.000000000,0.000000000,0.000000000,0.000000000,-3.012825251,-108.737693787,0.000000000,19.878000259,-29.846878052
1748602218.706122,41.998000000,0.000000000,0.000000000,0.000000000,0.000000000,-2.999325752,-108.449226379,0.000000000,19.868997574,-31.802602768
1748602218.708504,42.000000000,0.000000000,0.000000000,0.000000000,0.000000000,-2.999325752,-106.236190796,0.000000000,19.868997574,-31.815753937
1748602218.710883,42.002000000,0.000000000,0.000000000,0.000000000,0.000000000,-2.985823393,-108.043624878,0.000000000,19.868997574,-31.826536179
1748602218.713253,42.005000000,0.000000000,0.000000000,0.000000000,0.000000000,-2.985823393,-105.825462341,0.000000000,19.868997574,-31.837184906
1748602218.715662,42.007000000,0.000000000,0.000000000,0.000000000,0.000000000,-2.958824396,-109.439567566,0.000000000,19.868997574,-31.844652176
1748602218.718075,42.010000000,0.000000000,0.000000000,0.000000000,0.000000000,-2.945324898,-106.792709351,0.000000000,19.868997574,-31.852210999
1748602218.720470,42.012000000,0.000000000,0.000000000,0.000000000,0.000000000,-2.918323040,-108.111167908,0.000000000,19.868997574,-31.857837677
1748602218.722881,42.014000000,0.000000000,0.000000000,0.000000000,0.000000000,-2.891321182,-107.353279114,0.000000000,19.868997574,-31.862680435
1748602218.725280,42.017000000,0.000000000,0.000000000,0.000000000,0.000000000,-2.864322186,-106.491424561,0.000000000,19.868997574,-31.866819382
1748602218.727673,42.019000000,0.000000000,0.000000000,0.000000000,0.000000000,-2.810321093,-109.298767090,0.000000000,19.868997574,-31.868185043
1748602218.730088,42.022000000,0.000000000,0.000000000,0.000000000,0.000000000,-2.796818972,-102.270248413,0.000000000,19.868997574,-31.872188568
1748602218.732547,42.024000000,0.000000000,0.000000000,0.000000000,0.000000000,-2.783319473,-101.845558167,0.000000000,19.868997574,-31.875680923
1748602218.734986,42.026000000,0.000000000,0.000000000,0.000000000,0.000000000,-2.756320238,-103.135063171,0.000000000,19.878000259,-29.903444290
1748602218.737432,42.029000000,0.000000000,0.000000000,0.000000000,0.000000000,-2.729318380,-102.335197449,0.000000000,19.868997574,-31.856351852
1748602218.739918,42.031000000,0.000000000,0.000000000,0.000000000,0.000000000,-2.688817024,-103.235382080,0.000000000,19.878000259,-29.884778976
1748602218.742450,42.034000000,0.000000000,0.000000000,0.000000000,0.000000000,-2.661815166,-100.207206726,0.000000000,19.878000259,-29.865781784
1748602218.744915,42.036000000,0.000000000,0.000000000,0.000000000,0.000000000,-2.661815166,-95.969490051,0.000000000,19.878000259,-29.850595474
1748602218.747392,42.039000000,0.000000000,0.000000000,0.000000000,0.000000000,-2.661815166,-95.969490051,0.000000000,19.878000259,-29.836927414
1748602218.749779,42.041000000,0.000000000,0.000000000,0.000000000,0.000000000,-2.634816170,-99.382064819,0.000000000,19.868997574,-31.799615860
1748602218.752183,42.044000000,0.000000000,0.000000000,0.000000000,0.000000000,-2.594314814,-100.462211609,0.000000000,19.868997574,-31.806966782
1748602218.754574,42.046000000,0.000000000,0.000000000,0.000000000,0.000000000,-2.567312956,-97.446372986,0.000000000,19.868997574,-31.814308167
1748602218.757033,42.048000000,0.000000000,0.000000000,0.000000000,0.000000000,-2.553813457,-94.885200500,0.000000000,19.868997574,-31.821756363
1748602218.759438,42.051000000,0.000000000,0.000000000,0.000000000,0.000000000,-2.540313959,-94.481941223,0.000000000,19.868997574,-31.828346252
1748602218.761983,42.053000000,0.000000000,0.000000000,0.000000000,0.000000000,-2.513312101,-95.734710693,0.000000000,19.868997574,-31.833099365
1748602218.764435,42.056000000,0.000000000,0.000000000,0.000000000,0.000000000,-2.486312866,-94.824325562,0.000000000,19.868997574,-31.837160110
1748602218.766825,42.058000000,0.000000000,0.000000000,0.000000000,0.000000000,-2.459311247,-94.146705627,0.000000000,19.868997574,-31.840591431
1748602218.769219,42.061000000,0.000000000,0.000000000,0.000000000,0.000000000,-2.445811749,-91.596237183,0.000000000,19.868997574,-31.844532013
1748602218.771629,42.063000000,0.000000000,0.000000000,0.000000000,0.000000000,-2.432312012,-91.147773743,0.000000000,19.868997574,-31.847969055
1748602218.774008,42.066000000,0.000000000,0.000000000,0.000000000,0.000000000,-2.418809891,-90.779891968,0.000000000,19.868997574,-31.850952148
1748602218.776393,42.068000000,0.000000000,0.000000000,0.000000000,0.000000000,-2.432312012,-86.776657104,0.000000000,19.868997574,-31.855678558
1748602218.778868,42.070000000,0.000000000,0.000000000,0.000000000,0.000000000,-2.418809891,-90.756202698,0.000000000,19.878000259,-29.887136459
1748602218.781301,42.073000000,0.000000000,0.000000000,0.000000000,0.000000000,-2.391810656,-92.114570618,0.000000000,19.868997574,-31.836505890
1748602218.783714,42.075000000,0.000000000,0.000000000,0.000000000,0.000000000,-2.351309299,-92.947799683,0.000000000,19.878000259,-29.863780975
1748602218.786102,42.078000000,0.000000000,0.000000000,0.000000000,0.000000000,-2.337807178,-88.288589478,0.000000000,19.878000259,-29.845411301
1748602218.788537,42.080000000,0.000000000,0.000000000,0.000000000,0.000000000,-2.324307442,-87.902076721,0.000000000,19.878000259,-29.828783035
1748602218.790949,42.082000000,0.000000000,0.000000000,0.000000000,0.000000000,-2.310807943,-87.455261230,0.000000000,19.878000259,-29.813720703
1748602218.793339,42.085000000,0.000000000,0.000000000,0.000000000,0.000000000,-2.310807943,-85.292236328,0.000000000,19.878000259,-29.801113129
1748602218.795731,42.087000000,0.000000000,0.000000000,0.000000000,0.000000000,-2.283806324,-88.880691528,0.000000000,19.878000259,-29.787683487
1748602218.799385,42.091000000,0.000000000,0.000000000,0.000000000,0.000000000,-2.256807089,-88.049797058,0.000000000,19.878000259,-29.775398254
1748602218.801763,42.093000000,0.000000000,0.000000000,0.000000000,0.000000000,-2.202806234,-87.842445374,0.000000000,19.878000259,-29.762075424
1748602218.804201,42.096000000,0.000000000,0.000000000,0.000000000,0.000000000,-2.175804377,-85.588050842,0.000000000,19.878000259,-29.751758575
