liamjosephnolan/thesis_matlab/pitch_prbs_response/prbs_roll_20_pitch_15.csv
__time,/psm_joint_telemetry/header/stamp,/psm_joint_telemetry/insertion/effort,/psm_joint_telemetry/insertion/position,/psm_joint_telemetry/insertion/velocity,/psm_joint_telemetry/pitch/effort,/psm_joint_telemetry/pitch/position,/psm_joint_telemetry/pitch/velocity,/psm_joint_telemetry/roll/effort,/psm_joint_telemetry/roll/position,/psm_joint_telemetry/roll/velocity
1748603474.463657,37.791000000,0.000000000,333.357879639,0.000000000,0.000000000,12.701566696,-54.915809631,0.000000000,19.913999557,-21.337604523
1748603474.466111,37.793000000,0.000000000,333.357879639,0.000000000,0.000000000,12.701566696,-54.915809631,0.000000000,19.913999557,-21.337604523
1748603474.468532,37.796000000,0.000000000,333.357879639,0.000000000,0.000000000,12.701566696,-54.915809631,0.000000000,19.913999557,-21.337604523
1748603474.470936,37.798000000,0.000000000,333.357879639,0.000000000,0.000000000,12.701566696,-54.915809631,0.000000000,19.913999557,-21.337604523
1748603474.473341,37.800000000,0.000000000,333.357879639,0.000000000,0.000000000,12.701566696,-54.915809631,0.000000000,19.913999557,-21.337604523
1748603474.475700,37.803000000,0.000000000,333.357879639,0.000000000,0.000000000,12.701566696,-54.915809631,0.000000000,19.913999557,-21.337604523
1748603474.478138,37.805000000,0.000000000,333.357879639,0.000000000,0.000000000,12.701566696,-54.915809631,0.000000000,19.913999557,-21.337604523
1748603474.480502,37.808000000,0.000000000,333.357879639,0.000000000,0.000000000,12.701566696,-54.915809631,0.000000000,19.913999557,-21.337604523
1748603474.482896,37.810000000,0.000000000,333.357879639,0.000000000,0.000000000,12.701566696,-54.915809631,0.000000000,19.913999557,-21.337604523
1748603474.485346,37.812000000,0.000000000,333.357879639,0.000000000,0.000000000,12.701566696,-54.915809631,0.000000000,19.913999557,-21.337604523
1748603474.487828,37.815000000,0.000000000,333.357879639,0.000000000,0.000000000,12.701566696,-54.915809631,0.000000000,19.913999557,-21.337604523
1748603474.490179,37.817000000,0.000000000,333.357879639,0.000000000,0.000000000,12.701566696,-54.915809631,0.000000000,19.913999557,-21.337604523
1748603474.492733,37.820000000,0.000000000,333.357879639,0.000000000,0.000000000,12.701566696,-54.915809631,0.000000000,19.913999557,-21.337604523
1748603474.495075,37.822000000,0.000000000,333.357879639,0.000000000,0.000000000,12.701566696,-54.915809631,0.000000000,19.913999557,-21.337604523
1748603474.497444,37.825000000,0.000000000,333.357879639,0.000000000,0.000000000,12.701566696,-54.915809631,0.000000000,19.913999557,-21.337604523
1748603474.499828,37.827000000,0.000000000,333.357879639,0.000000000,0.000000000,12.701566696,-54.915809631,0.000000000,19.913999557,-21.337604523
1748603474.502193,37.829000000,0.000000000,333.357879639,0.000000000,0.000000000,12.701566696,-54.915809631,0.000000000,19.913999557,-21.337604523
1748603474.504519,37.832000000,0.000000000,333.357879639,0.000000000,0.000000000,12.701566696,-54.915809631,0.000000000,19.913999557,-21.337604523
1748603474.506888,37.834000000,0.000000000,333.357879639,0.000000000,0.000000000,12.701566696,-54.915809631,0.000000000,19.913999557,-21.337604523
1748603474.509220,37.836000000,0.000000000,333.357879639,0.000000000,0.000000000,12.701566696,-54.915809631,0.000000000,19.913999557,-21.337604523
1748603474.511611,37.839000000,0.000000000,333.357879639,0.000000000,0.000000000,12.701566696,-54.915809631,0.000000000,19.913999557,-21.337604523
1748603474.513944,37.841000000,0.000000000,333.357879639,0.000000000,0.000000000,12.701566696,-54.915809631,0.000000000,19.913999557,-21.337604523
1748603474.516299,37.843000000,0.000000000,333.357879639,0.000000000,0.000000000,12.701566696,-54.915809631,0.000000000,19.913999557,-21.337604523
1748603474.518667,37.846000000,0.000000000,333.357879639,0.000000000,0.000000000,12.701566696,-54.915809631,0.000000000,19.913999557,-21.337604523
1748603474.521057,37.848000000,0.000000000,333.357879639,0.000000000,0.000000000,12.701566696,-54.915809631,0.000000000,19.913999557,-21.337604523
1748603474.523400,37.851000000,0.000000000,333.357879639,0.000000000,0.000000000,12.701566696,-54.915809631,0.000000000,19.913999557,-21.337604523
1748603474.525805,37.853000000,0.000000000,333.357879639,0.000000000,0.000000000,12.701566696,-54.915809631,0.000000000,19.913999557,-21.337604523
1748603474.528193,37.855000000,0.000000000,333.357879639,0.000000000,0.000000000,12.701566696,-54.915809631,0.000000000,19.913999557,-21.337604523
1748603474.530557,37.858000000,0.000000000,333.357879639,0.000000000,0.000000000,12.701566696,-54.915809631,0.000000000,19.913999557,-21.337604523
1748603474.532931,37.860000000,0.000000000,333.357879639,0.000000000,0.000000000,12.701566696,-54.915809631,0.000000000,19.913999557,-21.337604523
1748603474.535307,37.862000000,0.000000000,333.357879639,0.000000000,0.000000000,12.701566696,-54.915809631,0.000000000,19.913999557,-21.337604523
1748603474.537721,37.865000000,0.000000000,333.357879639,0.000000000,0.000000000,12.701566696,-54.915809631,0.000000000,19.913999557,-21.337604523
1748603474.540102,37.867000000,0.000000000,333.357879639,0.000000000,0.000000000,12.701566696,-54.915809631,0.000000000,19.913999557,-21.337604523
1748603474.542473,37.870000000,0.000000000,333.357879639,0.000000000,0.000000000,12.701566696,-54.915809631,0.000000000,19.913999557,-21.337604523
1748603474.544844,37.872000000,0.000000000,333.357879639,0.000000000,0.000000000,12.701566696,-54.915809631,0.000000000,19.913999557,-21.337604523
1748603474.547246,37.874000000,0.000000000,333.357879639,0.000000000,0.000000000,12.701566696,-54.915809631,0.000000000,19.913999557,-21.337604523
1748603474.549635,37.877000000,0.000000000,333.357879639,0.000000000,0.000000000,12.701566696,-54.915809631,0.000000000,19.913999557,-21.337604523
1748603474.552026,37.879000000,0.000000000,333.357879639,0.000000000,0.000000000,12.701566696,-54.915809631,0.000000000,19.913999557,-21.337604523
1748603474.554437,37.882000000,0.000000000,333.357879639,0.000000000,0.000000000,12.701566696,-54.915809631,0.000000000,19.913999557,-21.337604523
1748603474.556879,37.884000000,0.000000000,333.357879639,0.000000000,0.000000000,12.701566696,-54.915809631,0.000000000,19.913999557,-21.337604523
1748603474.559335,37.887000000,0.000000000,333.357879639,0.000000000,0.000000000,12.701566696,-54.915809631,0.000000000,19.913999557,-21.337604523
1748603474.561819,37.889000000,0.000000000,333.357879639,0.000000000,0.000000000,12.701566696,-54.915809631,0.000000000,19.913999557,-21.337604523
1748603474.564249,37.891000000,0.000000000,333.357879639,0.000000000,0.000000000,12.701566696,-54.915809631,0.000000000,19.913999557,-21.337604523
1748603474.566720,37.894000000,0.000000000,333.357879639,0.000000000,0.000000000,12.701566696,-54.915809631,0.000000000,19.913999557,-21.337604523
1748603474.569149,37.896000000,0.000000000,333.357879639,0.000000000,0.000000000,12.701566696,-54.915809631,0.000000000,19.913999557,-21.337604523
1748603474.571602,37.899000000,0.000000000,333.357879639,0.000000000,0.000000000,12.701566696,-54.915809631,0.000000000,19.913999557,-21.337604523
1748603474.574020,37.901000000,0.000000000,333.357879639,0.000000000,0.000000000,12.701566696,-54.915809631,0.000000000,19.913999557,-21.337604523
1748603474.576469,37.904000000,0.000000000,333.357879639,0.000000000,0.000000000,12.701566696,-54.915809631,0.000000000,19.913999557,-21.337604523
1748603474.578901,37.906000000,0.000000000,333.357879639,0.000000000,0.000000000,12.701566696,-54.915809631,0.000000000,19.913999557,-21.337604523
1748603474.581260,37.908000000,0.000000000,333.357879639,0.000000000,0.000000000,12.701566696,-54.915809631,0.000000000,19.913999557,-21.337604523
1748603474.583725,37.911000000,0.000000000,333.357879639,0.000000000,0.000000000,12.701566696,-54.915809631,0.000000000,19.913999557,-21.337604523
1748603474.586133,37.913000000,0.000000000,333.357879639,0.000000000,0.000000000,12.701566696,-54.915809631,0.000000000,19.913999557,-21.337604523
1748603474.588521,37.916000000,0.000000000,333.357879639,0.000000000,0.000000000,12.701566696,-54.915809631,0.000000000,19.913999557,-21.337604523
1748603474.590936,37.918000000,0.000000000,333.357879639,0.000000000,0.000000000,12.701566696,-54.915809631,0.000000000,19.913999557,-21.337604523
1748603474.593301,37.920000000,0.000000000,333.357879639,0.000000000,0.000000000,12.701566696,-54.915809631,0.000000000,19.913999557,-21.337604523
1748603474.595695,37.923000000,0.000000000,333.357879639,0.000000000,0.000000000,12.701566696,-54.915809631,0.000000000,19.913999557,-21.337604523
1748603474.598067,37.925000000,0.000000000,333.357879639,0.000000000,0.000000000,12.701566696,-54.915809631,0.000000000,19.913999557,-21.337604523
1748603474.600466,37.928000000,0.000000000,333.357879639,0.000000000,0.000000000,12.701566696,-54.915809631,0.000000000,19.913999557,-21.337604523
1748603474.602871,37.930000000,0.000000000,333.357879639,0.000000000,0.000000000,12.701566696,-54.915809631,0.000000000,19.913999557,-21.337604523
1748603474.605283,37.932000000,0.000000000,333.357879639,0.000000000,0.000000000,12.701566696,-54.915809631,0.000000000,19.913999557,-21.337604523
1748603474.607743,37.935000000,0.000000000,333.357879639,0.000000000,0.000000000,12.701566696,-54.915809631,0.000000000,19.913999557,-21.337604523
1748603474.610203,37.937000000,0.000000000,333.357879639,0.000000000,0.000000000,12.701566696,-54.915809631,0.000000000,19.913999557,-21.337604523
1748603474.612640,37.940000000,0.000000000,333.357879639,0.000000000,0.000000000,12.701566696,-54.915809631,0.000000000,19.913999557,-21.337604523
1748603474.615006,37.942000000,0.000000000,333.357879639,0.000000000,0.000000000,12.701566696,-54.915809631,0.000000000,19.913999557,-21.337604523
1748603474.617399,37.945000000,0.000000000,333.357879639,0.000000000,0.000000000,12.701566696,-54.915809631,0.000000000,19.913999557,-21.337604523
1748603474.619783,37.947000000,0.000000000,333.357879639,0.000000000,0.000000000,12.701566696,-54.915809631,0.000000000,19.913999557,-21.337604523
1748603474.622187,37.949000000,0.000000000,333.357879639,0.000000000,0.000000000,12.701566696,-54.915809631,0.000000000,19.913999557,-21.337604523
1748603474.624674,37.952000000,0.000000000,333.357879639,0.000000000,0.000000000,12.701566696,-54.915809631,0.000000000,19.913999557,-21.337604523
1748603474.627115,37.954000000,0.000000000,333.357879639,0.000000000,0.000000000,12.701566696,-54.915809631,0.000000000,19.913999557,-21.337604523
1748603474.629574,37.957000000,0.000000000,333.357879639,0.000000000,0.000000000,12.701566696,-54.915809631,0.000000000,19.913999557,-21.337604523
1748603474.632063,37.959000000,0.000000000,333.357879639,0.000000000,0.000000000,12.701566696,-54.915809631,0.000000000,19.913999557,-21.337604523
1748603474.634526,37.962000000,0.000000000,333.357879639,0.000000000,0.000000000,12.701566696,-54.915809631,0.000000000,19.913999557,-21.337604523
1748603474.636972,37.964000000,0.000000000,333.357879639,0.000000000,0.000000000,12.701566696,-54.915809631,0.000000000,19.913999557,-21.337604523
1748603474.639434,37.967000000,0.000000000,333.357879639,0.000000000,0.000000000,12.701566696,-54.915809631,0.000000000,19.913999557,-21.337604523
1748603474.641854,37.969000000,0.000000000,333.357879639,0.000000000,0.000000000,12.701566696,-54.915809631,0.000000000,19.913999557,-21.337604523
1748603474.644316,37.971000000,0.000000000,333.357879639,0.000000000,0.000000000,12.701566696,-54.915809631,0.000000000,19.913999557,-21.337604523
1748603474.646777,37.974000000,0.000000000,333.357879639,0.000000000,0.000000000,12.701566696,-54.915809631,0.000000000,19.913999557,-21.337604523
1748603474.649229,37.976000000,0.000000000,333.357879639,0.000000000,0.000000000,12.701566696,-54.915809631,0.000000000,19.913999557,-21.337604523
1748603474.651681,37.979000000,0.000000000,333.357879639,0.000000000,0.000000000,12.701566696,-54.915809631,0.000000000,19.913999557,-21.337604523
1748603474.654162,37.981000000,0.000000000,333.357879639,0.000000000,0.000000000,12.701566696,-54.915809631,0.000000000,19.913999557,-21.337604523
1748603474.656637,37.984000000,0.000000000,333.357879639,0.000000000,0.000000000,12.701566696,-54.915809631,0.000000000,19.913999557,-21.337604523
1748603474.659073,37.986000000,0.000000000,333.357879639,0.000000000,0.000000000,12.701566696,-54.915809631,0.000000000,19.913999557,-21.337604523
1748603474.661536,37.989000000,0.000000000,333.357879639,0.000000000,0.000000000,12.701566696,-54.915809631,0.000000000,19.913999557,-21.337604523
1748603474.663963,37.991000000,0.000000000,333.357879639,0.000000000,0.000000000,12.701566696,-54.915809631,0.000000000,19.913999557,-21.337604523
1748603474.666407,37.994000000,0.000000000,333.357879639,0.000000000,0.000000000,12.701566696,-54.915809631,0.000000000,19.913999557,-21.337604523
1748603474.668881,37.996000000,0.000000000,333.357879639,0.000000000,0.000000000,12.701566696,-54.915809631,0.000000000,19.913999557,-21.337604523
1748603474.671330,37.998000000,0.000000000,333.357879639,0.000000000,0.000000000,12.701566696,-54.915809631,0.000000000,19.913999557,-21.337604523
1748603474.673751,38.001000000,0.000000000,333.357879639,0.000000000,0.000000000,12.701566696,-54.915809631,0.000000000,19.913999557,-21.337604523
1748603474.676175,38.003000000,0.000000000,333.357879639,0.000000000,0.000000000,12.701566696,-54.915809631,0.000000000,19.913999557,-21.337604523
1748603474.678645,38.006000000,0.000000000,333.357879639,0.000000000,0.000000000,12.701566696,-54.915809631,0.000000000,19.913999557,-21.337604523
1748603474.681001,38.008000000,0.000000000,333.357879639,0.000000000,0.000000000,12.701566696,-54.915809631,0.000000000,19.913999557,-21.337604523
1748603474.683377,38.011000000,0.000000000,333.357879639,0.000000000,0.000000000,12.701566696,-54.915809631,0.000000000,19.913999557,-21.337604523
1748603474.685761,38.013000000,0.000000000,333.357879639,0.000000000,0.000000000,12.701566696,-54.915809631,0.000000000,19.913999557,-21.337604523
1748603474.688148,38.015000000,0.000000000,333.357879639,0.000000000,0.000000000,12.701566696,-54.915809631,0.000000000,19.913999557,-21.337604523
1748603474.690569,38.018000000,0.000000000,333.357879639,0.000000000,0.000000000,12.701566696,-54.915809631,0.000000000,19.913999557,-21.337604523
1748603474.692945,38.020000000,0.000000000,333.357879639,0.000000000,0.000000000,12.701566696,-54.915809631,0.000000000,19.913999557,-21.337604523
1748603474.695320,38.022000000,0.000000000,333.357879639,0.000000000,0.000000000,12.701566696,-54.915809631,0.000000000,19.913999557,-21.337604523
1748603474.697723,38.025000000,0.000000000,333.357879639,0.000000000,0.000000000,12.701566696,-54.915809631,0.000000000,19.913999557,-21.337604523
1748603474.700097,38.027000000,0.000000000,333.357879639,0.000000000,0.000000000,12.701566696,-54.915809631,0.000000000,19.913999557,-21.337604523
1748603474.702463,38.030000000,0.000000000,333.357879639,0.000000000,0.000000000,12.701566696,-54.915809631,0.000000000,19.913999557,-21.337604523
1748603474.704966,38.032000000,0.000000000,333.357879639,0.000000000,0.000000000,12.701566696,-54.915809631,0.000000000,19.913999557,-21.337604523
1748603474.707434,38.035000000,0.000000000,333.357879639,0.000000000,0.000000000,12.701566696,-54.915809631,0.000000000,19.913999557,-21.337604523
1748603474.709950,38.037000000,0.000000000,333.357879639,0.000000000,0.000000000,12.701566696,-54.915809631,0.000000000,19.913999557,-21.337604523
1748603474.712420,38.040000000,0.000000000,333.357879639,0.000000000,0.000000000,12.701566696,-54.915809631,0.000000000,19.913999557,-21.337604523
1748603474.714869,38.042000000,0.000000000,333.357879639,0.000000000,0.000000000,12.701566696,-54.915809631,0.000000000,19.913999557,-21.337604523
1748603474.717294,38.044000000,0.000000000,333.357879639,0.000000000,0.000000000,12.701566696,-54.915809631,0.000000000,19.913999557,-21.337604523
1748603474.719728,38.047000000,0.000000000,333.357879639,0.000000000,0.000000000,12.701566696,-54.915809631,0.000000000,19.913999557,-21.337604523
1748603474.722043,38.049000000,0.000000000,333.357879639,0.000000000,0.000000000,12.701566696,-54.915809631,0.000000000,19.913999557,-21.337604523
1748603474.724435,38.052000000,0.000000000,333.357879639,0.000000000,0.000000000,12.701566696,-54.915809631,0.000000000,19.913999557,-21.337604523
1748603474.726846,38.054000000,0.000000000,333.357879639,0.000000000,0.000000000,12.701566696,-54.915809631,0.000000000,19.913999557,-21.337604523
1748603474.729191,38.056000000,0.000000000,333.357879639,0.000000000,0.000000000,12.701566696,-54.915809631,0.000000000,19.913999557,-21.337604523
1748603474.731557,38.059000000,0.000000000,333.357879639,0.000000000,0.000000000,12.701566696,-54.915809631,0.000000000,19.913999557,-21.337604523
1748603474.734011,38.061000000,0.000000000,333.357879639,0.000000000,0.000000000,12.701566696,-54.915809631,0.000000000,19.913999557,-21.337604523
1748603474.736473,38.064000000,0.000000000,333.357879639,0.000000000,0.000000000,12.701566696,-54.915809631,0.000000000,19.913999557,-21.337604523
1748603474.738916,38.066000000,0.000000000,333.357879639,0.000000000,0.000000000,12.701566696,-54.915809631,0.000000000,19.913999557,-21.337604523
1748603474.741352,38.068000000,0.000000000,333.357879639,0.000000000,0.000000000,12.701566696,-54.915809631,0.000000000,19.913999557,-21.337604523
1748603474.743852,38.071000000,0.000000000,333.357879639,0.000000000,0.000000000,12.701566696,-54.915809631,0.000000000,19.913999557,-21.337604523
1748603474.746347,38.073000000,0.000000000,333.357879639,0.000000000,0.000000000,12.701566696,-54.915809631,0.000000000,19.913999557,-21.337604523
1748603474.748815,38.076000000,0.000000000,333.357879639,0.000000000,0.000000000,12.701566696,-54.915809631,0.000000000,19.913999557,-21.337604523
1748603474.751281,38.078000000,0.000000000,333.357879639,0.000000000,0.000000000,12.701566696,-54.915809631,0.000000000,19.913999557,-21.337604523
1748603474.753767,38.081000000,0.000000000,333.357879639,0.000000000,0.000000000,12.701566696,-54.915809631,0.000000000,19.913999557,-21.337604523
1748603474.756256,38.083000000,0.000000000,333.357879639,0.000000000,0.000000000,12.701566696,-54.915809631,0.000000000,19.913999557,-21.337604523
1748603474.758766,38.086000000,0.000000000,333.357879639,0.000000000,0.000000000,12.701566696,-54.915809631,0.000000000,19.913999557,-21.337604523
1748603474.761291,38.088000000,0.000000000,333.357879639,0.000000000,0.000000000,12.701566696,-54.915809631,0.000000000,19.913999557,-21.337604523
1748603474.763754,38.091000000,0.000000000,333.357879639,0.000000000,0.000000000,12.701566696,-54.915809631,0.000000000,19.913999557,-21.337604523
1748603474.766224,38.093000000,0.000000000,333.357879639,0.000000000,0.000000000,12.701566696,-54.915809631,0.000000000,19.913999557,-21.337604523
1748603474.768724,38.096000000,0.000000000,333.357879639,0.000000000,0.000000000,12.701566696,-54.915809631,0.000000000,19.913999557,-21.337604523
1748603474.771181,38.098000000,0.000000000,333.357879639,0.000000000,0.000000000,12.701566696,-54.915809631,0.000000000,19.913999557,-21.337604523
1748603474.773694,38.101000000,0.000000000,333.357879639,0.000000000,0.000000000,12.701566696,-54.915809631,0.000000000,19.913999557,-21.337604523
1748603474.776102,38.103000000,0.000000000,333.357879639,0.000000000,0.000000000,12.701566696,-54.915809631,0.000000000,19.913999557,-21.337604523
1748603474.778492,38.106000000,0.000000000,333.357879639,0.000000000,0.000000000,12.701566696,-54.915809631,0.000000000,19.913999557,-21.337604523
1748603474.780884,38.108000000,0.000000000,333.357879639,0.000000000,0.000000000,12.701566696,-54.915809631,0.000000000,19.913999557,-21.337604523
1748603474.783258,38.110000000,0.000000000,333.357879639,0.000000000,0.000000000,12.701566696,-54.915809631,0.000000000,19.913999557,-21.337604523
1748603474.785634,38.113000000,0.000000000,333.357879639,0.000000000,0.000000000,12.701566696,-54.915809631,0.000000000,19.913999557,-21.337604523
1748603474.788049,38.115000000,0.000000000,333.357879639,0.000000000,0.000000000,12.701566696,-54.915809631,0.000000000,19.913999557,-21.337604523
1748603474.790415,38.118000000,0.000000000,333.357879639,0.000000000,0.000000000,12.701566696,-54.915809631,0.000000000,19.913999557,-21.337604523
1748603474.792813,38.120000000,0.000000000,333.357879639,0.000000000,0.000000000,12.701566696,-54.915809631,0.000000000,19.913999557,-21.337604523
1748603474.795185,38.122000000,0.000000000,333.357879639,0.000000000,0.000000000,12.701566696,-54.915809631,0.000000000,19.913999557,-21.337604523
1748603474.797551,38.125000000,0.000000000,333.357879639,0.000000000,0.000000000,12.701566696,-54.915809631,0.000000000,19.913999557,-21.337604523
1748603474.799961,38.127000000,0.000000000,333.357879639,0.000000000,0.000000000,12.701566696,-54.915809631,0.000000000,19.913999557,-21.337604523
1748603474.802437,38.130000000,0.000000000,333.357879639,0.000000000,0.000000000,12.701566696,-54.915809631,0.000000000,19.913999557,-21.337604523
1748603474.804886,38.132000000,0.000000000,333.357879639,0.000000000,0.000000000,12.701566696,-54.915809631,0.000000000,19.913999557,-21.337604523
1748603474.807306,38.134000000,0.000000000,333.357879639,0.000000000,0.000000000,12.701566696,-54.915809631,0.000000000,19.913999557,-21.337604523
1748603474.809849,38.137000000,0.000000000,333.357879639,0.000000000,0.000000000,12.701566696,-54.915809631,0.000000000,19.913999557,-21.337604523
1748603474.812271,38.139000000,0.000000000,333.357879639,0.000000000,0.000000000,12.701566696,-54.915809631,0.000000000,19.913999557,-21.337604523
1748603474.814834,38.142000000,0.000000000,333.357879639,0.000000000,0.000000000,12.701566696,-54.915809631,0.000000000,19.913999557,-21.337604523
1748603474.817266,38.144000000,0.000000000,333.357879639,0.000000000,0.000000000,12.701566696,-54.915809631,0.000000000,19.913999557,-21.337604523
1748603474.819762,38.147000000,0.000000000,333.357879639,0.000000000,0.000000000,12.701566696,-54.915809631,0.000000000,19.913999557,-21.337604523
1748603474.822225,38.149000000,0.000000000,333.357879639,0.000000000,0.000000000,12.701566696,-54.915809631,0.000000000,19.913999557,-21.337604523
1748603474.824656,38.152000000,0.000000000,333.357879639,0.000000000,0.000000000,12.701566696,-84.915809631,0.000000000,19.913999557,-21.337604523
1748603474.827132,38.154000000,0.000000000,333.357879639,0.000000000,0.000000000,12.742068291,-90.096961975,0.000000000,19.913999557,-21.339303970
1748603474.829576,38.157000000,0.000000000,333.357879639,0.000000000,0.000000000,12.796069145,-90.619697571,0.000000000,19.913999557,-21.341571808
1748603474.832059,38.159000000,0.000000000,333.357879639,0.000000000,0.000000000,12.809571266,-83.758041382,0.000000000,19.913999557,-21.342138290
1748603474.834559,38.162000000,0.000000000,333.357879639,0.000000000,0.000000000,12.809571266,-81.630432129,0.000000000,19.913999557,-21.342138290
1748603474.837002,38.164000000,0.000000000,333.357879639,0.000000000,0.000000000,12.809571266,-81.630432129,0.000000000,19.913999557,-21.342138290
1748603474.839489,38.167000000,0.000000000,333.357879639,0.000000000,0.000000000,12.823070526,-83.372169495,0.000000000,19.913999557,-21.342704773
1748603474.841924,38.169000000,0.000000000,333.357879639,0.000000000,0.000000000,12.836570740,-82.957275391,0.000000000,19.913999557,-21.343271255
1748603474.844319,38.171000000,0.000000000,333.357879639,0.000000000,0.000000000,12.850070000,-82.559715271,0.000000000,19.913999557,-21.343837738
1748603474.846716,38.174000000,0.000000000,333.357879639,0.000000000,0.000000000,12.863572121,-82.189216614,0.000000000,19.913999557,-21.344406128
1748603474.849100,38.176000000,0.000000000,333.357879639,0.000000000,0.000000000,12.877071381,-81.776283264,0.000000000,19.913999557,-21.344972610
1748603474.851474,38.179000000,0.000000000,333.357879639,0.000000000,0.000000000,12.890571594,-81.375923157,0.000000000,19.913999557,-21.345539093
1748603474.853853,38.181000000,0.000000000,333.357879639,0.000000000,0.000000000,12.904073715,-80.971099854,0.000000000,19.913999557,-21.346105576
1748603474.856341,38.183000000,0.000000000,333.357879639,0.000000000,0.000000000,12.917572975,-80.555343628,0.000000000,19.913999557,-21.346672058
1748603474.858758,38.186000000,0.000000000,333.357879639,0.000000000,0.000000000,12.944575310,-81.804618835,0.000000000,19.913999557,-21.347805023
1748603474.861270,38.188000000,0.000000000,333.357879639,0.000000000,0.000000000,12.944575310,-77.523757935,0.000000000,19.913999557,-21.347805023
1748603474.863732,38.191000000,0.000000000,333.357879639,0.000000000,0.000000000,12.958074570,-79.227462769,0.000000000,19.913999557,-21.348371506
1748603474.866174,38.193000000,0.000000000,333.357879639,0.000000000,0.000000000,12.971573830,-78.825363159,0.000000000,19.913999557,-21.348939896
1748603474.868596,38.196000000,0.000000000,333.357879639,0.000000000,0.000000000,12.985074043,-78.463897705,0.000000000,19.913999557,-21.349506378
1748603474.870952,38.198000000,0.000000000,333.357879639,0.000000000,0.000000000,12.985074043,-76.291831970,0.000000000,19.913999557,-21.349506378
1748603474.873327,38.200000000,0.000000000,333.357879639,0.000000000,0.000000000,12.985074043,-76.291831970,0.000000000,19.913999557,-21.349506378
1748603474.875688,38.203000000,0.000000000,333.357879639,0.000000000,0.000000000,12.985074043,-76.291831970,0.000000000,19.913999557,-21.349506378
1748603474.878062,38.205000000,0.000000000,333.357879639,0.000000000,0.000000000,12.998576164,-78.101104736,0.000000000,19.913999557,-21.350072861
1748603474.880391,38.208000000,0.000000000,333.357879639,0.000000000,0.000000000,13.012075424,-77.688133240,0.000000000,19.913999557,-21.350639343
1748603474.882779,38.210000000,0.000000000,333.357879639,0.000000000,0.000000000,12.998576164,-73.631233215,0.000000000,19.913999557,-21.350072861
1748603474.885149,38.212000000,0.000000000,333.357879639,0.000000000,0.000000000,13.012075424,-77.690933228,0.000000000,19.913999557,-21.350639343
1748603474.887526,38.215000000,0.000000000,333.357879639,0.000000000,0.000000000,13.012075424,-75.470474243,0.000000000,19.913999557,-21.350639343
1748603474.889969,38.217000000,0.000000000,333.357879639,0.000000000,0.000000000,13.025574684,-77.265426636,0.000000000,19.913999557,-21.351207733
1748603474.892358,38.220000000,0.000000000,333.357879639,0.000000000,0.000000000,13.025574684,-75.059844971,0.000000000,19.913999557,-21.351207733
1748603474.894732,38.222000000,0.000000000,333.357879639,0.000000000,0.000000000,13.025574684,-45.059844971,0.000000000,19.913999557,-21.351207733
1748603474.897122,38.224000000,0.000000000,333.357879639,0.000000000,0.000000000,12.985074043,-39.660743713,0.000000000,19.913999557,-21.349506378
1748603474.899571,38.227000000,0.000000000,333.357879639,0.000000000,0.000000000,12.917572975,-37.334926605,0.000000000,19.913999557,-21.346672058
1748603474.901951,38.229000000,0.000000000,333.357879639,0.000000000,0.000000000,12.904073715,-46.603397369,0.000000000,19.913999557,-21.346105576
1748603474.904311,38.231000000,0.000000000,333.357879639,0.000000000,0.000000000,12.917572975,-50.574058533,0.000000000,19.913999557,-21.346672058
1748603474.906695,38.234000000,0.000000000,333.357879639,0.000000000,0.000000000,12.917572975,-48.345138550,0.000000000,19.913999557,-21.346672058
1748603474.909059,38.236000000,0.000000000,333.357879639,0.000000000,0.000000000,12.917572975,-48.345138550,0.000000000,19.913999557,-21.346672058
1748603474.911447,38.239000000,0.000000000,333.357879639,0.000000000,0.000000000,12.917572975,-48.345138550,0.000000000,19.913999557,-21.346672058
1748603474.913937,38.241000000,0.000000000,333.357879639,0.000000000,0.000000000,12.890571594,-44.745609283,0.000000000,19.913999557,-21.345539093
1748603474.916341,38.243000000,0.000000000,333.357879639,0.000000000,0.000000000,12.877071381,-47.439483643,0.000000000,19.913999557,-21.344972610
1748603474.918711,38.246000000,0.000000000,333.357879639,0.000000000,0.000000000,12.890571594,-51.348457336,0.000000000,19.904998779,-23.406396866
1748603474.921165,38.248000000,0.000000000,333.357879639,0.000000000,0.000000000,12.890571594,-49.166488647,0.000000000,19.904998779,-23.423732758
1748603474.923571,38.251000000,0.000000000,333.357879639,0.000000000,0.000000000,12.877071381,-47.440353394,0.000000000,19.904998779,-23.438678741
1748603474.926016,38.253000000,0.000000000,333.357879639,0.000000000,0.000000000,12.877071381,-49.577156067,0.000000000,19.904998779,-23.452724457
1748603474.928467,38.256000000,0.000000000,333.357879639,0.000000000,0.000000000,12.877071381,-49.577156067,0.000000000,19.904998779,-23.465364456
1748603474.930935,38.258000000,0.000000000,333.357879639,0.000000000,0.000000000,12.877071381,-49.577156067,0.000000000,19.904998779,-23.476741791
1748603474.933383,38.261000000,0.000000000,333.357879639,0.000000000,0.000000000,12.877071381,-49.577156067,0.000000000,19.904998779,-23.486980438
1748603474.935775,38.263000000,0.000000000,333.357879639,0.000000000,0.000000000,12.877071381,-49.577156067,0.000000000,19.904998779,-23.496196747
1748603474.938179,38.265000000,0.000000000,333.357879639,0.000000000,0.000000000,12.890571594,-51.371299744,0.000000000,19.904998779,-23.505130768
1748603474.940641,38.268000000,0.000000000,333.357879639,0.000000000,0.000000000,12.890571594,-49.166488647,0.000000000,19.904998779,-23.512594223
1748603474.943170,38.270000000,0.000000000,333.357879639,0.000000000,0.000000000,12.890571594,-49.166488647,0.000000000,19.904998779,-23.519309998
1748603474.945725,38.273000000,0.000000000,333.357879639,0.000000000,0.000000000,12.890571594,-49.166488647,0.000000000,19.904998779,-23.525354385
1748603474.948284,38.275000000,0.000000000,333.357879639,0.000000000,0.000000000,12.904073715,-50.812736511,0.000000000,19.904998779,-23.531431198
1748603474.950869,38.278000000,0.000000000,333.357879639,0.000000000,0.000000000,12.917572975,-50.413787842,0.000000000,19.904998779,-23.536964417
1748603474.953411,38.280000000,0.000000000,333.357879639,0.000000000,0.000000000,12.917572975,-48.345138550,0.000000000,19.904998779,-23.541368484
1748603474.956006,38.283000000,0.000000000,333.357879639,0.000000000,0.000000000,12.917572975,-48.345138550,0.000000000,19.904998779,-23.545331955
1748603474.958512,38.286000000,0.000000000,333.357879639,0.000000000,0.000000000,12.931072235,-49.943168640,0.000000000,19.904998779,-23.549531937
1748603474.961015,38.288000000,0.000000000,333.357879639,0.000000000,0.000000000,12.944575310,-49.636154175,0.000000000,19.904998779,-23.553375244
1748603474.963493,38.291000000,0.000000000,333.357879639,0.000000000,0.000000000,12.944575310,-47.523757935,0.000000000,19.904998779,-23.556262970
1748603474.966017,38.293000000,0.000000000,333.357879639,0.000000000,0.000000000,12.944575310,-47.523757935,0.000000000,19.904998779,-23.558862686
1748603474.968521,38.296000000,0.000000000,333.357879639,0.000000000,0.000000000,12.958074570,-49.221542358,0.000000000,19.904998779,-23.561834335
1748603474.971001,38.298000000,0.000000000,333.357879639,0.000000000,0.000000000,12.971573830,-48.805011749,0.000000000,19.904998779,-23.564569473
1748603474.973359,38.301000000,0.000000000,333.357879639,0.000000000,0.000000000,12.971573830,-46.702491760,0.000000000,19.904998779,-23.566463470
1748603474.975738,38.303000000,0.000000000,333.357879639,0.000000000,0.000000000,12.971573830,-46.702491760,0.000000000,19.904998779,-23.568168640
1748603474.978098,38.305000000,0.000000000,333.357879639,0.000000000,0.000000000,12.985074043,-48.502193451,0.000000000,19.904998779,-23.570333481
1748603474.980462,38.308000000,0.000000000,333.357879639,0.000000000,0.000000000,12.985074043,-46.291831970,0.000000000,19.904998779,-23.571714401
1748603474.982858,38.310000000,0.000000000,333.357879639,0.000000000,0.000000000,12.985074043,-46.291831970,0.000000000,19.904998779,-23.572956085
1748603474.985255,38.312000000,0.000000000,333.357879639,0.000000000,0.000000000,12.998576164,-48.074291229,0.000000000,19.904998779,-23.574703217
1748603474.987764,38.315000000,0.000000000,333.357879639,0.000000000,0.000000000,12.998576164,-45.881111145,0.000000000,19.904998779,-23.575708389
1748603474.990223,38.317000000,0.000000000,333.357879639,0.000000000,0.000000000,12.998576164,-45.881111145,0.000000000,19.904998779,-23.576614380
1748603474.992603,38.320000000,0.000000000,333.357879639,0.000000000,0.000000000,12.998576164,-45.881111145,0.000000000,19.904998779,-23.577430725
1748603474.994967,38.322000000,0.000000000,333.357879639,0.000000000,0.000000000,12.998576164,-75.881111145,0.000000000,19.904998779,-23.578163147
1748603474.997324,38.325000000,0.000000000,333.357879639,0.000000000,0.000000000,13.039076805,-81.291366577,0.000000000,19.904998779,-23.580703735
1748603474.999691,38.327000000,0.000000000,333.357879639,0.000000000,0.000000000,13.079575539,-80.095634460,0.000000000,19.904998779,-23.583181381
1748603475.002127,38.329000000,0.000000000,333.357879639,0.000000000,0.000000000,13.079575539,-73.417198181,0.000000000,19.904998779,-23.583715439
1748603475.004604,38.332000000,0.000000000,333.357879639,0.000000000,0.000000000,13.079575539,-73.417198181,0.000000000,19.904998779,-23.584196091
1748603475.007024,38.334000000,0.000000000,333.357879639,0.000000000,0.000000000,13.079575539,-73.417198181,0.000000000,19.904998779,-23.584629059
1748603475.009446,38.337000000,0.000000000,333.357879639,0.000000000,0.000000000,13.093078613,-75.159439087,0.000000000,19.904998779,-23.585643768
1748603475.011851,38.339000000,0.000000000,333.357879639,0.000000000,0.000000000,13.106577873,-74.774017334,0.000000000,19.904998779,-23.586620331
1748603475.014216,38.341000000,0.000000000,333.357879639,0.000000000,0.000000000,13.106577873,-72.595817566,0.000000000,19.904998779,-23.586935043
1748603475.016597,38.344000000,0.000000000,333.357879639,0.000000000,0.000000000,13.106577873,-72.595817566,0.000000000,19.904998779,-23.587219238
1748603475.019001,38.346000000,0.000000000,333.357879639,0.000000000,0.000000000,13.120077133,-74.401901245,0.000000000,19.904998779,-23.588100433
1748603475.021367,38.349000000,0.000000000,333.357879639,0.000000000,0.000000000,13.133579254,-73.977737427,0.000000000,19.904998779,-23.588958740
1748603475.023712,38.351000000,0.000000000,333.357879639,0.000000000,0.000000000,13.133579254,-71.774459839,0.000000000,19.904998779,-23.589164734
1748603475.026086,38.353000000,0.000000000,333.357879639,0.000000000,0.000000000,13.147079468,-73.598556519,0.000000000,19.913999557,-21.531293869
1748603475.028462,38.356000000,0.000000000,333.357879639,0.000000000,0.000000000,13.160578728,-73.170822144,0.000000000,19.913999557,-21.514328003
1748603475.030848,38.358000000,0.000000000,333.357879639,0.000000000,0.000000000,13.174077988,-72.761123657,0.000000000,19.913999557,-21.499116898
1748603475.033227,38.360000000,0.000000000,333.357879639,0.000000000,0.000000000,13.187580109,-72.336936951,0.000000000,19.913999557,-21.485488892
1748603475.035673,38.363000000,0.000000000,333.357879639,0.000000000,0.000000000,13.187580109,-70.131820679,0.000000000,19.913999557,-21.472740173
1748603475.038112,38.365000000,0.000000000,333.357879639,0.000000000,0.000000000,13.187580109,-70.131820679,0.000000000,19.913999557,-21.461267471
1748603475.040572,38.368000000,0.000000000,333.357879639,0.000000000,0.000000000,13.187580109,-70.131820679,0.000000000,19.913999557,-21.450941086
1748603475.042996,38.370000000,0.000000000,333.357879639,0.000000000,0.000000000,13.201080322,-71.865798950,0.000000000,19.913999557,-21.442197800
1748603475.045322,38.372000000,0.000000000,333.357879639,0.000000000,0.000000000,13.201080322,-69.721160889,0.000000000,19.913999557,-21.433835983
1748603475.047693,38.375000000,0.000000000,333.357879639,0.000000000,0.000000000,13.201080322,-69.721160889,0.000000000,19.913999557,-21.426309586
1748603475.050066,38.377000000,0.000000000,333.357879639,0.000000000,0.000000000,13.201080322,-69.721160889,0.000000000,19.913999557,-21.419536591
1748603475.052487,38.380000000,0.000000000,333.357879639,0.000000000,0.000000000,13.201080322,-69.721160889,0.000000000,19.913999557,-21.413440704
1748603475.055001,38.382000000,0.000000000,333.357879639,0.000000000,0.000000000,13.201080322,-69.721160889,0.000000000,19.913999557,-21.407953262
1748603475.057472,38.385000000,0.000000000,333.357879639,0.000000000,0.000000000,13.201080322,-69.721160889,0.000000000,19.913999557,-21.403017044
1748603475.059961,38.387000000,0.000000000,333.357879639,0.000000000,0.000000000,13.201080322,-69.721160889,0.000000000,19.913999557,-21.398572922
1748603475.062402,38.390000000,0.000000000,333.357879639,0.000000000,0.000000000,13.201080322,-69.721160889,0.000000000,19.913999557,-21.394573212
1748603475.064977,38.392000000,0.000000000,333.357879639,0.000000000,0.000000000,13.201080322,-69.721160889,0.000000000,19.913999557,-21.390972137
1748603475.067493,38.395000000,0.000000000,333.357879639,0.000000000,0.000000000,13.187580109,-68.105224609,0.000000000,19.913999557,-21.387170792
1748603475.069873,38.397000000,0.000000000,333.357879639,0.000000000,0.000000000,13.187580109,-70.131820679,0.000000000,19.913999557,-21.384254456
1748603475.072255,38.399000000,0.000000000,333.357879639,0.000000000,0.000000000,13.187580109,-70.131820679,0.000000000,19.913999557,-21.381629944
1748603475.074660,38.402000000,0.000000000,333.357879639,0.000000000,0.000000000,13.187580109,-70.131820679,0.000000000,19.913999557,-21.379268646
1748603475.077004,38.404000000,0.000000000,333.357879639,0.000000000,0.000000000,13.187580109,-70.131820679,0.000000000,19.913999557,-21.377141953
1748603475.079380,38.407000000,0.000000000,333.357879639,0.000000000,0.000000000,13.187580109,-70.131820679,0.000000000,19.913999557,-21.375228882
1748603475.081709,38.409000000,0.000000000,333.357879639,0.000000000,0.000000000,13.187580109,-70.131820679,0.000000000,19.913999557,-21.373506546
1748603475.084084,38.411000000,0.000000000,333.357879639,0.000000000,0.000000000,13.187580109,-70.131820679,0.000000000,19.913999557,-21.371955872
1748603475.086455,38.414000000,0.000000000,333.357879639,0.000000000,0.000000000,13.187580109,-70.131820679,0.000000000,19.913999557,-21.370561600
1748603475.088790,38.416000000,0.000000000,333.357879639,0.000000000,0.000000000,13.187580109,-70.131820679,0.000000000,19.913999557,-21.369306564
1748603475.091160,38.418000000,0.000000000,333.357879639,0.000000000,0.000000000,13.187580109,-70.131820679,0.000000000,19.913999557,-21.368175507
1748603475.093532,38.421000000,0.000000000,333.357879639,0.000000000,0.000000000,13.187580109,-70.131820679,0.000000000,19.913999557,-21.367158890
1748603475.095895,38.423000000,0.000000000,333.357879639,0.000000000,0.000000000,13.201080322,-71.942710876,0.000000000,19.913999557,-21.366809845
1748603475.098263,38.425000000,0.000000000,333.357879639,0.000000000,0.000000000,13.201080322,-69.721160889,0.000000000,19.913999557,-21.365987778
1748603475.100632,38.428000000,0.000000000,333.357879639,0.000000000,0.000000000,13.201080322,-69.721160889,0.000000000,19.913999557,-21.365245819
1748603475.103059,38.430000000,0.000000000,333.357879639,0.000000000,0.000000000,13.214579582,-71.537559509,0.000000000,19.913999557,-21.365142822
1748603475.105497,38.433000000,0.000000000,333.357879639,0.000000000,0.000000000,13.214579582,-69.310523987,0.000000000,19.913999557,-21.364542007
1748603475.107980,38.435000000,0.000000000,333.357879639,0.000000000,0.000000000,13.228081703,-71.056159973,0.000000000,19.913999557,-21.364566803
1748603475.110477,38.438000000,0.000000000,333.357879639,0.000000000,0.000000000,13.241580963,-70.622360229,0.000000000,19.913999557,-21.364648819
1748603475.112934,38.440000000,0.000000000,333.357879639,0.000000000,0.000000000,13.241580963,-68.489173889,0.000000000,19.913999557,-21.364212036
1748603475.115423,38.443000000,0.000000000,333.357879639,0.000000000,0.000000000,13.255081177,-70.197250366,0.000000000,19.913999557,-21.364383698
1748603475.117823,38.445000000,0.000000000,333.357879639,0.000000000,0.000000000,13.255081177,-68.078506470,0.000000000,19.913999557,-21.364028931
1748603475.120199,38.447000000,0.000000000,333.357879639,0.000000000,0.000000000,13.255081177,-68.078506470,0.000000000,19.913999557,-21.363710403
1748603475.122612,38.450000000,0.000000000,333.357879639,0.000000000,0.000000000,13.268580437,-69.879943848,0.000000000,19.913999557,-21.363988876
1748603475.124994,38.452000000,0.000000000,333.357879639,0.000000000,0.000000000,13.268580437,-67.667877197,0.000000000,19.913999557,-21.363731384
1748603475.127384,38.455000000,0.000000000,333.357879639,0.000000000,0.000000000,13.282082558,-69.467834473,0.000000000,19.913999557,-21.364065170
1748603475.129751,38.457000000,0.000000000,333.357879639,0.000000000,0.000000000,13.282082558,-67.257156372,0.000000000,19.913999557,-21.363855362
1748603475.132126,38.459000000,0.000000000,333.357879639,0.000000000,0.000000000,13.295581818,-69.065116882,0.000000000,19.913999557,-21.364236832
1748603475.134553,38.462000000,0.000000000,333.357879639,0.000000000,0.000000000,13.295581818,-66.846527100,0.000000000,19.913999557,-21.364067078
1748603475.136972,38.464000000,0.000000000,333.357879639,0.000000000,0.000000000,13.295581818,-66.846527100,0.000000000,19.913999557,-21.363914490
1748603475.139429,38.467000000,0.000000000,333.357879639,0.000000000,0.000000000,13.309082031,-68.631477356,0.000000000,19.913999557,-21.364343643
1748603475.141888,38.469000000,0.000000000,333.357879639,0.000000000,0.000000000,13.322584152,-68.168334961,0.000000000,19.913999557,-21.364786148
1748603475.144314,38.471000000,0.000000000,333.357879639,0.000000000,0.000000000,13.336083412,-67.752899170,0.000000000,19.913999557,-21.365242004
1748603475.146693,38.474000000,0.000000000,333.357879639,0.000000000,0.000000000,13.336083412,-65.614517212,0.000000000,19.913999557,-21.365140915
1748603475.149102,38.476000000,0.000000000,333.357879639,0.000000000,0.000000000,13.349582672,-67.399337769,0.000000000,19.913999557,-21.365617752
1748603475.151556,38.479000000,0.000000000,333.357879639,0.000000000,0.000000000,13.363085747,-66.964752197,0.000000000,19.913999557,-21.366106033
1748603475.154029,38.481000000,0.000000000,333.357879639,0.000000000,0.000000000,13.376585007,-66.540161133,0.000000000,19.913999557,-21.366596222
1748603475.156504,38.484000000,0.000000000,333.357879639,0.000000000,0.000000000,13.390084267,-66.089614868,0.000000000,19.913999557,-21.367097855
1748603475.158904,38.486000000,0.000000000,333.357879639,0.000000000,0.000000000,13.390084267,-63.971866608,0.000000000,19.913999557,-21.367038727
1748603475.161278,38.488000000,0.000000000,333.357879639,0.000000000,0.000000000,13.403584480,-65.766937256,0.000000000,19.913999557,-21.367553711
1748603475.163665,38.491000000,0.000000000,333.357879639,0.000000000,0.000000000,13.417086601,-65.370475769,0.000000000,19.913999557,-21.368072510
1748603475.166062,38.493000000,0.000000000,333.357879639,0.000000000,0.000000000,13.430585861,-64.938064575,0.000000000,19.913999557,-21.368597031
1748603475.168459,38.496000000,0.000000000,333.357879639,0.000000000,0.000000000,13.444085121,-64.524673462,0.000000000,19.913999557,-21.369123459
1748603475.170947,38.498000000,0.000000000,333.357879639,0.000000000,0.000000000,13.444085121,-62.329219818,0.000000000,19.913999557,-21.369089127
1748603475.173330,38.500000000,0.000000000,333.357879639,0.000000000,0.000000000,13.457587242,-64.068695068,0.000000000,19.913999557,-21.369625092
1748603475.175697,38.503000000,0.000000000,333.357879639,0.000000000,0.000000000,13.471087456,-63.703449249,0.000000000,19.913999557,-21.370164871
1748603475.178069,38.505000000,0.000000000,333.357879639,0.000000000,0.000000000,13.498085976,-65.123748779,0.000000000,19.913999557,-21.371273041
1748603475.180434,38.508000000,0.000000000,333.357879639,0.000000000,0.000000000,13.498085976,-60.686573029,0.000000000,19.913999557,-21.371250153
1748603475.182832,38.510000000,0.000000000,333.357879639,0.000000000,0.000000000,13.498085976,-60.686573029,0.000000000,19.913999557,-21.371229172
1748603475.185187,38.512000000,0.000000000,333.357879639,0.000000000,0.000000000,13.511589050,-62.482944489,0.000000000,19.913999557,-21.371776581
1748603475.187601,38.515000000,0.000000000,333.357879639,0.000000000,0.000000000,13.525088310,-62.096946716,0.000000000,19.913999557,-21.372325897
1748603475.189953,38.517000000,0.000000000,333.357879639,0.000000000,0.000000000,13.525088310,-59.865192413,0.000000000,19.913999557,-21.372312546
1748603475.192315,38.519000000,0.000000000,333.357879639,0.000000000,0.000000000,13.538587570,-61.675018311,0.000000000,19.913999557,-21.372863770
1748603475.194692,38.522000000,0.000000000,333.357879639,0.000000000,0.000000000,13.538587570,-59.454559326,0.000000000,19.913999557,-21.372852325
1748603475.197064,38.524000000,0.000000000,333.357879639,0.000000000,0.000000000,13.538587570,-59.454559326,0.000000000,19.913999557,-21.372840881
1748603475.199440,38.527000000,0.000000000,333.357879639,0.000000000,0.000000000,13.538587570,-59.454559326,0.000000000,19.913999557,-21.372831345
1748603475.201829,38.529000000,0.000000000,333.357879639,0.000000000,0.000000000,13.552089691,-61.263832092,0.000000000,19.913999557,-21.373390198
1748603475.204275,38.531000000,0.000000000,333.357879639,0.000000000,0.000000000,13.552089691,-59.043838501,0.000000000,19.913999557,-21.373380661
1748603475.206613,38.534000000,0.000000000,333.357879639,0.000000000,0.000000000,13.552089691,-59.043838501,0.000000000,19.913999557,-21.373374939
1748603475.208970,38.536000000,0.000000000,333.357879639,0.000000000,0.000000000,13.552089691,-59.043838501,0.000000000,19.913999557,-21.373367310
1748603475.211356,38.539000000,0.000000000,333.357879639,0.000000000,0.000000000,13.552089691,-59.043838501,0.000000000,19.913999557,-21.373361588
1748603475.213721,38.541000000,0.000000000,333.357879639,0.000000000,0.000000000,13.552089691,-59.043838501,0.000000000,19.913999557,-21.373357773
1748603475.216079,38.543000000,0.000000000,333.357879639,0.000000000,0.000000000,13.552089691,-59.043838501,0.000000000,19.913999557,-21.373352051
1748603475.218410,38.546000000,0.000000000,333.357879639,0.000000000,0.000000000,13.552089691,-59.043838501,0.000000000,19.913999557,-21.373348236
1748603475.220841,38.548000000,0.000000000,333.357879639,0.000000000,0.000000000,13.552089691,-59.043838501,0.000000000,19.913999557,-21.373344421
1748603475.223198,38.550000000,0.000000000,333.357879639,0.000000000,0.000000000,13.552089691,-59.043838501,0.000000000,19.913999557,-21.373340607
1748603475.225563,38.553000000,0.000000000,333.357879639,0.000000000,0.000000000,13.552089691,-59.043838501,0.000000000,19.913999557,-21.373338699
1748603475.227941,38.555000000,0.000000000,333.357879639,0.000000000,0.000000000,13.552089691,-59.043838501,0.000000000,19.913999557,-21.373334885
1748603475.230306,38.557000000,0.000000000,333.357879639,0.000000000,0.000000000,13.552089691,-59.043838501,0.000000000,19.913999557,-21.373332977
1748603475.232688,38.560000000,0.000000000,333.357879639,0.000000000,0.000000000,13.565589905,-60.847255707,0.000000000,19.913999557,-21.373897552
1748603475.235075,38.562000000,0.000000000,333.357879639,0.000000000,0.000000000,13.565589905,-58.633174896,0.000000000,19.913999557,-21.373895645
1748603475.237442,38.565000000,0.000000000,333.357879639,0.000000000,0.000000000,13.565589905,-58.633174896,0.000000000,19.913999557,-21.373893738
1748603475.239816,38.567000000,0.000000000,333.357879639,0.000000000,0.000000000,13.565589905,-58.633174896,0.000000000,19.913999557,-21.373891830
1748603475.242209,38.569000000,0.000000000,333.357879639,0.000000000,0.000000000,13.565589905,-58.633174896,0.000000000,19.913999557,-21.373889923
1748603475.244572,38.572000000,0.000000000,333.357879639,0.000000000,0.000000000,13.579089165,-60.441135406,0.000000000,19.913999557,-21.374456406
1748603475.246939,38.574000000,0.000000000,333.357879639,0.000000000,0.000000000,13.579089165,-58.222545624,0.000000000,19.913999557,-21.374456406
1748603475.249311,38.576000000,0.000000000,333.357879639,0.000000000,0.000000000,13.592588425,-60.024906158,0.000000000,19.913999557,-21.375020981
1748603475.251690,38.579000000,0.000000000,333.357879639,0.000000000,0.000000000,13.592588425,-57.811912537,0.000000000,19.913999557,-21.375020981
1748603475.254074,38.581000000,0.000000000,333.357879639,0.000000000,0.000000000,13.606090546,-59.623996735,0.000000000,19.913999557,-21.375585556
1748603475.256444,38.584000000,0.000000000,333.357879639,0.000000000,0.000000000,13.606090546,-57.401191711,0.000000000,19.913999557,-21.375585556
1748603475.258824,38.586000000,0.000000000,333.357879639,0.000000000,0.000000000,13.619590759,-59.199962616,0.000000000,19.913999557,-21.376150131
1748603475.261261,38.588000000,0.000000000,333.357879639,0.000000000,0.000000000,13.619590759,-56.990528107,0.000000000,19.913999557,-21.376150131
1748603475.263661,38.591000000,0.000000000,333.357879639,0.000000000,0.000000000,13.633090019,-58.751808167,0.000000000,19.913999557,-21.376718521
1748603475.266043,38.593000000,0.000000000,333.357879639,0.000000000,0.000000000,13.633090019,-56.579898834,0.000000000,19.913999557,-21.376716614
1748603475.268454,38.596000000,0.000000000,333.357879639,0.000000000,0.000000000,13.646592140,-58.395744324,0.000000000,19.913999557,-21.377283096
1748603475.270829,38.598000000,0.000000000,333.357879639,0.000000000,0.000000000,13.646592140,-56.169178009,0.000000000,19.913999557,-21.377283096
1748603475.273187,38.600000000,0.000000000,333.357879639,0.000000000,0.000000000,13.660091400,-57.975265503,0.000000000,19.913999557,-21.377847672
1748603475.275564,38.603000000,0.000000000,333.357879639,0.000000000,0.000000000,13.673591614,-57.567565918,0.000000000,19.913999557,-21.378416061
1748603475.277938,38.605000000,0.000000000,333.357879639,0.000000000,0.000000000,13.673591614,-55.347885132,0.000000000,19.913999557,-21.378414154
1748603475.280319,38.607000000,0.000000000,333.357879639,0.000000000,0.000000000,13.673591614,-55.347885132,0.000000000,19.913999557,-21.378414154
1748603475.282763,38.610000000,0.000000000,333.357879639,0.000000000,0.000000000,13.687090874,-57.145603180,0.000000000,19.913999557,-21.378980637
1748603475.285152,38.612000000,0.000000000,333.357879639,0.000000000,0.000000000,13.687090874,-54.937252045,0.000000000,19.913999557,-21.378980637
1748603475.287539,38.615000000,0.000000000,333.357879639,0.000000000,0.000000000,13.687090874,-54.937252045,0.000000000,19.913999557,-21.378980637
1748603475.289938,38.617000000,0.000000000,333.357879639,0.000000000,0.000000000,13.687090874,-54.937252045,0.000000000,19.913999557,-21.378980637
1748603475.292346,38.619000000,0.000000000,333.357879639,0.000000000,0.000000000,13.700592995,-56.725204468,0.000000000,19.913999557,-21.379547119
1748603475.294743,38.622000000,0.000000000,333.357879639,0.000000000,0.000000000,13.700592995,-54.526531219,0.000000000,19.913999557,-21.379547119
1748603475.297119,38.624000000,0.000000000,333.357879639,0.000000000,0.000000000,13.700592995,-54.526531219,0.000000000,19.913999557,-21.379547119
1748603475.299518,38.627000000,0.000000000,333.357879639,0.000000000,0.000000000,13.700592995,-54.526531219,0.000000000,19.913999557,-21.379547119
1748603475.301963,38.629000000,0.000000000,333.357879639,0.000000000,0.000000000,13.700592995,-54.526531219,0.000000000,19.913999557,-21.379545212
1748603475.304403,38.632000000,0.000000000,333.357879639,0.000000000,0.000000000,13.700592995,-54.526531219,0.000000000,19.913999557,-21.379545212
1748603475.306828,38.634000000,0.000000000,333.357879639,0.000000000,0.000000000,13.714092255,-56.250816345,0.000000000,19.913999557,-21.380111694
1748603475.309289,38.636000000,0.000000000,333.357879639,0.000000000,0.000000000,13.714092255,-54.115898132,0.000000000,19.913999557,-21.380111694
1748603475.311736,38.639000000,0.000000000,333.357879639,0.000000000,0.000000000,13.714092255,-54.115898132,0.000000000,19.913999557,-21.380111694
1748603475.314160,38.641000000,0.000000000,333.357879639,0.000000000,0.000000000,13.714092255,-54.115898132,0.000000000,19.913999557,-21.380111694
1748603475.316538,38.644000000,0.000000000,333.357879639,0.000000000,0.000000000,13.714092255,-54.115898132,0.000000000,19.913999557,-21.380111694
1748603475.318914,38.646000000,0.000000000,333.357879639,0.000000000,0.000000000,13.714092255,-54.115898132,0.000000000,19.913999557,-21.380111694
1748603475.321290,38.648000000,0.000000000,333.357879639,0.000000000,0.000000000,13.714092255,-54.115898132,0.000000000,19.913999557,-21.380111694
1748603475.323671,38.651000000,0.000000000,333.357879639,0.000000000,0.000000000,13.714092255,-54.115898132,0.000000000,19.913999557,-21.380111694
1748603475.326087,38.653000000,0.000000000,333.357879639,0.000000000,0.000000000,13.714092255,-54.115898132,0.000000000,19.913999557,-21.380111694
1748603475.328527,38.656000000,0.000000000,333.357879639,0.000000000,0.000000000,13.714092255,-54.115898132,0.000000000,19.913999557,-21.380111694
1748603475.330899,38.658000000,0.000000000,333.357879639,0.000000000,0.000000000,13.714092255,-54.115898132,0.000000000,19.913999557,-21.380111694
1748603475.333285,38.660000000,0.000000000,333.357879639,0.000000000,0.000000000,13.714092255,-54.115898132,0.000000000,19.913999557,-21.380111694
1748603475.335672,38.663000000,0.000000000,333.357879639,0.000000000,0.000000000,13.714092255,-54.115898132,0.000000000,19.913999557,-21.380111694
1748603475.338082,38.665000000,0.000000000,333.357879639,0.000000000,0.000000000,13.714092255,-54.115898132,0.000000000,19.913999557,-21.380111694
1748603475.340460,38.668000000,0.000000000,333.357879639,0.000000000,0.000000000,13.714092255,-54.115898132,0.000000000,19.913999557,-21.380111694
1748603475.342856,38.670000000,0.000000000,333.357879639,0.000000000,0.000000000,13.714092255,-54.115898132,0.000000000,19.913999557,-21.380111694
1748603475.345227,38.672000000,0.000000000,333.357879639,0.000000000,0.000000000,13.714092255,-54.115898132,0.000000000,19.913999557,-21.380111694
1748603475.347599,38.675000000,0.000000000,333.357879639,0.000000000,0.000000000,13.714092255,-54.115898132,0.000000000,19.913999557,-21.380111694
1748603475.349998,38.677000000,0.000000000,333.357879639,0.000000000,0.000000000,13.714092255,-54.115898132,0.000000000,19.913999557,-21.380111694
1748603475.352432,38.680000000,0.000000000,333.357879639,0.000000000,0.000000000,13.714092255,-54.115898132,0.000000000,19.913999557,-21.380111694
1748603475.354846,38.682000000,0.000000000,333.357879639,0.000000000,0.000000000,13.714092255,-54.115898132,0.000000000,19.913999557,-21.380111694
1748603475.357239,38.684000000,0.000000000,333.357879639,0.000000000,0.000000000,13.714092255,-54.115898132,0.000000000,19.913999557,-21.380111694
1748603475.359645,38.687000000,0.000000000,333.357879639,0.000000000,0.000000000,13.714092255,-54.115898132,0.000000000,19.913999557,-21.380111694
1748603475.362038,38.689000000,0.000000000,333.357879639,0.000000000,0.000000000,13.714092255,-54.115898132,0.000000000,19.913999557,-21.380111694
1748603475.364482,38.692000000,0.000000000,333.357879639,0.000000000,0.000000000,13.700592995,-52.336551666,0.000000000,19.913999557,-21.379545212
1748603475.366853,38.694000000,0.000000000,333.357879639,0.000000000,0.000000000,13.700592995,-54.526531219,0.000000000,19.913999557,-21.379545212
1748603475.369254,38.696000000,0.000000000,333.357879639,0.000000000,0.000000000,13.700592995,-54.526531219,0.000000000,19.913999557,-21.379545212
1748603475.371664,38.699000000,0.000000000,333.357879639,0.000000000,0.000000000,13.700592995,-54.526531219,0.000000000,19.913999557,-21.379545212
1748603475.374048,38.701000000,0.000000000,333.357879639,0.000000000,0.000000000,13.700592995,-54.526531219,0.000000000,19.913999557,-21.379545212
1748603475.376453,38.704000000,0.000000000,333.357879639,0.000000000,0.000000000,13.700592995,-54.526531219,0.000000000,19.913999557,-21.379545212
1748603475.378868,38.706000000,0.000000000,333.357879639,0.000000000,0.000000000,13.700592995,-54.526531219,0.000000000,19.913999557,-21.379545212
1748603475.381275,38.708000000,0.000000000,333.357879639,0.000000000,0.000000000,13.687090874,-52.755882263,0.000000000,19.913999557,-21.378978729
1748603475.383664,38.711000000,0.000000000,333.357879639,0.000000000,0.000000000,13.687090874,-54.937252045,0.000000000,19.913999557,-21.378978729
1748603475.386008,38.713000000,0.000000000,333.357879639,0.000000000,0.000000000,13.687090874,-54.937252045,0.000000000,19.913999557,-21.378978729
1748603475.388343,38.716000000,0.000000000,333.357879639,0.000000000,0.000000000,13.687090874,-54.937252045,0.000000000,19.913999557,-21.378978729
1748603475.390696,38.718000000,0.000000000,333.357879639,0.000000000,0.000000000,13.687090874,-54.937252045,0.000000000,19.913999557,-21.378978729
1748603475.393044,38.720000000,0.000000000,333.357879639,0.000000000,0.000000000,13.687090874,-54.937252045,0.000000000,19.913999557,-21.378978729
1748603475.395415,38.723000000,0.000000000,333.357879639,0.000000000,0.000000000,13.687090874,-54.937252045,0.000000000,19.913999557,-21.378978729
1748603475.397764,38.725000000,0.000000000,333.357879639,0.000000000,0.000000000,13.673591614,-53.128360748,0.000000000,19.913999557,-21.378412247
1748603475.400199,38.727000000,0.000000000,333.357879639,0.000000000,0.000000000,13.673591614,-55.347885132,0.000000000,19.913999557,-21.378412247
1748603475.402725,38.730000000,0.000000000,333.357879639,0.000000000,0.000000000,13.687090874,-57.084362030,0.000000000,19.913999557,-21.378978729
1748603475.405141,38.732000000,0.000000000,333.357879639,0.000000000,0.000000000,13.687090874,-54.937252045,0.000000000,19.913999557,-21.378978729
1748603475.407549,38.735000000,0.000000000,333.357879639,0.000000000,0.000000000,13.687090874,-54.937252045,0.000000000,19.913999557,-21.378978729
1748603475.409959,38.737000000,0.000000000,333.357879639,0.000000000,0.000000000,13.687090874,-54.937252045,0.000000000,19.913999557,-21.378978729
1748603475.412316,38.740000000,0.000000000,333.357879639,0.000000000,0.000000000,13.687090874,-54.937252045,0.000000000,19.913999557,-21.378978729
1748603475.414695,38.742000000,0.000000000,333.357879639,0.000000000,0.000000000,13.687090874,-54.937252045,0.000000000,19.913999557,-21.378978729
1748603475.417068,38.744000000,0.000000000,333.357879639,0.000000000,0.000000000,13.687090874,-54.937252045,0.000000000,19.913999557,-21.378978729
1748603475.419444,38.747000000,0.000000000,333.357879639,0.000000000,0.000000000,13.687090874,-54.937252045,0.000000000,19.913999557,-21.378978729
1748603475.421836,38.749000000,0.000000000,333.357879639,0.000000000,0.000000000,13.687090874,-54.937252045,0.000000000,19.913999557,-21.378978729
1748603475.424206,38.751000000,0.000000000,333.357879639,0.000000000,0.000000000,13.687090874,-54.937252045,0.000000000,19.913999557,-21.378978729
1748603475.426585,38.754000000,0.000000000,333.357879639,0.000000000,0.000000000,13.687090874,-54.937252045,0.000000000,19.913999557,-21.378978729
1748603475.428979,38.756000000,0.000000000,333.357879639,0.000000000,0.000000000,13.687090874,-54.937252045,0.000000000,19.913999557,-21.378978729
1748603475.431352,38.759000000,0.000000000,333.357879639,0.000000000,0.000000000,13.687090874,-54.937252045,0.000000000,19.913999557,-21.378978729
1748603475.433799,38.761000000,0.000000000,333.357879639,0.000000000,0.000000000,13.687090874,-54.937252045,0.000000000,19.913999557,-21.378978729
1748603475.436189,38.763000000,0.000000000,333.357879639,0.000000000,0.000000000,13.687090874,-54.937252045,0.000000000,19.913999557,-21.378978729
1748603475.438724,38.766000000,0.000000000,333.357879639,0.000000000,0.000000000,13.687090874,-54.937252045,0.000000000,19.913999557,-21.378978729
1748603475.441259,38.768000000,0.000000000,333.357879639,0.000000000,0.000000000,13.687090874,-54.937252045,0.000000000,19.913999557,-21.378978729
1748603475.443726,38.771000000,0.000000000,333.357879639,0.000000000,0.000000000,13.687090874,-54.937252045,0.000000000,19.913999557,-21.378978729
1748603475.446231,38.773000000,0.000000000,333.357879639,0.000000000,0.000000000,13.687090874,-54.937252045,0.000000000,19.913999557,-21.378978729
1748603475.448745,38.776000000,0.000000000,333.357879639,0.000000000,0.000000000,13.687090874,-54.937252045,0.000000000,19.913999557,-21.378978729
1748603475.451295,38.778000000,0.000000000,333.357879639,0.000000000,0.000000000,13.687090874,-54.937252045,0.000000000,19.913999557,-21.378978729
1748603475.453758,38.781000000,0.000000000,333.357879639,0.000000000,0.000000000,13.687090874,-54.937252045,0.000000000,19.913999557,-21.378978729
1748603475.456209,38.783000000,0.000000000,333.357879639,0.000000000,0.000000000,13.687090874,-54.937252045,0.000000000,19.913999557,-21.378978729
1748603475.458744,38.786000000,0.000000000,333.357879639,0.000000000,0.000000000,13.687090874,-54.937252045,0.000000000,19.913999557,-21.378978729
1748603475.461219,38.788000000,0.000000000,333.357879639,0.000000000,0.000000000,13.687090874,-54.937252045,0.000000000,19.913999557,-21.378978729
1748603475.463717,38.791000000,0.000000000,333.357879639,0.000000000,0.000000000,13.687090874,-54.937252045,0.000000000,19.913999557,-21.378978729
1748603475.466186,38.793000000,0.000000000,333.357879639,0.000000000,0.000000000,13.687090874,-54.937252045,0.000000000,19.913999557,-21.378978729
1748603475.468642,38.796000000,0.000000000,333.357879639,0.000000000,0.000000000,13.687090874,-54.937252045,0.000000000,19.913999557,-21.378978729
1748603475.471102,38.798000000,0.000000000,333.357879639,0.000000000,0.000000000,13.687090874,-54.937252045,0.000000000,19.913999557,-21.378978729
1748603475.473594,38.801000000,0.000000000,333.357879639,0.000000000,0.000000000,13.687090874,-54.937252045,0.000000000,19.913999557,-21.378978729
1748603475.476014,38.803000000,0.000000000,333.357879639,0.000000000,0.000000000,13.687090874,-54.937252045,0.000000000,19.913999557,-21.378978729
1748603475.478448,38.806000000,0.000000000,333.357879639,0.000000000,0.000000000,13.687090874,-54.937252045,0.000000000,19.913999557,-21.378978729
1748603475.480857,38.808000000,0.000000000,333.357879639,0.000000000,0.000000000,13.687090874,-54.937252045,0.000000000,19.913999557,-21.378978729
1748603475.483237,38.810000000,0.000000000,333.357879639,0.000000000,0.000000000,13.687090874,-54.937252045,0.000000000,19.913999557,-21.378978729
1748603475.485628,38.813000000,0.000000000,333.357879639,0.000000000,0.000000000,13.687090874,-54.937252045,0.000000000,19.913999557,-21.378978729
1748603475.487993,38.815000000,0.000000000,333.357879639,0.000000000,0.000000000,13.687090874,-54.937252045,0.000000000,19.913999557,-21.378978729
1748603475.490363,38.818000000,0.000000000,333.357879639,0.000000000,0.000000000,13.687090874,-54.937252045,0.000000000,19.913999557,-21.378978729
1748603475.492749,38.820000000,0.000000000,333.357879639,0.000000000,0.000000000,13.687090874,-54.937252045,0.000000000,19.913999557,-21.378978729
1748603475.495140,38.822000000,0.000000000,333.357879639,0.000000000,0.000000000,13.687090874,-54.937252045,0.000000000,19.913999557,-21.378978729
1748603475.497505,38.825000000,0.000000000,333.357879639,0.000000000,0.000000000,13.687090874,-54.937252045,0.000000000,19.913999557,-21.378978729
1748603475.499904,38.827000000,0.000000000,333.357879639,0.000000000,0.000000000,13.687090874,-54.937252045,0.000000000,19.913999557,-21.378978729
1748603475.502275,38.829000000,0.000000000,333.357879639,0.000000000,0.000000000,13.687090874,-54.937252045,0.000000000,19.913999557,-21.378978729
1748603475.504678,38.832000000,0.000000000,333.357879639,0.000000000,0.000000000,13.687090874,-54.937252045,0.000000000,19.913999557,-21.378978729
1748603475.507080,38.834000000,0.000000000,333.357879639,0.000000000,0.000000000,13.687090874,-54.937252045,0.000000000,19.913999557,-21.378978729
1748603475.509460,38.837000000,0.000000000,333.357879639,0.000000000,0.000000000,13.687090874,-54.937252045,0.000000000,19.913999557,-21.378978729
1748603475.511886,38.839000000,0.000000000,333.357879639,0.000000000,0.000000000,13.687090874,-54.937252045,0.000000000,19.913999557,-21.378978729
1748603475.514267,38.841000000,0.000000000,333.357879639,0.000000000,0.000000000,13.687090874,-54.937252045,0.000000000,19.913999557,-21.378978729
1748603475.516665,38.844000000,0.000000000,333.357879639,0.000000000,0.000000000,13.687090874,-54.937252045,0.000000000,19.913999557,-21.378978729
1748603475.519075,38.846000000,0.000000000,333.357879639,0.000000000,0.000000000,13.687090874,-54.937252045,0.000000000,19.913999557,-21.378978729
1748603475.521472,38.849000000,0.000000000,333.357879639,0.000000000,0.000000000,13.687090874,-54.937252045,0.000000000,19.913999557,-21.378978729
1748603475.523849,38.851000000,0.000000000,333.357879639,0.000000000,0.000000000,13.687090874,-54.937252045,0.000000000,19.913999557,-21.378978729
1748603475.526226,38.853000000,0.000000000,333.357879639,0.000000000,0.000000000,13.687090874,-54.937252045,0.000000000,19.913999557,-21.378978729
1748603475.528638,38.856000000,0.000000000,333.357879639,0.000000000,0.000000000,13.687090874,-54.937252045,0.000000000,19.913999557,-21.378978729
1748603475.531091,38.858000000,0.000000000,333.357879639,0.000000000,0.000000000,13.687090874,-54.937252045,0.000000000,19.913999557,-21.378978729
1748603475.533535,38.861000000,0.000000000,333.357879639,0.000000000,0.000000000,13.687090874,-54.937252045,0.000000000,19.913999557,-21.378978729
1748603475.536120,38.863000000,0.000000000,333.357879639,0.000000000,0.000000000,13.687090874,-54.937252045,0.000000000,19.913999557,-21.378978729
1748603475.538574,38.866000000,0.000000000,333.357879639,0.000000000,0.000000000,13.687090874,-54.937252045,0.000000000,19.913999557,-21.378978729
1748603475.541127,38.868000000,0.000000000,333.357879639,0.000000000,0.000000000,13.687090874,-54.937252045,0.000000000,19.913999557,-21.378978729
1748603475.543615,38.871000000,0.000000000,333.357879639,0.000000000,0.000000000,13.687090874,-54.937252045,0.000000000,19.913999557,-21.378978729
1748603475.546120,38.873000000,0.000000000,333.357879639,0.000000000,0.000000000,13.687090874,-54.937252045,0.000000000,19.913999557,-21.378978729
1748603475.548622,38.876000000,0.000000000,333.357879639,0.000000000,0.000000000,13.687090874,-54.937252045,0.000000000,19.913999557,-21.378978729
1748603475.551047,38.878000000,0.000000000,333.357879639,0.000000000,0.000000000,13.687090874,-54.937252045,0.000000000,19.913999557,-21.378978729
1748603475.553465,38.881000000,0.000000000,333.357879639,0.000000000,0.000000000,13.687090874,-54.937252045,0.000000000,19.913999557,-21.378978729
1748603475.555846,38.883000000,0.000000000,333.357879639,0.000000000,0.000000000,13.687090874,-54.937252045,0.000000000,19.913999557,-21.378978729
1748603475.558207,38.885000000,0.000000000,333.357879639,0.000000000,0.000000000,13.687090874,-54.937252045,0.000000000,19.913999557,-21.378978729
1748603475.560603,38.888000000,0.000000000,333.357879639,0.000000000,0.000000000,13.687090874,-54.937252045,0.000000000,19.913999557,-21.378978729
1748603475.562963,38.890000000,0.000000000,333.357879639,0.000000000,0.000000000,13.687090874,-54.937252045,0.000000000,19.913999557,-21.378978729
1748603475.565328,38.892000000,0.000000000,333.357879639,0.000000000,0.000000000,13.687090874,-54.937252045,0.000000000,19.913999557,-21.378978729
1748603475.567704,38.895000000,0.000000000,333.357879639,0.000000000,0.000000000,13.687090874,-54.937252045,0.000000000,19.913999557,-21.378978729
1748603475.570149,38.897000000,0.000000000,333.357879639,0.000000000,0.000000000,13.687090874,-54.937252045,0.000000000,19.913999557,-21.378978729
1748603475.572542,38.900000000,0.000000000,333.357879639,0.000000000,0.000000000,13.687090874,-54.937252045,0.000000000,19.913999557,-21.378978729
1748603475.574899,38.902000000,0.000000000,333.357879639,0.000000000,0.000000000,13.687090874,-54.937252045,0.000000000,19.913999557,-21.378978729
1748603475.577277,38.904000000,0.000000000,333.357879639,0.000000000,0.000000000,13.687090874,-54.937252045,0.000000000,19.913999557,-21.378978729
1748603475.579642,38.907000000,0.000000000,333.357879639,0.000000000,0.000000000,13.687090874,-54.937252045,0.000000000,19.913999557,-21.378978729
1748603475.582005,38.909000000,0.000000000,333.357879639,0.000000000,0.000000000,13.687090874,-54.937252045,0.000000000,19.913999557,-21.378978729
1748603475.584380,38.912000000,0.000000000,333.357879639,0.000000000,0.000000000,13.687090874,-54.937252045,0.000000000,19.913999557,-21.378978729
1748603475.586951,38.914000000,0.000000000,333.357879639,0.000000000,0.000000000,13.687090874,-54.937252045,0.000000000,19.913999557,-21.378978729
1748603475.589381,38.916000000,0.000000000,333.357879639,0.000000000,0.000000000,13.687090874,-54.937252045,0.000000000,19.913999557,-21.378978729
1748603475.591814,38.919000000,0.000000000,333.357879639,0.000000000,0.000000000,13.687090874,-54.937252045,0.000000000,19.913999557,-21.378978729
1748603475.594220,38.921000000,0.000000000,333.357879639,0.000000000,0.000000000,13.687090874,-54.937252045,0.000000000,19.913999557,-21.378978729
1748603475.596606,38.924000000,0.000000000,333.357879639,0.000000000,0.000000000,13.687090874,-54.937252045,0.000000000,19.913999557,-21.378978729
1748603475.599030,38.926000000,0.000000000,333.357879639,0.000000000,0.000000000,13.687090874,-54.937252045,0.000000000,19.913999557,-21.378978729
1748603475.601491,38.929000000,0.000000000,333.357879639,0.000000000,0.000000000,13.687090874,-54.937252045,0.000000000,19.913999557,-21.378978729
1748603475.603960,38.931000000,0.000000000,333.357879639,0.000000000,0.000000000,13.687090874,-54.937252045,0.000000000,19.913999557,-21.378978729
1748603475.606405,38.934000000,0.000000000,333.357879639,0.000000000,0.000000000,13.687090874,-54.937252045,0.000000000,19.913999557,-21.378978729
1748603475.608831,38.936000000,0.000000000,333.357879639,0.000000000,0.000000000,13.687090874,-54.937252045,0.000000000,19.913999557,-21.378978729
1748603475.611211,38.938000000,0.000000000,333.357879639,0.000000000,0.000000000,13.687090874,-54.937252045,0.000000000,19.913999557,-21.378978729
1748603475.613590,38.941000000,0.000000000,333.357879639,0.000000000,0.000000000,13.687090874,-54.937252045,0.000000000,19.913999557,-21.378978729
1748603475.615960,38.943000000,0.000000000,333.357879639,0.000000000,0.000000000,13.687090874,-54.937252045,0.000000000,19.913999557,-21.378978729
1748603475.618411,38.946000000,0.000000000,333.357879639,0.000000000,0.000000000,13.687090874,-54.937252045,0.000000000,19.913999557,-21.378978729
1748603475.620883,38.948000000,0.000000000,333.357879639,0.000000000,0.000000000,13.687090874,-54.937252045,0.000000000,19.913999557,-21.378978729
1748603475.623344,38.950000000,0.000000000,333.357879639,0.000000000,0.000000000,13.687090874,-54.937252045,0.000000000,19.913999557,-21.378978729
1748603475.625789,38.953000000,0.000000000,333.357879639,0.000000000,0.000000000,13.687090874,-54.937252045,0.000000000,19.913999557,-21.378978729
1748603475.628260,38.955000000,0.000000000,333.357879639,0.000000000,0.000000000,13.687090874,-54.937252045,0.000000000,19.913999557,-21.378978729
1748603475.630712,38.958000000,0.000000000,333.357879639,0.000000000,0.000000000,13.687090874,-54.937252045,0.000000000,19.913999557,-21.378978729
1748603475.633211,38.960000000,0.000000000,333.357879639,0.000000000,0.000000000,13.687090874,-54.937252045,0.000000000,19.913999557,-21.378978729
1748603475.635767,38.963000000,0.000000000,333.357879639,0.000000000,0.000000000,13.687090874,-54.937252045,0.000000000,19.913999557,-21.378978729
1748603475.638174,38.965000000,0.000000000,333.357879639,0.000000000,0.000000000,13.687090874,-54.937252045,0.000000000,19.913999557,-21.378978729
1748603475.640558,38.968000000,0.000000000,333.357879639,0.000000000,0.000000000,13.687090874,-54.937252045,0.000000000,19.913999557,-21.378978729
1748603475.642950,38.970000000,0.000000000,333.357879639,0.000000000,0.000000000,13.687090874,-54.937252045,0.000000000,19.913999557,-21.378978729
1748603475.645326,38.972000000,0.000000000,333.357879639,0.000000000,0.000000000,13.687090874,-54.937252045,0.000000000,19.913999557,-21.378978729
1748603475.647707,38.975000000,0.000000000,333.357879639,0.000000000,0.000000000,13.687090874,-54.937252045,0.000000000,19.913999557,-21.378978729
1748603475.650091,38.977000000,0.000000000,333.357879639,0.000000000,0.000000000,13.687090874,-54.937252045,0.000000000,19.913999557,-21.378978729
1748603475.652465,38.980000000,0.000000000,333.357879639,0.000000000,0.000000000,13.687090874,-54.937252045,0.000000000,19.913999557,-21.378978729
1748603475.654889,38.982000000,0.000000000,333.357879639,0.000000000,0.000000000,13.687090874,-54.937252045,0.000000000,19.913999557,-21.378978729
1748603475.657274,38.984000000,0.000000000,333.357879639,0.000000000,0.000000000,13.687090874,-54.937252045,0.000000000,19.913999557,-21.378978729
1748603475.659651,38.987000000,0.000000000,333.357879639,0.000000000,0.000000000,13.687090874,-54.937252045,0.000000000,19.913999557,-21.378978729
1748603475.662030,38.989000000,0.000000000,333.357879639,0.000000000,0.000000000,13.687090874,-54.937252045,0.000000000,19.913999557,-21.378978729
1748603475.664403,38.992000000,0.000000000,333.357879639,0.000000000,0.000000000,13.687090874,-54.937252045,0.000000000,19.913999557,-21.378978729
1748603475.666790,38.994000000,0.000000000,333.357879639,0.000000000,0.000000000,13.687090874,-54.937252045,0.000000000,19.913999557,-21.378978729
1748603475.669170,38.996000000,0.000000000,333.357879639,0.000000000,0.000000000,13.687090874,-54.937252045,0.000000000,19.913999557,-21.378978729
1748603475.671598,38.999000000,0.000000000,333.357879639,0.000000000,0.000000000,13.687090874,-54.937252045,0.000000000,19.913999557,-21.378978729
1748603475.673969,39.001000000,0.000000000,333.357879639,0.000000000,0.000000000,13.687090874,-54.937252045,0.000000000,19.913999557,-21.378978729
1748603475.676338,39.004000000,0.000000000,333.357879639,0.000000000,0.000000000,13.687090874,-54.937252045,0.000000000,19.913999557,-21.378978729
1748603475.678717,39.006000000,0.000000000,333.357879639,0.000000000,0.000000000,13.687090874,-54.937252045,0.000000000,19.913999557,-21.378978729
1748603475.681143,39.008000000,0.000000000,333.357879639,0.000000000,0.000000000,13.687090874,-54.937252045,0.000000000,19.913999557,-21.378978729
1748603475.683511,39.011000000,0.000000000,333.357879639,0.000000000,0.000000000,13.687090874,-54.937252045,0.000000000,19.913999557,-21.378978729
1748603475.685962,39.013000000,0.000000000,333.357879639,0.000000000,0.000000000,13.687090874,-54.937252045,0.000000000,19.913999557,-21.378978729
1748603475.688347,39.016000000,0.000000000,333.357879639,0.000000000,0.000000000,13.687090874,-54.937252045,0.000000000,19.913999557,-21.378978729
1748603475.690727,39.018000000,0.000000000,333.357879639,0.000000000,0.000000000,13.687090874,-54.937252045,0.000000000,19.913999557,-21.378978729
1748603475.693101,39.020000000,0.000000000,333.357879639,0.000000000,0.000000000,13.687090874,-54.937252045,0.000000000,19.913999557,-21.378978729
1748603475.695502,39.023000000,0.000000000,333.357879639,0.000000000,0.000000000,13.687090874,-54.937252045,0.000000000,19.913999557,-21.378978729
1748603475.697881,39.025000000,0.000000000,333.357879639,0.000000000,0.000000000,13.687090874,-54.937252045,0.000000000,19.913999557,-21.378978729
1748603475.700258,39.027000000,0.000000000,333.357879639,0.000000000,0.000000000,13.687090874,-54.937252045,0.000000000,19.913999557,-21.378978729
1748603475.702655,39.030000000,0.000000000,333.357879639,0.000000000,0.000000000,13.687090874,-54.937252045,0.000000000,19.913999557,-21.378978729
1748603475.705049,39.032000000,0.000000000,333.357879639,0.000000000,0.000000000,13.687090874,-54.937252045,0.000000000,19.913999557,-21.378978729
1748603475.707442,39.035000000,0.000000000,333.357879639,0.000000000,0.000000000,13.687090874,-54.937252045,0.000000000,19.913999557,-21.378978729
1748603475.709836,39.037000000,0.000000000,333.357879639,0.000000000,0.000000000,13.687090874,-54.937252045,0.000000000,19.913999557,-21.378978729
1748603475.712221,39.039000000,0.000000000,333.357879639,0.000000000,0.000000000,13.687090874,-54.937252045,0.000000000,19.913999557,-21.378978729
1748603475.714628,39.042000000,0.000000000,333.357879639,0.000000000,0.000000000,13.687090874,-54.937252045,0.000000000,19.913999557,-21.378978729
1748603475.717000,39.044000000,0.000000000,333.357879639,0.000000000,0.000000000,13.687090874,-54.937252045,0.000000000,19.913999557,-21.378978729
1748603475.719384,39.047000000,0.000000000,333.357879639,0.000000000,0.000000000,13.687090874,-54.937252045,0.000000000,19.913999557,-21.378978729
1748603475.721774,39.049000000,0.000000000,333.357879639,0.000000000,0.000000000,13.687090874,-54.937252045,0.000000000,19.913999557,-21.378978729
1748603475.724172,39.051000000,0.000000000,333.357879639,0.000000000,0.000000000,13.687090874,-54.937252045,0.000000000,19.913999557,-21.378978729
1748603475.726571,39.054000000,0.000000000,333.357879639,0.000000000,0.000000000,13.687090874,-54.937252045,0.000000000,19.913999557,-21.378978729
1748603475.728956,39.056000000,0.000000000,333.357879639,0.000000000,0.000000000,13.687090874,-54.937252045,0.000000000,19.913999557,-21.378978729
1748603475.731346,39.059000000,0.000000000,333.357879639,0.000000000,0.000000000,13.687090874,-54.937252045,0.000000000,19.913999557,-21.378978729
1748603475.733734,39.061000000,0.000000000,333.357879639,0.000000000,0.000000000,13.687090874,-54.937252045,0.000000000,19.913999557,-21.378978729
1748603475.736148,39.063000000,0.000000000,333.357879639,0.000000000,0.000000000,13.687090874,-54.937252045,0.000000000,19.913999557,-21.378978729
1748603475.738534,39.066000000,0.000000000,333.357879639,0.000000000,0.000000000,13.687090874,-54.937252045,0.000000000,19.913999557,-21.378978729
1748603475.740911,39.068000000,0.000000000,333.357879639,0.000000000,0.000000000,13.687090874,-54.937252045,0.000000000,19.913999557,-21.378978729
1748603475.743299,39.070000000,0.000000000,333.357879639,0.000000000,0.000000000,13.687090874,-54.937252045,0.000000000,19.913999557,-21.378978729
1748603475.745675,39.073000000,0.000000000,333.357879639,0.000000000,0.000000000,13.687090874,-54.937252045,0.000000000,19.913999557,-21.378978729
1748603475.748070,39.075000000,0.000000000,333.357879639,0.000000000,0.000000000,13.687090874,-54.937252045,0.000000000,19.913999557,-21.378978729
1748603475.750443,39.078000000,0.000000000,333.357879639,0.000000000,0.000000000,13.687090874,-54.937252045,0.000000000,19.913999557,-21.378978729
1748603475.752881,39.080000000,0.000000000,333.357879639,0.000000000,0.000000000,13.687090874,-54.937252045,0.000000000,19.913999557,-21.378978729
1748603475.755323,39.082000000,0.000000000,333.357879639,0.000000000,0.000000000,13.687090874,-54.937252045,0.000000000,19.913999557,-21.378978729
1748603475.757704,39.085000000,0.000000000,333.357879639,0.000000000,0.000000000,13.687090874,-54.937252045,0.000000000,19.913999557,-21.378978729
1748603475.760085,39.087000000,0.000000000,333.357879639,0.000000000,0.000000000,13.687090874,-54.937252045,0.000000000,19.913999557,-21.378978729
1748603475.762463,39.090000000,0.000000000,333.357879639,0.000000000,0.000000000,13.687090874,-54.937252045,0.000000000,19.913999557,-21.378978729
1748603475.764827,39.092000000,0.000000000,333.357879639,0.000000000,0.000000000,13.687090874,-54.937252045,0.000000000,19.913999557,-21.378978729
1748603475.767192,39.094000000,0.000000000,333.357879639,0.000000000,0.000000000,13.687090874,-54.937252045,0.000000000,19.913999557,-21.378978729
1748603475.769586,39.097000000,0.000000000,333.357879639,0.000000000,0.000000000,13.687090874,-54.937252045,0.000000000,19.913999557,-21.378978729
1748603475.771983,39.099000000,0.000000000,333.357879639,0.000000000,0.000000000,13.687090874,-54.937252045,0.000000000,19.913999557,-21.378978729
1748603475.774353,39.102000000,0.000000000,333.357879639,0.000000000,0.000000000,13.687090874,-54.937252045,0.000000000,19.913999557,-21.378978729
1748603475.776777,39.104000000,0.000000000,333.357879639,0.000000000,0.000000000,13.687090874,-54.937252045,0.000000000,19.913999557,-21.378978729
1748603475.779269,39.106000000,0.000000000,333.357879639,0.000000000,0.000000000,13.687090874,-54.937252045,0.000000000,19.913999557,-21.378978729
1748603475.781747,39.109000000,0.000000000,333.357879639,0.000000000,0.000000000,13.687090874,-54.937252045,0.000000000,19.913999557,-21.378978729
1748603475.784170,39.111000000,0.000000000,333.357879639,0.000000000,0.000000000,13.687090874,-54.937252045,0.000000000,19.913999557,-21.378978729
1748603475.786548,39.114000000,0.000000000,333.357879639,0.000000000,0.000000000,13.687090874,-54.937252045,0.000000000,19.913999557,-21.378978729
1748603475.788905,39.116000000,0.000000000,333.357879639,0.000000000,0.000000000,13.687090874,-54.937252045,0.000000000,19.913999557,-21.378978729
1748603475.791275,39.118000000,0.000000000,333.357879639,0.000000000,0.000000000,13.687090874,-54.937252045,0.000000000,19.913999557,-21.378978729
1748603475.793704,39.121000000,0.000000000,333.357879639,0.000000000,0.000000000,13.687090874,-54.937252045,0.000000000,19.913999557,-21.378978729
1748603475.796035,39.123000000,0.000000000,333.357879639,0.000000000,0.000000000,13.687090874,-54.937252045,0.000000000,19.913999557,-21.378978729
1748603475.798402,39.126000000,0.000000000,333.357879639,0.000000000,0.000000000,13.687090874,-54.937252045,0.000000000,19.913999557,-21.378978729
1748603475.800790,39.128000000,0.000000000,333.357879639,0.000000000,0.000000000,13.687090874,-54.937252045,0.000000000,19.913999557,-21.378978729
1748603475.803173,39.130000000,0.000000000,333.357879639,0.000000000,0.000000000,13.687090874,-54.937252045,0.000000000,19.913999557,-21.378978729
1748603475.805567,39.133000000,0.000000000,333.357879639,0.000000000,0.000000000,13.687090874,-54.937252045,0.000000000,19.913999557,-21.378978729
1748603475.807940,39.135000000,0.000000000,333.357879639,0.000000000,0.000000000,13.687090874,-54.937252045,0.000000000,19.913999557,-21.378978729
1748603475.810462,39.138000000,0.000000000,333.357879639,0.000000000,0.000000000,13.687090874,-54.937252045,0.000000000,19.913999557,-21.378978729
1748603475.812888,39.140000000,0.000000000,333.357879639,0.000000000,0.000000000,13.687090874,-54.937252045,0.000000000,19.913999557,-21.378978729
1748603475.815365,39.142000000,0.000000000,333.357879639,0.000000000,0.000000000,13.687090874,-54.937252045,0.000000000,19.913999557,-21.378978729
1748603475.817867,39.145000000,0.000000000,333.357879639,0.000000000,0.000000000,13.687090874,-54.937252045,0.000000000,19.913999557,-21.378978729
1748603475.820364,39.147000000,0.000000000,333.357879639,0.000000000,0.000000000,13.687090874,-54.937252045,0.000000000,19.913999557,-21.378978729
1748603475.822839,39.150000000,0.000000000,333.357879639,0.000000000,0.000000000,13.687090874,-54.937252045,0.000000000,19.913999557,-21.378978729
1748603475.825327,39.152000000,0.000000000,333.357879639,0.000000000,0.000000000,13.687090874,-54.937252045,0.000000000,19.913999557,-21.378978729
1748603475.827784,39.155000000,0.000000000,333.357879639,0.000000000,0.000000000,13.687090874,-54.937252045,0.000000000,19.913999557,-21.378978729
1748603475.830240,39.157000000,0.000000000,333.357879639,0.000000000,0.000000000,13.687090874,-54.937252045,0.000000000,19.913999557,-21.378978729
1748603475.832716,39.160000000,0.000000000,333.357879639,0.000000000,0.000000000,13.687090874,-54.937252045,0.000000000,19.913999557,-21.378978729
1748603475.835171,39.162000000,0.000000000,333.357879639,0.000000000,0.000000000,13.687090874,-54.937252045,0.000000000,19.913999557,-21.378978729
1748603475.837635,39.165000000,0.000000000,333.357879639,0.000000000,0.000000000,13.687090874,-54.937252045,0.000000000,19.913999557,-21.378978729
1748603475.840115,39.167000000,0.000000000,333.357879639,0.000000000,0.000000000,13.687090874,-54.937252045,0.000000000,19.913999557,-21.378978729
1748603475.842633,39.170000000,0.000000000,333.357879639,0.000000000,0.000000000,13.687090874,-54.937252045,0.000000000,19.913999557,-21.378978729
1748603475.845091,39.172000000,0.000000000,333.357879639,0.000000000,0.000000000,13.687090874,-54.937252045,0.000000000,19.913999557,-21.378978729
1748603475.847542,39.175000000,0.000000000,333.357879639,0.000000000,0.000000000,13.687090874,-54.937252045,0.000000000,19.913999557,-21.378978729
1748603475.850078,39.177000000,0.000000000,333.357879639,0.000000000,0.000000000,13.687090874,-54.937252045,0.000000000,19.913999557,-21.378978729
1748603475.852509,39.180000000,0.000000000,333.357879639,0.000000000,0.000000000,13.687090874,-54.937252045,0.000000000,19.913999557,-21.378978729
1748603475.854968,39.182000000,0.000000000,333.357879639,0.000000000,0.000000000,13.687090874,-54.937252045,0.000000000,19.913999557,-21.378978729
1748603475.857502,39.185000000,0.000000000,333.357879639,0.000000000,0.000000000,13.687090874,-54.937252045,0.000000000,19.913999557,-21.378978729
1748603475.859989,39.187000000,0.000000000,333.357879639,0.000000000,0.000000000,13.687090874,-54.937252045,0.000000000,19.913999557,-21.378978729
1748603475.862360,39.190000000,0.000000000,333.357879639,0.000000000,0.000000000,13.687090874,-54.937252045,0.000000000,19.913999557,-21.378978729
1748603475.864762,39.192000000,0.000000000,333.357879639,0.000000000,0.000000000,13.687090874,-54.937252045,0.000000000,19.913999557,-21.378978729
1748603475.867128,39.194000000,0.000000000,333.357879639,0.000000000,0.000000000,13.687090874,-54.937252045,0.000000000,19.913999557,-21.378978729
1748603475.869522,39.197000000,0.000000000,333.357879639,0.000000000,0.000000000,13.687090874,-54.937252045,0.000000000,19.913999557,-21.378978729
1748603475.872092,39.199000000,0.000000000,333.357879639,0.000000000,0.000000000,13.687090874,-54.937252045,0.000000000,19.913999557,-21.378978729
1748603475.874547,39.202000000,0.000000000,333.357879639,0.000000000,0.000000000,13.687090874,-54.937252045,0.000000000,19.913999557,-21.378978729
1748603475.876977,39.204000000,0.000000000,333.357879639,0.000000000,0.000000000,13.687090874,-54.937252045,0.000000000,19.913999557,-21.378978729
1748603475.879402,39.207000000,0.000000000,333.357879639,0.000000000,0.000000000,13.687090874,-54.937252045,0.000000000,19.913999557,-21.378978729
1748603475.881824,39.209000000,0.000000000,333.357879639,0.000000000,0.000000000,13.687090874,-54.937252045,0.000000000,19.913999557,-21.378978729
1748603475.884248,39.211000000,0.000000000,333.357879639,0.000000000,0.000000000,13.687090874,-54.937252045,0.000000000,19.913999557,-21.378978729
1748603475.886751,39.214000000,0.000000000,333.357879639,0.000000000,0.000000000,13.687090874,-54.937252045,0.000000000,19.913999557,-21.378978729
1748603475.889139,39.216000000,0.000000000,333.357879639,0.000000000,0.000000000,13.687090874,-54.937252045,0.000000000,19.913999557,-21.378978729
1748603475.891534,39.219000000,0.000000000,333.357879639,0.000000000,0.000000000,13.687090874,-54.937252045,0.000000000,19.913999557,-21.378978729
1748603475.893961,39.221000000,0.000000000,333.357879639,0.000000000,0.000000000,13.687090874,-54.937252045,0.000000000,19.913999557,-21.378978729
1748603475.896403,39.224000000,0.000000000,333.357879639,0.000000000,0.000000000,13.687090874,-54.937252045,0.000000000,19.913999557,-21.378978729
1748603475.898836,39.226000000,0.000000000,333.357879639,0.000000000,0.000000000,13.687090874,-54.937252045,0.000000000,19.913999557,-21.378978729
1748603475.901279,39.228000000,0.000000000,333.357879639,0.000000000,0.000000000,13.687090874,-54.937252045,0.000000000,19.913999557,-21.378978729
1748603475.903725,39.231000000,0.000000000,333.357879639,0.000000000,0.000000000,13.687090874,-54.937252045,0.000000000,19.913999557,-21.378978729
1748603475.906134,39.233000000,0.000000000,333.357879639,0.000000000,0.000000000,13.687090874,-54.937252045,0.000000000,19.913999557,-21.378978729
1748603475.908566,39.236000000,0.000000000,333.357879639,0.000000000,0.000000000,13.687090874,-54.937252045,0.000000000,19.913999557,-21.378978729
1748603475.911024,39.238000000,0.000000000,333.357879639,0.000000000,0.000000000,13.687090874,-54.937252045,0.000000000,19.913999557,-21.378978729
1748603475.913460,39.241000000,0.000000000,333.357879639,0.000000000,0.000000000,13.687090874,-54.937252045,0.000000000,19.913999557,-21.378978729
1748603475.915914,39.243000000,0.000000000,333.357879639,0.000000000,0.000000000,13.687090874,-54.937252045,0.000000000,19.913999557,-21.378978729
1748603475.918425,39.246000000,0.000000000,333.357879639,0.000000000,0.000000000,13.687090874,-54.937252045,0.000000000,19.913999557,-21.378978729
1748603475.921036,39.248000000,0.000000000,333.357879639,0.000000000,0.000000000,13.687090874,-54.937252045,0.000000000,19.913999557,-21.378978729
1748603475.923560,39.251000000,0.000000000,333.357879639,0.000000000,0.000000000,13.687090874,-54.937252045,0.000000000,19.913999557,-21.378978729
1748603475.926085,39.253000000,0.000000000,333.357879639,0.000000000,0.000000000,13.687090874,-54.937252045,0.000000000,19.913999557,-21.378978729
1748603475.928561,39.256000000,0.000000000,333.357879639,0.000000000,0.000000000,13.687090874,-54.937252045,0.000000000,19.913999557,-21.378978729
1748603475.931001,39.258000000,0.000000000,333.357879639,0.000000000,0.000000000,13.687090874,-54.937252045,0.000000000,19.913999557,-21.378978729
1748603475.933397,39.261000000,0.000000000,333.357879639,0.000000000,0.000000000,13.687090874,-54.937252045,0.000000000,19.913999557,-21.378978729
1748603475.935793,39.263000000,0.000000000,333.357879639,0.000000000,0.000000000,13.687090874,-54.937252045,0.000000000,19.913999557,-21.378978729
1748603475.938182,39.265000000,0.000000000,333.357879639,0.000000000,0.000000000,13.687090874,-54.937252045,0.000000000,19.913999557,-21.378978729
1748603475.940672,39.268000000,0.000000000,333.357879639,0.000000000,0.000000000,13.687090874,-54.937252045,0.000000000,19.913999557,-21.378978729
1748603475.942962,39.270000000,0.000000000,333.357879639,0.000000000,0.000000000,13.687090874,-54.937252045,0.000000000,19.913999557,-21.378978729
1748603475.945334,39.273000000,0.000000000,333.357879639,0.000000000,0.000000000,13.687090874,-54.937252045,0.000000000,19.913999557,-21.378978729
1748603475.947710,39.275000000,0.000000000,333.357879639,0.000000000,0.000000000,13.687090874,-54.937252045,0.000000000,19.913999557,-21.378978729
1748603475.950072,39.277000000,0.000000000,333.357879639,0.000000000,0.000000000,13.687090874,-54.937252045,0.000000000,19.913999557,-21.378978729
1748603475.952522,39.280000000,0.000000000,333.357879639,0.000000000,0.000000000,13.687090874,-54.937252045,0.000000000,19.913999557,-21.378978729
1748603475.954963,39.282000000,0.000000000,333.357879639,0.000000000,0.000000000,13.687090874,-54.937252045,0.000000000,19.913999557,-21.378978729
1748603475.957397,39.285000000,0.000000000,333.357879639,0.000000000,0.000000000,13.687090874,-54.937252045,0.000000000,19.913999557,-21.378978729
1748603475.959852,39.287000000,0.000000000,333.357879639,0.000000000,0.000000000,13.687090874,-54.937252045,0.000000000,19.913999557,-21.378978729
1748603475.962275,39.289000000,0.000000000,333.357879639,0.000000000,0.000000000,13.687090874,-54.937252045,0.000000000,19.913999557,-21.378978729
1748603475.964728,39.292000000,0.000000000,333.357879639,0.000000000,0.000000000,13.687090874,-54.937252045,0.000000000,19.913999557,-21.378978729
1748603475.967168,39.294000000,0.000000000,333.357879639,0.000000000,0.000000000,13.687090874,-54.937252045,0.000000000,19.913999557,-21.378978729
1748603475.969698,39.297000000,0.000000000,333.357879639,0.000000000,0.000000000,13.687090874,-54.937252045,0.000000000,19.913999557,-21.378978729
1748603475.972097,39.299000000,0.000000000,333.357879639,0.000000000,0.000000000,13.687090874,-54.937252045,0.000000000,19.913999557,-21.378978729
1748603475.974492,39.302000000,0.000000000,333.357879639,0.000000000,0.000000000,13.687090874,-54.937252045,0.000000000,19.913999557,-21.378978729
1748603475.976899,39.304000000,0.000000000,333.357879639,0.000000000,0.000000000,13.687090874,-54.937252045,0.000000000,19.913999557,-21.378978729
1748603475.979327,39.306000000,0.000000000,333.357879639,0.000000000,0.000000000,13.687090874,-54.937252045,0.000000000,19.913999557,-21.378978729
1748603475.981705,39.309000000,0.000000000,333.357879639,0.000000000,0.000000000,13.687090874,-54.937252045,0.000000000,19.913999557,-21.378978729
1748603475.984071,39.311000000,0.000000000,333.357879639,0.000000000,0.000000000,13.687090874,-54.937252045,0.000000000,19.913999557,-21.378978729
1748603475.986453,39.314000000,0.000000000,333.357879639,0.000000000,0.000000000,13.687090874,-54.937252045,0.000000000,19.913999557,-21.378978729
1748603475.988852,39.316000000,0.000000000,333.357879639,0.000000000,0.000000000,13.687090874,-54.937252045,0.000000000,19.913999557,-21.378978729
1748603475.991232,39.318000000,0.000000000,333.357879639,0.000000000,0.000000000,13.687090874,-54.937252045,0.000000000,19.913999557,-21.378978729
1748603475.993693,39.321000000,0.000000000,333.357879639,0.000000000,0.000000000,13.687090874,-54.937252045,0.000000000,19.913999557,-21.378978729
1748603475.996072,39.323000000,0.000000000,333.357879639,0.000000000,0.000000000,13.687090874,-54.937252045,0.000000000,19.913999557,-21.378978729
1748603475.998460,39.326000000,0.000000000,333.357879639,0.000000000,0.000000000,13.687090874,-54.937252045,0.000000000,19.913999557,-21.378978729
1748603476.000851,39.328000000,0.000000000,333.357879639,0.000000000,0.000000000,13.687090874,-54.937252045,0.000000000,19.913999557,-21.378978729
1748603476.003250,39.330000000,0.000000000,333.357879639,0.000000000,0.000000000,13.687090874,-54.937252045,0.000000000,19.913999557,-21.378978729
1748603476.005672,39.333000000,0.000000000,333.357879639,0.000000000,0.000000000,13.687090874,-54.937252045,0.000000000,19.913999557,-21.378978729
1748603476.008158,39.335000000,0.000000000,333.357879639,0.000000000,0.000000000,13.687090874,-54.937252045,0.000000000,19.913999557,-21.378978729
1748603476.010656,39.338000000,0.000000000,333.357879639,0.000000000,0.000000000,13.687090874,-54.937252045,0.000000000,19.913999557,-21.378978729
1748603476.013161,39.340000000,0.000000000,333.357879639,0.000000000,0.000000000,13.687090874,-54.937252045,0.000000000,19.913999557,-21.378978729
1748603476.015624,39.343000000,0.000000000,333.357879639,0.000000000,0.000000000,13.687090874,-54.937252045,0.000000000,19.913999557,-21.378978729
1748603476.018161,39.345000000,0.000000000,333.357879639,0.000000000,0.000000000,13.687090874,-54.937252045,0.000000000,19.913999557,-21.378978729
1748603476.020685,39.348000000,0.000000000,333.357879639,0.000000000,0.000000000,13.687090874,-54.937252045,0.000000000,19.913999557,-21.378978729
1748603476.023155,39.350000000,0.000000000,333.357879639,0.000000000,0.000000000,13.687090874,-54.937252045,0.000000000,19.913999557,-21.378978729
1748603476.025643,39.353000000,0.000000000,333.357879639,0.000000000,0.000000000,13.687090874,-54.937252045,0.000000000,19.913999557,-21.378978729
1748603476.028071,39.355000000,0.000000000,333.357879639,0.000000000,0.000000000,13.687090874,-54.937252045,0.000000000,19.913999557,-21.378978729
1748603476.030564,39.358000000,0.000000000,333.357879639,0.000000000,0.000000000,13.687090874,-54.937252045,0.000000000,19.913999557,-21.378978729
1748603476.033045,39.360000000,0.000000000,333.357879639,0.000000000,0.000000000,13.687090874,-54.937252045,0.000000000,19.913999557,-21.378978729
1748603476.035691,39.363000000,0.000000000,333.357879639,0.000000000,0.000000000,13.687090874,-54.937252045,0.000000000,19.913999557,-21.378978729
1748603476.038280,39.365000000,0.000000000,333.357879639,0.000000000,0.000000000,13.687090874,-54.937252045,0.000000000,19.913999557,-21.378978729
1748603476.040663,39.368000000,0.000000000,333.357879639,0.000000000,0.000000000,13.687090874,-54.937252045,0.000000000,19.913999557,-21.378978729
1748603476.043044,39.370000000,0.000000000,333.357879639,0.000000000,0.000000000,13.687090874,-54.937252045,0.000000000,19.913999557,-21.378978729
1748603476.045428,39.373000000,0.000000000,333.357879639,0.000000000,0.000000000,13.687090874,-54.937252045,0.000000000,19.913999557,-21.378978729
1748603476.047833,39.375000000,0.000000000,333.357879639,0.000000000,0.000000000,13.687090874,-54.937252045,0.000000000,19.913999557,-21.378978729
1748603476.050214,39.377000000,0.000000000,333.357879639,0.000000000,0.000000000,13.687090874,-54.937252045,0.000000000,19.913999557,-21.378978729
1748603476.052667,39.380000000,0.000000000,333.357879639,0.000000000,0.000000000,13.687090874,-54.937252045,0.000000000,19.913999557,-21.378978729
1748603476.055104,39.382000000,0.000000000,333.357879639,0.000000000,0.000000000,13.687090874,-54.937252045,0.000000000,19.913999557,-21.378978729
1748603476.057632,39.385000000,0.000000000,333.357879639,0.000000000,0.000000000,13.687090874,-54.937252045,0.000000000,19.913999557,-21.378978729
1748603476.060204,39.387000000,0.000000000,333.357879639,0.000000000,0.000000000,13.687090874,-54.937252045,0.000000000,19.913999557,-21.378978729
1748603476.062574,39.390000000,0.000000000,333.357879639,0.000000000,0.000000000,13.687090874,-54.937252045,0.000000000,19.913999557,-21.378978729
1748603476.065029,39.392000000,0.000000000,333.357879639,0.000000000,0.000000000,13.687090874,-54.937252045,0.000000000,19.913999557,-21.378978729
1748603476.067411,39.395000000,0.000000000,333.357879639,0.000000000,0.000000000,13.687090874,-54.937252045,0.000000000,19.913999557,-21.378978729
1748603476.069924,39.397000000,0.000000000,333.357879639,0.000000000,0.000000000,13.687090874,-54.937252045,0.000000000,19.913999557,-21.378978729
1748603476.072329,39.399000000,0.000000000,333.357879639,0.000000000,0.000000000,13.687090874,-54.937252045,0.000000000,19.913999557,-21.378978729
1748603476.074784,39.402000000,0.000000000,333.357879639,0.000000000,0.000000000,13.687090874,-54.937252045,0.000000000,19.913999557,-21.378978729
1748603476.077267,39.404000000,0.000000000,333.357879639,0.000000000,0.000000000,13.687090874,-54.937252045,0.000000000,19.913999557,-21.378978729
1748603476.079750,39.407000000,0.000000000,333.357879639,0.000000000,0.000000000,13.687090874,-54.937252045,0.000000000,19.913999557,-21.378978729
1748603476.082227,39.409000000,0.000000000,333.357879639,0.000000000,0.000000000,13.687090874,-54.937252045,0.000000000,19.913999557,-21.378978729
1748603476.084683,39.412000000,0.000000000,333.357879639,0.000000000,0.000000000,13.687090874,-54.937252045,0.000000000,19.913999557,-21.378978729
1748603476.087095,39.414000000,0.000000000,333.357879639,0.000000000,0.000000000,13.687090874,-54.937252045,0.000000000,19.913999557,-21.378978729
1748603476.089493,39.417000000,0.000000000,333.357879639,0.000000000,0.000000000,13.687090874,-54.937252045,0.000000000,19.913999557,-21.378978729
1748603476.091862,39.419000000,0.000000000,333.357879639,0.000000000,0.000000000,13.687090874,-54.937252045,0.000000000,19.913999557,-21.378978729
1748603476.094223,39.421000000,0.000000000,333.357879639,0.000000000,0.000000000,13.687090874,-54.937252045,0.000000000,19.913999557,-21.378978729
1748603476.096617,39.424000000,0.000000000,333.357879639,0.000000000,0.000000000,13.687090874,-54.937252045,0.000000000,19.913999557,-21.378978729
1748603476.098978,39.426000000,0.000000000,333.357879639,0.000000000,0.000000000,13.687090874,-54.937252045,0.000000000,19.913999557,-21.378978729
