liamjosephnolan/thesis_matlab/pitch_prbs_response/prbs_roll_0_pitch_15.csv
__time,/psm_joint_telemetry/header/stamp,/psm_joint_telemetry/insertion/effort,/psm_joint_telemetry/insertion/position,/psm_joint_telemetry/insertion/velocity,/psm_joint_telemetry/pitch/effort,/psm_joint_telemetry/pitch/position,/psm_joint_telemetry/pitch/velocity,/psm_joint_telemetry/roll/effort,/psm_joint_telemetry/roll/position,/psm_joint_telemetry/roll/velocity
1748605007.293681,32.362000000,0.000000000,-333.357879639,0.000000000,0.000000000,12.593564987,-58.201103210,0.000000000,-0.074999034,-18.882099152
1748605007.296133,32.365000000,0.000000000,-333.357879639,0.000000000,0.000000000,12.593564987,-58.201103210,0.000000000,-0.074999034,-18.890300751
1748605007.298681,32.367000000,0.000000000,-333.357879639,0.000000000,0.000000000,12.593564987,-58.201103210,0.000000000,-0.074999034,-18.897684097
1748605007.301104,32.370000000,0.000000000,-333.357879639,0.000000000,0.000000000,12.593564987,-58.201103210,0.000000000,-0.074999034,-18.904327393
1748605007.303516,32.372000000,0.000000000,-333.357879639,0.000000000,0.000000000,12.593564987,-58.201103210,0.000000000,-0.074999034,-18.910306931
1748605007.305904,32.375000000,0.000000000,-333.357879639,0.000000000,0.000000000,12.593564987,-58.201103210,0.000000000,-0.074999034,-18.915689468
1748605007.308293,32.377000000,0.000000000,-333.357879639,0.000000000,0.000000000,12.593564987,-58.201103210,0.000000000,-0.074999034,-18.920532227
1748605007.310661,32.379000000,0.000000000,-333.357879639,0.000000000,0.000000000,12.593564987,-58.201103210,0.000000000,-0.074999034,-18.924892426
1748605007.313017,32.382000000,0.000000000,-333.357879639,0.000000000,0.000000000,12.593564987,-58.201103210,0.000000000,-0.074999034,-18.928815842
1748605007.315348,32.384000000,0.000000000,-333.357879639,0.000000000,0.000000000,12.593564987,-58.201103210,0.000000000,-0.074999034,-18.932346344
1748605007.317732,32.386000000,0.000000000,-333.357879639,0.000000000,0.000000000,12.593564987,-58.201103210,0.000000000,-0.074999034,-18.935523987
1748605007.320142,32.389000000,0.000000000,-333.357879639,0.000000000,0.000000000,12.593564987,-58.201103210,0.000000000,-0.074999034,-18.938385010
1748605007.322489,32.391000000,0.000000000,-333.357879639,0.000000000,0.000000000,12.593564987,-58.201103210,0.000000000,-0.074999034,-18.940958023
1748605007.324824,32.394000000,0.000000000,-333.357879639,0.000000000,0.000000000,12.593564987,-58.201103210,0.000000000,-0.074999034,-18.943275452
1748605007.327206,32.396000000,0.000000000,-333.357879639,0.000000000,0.000000000,12.593564987,-58.201103210,0.000000000,-0.074999034,-18.945360184
1748605007.329578,32.398000000,0.000000000,-333.357879639,0.000000000,0.000000000,12.593564987,-58.201103210,0.000000000,-0.074999034,-18.947237015
1748605007.331895,32.401000000,0.000000000,-333.357879639,0.000000000,0.000000000,12.593564987,-58.201103210,0.000000000,-0.074999034,-18.948925018
1748605007.334233,32.403000000,0.000000000,-333.357879639,0.000000000,0.000000000,12.593564987,-58.201103210,0.000000000,-0.074999034,-18.950445175
1748605007.336649,32.405000000,0.000000000,-333.357879639,0.000000000,0.000000000,12.593564987,-58.201103210,0.000000000,-0.074999034,-18.951812744
1748605007.339005,32.408000000,0.000000000,-333.357879639,0.000000000,0.000000000,12.593564987,-58.201103210,0.000000000,-0.074999034,-18.953044891
1748605007.341390,32.410000000,0.000000000,-333.357879639,0.000000000,0.000000000,12.593564987,-58.201103210,0.000000000,-0.074999034,-18.954153061
1748605007.343830,32.412000000,0.000000000,-333.357879639,0.000000000,0.000000000,12.593564987,-58.201103210,0.000000000,-0.074999034,-18.955148697
1748605007.346253,32.415000000,0.000000000,-333.357879639,0.000000000,0.000000000,12.593564987,-58.201103210,0.000000000,-0.074999034,-18.956047058
1748605007.348710,32.417000000,0.000000000,-333.357879639,0.000000000,0.000000000,12.593564987,-58.201103210,0.000000000,-0.074999034,-18.956853867
1748605007.351082,32.420000000,0.000000000,-333.357879639,0.000000000,0.000000000,12.593564987,-58.201103210,0.000000000,-0.074999034,-18.957582474
1748605007.353448,32.422000000,0.000000000,-333.357879639,0.000000000,0.000000000,12.593564987,-58.201103210,0.000000000,-0.074999034,-18.958236694
1748605007.355827,32.425000000,0.000000000,-333.357879639,0.000000000,0.000000000,12.593564987,-58.201103210,0.000000000,-0.074999034,-18.958824158
1748605007.358143,32.427000000,0.000000000,-333.357879639,0.000000000,0.000000000,12.593564987,-58.201103210,0.000000000,-0.074999034,-18.959354401
1748605007.360494,32.429000000,0.000000000,-333.357879639,0.000000000,0.000000000,12.593564987,-58.201103210,0.000000000,-0.074999034,-18.959831238
1748605007.362884,32.432000000,0.000000000,-333.357879639,0.000000000,0.000000000,12.593564987,-58.201103210,0.000000000,-0.074999034,-18.960260391
1748605007.365225,32.434000000,0.000000000,-333.357879639,0.000000000,0.000000000,12.593564987,-58.201103210,0.000000000,-0.074999034,-18.960647583
1748605007.367588,32.436000000,0.000000000,-333.357879639,0.000000000,0.000000000,12.593564987,-58.201103210,0.000000000,-0.074999034,-18.960994720
1748605007.369988,32.439000000,0.000000000,-333.357879639,0.000000000,0.000000000,12.593564987,-58.201103210,0.000000000,-0.074999034,-18.961307526
1748605007.372363,32.441000000,0.000000000,-333.357879639,0.000000000,0.000000000,12.593564987,-58.201103210,0.000000000,-0.074999034,-18.961589813
1748605007.374756,32.443000000,0.000000000,-333.357879639,0.000000000,0.000000000,12.593564987,-58.201103210,0.000000000,-0.074999034,-18.961843491
1748605007.377146,32.446000000,0.000000000,-333.357879639,0.000000000,0.000000000,12.593564987,-58.201103210,0.000000000,-0.074999034,-18.962072372
1748605007.379523,32.448000000,0.000000000,-333.357879639,0.000000000,0.000000000,12.593564987,-58.201103210,0.000000000,-0.074999034,-18.962276459
1748605007.381886,32.451000000,0.000000000,-333.357879639,0.000000000,0.000000000,12.593564987,-58.201103210,0.000000000,-0.074999034,-18.962461472
1748605007.384264,32.453000000,0.000000000,-333.357879639,0.000000000,0.000000000,12.593564987,-58.201103210,0.000000000,-0.074999034,-18.962627411
1748605007.386685,32.455000000,0.000000000,-333.357879639,0.000000000,0.000000000,12.593564987,-58.201103210,0.000000000,-0.074999034,-18.962778091
1748605007.389042,32.458000000,0.000000000,-333.357879639,0.000000000,0.000000000,12.593564987,-58.201103210,0.000000000,-0.074999034,-18.962911606
1748605007.391464,32.460000000,0.000000000,-333.357879639,0.000000000,0.000000000,12.593564987,-58.201103210,0.000000000,-0.074999034,-18.963033676
1748605007.393900,32.463000000,0.000000000,-333.357879639,0.000000000,0.000000000,12.593564987,-58.201103210,0.000000000,-0.074999034,-18.963142395
1748605007.396303,32.465000000,0.000000000,-333.357879639,0.000000000,0.000000000,12.593564987,-58.201103210,0.000000000,-0.074999034,-18.963241577
1748605007.398634,32.467000000,0.000000000,-333.357879639,0.000000000,0.000000000,12.593564987,-58.201103210,0.000000000,-0.074999034,-18.963329315
1748605007.400998,32.470000000,0.000000000,-333.357879639,0.000000000,0.000000000,12.593564987,-58.201103210,0.000000000,-0.074999034,-18.963409424
1748605007.403383,32.472000000,0.000000000,-333.357879639,0.000000000,0.000000000,12.593564987,-58.201103210,0.000000000,-0.074999034,-18.963479996
1748605007.405761,32.474000000,0.000000000,-333.357879639,0.000000000,0.000000000,12.593564987,-58.201103210,0.000000000,-0.074999034,-18.963544846
1748605007.408134,32.477000000,0.000000000,-333.357879639,0.000000000,0.000000000,12.593564987,-58.201103210,0.000000000,-0.074999034,-18.963602066
1748605007.410508,32.479000000,0.000000000,-333.357879639,0.000000000,0.000000000,12.593564987,-58.201103210,0.000000000,-0.074999034,-18.963655472
1748605007.412880,32.482000000,0.000000000,-333.357879639,0.000000000,0.000000000,12.593564987,-58.201103210,0.000000000,-0.074999034,-18.963701248
1748605007.415254,32.484000000,0.000000000,-333.357879639,0.000000000,0.000000000,12.593564987,-58.201103210,0.000000000,-0.074999034,-18.963745117
1748605007.417662,32.486000000,0.000000000,-333.357879639,0.000000000,0.000000000,12.593564987,-58.201103210,0.000000000,-0.074999034,-18.963781357
1748605007.420040,32.489000000,0.000000000,-333.357879639,0.000000000,0.000000000,12.593564987,-58.201103210,0.000000000,-0.074999034,-18.963815689
1748605007.422432,32.491000000,0.000000000,-333.357879639,0.000000000,0.000000000,12.593564987,-58.201103210,0.000000000,-0.074999034,-18.963848114
1748605007.424854,32.494000000,0.000000000,-333.357879639,0.000000000,0.000000000,12.593564987,-58.201103210,0.000000000,-0.074999034,-18.963874817
1748605007.427260,32.496000000,0.000000000,-333.357879639,0.000000000,0.000000000,12.593564987,-58.201103210,0.000000000,-0.074999034,-18.963899612
1748605007.429651,32.498000000,0.000000000,-333.357879639,0.000000000,0.000000000,12.593564987,-58.201103210,0.000000000,-0.074999034,-18.963922501
1748605007.432063,32.501000000,0.000000000,-333.357879639,0.000000000,0.000000000,12.593564987,-58.201103210,0.000000000,-0.074999034,-18.963943481
1748605007.434509,32.503000000,0.000000000,-333.357879639,0.000000000,0.000000000,12.593564987,-58.201103210,0.000000000,-0.074999034,-18.963960648
1748605007.436930,32.506000000,0.000000000,-333.357879639,0.000000000,0.000000000,12.593564987,-58.201103210,0.000000000,-0.074999034,-18.963977814
1748605007.439379,32.508000000,0.000000000,-333.357879639,0.000000000,0.000000000,12.593564987,-58.201103210,0.000000000,-0.074999034,-18.963991165
1748605007.441886,32.511000000,0.000000000,-333.357879639,0.000000000,0.000000000,12.593564987,-58.201103210,0.000000000,-0.074999034,-18.964004517
1748605007.444266,32.513000000,0.000000000,-333.357879639,0.000000000,0.000000000,12.593564987,-58.201103210,0.000000000,-0.074999034,-18.964017868
1748605007.446675,32.515000000,0.000000000,-333.357879639,0.000000000,0.000000000,12.593564987,-58.201103210,0.000000000,-0.074999034,-18.964027405
1748605007.449048,32.518000000,0.000000000,-333.357879639,0.000000000,0.000000000,12.593564987,-58.201103210,0.000000000,-0.074999034,-18.964036942
1748605007.451403,32.520000000,0.000000000,-333.357879639,0.000000000,0.000000000,12.593564987,-58.201103210,0.000000000,-0.074999034,-18.964046478
1748605007.453790,32.522000000,0.000000000,-333.357879639,0.000000000,0.000000000,12.593564987,-58.201103210,0.000000000,-0.074999034,-18.964054108
1748605007.456164,32.525000000,0.000000000,-333.357879639,0.000000000,0.000000000,12.593564987,-58.201103210,0.000000000,-0.074999034,-18.964061737
1748605007.458569,32.527000000,0.000000000,-333.357879639,0.000000000,0.000000000,12.593564987,-58.201103210,0.000000000,-0.074999034,-18.964067459
1748605007.460935,32.530000000,0.000000000,-333.357879639,0.000000000,0.000000000,12.593564987,-58.201103210,0.000000000,-0.074999034,-18.964073181
1748605007.463326,32.532000000,0.000000000,-333.357879639,0.000000000,0.000000000,12.593564987,-58.201103210,0.000000000,-0.074999034,-18.964078903
1748605007.466036,32.535000000,0.000000000,-333.357879639,0.000000000,0.000000000,12.593564987,-58.201103210,0.000000000,-0.074999034,-18.964082718
1748605007.468454,32.537000000,0.000000000,-333.357879639,0.000000000,0.000000000,12.593564987,-58.201103210,0.000000000,-0.074999034,-18.964086533
1748605007.470981,32.540000000,0.000000000,-333.357879639,0.000000000,0.000000000,12.593564987,-58.201103210,0.000000000,-0.074999034,-18.964090347
1748605007.473333,32.542000000,0.000000000,-333.357879639,0.000000000,0.000000000,12.593564987,-58.201103210,0.000000000,-0.074999034,-18.964094162
1748605007.475715,32.544000000,0.000000000,-333.357879639,0.000000000,0.000000000,12.593564987,-58.201103210,0.000000000,-0.074999034,-18.964097977
1748605007.478081,32.547000000,0.000000000,-333.357879639,0.000000000,0.000000000,12.593564987,-58.201103210,0.000000000,-0.074999034,-18.964099884
1748605007.480447,32.549000000,0.000000000,-333.357879639,0.000000000,0.000000000,12.593564987,-58.201103210,0.000000000,-0.074999034,-18.964101791
1748605007.482827,32.552000000,0.000000000,-333.357879639,0.000000000,0.000000000,12.593564987,-58.201103210,0.000000000,-0.074999034,-18.964105606
1748605007.485236,32.554000000,0.000000000,-333.357879639,0.000000000,0.000000000,12.593564987,-58.201103210,0.000000000,-0.074999034,-18.964107513
1748605007.487641,32.556000000,0.000000000,-333.357879639,0.000000000,0.000000000,12.593564987,-58.201103210,0.000000000,-0.074999034,-18.964109421
1748605007.489981,32.559000000,0.000000000,-333.357879639,0.000000000,0.000000000,12.593564987,-58.201103210,0.000000000,-0.074999034,-18.964109421
1748605007.492387,32.561000000,0.000000000,-333.357879639,0.000000000,0.000000000,12.593564987,-58.201103210,0.000000000,-0.074999034,-18.964111328
1748605007.494766,32.563000000,0.000000000,-333.357879639,0.000000000,0.000000000,12.593564987,-58.201103210,0.000000000,-0.074999034,-18.964113235
1748605007.497125,32.566000000,0.000000000,-333.357879639,0.000000000,0.000000000,12.593564987,-58.201103210,0.000000000,-0.074999034,-18.964113235
1748605007.499501,32.568000000,0.000000000,-333.357879639,0.000000000,0.000000000,12.593564987,-58.201103210,0.000000000,-0.074999034,-18.964115143
1748605007.501869,32.571000000,0.000000000,-333.357879639,0.000000000,0.000000000,12.593564987,-58.201103210,0.000000000,-0.074999034,-18.964117050
1748605007.504246,32.573000000,0.000000000,-333.357879639,0.000000000,0.000000000,12.593564987,-58.201103210,0.000000000,-0.074999034,-18.964117050
1748605007.506638,32.575000000,0.000000000,-333.357879639,0.000000000,0.000000000,12.593564987,-58.201103210,0.000000000,-0.074999034,-18.964117050
1748605007.508999,32.578000000,0.000000000,-333.357879639,0.000000000,0.000000000,12.593564987,-58.201103210,0.000000000,-0.074999034,-18.964118958
1748605007.511375,32.580000000,0.000000000,-333.357879639,0.000000000,0.000000000,12.593564987,-58.201103210,0.000000000,-0.074999034,-18.964118958
1748605007.513762,32.582000000,0.000000000,-333.357879639,0.000000000,0.000000000,12.593564987,-58.201103210,0.000000000,-0.074999034,-18.964118958
1748605007.516135,32.585000000,0.000000000,-333.357879639,0.000000000,0.000000000,12.593564987,-58.201103210,0.000000000,-0.074999034,-18.964120865
1748605007.518514,32.587000000,0.000000000,-333.357879639,0.000000000,0.000000000,12.593564987,-58.201103210,0.000000000,-0.074999034,-18.964120865
1748605007.520885,32.590000000,0.000000000,-333.357879639,0.000000000,0.000000000,12.593564987,-58.201103210,0.000000000,-0.074999034,-18.964120865
1748605007.523254,32.592000000,0.000000000,-333.357879639,0.000000000,0.000000000,12.593564987,-58.201103210,0.000000000,-0.074999034,-18.964120865
1748605007.525676,32.594000000,0.000000000,-333.357879639,0.000000000,0.000000000,12.593564987,-58.201103210,0.000000000,-0.074999034,-18.964120865
1748605007.528081,32.597000000,0.000000000,-333.357879639,0.000000000,0.000000000,12.593564987,-58.201103210,0.000000000,-0.074999034,-18.964122772
1748605007.530487,32.599000000,0.000000000,-333.357879639,0.000000000,0.000000000,12.593564987,-58.201103210,0.000000000,-0.074999034,-18.964122772
1748605007.532843,32.602000000,0.000000000,-333.357879639,0.000000000,0.000000000,12.593564987,-58.201103210,0.000000000,-0.074999034,-18.964122772
1748605007.535263,32.604000000,0.000000000,-333.357879639,0.000000000,0.000000000,12.593564987,-58.201103210,0.000000000,-0.074999034,-18.964122772
1748605007.537637,32.606000000,0.000000000,-333.357879639,0.000000000,0.000000000,12.593564987,-58.201103210,0.000000000,-0.074999034,-18.964122772
1748605007.540006,32.609000000,0.000000000,-333.357879639,0.000000000,0.000000000,12.593564987,-58.201103210,0.000000000,-0.074999034,-18.964122772
1748605007.542382,32.611000000,0.000000000,-333.357879639,0.000000000,0.000000000,12.593564987,-58.201103210,0.000000000,-0.074999034,-18.964122772
1748605007.544783,32.613000000,0.000000000,-333.357879639,0.000000000,0.000000000,12.593564987,-58.201103210,0.000000000,-0.074999034,-18.964122772
1748605007.547180,32.616000000,0.000000000,-333.357879639,0.000000000,0.000000000,12.593564987,-58.201103210,0.000000000,-0.074999034,-18.964122772
1748605007.549603,32.618000000,0.000000000,-333.357879639,0.000000000,0.000000000,12.593564987,-58.201103210,0.000000000,-0.074999034,-18.964122772
1748605007.552004,32.621000000,0.000000000,-333.357879639,0.000000000,0.000000000,12.593564987,-58.201103210,0.000000000,-0.074999034,-18.964124680
1748605007.554371,32.623000000,0.000000000,-333.357879639,0.000000000,0.000000000,12.593564987,-58.201103210,0.000000000,-0.074999034,-18.964124680
1748605007.556742,32.625000000,0.000000000,-333.357879639,0.000000000,0.000000000,12.593564987,-58.201103210,0.000000000,-0.074999034,-18.964124680
1748605007.559125,32.628000000,0.000000000,-333.357879639,0.000000000,0.000000000,12.593564987,-58.201103210,0.000000000,-0.074999034,-18.964124680
1748605007.561542,32.630000000,0.000000000,-333.357879639,0.000000000,0.000000000,12.593564987,-58.201103210,0.000000000,-0.074999034,-18.964124680
1748605007.563975,32.633000000,0.000000000,-333.357879639,0.000000000,0.000000000,12.593564987,-58.201103210,0.000000000,-0.074999034,-18.964124680
1748605007.566308,32.635000000,0.000000000,-333.357879639,0.000000000,0.000000000,12.593564987,-58.201103210,0.000000000,-0.074999034,-18.964124680
1748605007.568774,32.637000000,0.000000000,-333.357879639,0.000000000,0.000000000,12.593564987,-58.201103210,0.000000000,-0.074999034,-18.964124680
1748605007.571172,32.640000000,0.000000000,-333.357879639,0.000000000,0.000000000,12.593564987,-58.201103210,0.000000000,-0.074999034,-18.964124680
1748605007.573552,32.642000000,0.000000000,-333.357879639,0.000000000,0.000000000,12.593564987,-58.201103210,0.000000000,-0.074999034,-18.964124680
1748605007.576047,32.645000000,0.000000000,-333.357879639,0.000000000,0.000000000,12.593564987,-58.201103210,0.000000000,-0.074999034,-18.964124680
1748605007.578455,32.647000000,0.000000000,-333.357879639,0.000000000,0.000000000,12.593564987,-58.201103210,0.000000000,-0.074999034,-18.964124680
1748605007.580767,32.650000000,0.000000000,-333.357879639,0.000000000,0.000000000,12.593564987,-88.201103210,0.000000000,-0.074999034,-18.964124680
1748605007.583114,32.652000000,0.000000000,-333.357879639,0.000000000,0.000000000,12.647565842,-95.554756165,0.000000000,-0.074999034,-18.965160370
1748605007.585470,32.654000000,0.000000000,-333.357879639,0.000000000,0.000000000,12.715068817,-95.712478638,0.000000000,-0.074999034,-18.966455460
1748605007.587872,32.657000000,0.000000000,-333.357879639,0.000000000,0.000000000,12.742068291,-88.151252747,0.000000000,-0.074999034,-18.966972351
1748605007.590243,32.659000000,0.000000000,-333.357879639,0.000000000,0.000000000,12.755567551,-85.475051880,0.000000000,-0.074999034,-18.967231750
1748605007.592632,32.661000000,0.000000000,-333.357879639,0.000000000,0.000000000,12.755567551,-83.273162842,0.000000000,-0.074999034,-18.967231750
1748605007.595027,32.664000000,0.000000000,-333.357879639,0.000000000,0.000000000,12.769069672,-85.070335388,0.000000000,-0.066000223,-17.244810104
1748605007.597478,32.666000000,0.000000000,-333.357879639,0.000000000,0.000000000,12.796069145,-86.408546448,0.000000000,-0.066000223,-17.190084457
1748605007.599894,32.669000000,0.000000000,-333.357879639,0.000000000,0.000000000,12.809571266,-83.800117493,0.000000000,-0.066000223,-17.140569687
1748605007.602291,32.671000000,0.000000000,-333.357879639,0.000000000,0.000000000,12.823070526,-83.391708374,0.000000000,-0.066000223,-17.096019745
1748605007.604690,32.673000000,0.000000000,-333.357879639,0.000000000,0.000000000,12.836570740,-83.001091003,0.000000000,-0.066000223,-17.055944443
1748605007.607059,32.676000000,0.000000000,-333.357879639,0.000000000,0.000000000,12.850070000,-82.593963623,0.000000000,-0.066000223,-17.019889832
1748605007.609434,32.678000000,0.000000000,-333.357879639,0.000000000,0.000000000,12.863572121,-82.206848145,0.000000000,-0.066000223,-16.987462997
1748605007.611822,32.681000000,0.000000000,-333.357879639,0.000000000,0.000000000,12.890571594,-83.605697632,0.000000000,-0.066000223,-16.958560944
1748605007.614264,32.683000000,0.000000000,-333.357879639,0.000000000,0.000000000,12.904073715,-80.924560547,0.000000000,-0.066000223,-16.932325363
1748605007.616711,32.685000000,0.000000000,-333.357879639,0.000000000,0.000000000,12.917572975,-80.500160217,0.000000000,-0.074999034,-18.643907547
1748605007.619166,32.688000000,0.000000000,-333.357879639,0.000000000,0.000000000,12.931072235,-80.124488831,0.000000000,-0.074999034,-18.676765442
1748605007.621593,32.690000000,0.000000000,-333.357879639,0.000000000,0.000000000,12.944575310,-79.669723511,0.000000000,-0.074999034,-18.706367493
1748605007.624015,32.693000000,0.000000000,-333.357879639,0.000000000,0.000000000,12.958074570,-79.254119873,0.000000000,-0.074999034,-18.733041763
1748605007.626393,32.695000000,0.000000000,-333.357879639,0.000000000,0.000000000,12.971573830,-78.905303955,0.000000000,-0.074999034,-18.757076263
1748605007.628763,32.697000000,0.000000000,-333.357879639,0.000000000,0.000000000,12.985074043,-78.505912781,0.000000000,-0.074999034,-18.778736115
1748605007.631143,32.700000000,0.000000000,-333.357879639,0.000000000,0.000000000,12.998576164,-78.101104736,0.000000000,-0.074999034,-18.798257828
1748605007.633507,32.702000000,0.000000000,-333.357879639,0.000000000,0.000000000,13.012075424,-77.686264038,0.000000000,-0.074999034,-18.815856934
1748605007.635870,32.705000000,0.000000000,-333.357879639,0.000000000,0.000000000,13.025574684,-77.284057617,0.000000000,-0.074999034,-18.831724167
1748605007.638244,32.707000000,0.000000000,-333.357879639,0.000000000,0.000000000,13.025574684,-75.059844971,0.000000000,-0.074999034,-18.845792770
1748605007.640633,32.709000000,0.000000000,-333.357879639,0.000000000,0.000000000,13.025574684,-75.059844971,0.000000000,-0.074999034,-18.858455658
1748605007.643051,32.712000000,0.000000000,-333.357879639,0.000000000,0.000000000,13.039076805,-76.854248047,0.000000000,-0.074999034,-18.870094299
1748605007.645407,32.714000000,0.000000000,-333.357879639,0.000000000,0.000000000,13.052577019,-76.431335449,0.000000000,-0.074999034,-18.880596161
1748605007.647771,32.716000000,0.000000000,-333.357879639,0.000000000,0.000000000,13.052577019,-74.238464355,0.000000000,-0.074999034,-18.889827728
1748605007.650151,32.719000000,0.000000000,-333.357879639,0.000000000,0.000000000,13.052577019,-74.238464355,0.000000000,-0.074999034,-18.898138046
1748605007.652531,32.721000000,0.000000000,-333.357879639,0.000000000,0.000000000,13.052577019,-74.238464355,0.000000000,-0.074999034,-18.905616760
1748605007.654896,32.724000000,0.000000000,-333.357879639,0.000000000,0.000000000,13.052577019,-74.238464355,0.000000000,-0.074999034,-18.912347794
1748605007.657245,32.726000000,0.000000000,-333.357879639,0.000000000,0.000000000,13.052577019,-74.238464355,0.000000000,-0.074999034,-18.918405533
1748605007.659660,32.728000000,0.000000000,-333.357879639,0.000000000,0.000000000,13.066076279,-76.056747437,0.000000000,-0.074999034,-18.924110413
1748605007.662056,32.731000000,0.000000000,-333.357879639,0.000000000,0.000000000,13.066076279,-43.827831268,0.000000000,-0.074999034,-18.929018021
1748605007.664454,32.733000000,0.000000000,-333.357879639,0.000000000,0.000000000,13.025574684,-38.450798035,0.000000000,-0.074999034,-18.932674408
1748605007.666845,32.736000000,0.000000000,-333.357879639,0.000000000,0.000000000,12.944575310,-34.284130096,0.000000000,-0.074999034,-18.935125351
1748605007.669278,32.738000000,0.000000000,-333.357879639,0.000000000,0.000000000,12.917572975,-43.948097229,0.000000000,-0.084000528,-20.662826538
1748605007.671708,32.740000000,0.000000000,-333.357879639,0.000000000,0.000000000,12.931072235,-50.079864502,0.000000000,-0.084000528,-20.721492767
1748605007.674149,32.743000000,0.000000000,-333.357879639,0.000000000,0.000000000,12.944575310,-49.713447571,0.000000000,-0.084000528,-20.774328232
1748605007.676523,32.745000000,0.000000000,-333.357879639,0.000000000,0.000000000,12.944575310,-47.523757935,0.000000000,-0.084000528,-20.821689606
1748605007.678919,32.748000000,0.000000000,-333.357879639,0.000000000,0.000000000,12.944575310,-47.523757935,0.000000000,-0.084000528,-20.864315033
1748605007.681297,32.750000000,0.000000000,-333.357879639,0.000000000,0.000000000,12.917572975,-43.957260132,0.000000000,-0.084000528,-20.902200699
1748605007.683676,32.752000000,0.000000000,-333.357879639,0.000000000,0.000000000,12.904073715,-46.539985657,0.000000000,-0.084000528,-20.936473846
1748605007.686058,32.755000000,0.000000000,-333.357879639,0.000000000,0.000000000,12.917572975,-50.557205200,0.000000000,-0.092999339,-22.688213348
1748605007.688434,32.757000000,0.000000000,-333.357879639,0.000000000,0.000000000,12.917572975,-48.345138550,0.000000000,-0.092999339,-22.771766663
1748605007.690833,32.760000000,0.000000000,-333.357879639,0.000000000,0.000000000,12.904073715,-46.539051056,0.000000000,-0.092999339,-22.846744537
1748605007.693214,32.762000000,0.000000000,-333.357879639,0.000000000,0.000000000,12.890571594,-46.970565796,0.000000000,-0.092999339,-22.914180756
1748605007.695681,32.764000000,0.000000000,-333.357879639,0.000000000,0.000000000,12.877071381,-47.358409882,0.000000000,-0.092999339,-22.974834442
1748605007.698078,32.767000000,0.000000000,-333.357879639,0.000000000,0.000000000,12.890571594,-51.294654846,0.000000000,-0.092999339,-23.029876709
1748605007.700447,32.769000000,0.000000000,-333.357879639,0.000000000,0.000000000,12.890571594,-49.166488647,0.000000000,-0.092999339,-23.079200745
1748605007.702877,32.772000000,0.000000000,-333.357879639,0.000000000,0.000000000,12.877071381,-47.361213684,0.000000000,-0.092999339,-23.123329163
1748605007.705243,32.774000000,0.000000000,-333.357879639,0.000000000,0.000000000,12.877071381,-49.577156067,0.000000000,-0.092999339,-23.163274765
1748605007.707658,32.776000000,0.000000000,-333.357879639,0.000000000,0.000000000,12.877071381,-49.577156067,0.000000000,-0.092999339,-23.199226379
1748605007.709965,32.779000000,0.000000000,-333.357879639,0.000000000,0.000000000,12.877071381,-49.577156067,0.000000000,-0.092999339,-23.231582642
1748605007.712354,32.781000000,0.000000000,-333.357879639,0.000000000,0.000000000,12.877071381,-49.577156067,0.000000000,-0.092999339,-23.260704041
1748605007.714723,32.783000000,0.000000000,-333.357879639,0.000000000,0.000000000,12.890571594,-51.377777100,0.000000000,-0.092999339,-23.287197113
1748605007.717222,32.786000000,0.000000000,-333.357879639,0.000000000,0.000000000,12.890571594,-49.166488647,0.000000000,-0.092999339,-23.310787201
1748605007.719692,32.788000000,0.000000000,-333.357879639,0.000000000,0.000000000,12.904073715,-50.896354675,0.000000000,-0.092999339,-23.332313538
1748605007.722075,32.791000000,0.000000000,-333.357879639,0.000000000,0.000000000,12.917572975,-50.447662354,0.000000000,-0.092999339,-23.351720810
1748605007.724466,32.793000000,0.000000000,-333.357879639,0.000000000,0.000000000,12.931072235,-50.140083313,0.000000000,-0.092999339,-23.369220734
1748605007.726861,32.796000000,0.000000000,-333.357879639,0.000000000,0.000000000,12.931072235,-47.934505463,0.000000000,-0.092999339,-23.384706497
1748605007.729309,32.798000000,0.000000000,-333.357879639,0.000000000,0.000000000,12.931072235,-47.934505463,0.000000000,-0.092999339,-23.398643494
1748605007.731705,32.800000000,0.000000000,-333.357879639,0.000000000,0.000000000,12.944575310,-49.681152344,0.000000000,-0.092999339,-23.411489487
1748605007.734081,32.803000000,0.000000000,-333.357879639,0.000000000,0.000000000,12.958074570,-49.303108215,0.000000000,-0.092999339,-23.423084259
1748605007.736463,32.805000000,0.000000000,-333.357879639,0.000000000,0.000000000,12.971573830,-48.916416168,0.000000000,-0.092999339,-23.433553696
1748605007.738980,32.808000000,0.000000000,-333.357879639,0.000000000,0.000000000,12.971573830,-46.702491760,0.000000000,-0.092999339,-23.442701340
1748605007.741436,32.810000000,0.000000000,-333.357879639,0.000000000,0.000000000,12.985074043,-48.381149292,0.000000000,-0.092999339,-23.451244354
1748605007.743922,32.813000000,0.000000000,-333.357879639,0.000000000,0.000000000,12.998576164,-48.009578705,0.000000000,-0.092999339,-23.458967209
1748605007.746390,32.815000000,0.000000000,-333.357879639,0.000000000,0.000000000,12.998576164,-45.881111145,0.000000000,-0.092999339,-23.465639114
1748605007.748846,32.818000000,0.000000000,-333.357879639,0.000000000,0.000000000,12.998576164,-45.881111145,0.000000000,-0.092999339,-23.471641541
1748605007.751301,32.820000000,0.000000000,-333.357879639,0.000000000,0.000000000,13.012075424,-47.606262207,0.000000000,-0.092999339,-23.477357864
1748605007.753796,32.822000000,0.000000000,-333.357879639,0.000000000,0.000000000,13.025574684,-47.195629120,0.000000000,-0.092999339,-23.482536316
1748605007.756268,32.825000000,0.000000000,-333.357879639,0.000000000,0.000000000,13.025574684,-45.059844971,0.000000000,-0.092999339,-23.486913681
1748605007.758751,32.827000000,0.000000000,-333.357879639,0.000000000,0.000000000,13.039076805,-46.766464233,0.000000000,-0.092999339,-23.491168976
1748605007.761211,32.830000000,0.000000000,-333.357879639,0.000000000,0.000000000,13.039076805,-44.649124146,0.000000000,-0.092999339,-23.494716644
1748605007.763676,32.832000000,0.000000000,-333.357879639,0.000000000,0.000000000,13.039076805,-44.649124146,0.000000000,-0.092999339,-23.497907639
1748605007.766121,32.835000000,0.000000000,-333.357879639,0.000000000,0.000000000,13.039076805,-44.649124146,0.000000000,-0.092999339,-23.500780106
1748605007.768574,32.837000000,0.000000000,-333.357879639,0.000000000,0.000000000,13.039076805,-44.649124146,0.000000000,-0.092999339,-23.503366470
1748605007.771040,32.840000000,0.000000000,-333.357879639,0.000000000,0.000000000,13.039076805,-44.649124146,0.000000000,-0.092999339,-23.505693436
1748605007.773533,32.842000000,0.000000000,-333.357879639,0.000000000,0.000000000,13.039076805,-44.649124146,0.000000000,-0.092999339,-23.507787704
1748605007.776061,32.845000000,0.000000000,-333.357879639,0.000000000,0.000000000,13.025574684,-42.940799713,0.000000000,-0.092999339,-23.509355545
1748605007.778491,32.847000000,0.000000000,-333.357879639,0.000000000,0.000000000,13.012075424,-43.353584290,0.000000000,-0.092999339,-23.510732651
1748605007.780859,32.850000000,0.000000000,-333.357879639,0.000000000,0.000000000,13.012075424,-45.470478058,0.000000000,-0.092999339,-23.512258530
1748605007.783241,32.852000000,0.000000000,-333.357879639,0.000000000,0.000000000,13.012075424,-45.470478058,0.000000000,-0.092999339,-23.513631821
1748605007.785628,32.854000000,0.000000000,-333.357879639,0.000000000,0.000000000,13.012075424,-45.470478058,0.000000000,-0.092999339,-23.514869690
1748605007.788007,32.857000000,0.000000000,-333.357879639,0.000000000,0.000000000,12.998576164,-43.671833038,0.000000000,-0.092999339,-23.515663147
1748605007.790387,32.859000000,0.000000000,-333.357879639,0.000000000,0.000000000,12.985074043,-44.094989777,0.000000000,-0.092999339,-23.516342163
1748605007.792768,32.861000000,0.000000000,-333.357879639,0.000000000,0.000000000,12.985074043,-46.291831970,0.000000000,-0.084000528,-21.798454285
1748605007.795139,32.864000000,0.000000000,-333.357879639,0.000000000,0.000000000,12.971573830,-44.486549377,0.000000000,-0.084000528,-21.743129730
1748605007.797512,32.866000000,0.000000000,-333.357879639,0.000000000,0.000000000,12.958074570,-44.897338867,0.000000000,-0.084000528,-21.693313599
1748605007.799966,32.869000000,0.000000000,-333.357879639,0.000000000,0.000000000,12.944575310,-45.300483704,0.000000000,-0.084000528,-21.648456573
1748605007.802332,32.871000000,0.000000000,-333.357879639,0.000000000,0.000000000,12.944575310,-47.523757935,0.000000000,-0.084000528,-21.608404160
1748605007.804696,32.873000000,0.000000000,-333.357879639,0.000000000,0.000000000,12.944575310,-47.523757935,0.000000000,-0.084000528,-21.572359085
1748605007.807069,32.876000000,0.000000000,-333.357879639,0.000000000,0.000000000,12.931072235,-45.710605621,0.000000000,-0.084000528,-21.539583206
1748605007.809464,32.878000000,0.000000000,-333.357879639,0.000000000,0.000000000,12.904073715,-44.316722870,0.000000000,-0.084000528,-21.509733200
1748605007.811897,32.881000000,0.000000000,-333.357879639,0.000000000,0.000000000,12.890571594,-46.968730927,0.000000000,-0.074999034,-19.757923126
1748605007.814265,32.883000000,0.000000000,-333.357879639,0.000000000,0.000000000,12.904073715,-50.918327332,0.000000000,-0.074999034,-19.679477692
1748605007.816737,32.885000000,0.000000000,-333.357879639,0.000000000,0.000000000,12.890571594,-46.946495056,0.000000000,-0.074999034,-19.608184814
1748605007.819100,32.888000000,0.000000000,-333.357879639,0.000000000,0.000000000,12.890571594,-49.166488647,0.000000000,-0.074999034,-19.544347763
1748605007.821474,32.890000000,0.000000000,-333.357879639,0.000000000,0.000000000,12.877071381,-47.418449402,0.000000000,-0.074999034,-19.486558914
1748605007.823913,32.893000000,0.000000000,-333.357879639,0.000000000,0.000000000,12.863572121,-47.785900116,0.000000000,-0.074999034,-19.434530258
1748605007.826308,32.895000000,0.000000000,-333.357879639,0.000000000,0.000000000,12.863572121,-49.987785339,0.000000000,-0.074999034,-19.388008118
1748605007.828699,32.897000000,0.000000000,-333.357879639,0.000000000,0.000000000,12.863572121,-49.987785339,0.000000000,-0.066000223,-17.622774124
1748605007.831072,32.900000000,0.000000000,-333.357879639,0.000000000,0.000000000,12.863572121,-49.987785339,0.000000000,-0.074999034,-19.254528046
1748605007.833479,32.902000000,0.000000000,-333.357879639,0.000000000,0.000000000,12.863572121,-49.987785339,0.000000000,-0.066000223,-17.505704880
1748605007.835850,32.905000000,0.000000000,-333.357879639,0.000000000,0.000000000,12.850070000,-78.194305420,0.000000000,-0.066000223,-17.424108505
1748605007.838219,32.907000000,0.000000000,-333.357879639,0.000000000,0.000000000,12.877071381,-83.990623474,0.000000000,-0.066000223,-17.351636887
1748605007.840599,32.909000000,0.000000000,-333.357879639,0.000000000,0.000000000,12.931072235,-86.828224182,0.000000000,-0.066000223,-17.287069321
1748605007.842999,32.912000000,0.000000000,-333.357879639,0.000000000,0.000000000,12.931072235,-77.934509277,0.000000000,-0.066000223,-17.227788925
1748605007.845355,32.914000000,0.000000000,-333.357879639,0.000000000,0.000000000,12.917572975,-76.144172668,0.000000000,-0.066000223,-17.174137115
1748605007.847763,32.916000000,0.000000000,-333.357879639,0.000000000,0.000000000,12.931072235,-80.141929626,0.000000000,-0.066000223,-17.126417160
1748605007.850176,32.919000000,0.000000000,-333.357879639,0.000000000,0.000000000,12.944575310,-79.729957581,0.000000000,-0.066000223,-17.083484650
1748605007.852548,32.921000000,0.000000000,-333.357879639,0.000000000,0.000000000,12.958074570,-79.295837402,0.000000000,-0.066000223,-17.044866562
1748605007.854939,32.924000000,0.000000000,-333.357879639,0.000000000,0.000000000,12.958074570,-77.113128662,0.000000000,-0.066000223,-17.009849548
1748605007.857321,32.926000000,0.000000000,-333.357879639,0.000000000,0.000000000,12.971573830,-78.904373169,0.000000000,-0.066000223,-16.978605270
1748605007.859725,32.928000000,0.000000000,-333.357879639,0.000000000,0.000000000,12.985074043,-78.503128052,0.000000000,-0.066000223,-16.950504303
1748605007.862088,32.931000000,0.000000000,-333.357879639,0.000000000,0.000000000,13.012075424,-79.882095337,0.000000000,-0.056998730,-15.202550888
1748605007.864473,32.933000000,0.000000000,-333.357879639,0.000000000,0.000000000,13.025574684,-77.274703979,0.000000000,-0.066000223,-16.844978333
1748605007.866899,32.936000000,0.000000000,-333.357879639,0.000000000,0.000000000,13.039076805,-76.854248047,0.000000000,-0.056998730,-15.107268333
1748605007.869345,32.938000000,0.000000000,-333.357879639,0.000000000,0.000000000,13.052577019,-76.423141479,0.000000000,-0.066000223,-16.766748428
1748605007.871794,32.940000000,0.000000000,-333.357879639,0.000000000,0.000000000,13.066076279,-76.000640869,0.000000000,-0.066000223,-16.759943008
1748605007.874179,32.943000000,0.000000000,-333.357879639,0.000000000,0.000000000,13.079575539,-75.546936035,0.000000000,-0.066000223,-16.753837585
1748605007.876639,32.945000000,0.000000000,-333.357879639,0.000000000,0.000000000,13.106577873,-76.991020203,0.000000000,-0.056998730,-15.023983002
1748605007.879021,32.948000000,0.000000000,-333.357879639,0.000000000,0.000000000,13.106577873,-72.595817566,0.000000000,-0.056998730,-14.963568687
1748605007.881431,32.950000000,0.000000000,-333.357879639,0.000000000,0.000000000,13.120077133,-74.371520996,0.000000000,-0.066000223,-16.636753082
1748605007.883840,32.953000000,0.000000000,-333.357879639,0.000000000,0.000000000,13.133579254,-73.952224731,0.000000000,-0.056998730,-14.913526535
1748605007.886208,32.955000000,0.000000000,-333.357879639,0.000000000,0.000000000,13.133579254,-71.774459839,0.000000000,-0.066000223,-16.592786789
1748605007.888601,32.957000000,0.000000000,-333.357879639,0.000000000,0.000000000,13.133579254,-71.774459839,0.000000000,-0.056998730,-14.883693695
1748605007.891013,32.960000000,0.000000000,-333.357879639,0.000000000,0.000000000,13.133579254,-71.774459839,0.000000000,-0.056998730,-14.837347031
1748605007.893457,32.962000000,0.000000000,-333.357879639,0.000000000,0.000000000,13.133579254,-71.774459839,0.000000000,-0.056998730,-14.795635223
1748605007.895835,32.965000000,0.000000000,-333.357879639,0.000000000,0.000000000,13.133579254,-71.774459839,0.000000000,-0.056998730,-14.758094788
1748605007.898226,32.967000000,0.000000000,-333.357879639,0.000000000,0.000000000,13.133579254,-71.774459839,0.000000000,-0.056998730,-14.724308014
1748605007.900646,32.969000000,0.000000000,-333.357879639,0.000000000,0.000000000,13.133579254,-71.774459839,0.000000000,-0.056998730,-14.693900108
1748605007.903020,32.972000000,0.000000000,-333.357879639,0.000000000,0.000000000,13.133579254,-71.774459839,0.000000000,-0.056998730,-14.666532516
1748605007.905397,32.974000000,0.000000000,-333.357879639,0.000000000,0.000000000,13.133579254,-71.774459839,0.000000000,-0.056998730,-14.641901970
1748605007.907786,32.976000000,0.000000000,-333.357879639,0.000000000,0.000000000,13.133579254,-71.774459839,0.000000000,-0.056998730,-14.619734764
1748605007.910170,32.979000000,0.000000000,-333.357879639,0.000000000,0.000000000,13.133579254,-71.774459839,0.000000000,-0.056998730,-14.599783897
1748605007.912597,32.981000000,0.000000000,-333.357879639,0.000000000,0.000000000,13.133579254,-71.774459839,0.000000000,-0.056998730,-14.581828117
1748605007.915024,32.984000000,0.000000000,-333.357879639,0.000000000,0.000000000,13.133579254,-71.774459839,0.000000000,-0.056998730,-14.565668106
1748605007.917415,32.986000000,0.000000000,-333.357879639,0.000000000,0.000000000,13.133579254,-71.774459839,0.000000000,-0.056998730,-14.551124573
1748605007.919809,32.988000000,0.000000000,-333.357879639,0.000000000,0.000000000,13.133579254,-71.774459839,0.000000000,-0.056998730,-14.538034439
1748605007.922261,32.991000000,0.000000000,-333.357879639,0.000000000,0.000000000,13.133579254,-71.774459839,0.000000000,-0.056998730,-14.526253700
1748605007.924732,32.993000000,0.000000000,-333.357879639,0.000000000,0.000000000,13.133579254,-71.774459839,0.000000000,-0.056998730,-14.515651703
1748605007.927180,32.996000000,0.000000000,-333.357879639,0.000000000,0.000000000,13.133579254,-71.774459839,0.000000000,-0.056998730,-14.506109238
1748605007.929667,32.998000000,0.000000000,-333.357879639,0.000000000,0.000000000,13.133579254,-71.774459839,0.000000000,-0.056998730,-14.497521400
1748605007.932035,33.001000000,0.000000000,-333.357879639,0.000000000,0.000000000,13.133579254,-71.774459839,0.000000000,-0.056998730,-14.489791870
1748605007.934456,33.003000000,0.000000000,-333.357879639,0.000000000,0.000000000,13.133579254,-71.774459839,0.000000000,-0.056998730,-14.482835770
1748605007.936840,33.006000000,0.000000000,-333.357879639,0.000000000,0.000000000,13.133579254,-71.774459839,0.000000000,-0.056998730,-14.476574898
1748605007.939211,33.008000000,0.000000000,-333.357879639,0.000000000,0.000000000,13.147079468,-73.566772461,0.000000000,-0.056998730,-14.471143723
1748605007.941601,33.010000000,0.000000000,-333.357879639,0.000000000,0.000000000,13.160578728,-73.170822144,0.000000000,-0.056998730,-14.466276169
1748605007.944068,33.013000000,0.000000000,-333.357879639,0.000000000,0.000000000,13.174077988,-72.753677368,0.000000000,-0.056998730,-14.461913109
1748605007.946491,33.015000000,0.000000000,-333.357879639,0.000000000,0.000000000,13.174077988,-70.542541504,0.000000000,-0.056998730,-14.457803726
1748605007.948930,33.018000000,0.000000000,-333.357879639,0.000000000,0.000000000,13.174077988,-70.542541504,0.000000000,-0.056998730,-14.454105377
1748605007.951317,33.020000000,0.000000000,-333.357879639,0.000000000,0.000000000,13.187580109,-72.291717529,0.000000000,-0.056998730,-14.450977325
1748605007.953681,33.022000000,0.000000000,-333.357879639,0.000000000,0.000000000,13.187580109,-70.131820679,0.000000000,-0.056998730,-14.447980881
1748605007.956069,33.025000000,0.000000000,-333.357879639,0.000000000,0.000000000,13.187580109,-70.131820679,0.000000000,-0.056998730,-14.445284843
1748605007.958430,33.027000000,0.000000000,-333.357879639,0.000000000,0.000000000,13.201080322,-71.933380127,0.000000000,-0.056998730,-14.443058014
1748605007.960981,33.030000000,0.000000000,-333.357879639,0.000000000,0.000000000,13.214579582,-71.536621094,0.000000000,-0.056998730,-14.441073418
1748605007.963464,33.032000000,0.000000000,-333.357879639,0.000000000,0.000000000,13.228081703,-70.981155396,0.000000000,-0.056998730,-14.439306259
1748605007.966015,33.035000000,0.000000000,-333.357879639,0.000000000,0.000000000,13.228081703,-68.899803162,0.000000000,-0.056998730,-14.437536240
1748605007.968680,33.037000000,0.000000000,-333.357879639,0.000000000,0.000000000,13.228081703,-68.899803162,0.000000000,-0.056998730,-14.435943604
1748605007.971169,33.040000000,0.000000000,-333.357879639,0.000000000,0.000000000,13.241580963,-70.545700073,0.000000000,-0.056998730,-14.434708595
1748605007.973597,33.042000000,0.000000000,-333.357879639,0.000000000,0.000000000,13.255081177,-70.157928467,0.000000000,-0.066000223,-16.187242508
1748605007.975972,33.045000000,0.000000000,-333.357879639,0.000000000,0.000000000,13.255081177,-68.078506470,0.000000000,-0.056998730,-14.501062393
1748605007.978393,33.047000000,0.000000000,-333.357879639,0.000000000,0.000000000,13.255081177,-68.078506470,0.000000000,-0.066000223,-16.211448669
1748605007.980761,33.049000000,0.000000000,-333.357879639,0.000000000,0.000000000,13.255081177,-68.078506470,0.000000000,-0.066000223,-16.260276794
1748605007.983155,33.052000000,0.000000000,-333.357879639,0.000000000,0.000000000,13.268580437,-69.887405396,0.000000000,-0.066000223,-16.304389954
1748605007.985532,33.054000000,0.000000000,-333.357879639,0.000000000,0.000000000,13.268580437,-67.667877197,0.000000000,-0.066000223,-16.343946457
1748605007.987900,33.057000000,0.000000000,-333.357879639,0.000000000,0.000000000,13.282082558,-69.474349976,0.000000000,-0.066000223,-16.379728317
1748605007.990261,33.059000000,0.000000000,-333.357879639,0.000000000,0.000000000,13.282082558,-67.257156372,0.000000000,-0.066000223,-16.411773682
1748605007.992625,33.061000000,0.000000000,-333.357879639,0.000000000,0.000000000,13.295581818,-69.072616577,0.000000000,-0.066000223,-16.440805435
1748605007.995012,33.064000000,0.000000000,-333.357879639,0.000000000,0.000000000,13.295581818,-66.846527100,0.000000000,-0.066000223,-16.466764450
1748605007.997408,33.066000000,0.000000000,-333.357879639,0.000000000,0.000000000,13.309082031,-68.647155762,0.000000000,-0.066000223,-16.490325928
1748605007.999783,33.068000000,0.000000000,-333.357879639,0.000000000,0.000000000,13.309082031,-66.435867310,0.000000000,-0.066000223,-16.511356354
1748605008.002173,33.071000000,0.000000000,-333.357879639,0.000000000,0.000000000,13.322584152,-68.231185913,0.000000000,-0.066000223,-16.530487061
1748605008.004532,33.073000000,0.000000000,-333.357879639,0.000000000,0.000000000,13.336083412,-67.826576233,0.000000000,-0.066000223,-16.547729492
1748605008.006930,33.076000000,0.000000000,-333.357879639,0.000000000,0.000000000,13.336083412,-65.614517212,0.000000000,-0.066000223,-16.563066483
1748605008.009312,33.078000000,0.000000000,-333.357879639,0.000000000,0.000000000,13.336083412,-65.614517212,0.000000000,-0.074999034,-18.298362732
1748605008.011791,33.080000000,0.000000000,-333.357879639,0.000000000,0.000000000,13.349582672,-67.403930664,0.000000000,-0.074999034,-18.366529465
1748605008.014205,33.083000000,0.000000000,-333.357879639,0.000000000,0.000000000,13.363085747,-66.926925659,0.000000000,-0.074999034,-18.427917480
1748605008.016574,33.085000000,0.000000000,-333.357879639,0.000000000,0.000000000,13.376585007,-66.577957153,0.000000000,-0.074999034,-18.483200073
1748605008.019076,33.088000000,0.000000000,-333.357879639,0.000000000,0.000000000,13.376585007,-64.382492065,0.000000000,-0.074999034,-18.532793045
1748605008.021504,33.090000000,0.000000000,-333.357879639,0.000000000,0.000000000,13.390084267,-66.111991882,0.000000000,-0.074999034,-18.577629089
1748605008.023883,33.093000000,0.000000000,-333.357879639,0.000000000,0.000000000,13.403584480,-65.727905273,0.000000000,-0.074999034,-18.618009567
1748605008.026368,33.095000000,0.000000000,-333.357879639,0.000000000,0.000000000,13.417086601,-65.333663940,0.000000000,-0.074999034,-18.654384613
1748605008.028732,33.097000000,0.000000000,-333.357879639,0.000000000,0.000000000,13.417086601,-63.150482178,0.000000000,-0.074999034,-18.686939240
1748605008.031065,33.100000000,0.000000000,-333.357879639,0.000000000,0.000000000,13.430585861,-64.945434570,0.000000000,-0.084000528,-20.437229156
1748605008.033439,33.102000000,0.000000000,-333.357879639,0.000000000,0.000000000,13.430585861,-62.739852905,0.000000000,-0.084000528,-20.519344330
1748605008.035785,33.105000000,0.000000000,-333.357879639,0.000000000,0.000000000,13.444085121,-64.538497925,0.000000000,-0.084000528,-20.593437195
1748605008.038123,33.107000000,0.000000000,-333.357879639,0.000000000,0.000000000,13.444085121,-62.329219818,0.000000000,-0.084000528,-20.659959793
1748605008.040444,33.109000000,0.000000000,-333.357879639,0.000000000,0.000000000,13.457587242,-64.175605774,0.000000000,-0.084000528,-20.720043182
1748605008.042781,33.112000000,0.000000000,-333.357879639,0.000000000,0.000000000,13.457587242,-61.918498993,0.000000000,-0.084000528,-20.773933411
1748605008.045113,33.114000000,0.000000000,-333.357879639,0.000000000,0.000000000,13.471087456,-63.758831024,0.000000000,-0.092999339,-22.531135559
1748605008.047436,33.116000000,0.000000000,-333.357879639,0.000000000,0.000000000,13.471087456,-61.507835388,0.000000000,-0.084000528,-20.925403595
1748605008.049801,33.119000000,0.000000000,-333.357879639,0.000000000,0.000000000,13.471087456,-61.507835388,0.000000000,-0.092999339,-22.663631439
1748605008.052157,33.121000000,0.000000000,-333.357879639,0.000000000,0.000000000,13.484586716,-63.329906464,0.000000000,-0.084000528,-21.038089752
1748605008.054505,33.123000000,0.000000000,-333.357879639,0.000000000,0.000000000,13.484586716,-61.097206116,0.000000000,-0.092999339,-22.775461197
1748605008.056854,33.126000000,0.000000000,-333.357879639,0.000000000,0.000000000,13.484586716,-61.097206116,0.000000000,-0.084000528,-21.142145157
1748605008.059242,33.128000000,0.000000000,-333.357879639,0.000000000,0.000000000,13.484586716,-61.097206116,0.000000000,-0.092999339,-22.865312576
1748605008.061660,33.130000000,0.000000000,-333.357879639,0.000000000,0.000000000,13.484586716,-61.097206116,0.000000000,-0.092999339,-22.932502747
1748605008.064090,33.133000000,0.000000000,-333.357879639,0.000000000,0.000000000,13.498085976,-62.865676880,0.000000000,-0.092999339,-22.993215561
1748605008.066454,33.135000000,0.000000000,-333.357879639,0.000000000,0.000000000,13.498085976,-60.686573029,0.000000000,-0.092999339,-23.047647476
1748605008.068829,33.138000000,0.000000000,-333.357879639,0.000000000,0.000000000,13.498085976,-60.686573029,0.000000000,-0.092999339,-23.096637726
1748605008.071233,33.140000000,0.000000000,-333.357879639,0.000000000,0.000000000,13.498085976,-60.686573029,0.000000000,-0.092999339,-23.140727997
1748605008.073565,33.142000000,0.000000000,-333.357879639,0.000000000,0.000000000,13.498085976,-60.686573029,0.000000000,-0.084000528,-21.455762863
1748605008.075911,33.145000000,0.000000000,-333.357879639,0.000000000,0.000000000,13.498085976,-60.686573029,0.000000000,-0.092999339,-23.149074554
1748605008.078328,33.147000000,0.000000000,-333.357879639,0.000000000,0.000000000,13.498085976,-60.686573029,0.000000000,-0.084000528,-21.477651596
1748605008.080725,33.149000000,0.000000000,-333.357879639,0.000000000,0.000000000,13.498085976,-60.686573029,0.000000000,-0.084000528,-21.455869675
1748605008.083104,33.152000000,0.000000000,-333.357879639,0.000000000,0.000000000,13.498085976,-60.686573029,0.000000000,-0.084000528,-21.436264038
1748605008.085442,33.154000000,0.000000000,-333.357879639,0.000000000,0.000000000,13.498085976,-30.686573029,0.000000000,-0.084000528,-21.418621063
1748605008.087781,33.157000000,0.000000000,-333.357879639,0.000000000,0.000000000,13.457587242,-25.174472809,0.000000000,-0.084000528,-21.401807785
1748605008.090172,33.159000000,0.000000000,-333.357879639,0.000000000,0.000000000,13.376585007,-20.916652679,0.000000000,-0.084000528,-21.385669708
1748605008.092558,33.161000000,0.000000000,-333.357879639,0.000000000,0.000000000,13.322584152,-27.183692932,0.000000000,-0.084000528,-21.371599197
1748605008.094917,33.164000000,0.000000000,-333.357879639,0.000000000,0.000000000,13.282082558,-30.631477356,0.000000000,-0.092999339,-23.079227448
1748605008.097297,33.166000000,0.000000000,-333.357879639,0.000000000,0.000000000,13.255081177,-33.620197296,0.000000000,-0.092999339,-23.124025345
1748605008.099669,33.168000000,0.000000000,-333.357879639,0.000000000,0.000000000,13.241580963,-36.276954651,0.000000000,-0.092999339,-23.164533615
1748605008.102063,33.171000000,0.000000000,-333.357879639,0.000000000,0.000000000,13.228081703,-36.680278778,0.000000000,-0.092999339,-23.200952530
1748605008.104464,33.173000000,0.000000000,-333.357879639,0.000000000,0.000000000,13.228081703,-38.899803162,0.000000000,-0.102000833,-24.956159592
1748605008.106874,33.176000000,0.000000000,-333.357879639,0.000000000,0.000000000,13.214579582,-37.120079041,0.000000000,-0.102000833,-25.041200638
1748605008.109249,33.178000000,0.000000000,-333.357879639,0.000000000,0.000000000,13.187580109,-35.762607574,0.000000000,-0.102000833,-25.117439270
1748605008.111667,33.180000000,0.000000000,-333.357879639,0.000000000,0.000000000,13.187580109,-40.131816864,0.000000000,-0.102000833,-25.186483383
1748605008.114014,33.183000000,0.000000000,-333.357879639,0.000000000,0.000000000,13.174077988,-38.362972260,0.000000000,-0.102000833,-25.248353958
1748605008.116409,33.185000000,0.000000000,-333.357879639,0.000000000,0.000000000,13.160578728,-38.710960388,0.000000000,-0.092999339,-23.591604233
1748605008.118788,33.187000000,0.000000000,-333.357879639,0.000000000,0.000000000,13.147079468,-39.160995483,0.000000000,-0.092999339,-23.585067749
1748605008.121166,33.190000000,0.000000000,-333.357879639,0.000000000,0.000000000,13.133579254,-39.557586670,0.000000000,-0.092999339,-23.579153061
1748605008.123564,33.192000000,0.000000000,-333.357879639,0.000000000,0.000000000,13.120077133,-39.978214264,0.000000000,-0.092999339,-23.573799133
1748605008.125997,33.195000000,0.000000000,-333.357879639,0.000000000,0.000000000,13.120077133,-42.185184479,0.000000000,-0.092999339,-23.569274902
1748605008.128367,33.197000000,0.000000000,-333.357879639,0.000000000,0.000000000,13.120077133,-42.185184479,0.000000000,-0.084000528,-21.844337463
1748605008.130743,33.199000000,0.000000000,-333.357879639,0.000000000,0.000000000,13.120077133,-42.185184479,0.000000000,-0.084000528,-21.785076141
1748605008.133120,33.202000000,0.000000000,-333.357879639,0.000000000,0.000000000,13.120077133,-42.185184479,0.000000000,-0.084000528,-21.731739044
1748605008.135510,33.204000000,0.000000000,-333.357879639,0.000000000,0.000000000,13.093078613,-38.580463409,0.000000000,-0.084000528,-21.683029175
1748605008.137890,33.207000000,0.000000000,-333.357879639,0.000000000,0.000000000,13.066076279,-39.406795502,0.000000000,-0.084000528,-21.639144897
1748605008.140297,33.209000000,0.000000000,-333.357879639,0.000000000,0.000000000,13.066076279,-43.827831268,0.000000000,-0.074999034,-19.879405975
1748605008.142693,33.211000000,0.000000000,-333.357879639,0.000000000,0.000000000,13.093078613,-47.385208130,0.000000000,-0.074999034,-19.789541245
1748605008.145140,33.214000000,0.000000000,-333.357879639,0.000000000,0.000000000,13.093078613,-43.006450653,0.000000000,-0.074999034,-19.707958221
1748605008.147620,33.216000000,0.000000000,-333.357879639,0.000000000,0.000000000,13.093078613,-43.006450653,0.000000000,-0.066000223,-17.899246216
1748605008.150064,33.219000000,0.000000000,-333.357879639,0.000000000,0.000000000,13.093078613,-43.006450653,0.000000000,-0.066000223,-17.779020309
1748605008.152614,33.221000000,0.000000000,-333.357879639,0.000000000,0.000000000,13.093078613,-43.006450653,0.000000000,-0.066000223,-17.670816422
1748605008.155034,33.224000000,0.000000000,-333.357879639,0.000000000,0.000000000,13.093078613,-43.006450653,0.000000000,-0.066000223,-17.573434830
1748605008.157502,33.226000000,0.000000000,-333.357879639,0.000000000,0.000000000,13.093078613,-43.006450653,0.000000000,-0.066000223,-17.485790253
1748605008.159984,33.229000000,0.000000000,-333.357879639,0.000000000,0.000000000,13.093078613,-43.006450653,0.000000000,-0.066000223,-17.406909943
1748605008.162439,33.231000000,0.000000000,-333.357879639,0.000000000,0.000000000,13.093078613,-43.006450653,0.000000000,-0.066000223,-17.335916519
1748605008.164929,33.234000000,0.000000000,-333.357879639,0.000000000,0.000000000,13.093078613,-43.006450653,0.000000000,-0.066000223,-17.272024155
1748605008.167366,33.236000000,0.000000000,-333.357879639,0.000000000,0.000000000,13.093078613,-43.006450653,0.000000000,-0.066000223,-17.214521408
1748605008.169749,33.238000000,0.000000000,-333.357879639,0.000000000,0.000000000,13.093078613,-43.006450653,0.000000000,-0.066000223,-17.162767410
1748605008.172128,33.241000000,0.000000000,-333.357879639,0.000000000,0.000000000,13.093078613,-43.006450653,0.000000000,-0.066000223,-17.116189957
1748605008.174526,33.243000000,0.000000000,-333.357879639,0.000000000,0.000000000,13.093078613,-43.006450653,0.000000000,-0.056998730,-15.350890160
1748605008.176923,33.246000000,0.000000000,-333.357879639,0.000000000,0.000000000,13.093078613,-43.006450653,0.000000000,-0.066000223,-16.980186462
1748605008.179304,33.248000000,0.000000000,-333.357879639,0.000000000,0.000000000,13.093078613,-43.006450653,0.000000000,-0.056998730,-15.227137566
1748605008.181689,33.250000000,0.000000000,-333.357879639,0.000000000,0.000000000,13.093078613,-43.006450653,0.000000000,-0.056998730,-15.146387100
1748605008.184073,33.253000000,0.000000000,-333.357879639,0.000000000,0.000000000,13.093078613,-43.006450653,0.000000000,-0.056998730,-15.073712349
1748605008.186455,33.255000000,0.000000000,-333.357879639,0.000000000,0.000000000,13.093078613,-43.006450653,0.000000000,-0.056998730,-15.008304596
1748605008.188836,33.257000000,0.000000000,-333.357879639,0.000000000,0.000000000,13.079575539,-41.210075378,0.000000000,-0.056998730,-14.949162483
1748605008.191214,33.260000000,0.000000000,-333.357879639,0.000000000,0.000000000,13.066076279,-41.613906860,0.000000000,-0.056998730,-14.895923615
1748605008.193610,33.262000000,0.000000000,-333.357879639,0.000000000,0.000000000,13.052577019,-42.023609161,0.000000000,-0.056998730,-14.847995758
1748605008.195987,33.265000000,0.000000000,-333.357879639,0.000000000,0.000000000,13.039076805,-42.437831879,0.000000000,-0.056998730,-14.804846764
1748605008.198376,33.267000000,0.000000000,-333.357879639,0.000000000,0.000000000,13.025574684,-42.866664886,0.000000000,-0.056998730,-14.765997887
1748605008.200769,33.269000000,0.000000000,-333.357879639,0.000000000,0.000000000,13.012075424,-43.258415222,0.000000000,-0.056998730,-14.731020927
1748605008.203138,33.272000000,0.000000000,-333.357879639,0.000000000,0.000000000,12.985074043,-41.885749817,0.000000000,-0.056998730,-14.699287415
1748605008.205575,33.274000000,0.000000000,-333.357879639,0.000000000,0.000000000,12.985074043,-46.291831970,0.000000000,-0.056998730,-14.671165466
1748605008.207955,33.277000000,0.000000000,-333.357879639,0.000000000,0.000000000,12.985074043,-46.291831970,0.000000000,-0.056998730,-14.645854950
1748605008.210351,33.279000000,0.000000000,-333.357879639,0.000000000,0.000000000,12.958074570,-42.727539063,0.000000000,-0.056998730,-14.622621536
1748605008.212752,33.281000000,0.000000000,-333.357879639,0.000000000,0.000000000,12.917572975,-41.752643585,0.000000000,-0.056998730,-14.601453781
1748605008.215123,33.284000000,0.000000000,-333.357879639,0.000000000,0.000000000,12.904073715,-46.556644440,0.000000000,-0.056998730,-14.582795143
1748605008.217516,33.286000000,0.000000000,-333.357879639,0.000000000,0.000000000,12.904073715,-48.755771637,0.000000000,-0.056998730,-14.566204071
1748605008.219906,33.289000000,0.000000000,-333.357879639,0.000000000,0.000000000,12.890571594,-46.959518433,0.000000000,-0.056998730,-14.551054001
1748605008.222293,33.291000000,0.000000000,-333.357879639,0.000000000,0.000000000,12.863572121,-45.574626923,0.000000000,-0.056998730,-14.537188530
1748605008.224671,33.293000000,0.000000000,-333.357879639,0.000000000,0.000000000,12.836570740,-46.415920258,0.000000000,-0.056998730,-14.524671555
1748605008.227057,33.296000000,0.000000000,-333.357879639,0.000000000,0.000000000,12.823070526,-49.012214661,0.000000000,-0.056998730,-14.513583183
1748605008.229424,33.298000000,0.000000000,-333.357879639,0.000000000,0.000000000,12.823070526,-51.219795227,0.000000000,-0.056998730,-14.503795624
1748605008.231796,33.300000000,0.000000000,-333.357879639,0.000000000,0.000000000,12.809571266,-49.416511536,0.000000000,-0.056998730,-14.494776726
1748605008.234181,33.303000000,0.000000000,-333.357879639,0.000000000,0.000000000,12.782569885,-48.008518219,0.000000000,-0.056998730,-14.486434937
1748605008.236552,33.305000000,0.000000000,-333.357879639,0.000000000,0.000000000,12.755567551,-48.844688416,0.000000000,-0.056998730,-14.478889465
1748605008.238935,33.308000000,0.000000000,-333.357879639,0.000000000,0.000000000,12.742068291,-51.463340759,0.000000000,-0.056998730,-14.472267151
1748605008.241777,33.310000000,0.000000000,-333.357879639,0.000000000,0.000000000,12.742068291,-53.683799744,0.000000000,-0.056998730,-14.466492653
1748605008.244107,33.313000000,0.000000000,-333.357879639,0.000000000,0.000000000,12.728569031,-52.223526001,0.000000000,-0.056998730,-14.461091042
1748605008.246551,33.315000000,0.000000000,-333.357879639,0.000000000,0.000000000,12.701566696,-50.571372986,0.000000000,-0.056998730,-14.456008911
1748605008.249017,33.318000000,0.000000000,-333.357879639,0.000000000,0.000000000,12.674568176,-51.432327271,0.000000000,-0.056998730,-14.451395035
1748605008.251492,33.320000000,0.000000000,-333.357879639,0.000000000,0.000000000,12.674568176,-55.737075806,0.000000000,-0.056998730,-14.447608948
1748605008.253956,33.323000000,0.000000000,-333.357879639,0.000000000,0.000000000,12.674568176,-55.737075806,0.000000000,-0.056998730,-14.444201469
1748605008.256375,33.325000000,0.000000000,-333.357879639,0.000000000,0.000000000,12.661065102,-53.970809937,0.000000000,-0.056998730,-14.440933228
1748605008.258758,33.327000000,0.000000000,-333.357879639,0.000000000,0.000000000,12.634066582,-52.590957642,0.000000000,-0.056998730,-14.437772751
1748605008.261168,33.330000000,0.000000000,-333.357879639,0.000000000,0.000000000,12.620566368,-55.176788330,0.000000000,-0.056998730,-14.435089111
1748605008.263605,33.332000000,0.000000000,-333.357879639,0.000000000,0.000000000,12.634066582,-59.153778076,0.000000000,-0.056998730,-14.433055878
1748605008.265977,33.335000000,0.000000000,-333.357879639,0.000000000,0.000000000,12.620566368,-55.195068359,0.000000000,-0.056998730,-14.430844307
1748605008.268601,33.337000000,0.000000000,-333.357879639,0.000000000,0.000000000,12.620566368,-57.379753113,0.000000000,-0.056998730,-14.429034233
1748605008.270988,33.340000000,0.000000000,-333.357879639,0.000000000,0.000000000,12.620566368,-57.379753113,0.000000000,-0.056998730,-14.427405357
1748605008.273601,33.342000000,0.000000000,-333.357879639,0.000000000,0.000000000,12.620566368,-57.379753113,0.000000000,-0.056998730,-14.425939560
1748605008.276184,33.345000000,0.000000000,-333.357879639,0.000000000,0.000000000,12.607064247,-55.752616882,0.000000000,-0.056998730,-14.424422264
1748605008.278640,33.347000000,0.000000000,-333.357879639,0.000000000,0.000000000,12.593564987,-56.154167175,0.000000000,-0.056998730,-14.423036575
1748605008.281163,33.350000000,0.000000000,-333.357879639,0.000000000,0.000000000,12.593564987,-58.201103210,0.000000000,-0.056998730,-14.421968460
1748605008.283796,33.352000000,0.000000000,-333.357879639,0.000000000,0.000000000,12.593564987,-58.201103210,0.000000000,-0.056998730,-14.421007156
1748605008.286397,33.355000000,0.000000000,-333.357879639,0.000000000,0.000000000,12.580065727,-56.620552063,0.000000000,-0.056998730,-14.419942856
1748605008.288956,33.358000000,0.000000000,-333.357879639,0.000000000,0.000000000,12.580065727,-58.611740112,0.000000000,-0.056998730,-14.419164658
1748605008.291505,33.360000000,0.000000000,-333.357879639,0.000000000,0.000000000,12.593564987,-60.259239197,0.000000000,-0.056998730,-14.418662071
1748605008.293996,33.363000000,0.000000000,-333.357879639,0.000000000,0.000000000,12.593564987,-58.201103210,0.000000000,-0.056998730,-14.418030739
1748605008.296493,33.365000000,0.000000000,-333.357879639,0.000000000,0.000000000,12.593564987,-58.201103210,0.000000000,-0.056998730,-14.417463303
1748605008.299003,33.368000000,0.000000000,-333.357879639,0.000000000,0.000000000,12.593564987,-58.201103210,0.000000000,-0.056998730,-14.416952133
1748605008.301533,33.370000000,0.000000000,-333.357879639,0.000000000,0.000000000,12.607064247,-59.892158508,0.000000000,-0.056998730,-14.416689873
1748605008.304039,33.373000000,0.000000000,-333.357879639,0.000000000,0.000000000,12.607064247,-57.790473938,0.000000000,-0.056998730,-14.416275978
1748605008.306550,33.375000000,0.000000000,-333.357879639,0.000000000,0.000000000,12.607064247,-57.790473938,0.000000000,-0.056998730,-14.415903091
1748605008.309057,33.378000000,0.000000000,-333.357879639,0.000000000,0.000000000,12.607064247,-57.790473938,0.000000000,-0.056998730,-14.415567398
1748605008.311550,33.380000000,0.000000000,-333.357879639,0.000000000,0.000000000,12.607064247,-57.790473938,0.000000000,-0.056998730,-14.415266037
1748605008.314043,33.383000000,0.000000000,-333.357879639,0.000000000,0.000000000,12.607064247,-57.790473938,0.000000000,-0.056998730,-14.414994240
1748605008.316513,33.385000000,0.000000000,-333.357879639,0.000000000,0.000000000,12.607064247,-57.790473938,0.000000000,-0.056998730,-14.414750099
1748605008.318974,33.388000000,0.000000000,-333.357879639,0.000000000,0.000000000,12.607064247,-57.790473938,0.000000000,-0.056998730,-14.414529800
1748605008.321483,33.390000000,0.000000000,-333.357879639,0.000000000,0.000000000,12.607064247,-57.790473938,0.000000000,-0.056998730,-14.414332390
1748605008.323961,33.393000000,0.000000000,-333.357879639,0.000000000,0.000000000,12.607064247,-57.790473938,0.000000000,-0.056998730,-14.414154053
1748605008.326444,33.395000000,0.000000000,-333.357879639,0.000000000,0.000000000,12.607064247,-57.790473938,0.000000000,-0.056998730,-14.413992882
1748605008.328966,33.398000000,0.000000000,-333.357879639,0.000000000,0.000000000,12.607064247,-57.790473938,0.000000000,-0.056998730,-14.413848877
1748605008.331500,33.400000000,0.000000000,-333.357879639,0.000000000,0.000000000,12.607064247,-57.790473938,0.000000000,-0.056998730,-14.413719177
1748605008.334025,33.403000000,0.000000000,-333.357879639,0.000000000,0.000000000,12.593564987,-56.129196167,0.000000000,-0.056998730,-14.413405418
1748605008.336596,33.405000000,0.000000000,-333.357879639,0.000000000,0.000000000,12.593564987,-58.201103210,0.000000000,-0.056998730,-14.413300514
1748605008.339133,33.408000000,0.000000000,-333.357879639,0.000000000,0.000000000,12.580065727,-56.551994324,0.000000000,-0.056998730,-14.413007736
1748605008.341742,33.410000000,0.000000000,-333.357879639,0.000000000,0.000000000,12.580065727,-58.611740112,0.000000000,-0.056998730,-14.412922859
1748605008.344278,33.413000000,0.000000000,-333.357879639,0.000000000,0.000000000,12.580065727,-58.611740112,0.000000000,-0.056998730,-14.412846565
1748605008.346785,33.415000000,0.000000000,-333.357879639,0.000000000,0.000000000,12.580065727,-58.611740112,0.000000000,-0.066000223,-16.168298721
1748605008.349299,33.418000000,0.000000000,-333.357879639,0.000000000,0.000000000,12.580065727,-58.611740112,0.000000000,-0.066000223,-16.220302582
1748605008.351774,33.420000000,0.000000000,-333.357879639,0.000000000,0.000000000,12.580065727,-58.611740112,0.000000000,-0.066000223,-16.267105103
1748605008.354120,33.423000000,0.000000000,-333.357879639,0.000000000,0.000000000,12.580065727,-58.611740112,0.000000000,-0.066000223,-16.309226990
1748605008.356504,33.425000000,0.000000000,-333.357879639,0.000000000,0.000000000,12.580065727,-58.611740112,0.000000000,-0.066000223,-16.347137451
1748605008.358878,33.428000000,0.000000000,-333.357879639,0.000000000,0.000000000,12.566563606,-56.814567566,0.000000000,-0.066000223,-16.381074905
1748605008.361265,33.430000000,0.000000000,-333.357879639,0.000000000,0.000000000,12.553063393,-57.217178345,0.000000000,-0.066000223,-16.411590576
1748605008.363696,33.432000000,0.000000000,-333.357879639,0.000000000,0.000000000,12.553063393,-59.433120728,0.000000000,-0.066000223,-16.439220428
1748605008.366052,33.435000000,0.000000000,-333.357879639,0.000000000,0.000000000,12.553063393,-59.433120728,0.000000000,-0.074999034,-18.194198608
1748605008.368431,33.437000000,0.000000000,-333.357879639,0.000000000,0.000000000,12.553063393,-59.433120728,0.000000000,-0.074999034,-18.271114349
1748605008.370823,33.439000000,0.000000000,-333.357879639,0.000000000,0.000000000,12.539564133,-57.631683350,0.000000000,-0.074999034,-18.340169907
1748605008.373206,33.442000000,0.000000000,-333.357879639,0.000000000,0.000000000,12.539564133,-59.843750000,0.000000000,-0.074999034,-18.402462006
1748605008.375590,33.444000000,0.000000000,-333.357879639,0.000000000,0.000000000,12.539564133,-59.843750000,0.000000000,-0.074999034,-18.458524704
1748605008.377969,33.447000000,0.000000000,-333.357879639,0.000000000,0.000000000,12.539564133,-59.843750000,0.000000000,-0.074999034,-18.508981705
1748605008.380377,33.449000000,0.000000000,-333.357879639,0.000000000,0.000000000,12.539564133,-59.843750000,0.000000000,-0.074999034,-18.554391861
1748605008.382854,33.451000000,0.000000000,-333.357879639,0.000000000,0.000000000,12.539564133,-59.843750000,0.000000000,-0.074999034,-18.595262527
1748605008.385221,33.454000000,0.000000000,-333.357879639,0.000000000,0.000000000,12.539564133,-59.843750000,0.000000000,-0.074999034,-18.632043839
1748605008.387639,33.456000000,0.000000000,-333.357879639,0.000000000,0.000000000,12.553063393,-61.644256592,0.000000000,-0.074999034,-18.665363312
1748605008.389992,33.459000000,0.000000000,-333.357879639,0.000000000,0.000000000,12.553063393,-59.433120728,0.000000000,-0.074999034,-18.695161819
1748605008.392394,33.461000000,0.000000000,-333.357879639,0.000000000,0.000000000,12.553063393,-59.433120728,0.000000000,-0.074999034,-18.721981049
1748605008.394831,33.463000000,0.000000000,-333.357879639,0.000000000,0.000000000,12.553063393,-59.433120728,0.000000000,-0.074999034,-18.746118546
1748605008.397285,33.466000000,0.000000000,-333.357879639,0.000000000,0.000000000,12.553063393,-59.433120728,0.000000000,-0.074999034,-18.767841339
1748605008.399846,33.468000000,0.000000000,-333.357879639,0.000000000,0.000000000,12.553063393,-59.433120728,0.000000000,-0.074999034,-18.787391663
1748605008.402329,33.471000000,0.000000000,-333.357879639,0.000000000,0.000000000,12.553063393,-59.433120728,0.000000000,-0.074999034,-18.804986954
1748605008.404805,33.473000000,0.000000000,-333.357879639,0.000000000,0.000000000,12.566563606,-61.151489258,0.000000000,-0.074999034,-18.821062088
1748605008.407271,33.476000000,0.000000000,-333.357879639,0.000000000,0.000000000,12.566563606,-59.022460938,0.000000000,-0.074999034,-18.835315704
1748605008.409768,33.478000000,0.000000000,-333.357879639,0.000000000,0.000000000,12.566563606,-59.022460938,0.000000000,-0.074999034,-18.848146439
1748605008.412244,33.481000000,0.000000000,-333.357879639,0.000000000,0.000000000,12.566563606,-59.022460938,0.000000000,-0.074999034,-18.859691620
1748605008.414741,33.483000000,0.000000000,-333.357879639,0.000000000,0.000000000,12.580065727,-60.735054016,0.000000000,-0.084000528,-20.615076065
1748605008.417172,33.486000000,0.000000000,-333.357879639,0.000000000,0.000000000,12.580065727,-58.611740112,0.000000000,-0.084000528,-20.677579880
1748605008.419640,33.488000000,0.000000000,-333.357879639,0.000000000,0.000000000,12.580065727,-58.611740112,0.000000000,-0.084000528,-20.733833313
1748605008.422140,33.491000000,0.000000000,-333.357879639,0.000000000,0.000000000,12.593564987,-60.344718933,0.000000000,-0.084000528,-20.784685135
1748605008.424691,33.493000000,0.000000000,-333.357879639,0.000000000,0.000000000,12.580065727,-56.502479553,0.000000000,-0.084000528,-20.830028534
1748605008.427094,33.496000000,0.000000000,-333.357879639,0.000000000,0.000000000,12.593564987,-60.261657715,0.000000000,-0.092999339,-22.630844116
1748605008.429536,33.498000000,0.000000000,-333.357879639,0.000000000,0.000000000,12.580065727,-56.471611023,0.000000000,-0.092999339,-22.719163895
1748605008.432018,33.501000000,0.000000000,-333.357879639,0.000000000,0.000000000,12.580065727,-58.611740112,0.000000000,-0.092999339,-22.798820496
1748605008.434496,33.503000000,0.000000000,-333.357879639,0.000000000,0.000000000,12.593564987,-60.334289551,0.000000000,-0.092999339,-22.870735168
1748605008.436932,33.506000000,0.000000000,-333.357879639,0.000000000,0.000000000,12.593564987,-58.201103210,0.000000000,-0.102000833,-24.676332474
1748605008.439400,33.508000000,0.000000000,-333.357879639,0.000000000,0.000000000,12.593564987,-58.201103210,0.000000000,-0.102000833,-24.787940979
1748605008.441899,33.511000000,0.000000000,-333.357879639,0.000000000,0.000000000,12.593564987,-58.201103210,0.000000000,-0.102000833,-24.888387680
1748605008.444447,33.513000000,0.000000000,-333.357879639,0.000000000,0.000000000,12.593564987,-58.201103210,0.000000000,-0.092999339,-23.231624603
1748605008.447016,33.516000000,0.000000000,-333.357879639,0.000000000,0.000000000,12.593564987,-58.201103210,0.000000000,-0.102000833,-25.016212463
1748605008.449449,33.518000000,0.000000000,-333.357879639,0.000000000,0.000000000,12.593564987,-58.201103210,0.000000000,-0.102000833,-25.093833923
1748605008.451824,33.520000000,0.000000000,-333.357879639,0.000000000,0.000000000,12.593564987,-58.201103210,0.000000000,-0.102000833,-25.163690567
1748605008.454230,33.523000000,0.000000000,-333.357879639,0.000000000,0.000000000,12.593564987,-58.201103210,0.000000000,-0.092999339,-23.503042221
1748605008.456633,33.525000000,0.000000000,-333.357879639,0.000000000,0.000000000,12.593564987,-58.201103210,0.000000000,-0.092999339,-23.504343033
1748605008.459127,33.528000000,0.000000000,-333.357879639,0.000000000,0.000000000,12.593564987,-58.201103210,0.000000000,-0.092999339,-23.505514145
1748605008.461560,33.530000000,0.000000000,-333.357879639,0.000000000,0.000000000,12.593564987,-58.201103210,0.000000000,-0.092999339,-23.506568909
1748605008.464008,33.533000000,0.000000000,-333.357879639,0.000000000,0.000000000,12.593564987,-58.201103210,0.000000000,-0.092999339,-23.507516861
1748605008.466507,33.535000000,0.000000000,-333.357879639,0.000000000,0.000000000,12.593564987,-58.201103210,0.000000000,-0.092999339,-23.508369446
1748605008.468997,33.538000000,0.000000000,-333.357879639,0.000000000,0.000000000,12.593564987,-58.201103210,0.000000000,-0.092999339,-23.509138107
1748605008.471382,33.540000000,0.000000000,-333.357879639,0.000000000,0.000000000,12.593564987,-58.201103210,0.000000000,-0.084000528,-21.764730453
1748605008.473780,33.542000000,0.000000000,-333.357879639,0.000000000,0.000000000,12.593564987,-58.201103210,0.000000000,-0.084000528,-21.712299347
1748605008.476167,33.545000000,0.000000000,-333.357879639,0.000000000,0.000000000,12.593564987,-58.201103210,0.000000000,-0.084000528,-21.665109634
1748605008.478567,33.547000000,0.000000000,-333.357879639,0.000000000,0.000000000,12.593564987,-58.201103210,0.000000000,-0.084000528,-21.622640610
1748605008.481066,33.550000000,0.000000000,-333.357879639,0.000000000,0.000000000,12.593564987,-58.201103210,0.000000000,-0.084000528,-21.584417343
1748605008.483523,33.552000000,0.000000000,-333.357879639,0.000000000,0.000000000,12.593564987,-58.201103210,0.000000000,-0.084000528,-21.550016403
1748605008.485967,33.555000000,0.000000000,-333.357879639,0.000000000,0.000000000,12.607064247,-59.904815674,0.000000000,-0.084000528,-21.519386292
1748605008.488468,33.557000000,0.000000000,-333.357879639,0.000000000,0.000000000,12.607064247,-57.790473938,0.000000000,-0.084000528,-21.491518021
1748605008.490868,33.560000000,0.000000000,-333.357879639,0.000000000,0.000000000,12.607064247,-57.790473938,0.000000000,-0.084000528,-21.466436386
1748605008.493305,33.562000000,0.000000000,-333.357879639,0.000000000,0.000000000,12.607064247,-57.790473938,0.000000000,-0.084000528,-21.443862915
1748605008.495728,33.564000000,0.000000000,-333.357879639,0.000000000,0.000000000,12.607064247,-57.790473938,0.000000000,-0.084000528,-21.423545837
1748605008.498104,33.567000000,0.000000000,-333.357879639,0.000000000,0.000000000,12.607064247,-57.790473938,0.000000000,-0.084000528,-21.405261993
1748605008.500489,33.569000000,0.000000000,-333.357879639,0.000000000,0.000000000,12.607064247,-57.790473938,0.000000000,-0.084000528,-21.388805389
1748605008.502892,33.572000000,0.000000000,-333.357879639,0.000000000,0.000000000,12.607064247,-57.790473938,0.000000000,-0.084000528,-21.373994827
1748605008.505281,33.574000000,0.000000000,-333.357879639,0.000000000,0.000000000,12.607064247,-57.790473938,0.000000000,-0.084000528,-21.360666275
1748605008.507665,33.576000000,0.000000000,-333.357879639,0.000000000,0.000000000,12.607064247,-57.790473938,0.000000000,-0.084000528,-21.348669052
1748605008.510060,33.579000000,0.000000000,-333.357879639,0.000000000,0.000000000,12.607064247,-57.790473938,0.000000000,-0.084000528,-21.337871552
1748605008.512460,33.581000000,0.000000000,-333.357879639,0.000000000,0.000000000,12.607064247,-57.790473938,0.000000000,-0.084000528,-21.328155518
1748605008.514864,33.584000000,0.000000000,-333.357879639,0.000000000,0.000000000,12.607064247,-57.790473938,0.000000000,-0.084000528,-21.319408417
1748605008.517326,33.586000000,0.000000000,-333.357879639,0.000000000,0.000000000,12.607064247,-57.790473938,0.000000000,-0.084000528,-21.311538696
1748605008.519720,33.588000000,0.000000000,-333.357879639,0.000000000,0.000000000,12.607064247,-57.790473938,0.000000000,-0.084000528,-21.304454803
1748605008.522097,33.591000000,0.000000000,-333.357879639,0.000000000,0.000000000,12.607064247,-57.790473938,0.000000000,-0.084000528,-21.298078537
1748605008.524483,33.593000000,0.000000000,-333.357879639,0.000000000,0.000000000,12.607064247,-57.790473938,0.000000000,-0.084000528,-21.292341232
1748605008.526960,33.596000000,0.000000000,-333.357879639,0.000000000,0.000000000,12.607064247,-57.790473938,0.000000000,-0.084000528,-21.287176132
1748605008.529496,33.598000000,0.000000000,-333.357879639,0.000000000,0.000000000,12.607064247,-57.790473938,0.000000000,-0.084000528,-21.282529831
1748605008.531994,33.601000000,0.000000000,-333.357879639,0.000000000,0.000000000,12.607064247,-57.790473938,0.000000000,-0.084000528,-21.278347015
1748605008.534399,33.603000000,0.000000000,-333.357879639,0.000000000,0.000000000,12.607064247,-57.790473938,0.000000000,-0.084000528,-21.274581909
1748605008.536784,33.605000000,0.000000000,-333.357879639,0.000000000,0.000000000,12.607064247,-57.790473938,0.000000000,-0.084000528,-21.271192551
1748605008.539150,33.608000000,0.000000000,-333.357879639,0.000000000,0.000000000,12.607064247,-57.790473938,0.000000000,-0.084000528,-21.268144608
1748605008.541524,33.610000000,0.000000000,-333.357879639,0.000000000,0.000000000,12.607064247,-57.790473938,0.000000000,-0.084000528,-21.265399933
1748605008.543916,33.613000000,0.000000000,-333.357879639,0.000000000,0.000000000,12.607064247,-57.790473938,0.000000000,-0.084000528,-21.262929916
1748605008.546320,33.615000000,0.000000000,-333.357879639,0.000000000,0.000000000,12.607064247,-57.790473938,0.000000000,-0.084000528,-21.260705948
1748605008.548735,33.617000000,0.000000000,-333.357879639,0.000000000,0.000000000,12.607064247,-57.790473938,0.000000000,-0.084000528,-21.258705139
1748605008.551123,33.620000000,0.000000000,-333.357879639,0.000000000,0.000000000,12.607064247,-57.790473938,0.000000000,-0.084000528,-21.256904602
1748605008.553541,33.622000000,0.000000000,-333.357879639,0.000000000,0.000000000,12.607064247,-57.790473938,0.000000000,-0.084000528,-21.255285263
1748605008.555973,33.625000000,0.000000000,-333.357879639,0.000000000,0.000000000,12.607064247,-57.790473938,0.000000000,-0.084000528,-21.253826141
1748605008.558334,33.627000000,0.000000000,-333.357879639,0.000000000,0.000000000,12.607064247,-57.790473938,0.000000000,-0.084000528,-21.252513885
1748605008.560767,33.629000000,0.000000000,-333.357879639,0.000000000,0.000000000,12.607064247,-57.790473938,0.000000000,-0.084000528,-21.251331329
1748605008.563098,33.632000000,0.000000000,-333.357879639,0.000000000,0.000000000,12.607064247,-57.790473938,0.000000000,-0.084000528,-21.250268936
1748605008.565465,33.634000000,0.000000000,-333.357879639,0.000000000,0.000000000,12.607064247,-57.790473938,0.000000000,-0.084000528,-21.249311447
1748605008.567855,33.637000000,0.000000000,-333.357879639,0.000000000,0.000000000,12.607064247,-57.790473938,0.000000000,-0.084000528,-21.248451233
1748605008.570304,33.639000000,0.000000000,-333.357879639,0.000000000,0.000000000,12.607064247,-57.790473938,0.000000000,-0.084000528,-21.247674942
1748605008.572732,33.641000000,0.000000000,-333.357879639,0.000000000,0.000000000,12.607064247,-57.790473938,0.000000000,-0.084000528,-21.246978760
1748605008.575208,33.644000000,0.000000000,-333.357879639,0.000000000,0.000000000,12.607064247,-57.790473938,0.000000000,-0.084000528,-21.246351242
1748605008.577662,33.646000000,0.000000000,-333.357879639,0.000000000,0.000000000,12.607064247,-57.790473938,0.000000000,-0.084000528,-21.245784760
1748605008.580018,33.649000000,0.000000000,-333.357879639,0.000000000,0.000000000,12.607064247,-57.790473938,0.000000000,-0.084000528,-21.245277405
1748605008.582498,33.651000000,0.000000000,-333.357879639,0.000000000,0.000000000,12.593564987,-56.022003174,0.000000000,-0.084000528,-21.244527817
1748605008.584924,33.654000000,0.000000000,-333.357879639,0.000000000,0.000000000,12.593564987,-58.201103210,0.000000000,-0.084000528,-21.244115829
1748605008.587271,33.656000000,0.000000000,-333.357879639,0.000000000,0.000000000,12.593564987,-58.201103210,0.000000000,-0.084000528,-21.243745804
1748605008.589651,33.658000000,0.000000000,-333.357879639,0.000000000,0.000000000,12.593564987,-58.201103210,0.000000000,-0.084000528,-21.243412018
1748605008.592017,33.661000000,0.000000000,-333.357879639,0.000000000,0.000000000,12.593564987,-58.201103210,0.000000000,-0.084000528,-21.243112564
1748605008.594395,33.663000000,0.000000000,-333.357879639,0.000000000,0.000000000,12.593564987,-58.201103210,0.000000000,-0.074999034,-19.524259567
1748605008.596783,33.665000000,0.000000000,-333.357879639,0.000000000,0.000000000,12.593564987,-58.201103210,0.000000000,-0.074999034,-19.468246460
1748605008.599158,33.668000000,0.000000000,-333.357879639,0.000000000,0.000000000,12.607064247,-59.998825073,0.000000000,-0.074999034,-19.418161392
1748605008.601539,33.670000000,0.000000000,-333.357879639,0.000000000,0.000000000,12.593564987,-55.985313416,0.000000000,-0.074999034,-19.372463226
1748605008.603901,33.673000000,0.000000000,-333.357879639,0.000000000,0.000000000,12.593564987,-58.201103210,0.000000000,-0.074999034,-19.331628799
1748605008.606274,33.675000000,0.000000000,-333.357879639,0.000000000,0.000000000,12.593564987,-58.201103210,0.000000000,-0.074999034,-19.294879913
1748605008.608655,33.677000000,0.000000000,-333.357879639,0.000000000,0.000000000,12.607064247,-60.007194519,0.000000000,-0.074999034,-19.262107849
1748605008.611020,33.680000000,0.000000000,-333.357879639,0.000000000,0.000000000,12.593564987,-55.989036560,0.000000000,-0.066000223,-17.509773254
1748605008.613383,33.682000000,0.000000000,-333.357879639,0.000000000,0.000000000,12.580065727,-56.383766174,0.000000000,-0.074999034,-19.145622253
1748605008.615801,33.684000000,0.000000000,-333.357879639,0.000000000,0.000000000,12.580065727,-58.611740112,0.000000000,-0.066000223,-17.407733917
1748605008.618159,33.687000000,0.000000000,-333.357879639,0.000000000,0.000000000,12.593564987,-60.402069092,0.000000000,-0.066000223,-17.336116791
1748605008.620533,33.689000000,0.000000000,-333.357879639,0.000000000,0.000000000,12.593564987,-58.201103210,0.000000000,-0.066000223,-17.271360397
1748605008.622916,33.692000000,0.000000000,-333.357879639,0.000000000,0.000000000,12.580065727,-56.399673462,0.000000000,-0.066000223,-17.212776184
1748605008.625315,33.694000000,0.000000000,-333.357879639,0.000000000,0.000000000,12.593564987,-60.402069092,0.000000000,-0.066000223,-17.160627365
1748605008.627720,33.696000000,0.000000000,-333.357879639,0.000000000,0.000000000,12.593564987,-58.201103210,0.000000000,-0.066000223,-17.113420486
1748605008.630148,33.699000000,0.000000000,-333.357879639,0.000000000,0.000000000,12.593564987,-58.201103210,0.000000000,-0.066000223,-17.070934296
1748605008.632511,33.701000000,0.000000000,-333.357879639,0.000000000,0.000000000,12.593564987,-58.201103210,0.000000000,-0.066000223,-17.032697678
1748605008.634906,33.704000000,0.000000000,-333.357879639,0.000000000,0.000000000,12.593564987,-58.201103210,0.000000000,-0.066000223,-16.998283386
1748605008.637275,33.706000000,0.000000000,-333.357879639,0.000000000,0.000000000,12.593564987,-58.201103210,0.000000000,-0.066000223,-16.967311859
1748605008.639648,33.708000000,0.000000000,-333.357879639,0.000000000,0.000000000,12.593564987,-58.201103210,0.000000000,-0.066000223,-16.939435959
1748605008.642074,33.711000000,0.000000000,-333.357879639,0.000000000,0.000000000,12.593564987,-58.201103210,0.000000000,-0.066000223,-16.914348602
1748605008.644428,33.713000000,0.000000000,-333.357879639,0.000000000,0.000000000,12.593564987,-58.201103210,0.000000000,-0.056998730,-15.161314011
1748605008.646782,33.715000000,0.000000000,-333.357879639,0.000000000,0.000000000,12.593564987,-58.201103210,0.000000000,-0.056998730,-15.086418152
1748605008.649145,33.718000000,0.000000000,-333.357879639,0.000000000,0.000000000,12.593564987,-58.201103210,0.000000000,-0.056998730,-15.019011497
1748605008.651530,33.720000000,0.000000000,-333.357879639,0.000000000,0.000000000,12.593564987,-58.201103210,0.000000000,-0.056998730,-14.958346367
1748605008.653887,33.723000000,0.000000000,-333.357879639,0.000000000,0.000000000,12.593564987,-58.201103210,0.000000000,-0.056998730,-14.903746605
1748605008.656257,33.725000000,0.000000000,-333.357879639,0.000000000,0.000000000,12.593564987,-58.201103210,0.000000000,-0.056998730,-14.854607582
1748605008.658640,33.727000000,0.000000000,-333.357879639,0.000000000,0.000000000,12.593564987,-58.201103210,0.000000000,-0.056998730,-14.810381889
1748605008.661052,33.730000000,0.000000000,-333.357879639,0.000000000,0.000000000,12.593564987,-58.201103210,0.000000000,-0.056998730,-14.770579338
1748605008.663446,33.732000000,0.000000000,-333.357879639,0.000000000,0.000000000,12.593564987,-58.201103210,0.000000000,-0.056998730,-14.734756470
1748605008.665848,33.735000000,0.000000000,-333.357879639,0.000000000,0.000000000,12.593564987,-58.201103210,0.000000000,-0.056998730,-14.702516556
1748605008.668219,33.737000000,0.000000000,-333.357879639,0.000000000,0.000000000,12.593564987,-58.201103210,0.000000000,-0.056998730,-14.673500061
1748605008.670664,33.739000000,0.000000000,-333.357879639,0.000000000,0.000000000,12.593564987,-58.201103210,0.000000000,-0.056998730,-14.647385597
1748605008.673055,33.742000000,0.000000000,-333.357879639,0.000000000,0.000000000,12.593564987,-58.201103210,0.000000000,-0.056998730,-14.623882294
1748605008.675477,33.744000000,0.000000000,-333.357879639,0.000000000,0.000000000,12.593564987,-58.201103210,0.000000000,-0.056998730,-14.602728844
1748605008.677853,33.747000000,0.000000000,-333.357879639,0.000000000,0.000000000,12.593564987,-58.201103210,0.000000000,-0.056998730,-14.583691597
1748605008.680284,33.749000000,0.000000000,-333.357879639,0.000000000,0.000000000,12.593564987,-58.201103210,0.000000000,-0.056998730,-14.566557884
1748605008.682688,33.751000000,0.000000000,-333.357879639,0.000000000,0.000000000,12.593564987,-58.201103210,0.000000000,-0.056998730,-14.551136971
1748605008.685180,33.754000000,0.000000000,-333.357879639,0.000000000,0.000000000,12.593564987,-58.201103210,0.000000000,-0.056998730,-14.537259102
1748605008.687630,33.756000000,0.000000000,-333.357879639,0.000000000,0.000000000,12.593564987,-58.201103210,0.000000000,-0.056998730,-14.524768829
1748605008.690078,33.759000000,0.000000000,-333.357879639,0.000000000,0.000000000,12.593564987,-58.201103210,0.000000000,-0.056998730,-14.513526917
1748605008.692531,33.761000000,0.000000000,-333.357879639,0.000000000,0.000000000,12.593564987,-58.201103210,0.000000000,-0.056998730,-14.503409386
1748605008.694922,33.764000000,0.000000000,-333.357879639,0.000000000,0.000000000,12.593564987,-58.201103210,0.000000000,-0.056998730,-14.494303703
1748605008.697303,33.766000000,0.000000000,-333.357879639,0.000000000,0.000000000,12.593564987,-58.201103210,0.000000000,-0.056998730,-14.486108780
1748605008.699701,33.768000000,0.000000000,-333.357879639,0.000000000,0.000000000,12.593564987,-58.201103210,0.000000000,-0.056998730,-14.478733063
1748605008.702125,33.771000000,0.000000000,-333.357879639,0.000000000,0.000000000,12.593564987,-58.201103210,0.000000000,-0.056998730,-14.472095490
1748605008.704498,33.773000000,0.000000000,-333.357879639,0.000000000,0.000000000,12.593564987,-58.201103210,0.000000000,-0.056998730,-14.466121674
1748605008.706882,33.776000000,0.000000000,-333.357879639,0.000000000,0.000000000,12.593564987,-58.201103210,0.000000000,-0.056998730,-14.460744858
1748605008.709290,33.778000000,0.000000000,-333.357879639,0.000000000,0.000000000,12.593564987,-58.201103210,0.000000000,-0.056998730,-14.455904961
1748605008.711724,33.780000000,0.000000000,-333.357879639,0.000000000,0.000000000,12.593564987,-58.201103210,0.000000000,-0.056998730,-14.451550484
1748605008.714119,33.783000000,0.000000000,-333.357879639,0.000000000,0.000000000,12.593564987,-58.201103210,0.000000000,-0.056998730,-14.447630882
1748605008.716717,33.785000000,0.000000000,-333.357879639,0.000000000,0.000000000,12.593564987,-58.201103210,0.000000000,-0.056998730,-14.444103241
1748605008.719307,33.788000000,0.000000000,-333.357879639,0.000000000,0.000000000,12.593564987,-58.201103210,0.000000000,-0.066000223,-16.212371826
1748605008.721711,33.790000000,0.000000000,-333.357879639,0.000000000,0.000000000,12.593564987,-58.201103210,0.000000000,-0.056998730,-14.502234459
1748605008.724198,33.793000000,0.000000000,-333.357879639,0.000000000,0.000000000,12.593564987,-58.201103210,0.000000000,-0.066000223,-16.240379333
1748605008.726737,33.795000000,0.000000000,-333.357879639,0.000000000,0.000000000,12.593564987,-58.201103210,0.000000000,-0.066000223,-16.285198212
1748605008.729256,33.798000000,0.000000000,-333.357879639,0.000000000,0.000000000,12.593564987,-58.201103210,0.000000000,-0.066000223,-16.325532913
1748605008.731721,33.800000000,0.000000000,-333.357879639,0.000000000,0.000000000,12.593564987,-58.201103210,0.000000000,-0.066000223,-16.361835480
1748605008.734215,33.803000000,0.000000000,-333.357879639,0.000000000,0.000000000,12.593564987,-58.201103210,0.000000000,-0.066000223,-16.394508362
1748605008.736739,33.805000000,0.000000000,-333.357879639,0.000000000,0.000000000,12.593564987,-58.201103210,0.000000000,-0.066000223,-16.423913956
1748605008.739203,33.808000000,0.000000000,-333.357879639,0.000000000,0.000000000,12.593564987,-58.201103210,0.000000000,-0.066000223,-16.450378418
1748605008.741714,33.810000000,0.000000000,-333.357879639,0.000000000,0.000000000,12.593564987,-58.201103210,0.000000000,-0.066000223,-16.474195480
1748605008.744247,33.813000000,0.000000000,-333.357879639,0.000000000,0.000000000,12.593564987,-58.201103210,0.000000000,-0.066000223,-16.495632172
1748605008.746688,33.815000000,0.000000000,-333.357879639,0.000000000,0.000000000,12.593564987,-58.201103210,0.000000000,-0.066000223,-16.514925003
1748605008.749162,33.818000000,0.000000000,-333.357879639,0.000000000,0.000000000,12.593564987,-58.201103210,0.000000000,-0.066000223,-16.532287598
1748605008.751639,33.820000000,0.000000000,-333.357879639,0.000000000,0.000000000,12.593564987,-58.201103210,0.000000000,-0.066000223,-16.547914505
1748605008.754132,33.823000000,0.000000000,-333.357879639,0.000000000,0.000000000,12.593564987,-58.201103210,0.000000000,-0.066000223,-16.561979294
1748605008.756534,33.825000000,0.000000000,-333.357879639,0.000000000,0.000000000,12.593564987,-58.201103210,0.000000000,-0.066000223,-16.574638367
1748605008.759001,33.828000000,0.000000000,-333.357879639,0.000000000,0.000000000,12.593564987,-58.201103210,0.000000000,-0.066000223,-16.586029053
1748605008.761501,33.830000000,0.000000000,-333.357879639,0.000000000,0.000000000,12.593564987,-58.201103210,0.000000000,-0.066000223,-16.596282959
1748605008.764103,33.833000000,0.000000000,-333.357879639,0.000000000,0.000000000,12.593564987,-58.201103210,0.000000000,-0.066000223,-16.605510712
1748605008.766642,33.835000000,0.000000000,-333.357879639,0.000000000,0.000000000,12.593564987,-58.201103210,0.000000000,-0.066000223,-16.613815308
1748605008.769093,33.838000000,0.000000000,-333.357879639,0.000000000,0.000000000,12.593564987,-58.201103210,0.000000000,-0.066000223,-16.621290207
1748605008.771538,33.840000000,0.000000000,-333.357879639,0.000000000,0.000000000,12.593564987,-58.201103210,0.000000000,-0.066000223,-16.628015518
1748605008.774029,33.843000000,0.000000000,-333.357879639,0.000000000,0.000000000,12.593564987,-58.201103210,0.000000000,-0.066000223,-16.634071350
1748605008.776493,33.845000000,0.000000000,-333.357879639,0.000000000,0.000000000,12.593564987,-58.201103210,0.000000000,-0.066000223,-16.639518738
1748605008.778975,33.848000000,0.000000000,-333.357879639,0.000000000,0.000000000,12.593564987,-58.201103210,0.000000000,-0.066000223,-16.644422531
1748605008.781415,33.850000000,0.000000000,-333.357879639,0.000000000,0.000000000,12.593564987,-58.201103210,0.000000000,-0.066000223,-16.648836136
1748605008.783839,33.853000000,0.000000000,-333.357879639,0.000000000,0.000000000,12.593564987,-58.201103210,0.000000000,-0.066000223,-16.652809143
1748605008.786306,33.855000000,0.000000000,-333.357879639,0.000000000,0.000000000,12.593564987,-58.201103210,0.000000000,-0.066000223,-16.656383514
1748605008.788781,33.857000000,0.000000000,-333.357879639,0.000000000,0.000000000,12.593564987,-58.201103210,0.000000000,-0.066000223,-16.659601212
1748605008.791291,33.860000000,0.000000000,-333.357879639,0.000000000,0.000000000,12.593564987,-58.201103210,0.000000000,-0.066000223,-16.662496567
1748605008.793786,33.862000000,0.000000000,-333.357879639,0.000000000,0.000000000,12.593564987,-58.201103210,0.000000000,-0.066000223,-16.665103912
1748605008.796193,33.865000000,0.000000000,-333.357879639,0.000000000,0.000000000,12.593564987,-58.201103210,0.000000000,-0.066000223,-16.667448044
1748605008.798604,33.867000000,0.000000000,-333.357879639,0.000000000,0.000000000,12.593564987,-58.201103210,0.000000000,-0.066000223,-16.669559479
1748605008.800983,33.870000000,0.000000000,-333.357879639,0.000000000,0.000000000,12.593564987,-58.201103210,0.000000000,-0.066000223,-16.671459198
1748605008.803373,33.872000000,0.000000000,-333.357879639,0.000000000,0.000000000,12.593564987,-58.201103210,0.000000000,-0.066000223,-16.673170090
1748605008.805781,33.874000000,0.000000000,-333.357879639,0.000000000,0.000000000,12.593564987,-58.201103210,0.000000000,-0.066000223,-16.674709320
1748605008.808178,33.877000000,0.000000000,-333.357879639,0.000000000,0.000000000,12.593564987,-58.201103210,0.000000000,-0.066000223,-16.676094055
1748605008.810637,33.879000000,0.000000000,-333.357879639,0.000000000,0.000000000,12.593564987,-58.201103210,0.000000000,-0.066000223,-16.677339554
1748605008.813182,33.882000000,0.000000000,-333.357879639,0.000000000,0.000000000,12.593564987,-58.201103210,0.000000000,-0.066000223,-16.678461075
1748605008.815736,33.884000000,0.000000000,-333.357879639,0.000000000,0.000000000,12.593564987,-58.201103210,0.000000000,-0.066000223,-16.679471970
1748605008.818198,33.887000000,0.000000000,-333.357879639,0.000000000,0.000000000,12.593564987,-58.201103210,0.000000000,-0.066000223,-16.680379868
1748605008.820702,33.889000000,0.000000000,-333.357879639,0.000000000,0.000000000,12.593564987,-58.201103210,0.000000000,-0.066000223,-16.681198120
1748605008.823105,33.892000000,0.000000000,-333.357879639,0.000000000,0.000000000,12.593564987,-58.201103210,0.000000000,-0.066000223,-16.681934357
1748605008.825480,33.894000000,0.000000000,-333.357879639,0.000000000,0.000000000,12.593564987,-58.201103210,0.000000000,-0.066000223,-16.682596207
1748605008.827874,33.897000000,0.000000000,-333.357879639,0.000000000,0.000000000,12.593564987,-58.201103210,0.000000000,-0.066000223,-16.683193207
1748605008.830278,33.899000000,0.000000000,-333.357879639,0.000000000,0.000000000,12.593564987,-58.201103210,0.000000000,-0.066000223,-16.683729172
1748605008.832697,33.901000000,0.000000000,-333.357879639,0.000000000,0.000000000,12.593564987,-58.201103210,0.000000000,-0.066000223,-16.684211731
1748605008.835106,33.904000000,0.000000000,-333.357879639,0.000000000,0.000000000,12.593564987,-58.201103210,0.000000000,-0.066000223,-16.684646606
1748605008.837506,33.906000000,0.000000000,-333.357879639,0.000000000,0.000000000,12.593564987,-58.201103210,0.000000000,-0.066000223,-16.685037613
1748605008.839931,33.909000000,0.000000000,-333.357879639,0.000000000,0.000000000,12.593564987,-58.201103210,0.000000000,-0.066000223,-16.685390472
1748605008.842338,33.911000000,0.000000000,-333.357879639,0.000000000,0.000000000,12.593564987,-58.201103210,0.000000000,-0.066000223,-16.685707092
1748605008.844803,33.913000000,0.000000000,-333.357879639,0.000000000,0.000000000,12.593564987,-58.201103210,0.000000000,-0.066000223,-16.685991287
1748605008.847267,33.916000000,0.000000000,-333.357879639,0.000000000,0.000000000,12.593564987,-58.201103210,0.000000000,-0.066000223,-16.686248779
1748605008.849749,33.918000000,0.000000000,-333.357879639,0.000000000,0.000000000,12.593564987,-58.201103210,0.000000000,-0.066000223,-16.686479568
1748605008.852188,33.921000000,0.000000000,-333.357879639,0.000000000,0.000000000,12.593564987,-58.201103210,0.000000000,-0.066000223,-16.686687469
1748605008.854651,33.923000000,0.000000000,-333.357879639,0.000000000,0.000000000,12.593564987,-58.201103210,0.000000000,-0.066000223,-16.686874390
1748605008.857088,33.926000000,0.000000000,-333.357879639,0.000000000,0.000000000,12.593564987,-58.201103210,0.000000000,-0.066000223,-16.687042236
1748605008.859536,33.928000000,0.000000000,-333.357879639,0.000000000,0.000000000,12.593564987,-58.201103210,0.000000000,-0.066000223,-16.687194824
1748605008.861990,33.931000000,0.000000000,-333.357879639,0.000000000,0.000000000,12.593564987,-58.201103210,0.000000000,-0.066000223,-16.687330246
1748605008.864478,33.933000000,0.000000000,-333.357879639,0.000000000,0.000000000,12.593564987,-58.201103210,0.000000000,-0.066000223,-16.687454224
1748605008.866990,33.936000000,0.000000000,-333.357879639,0.000000000,0.000000000,12.593564987,-58.201103210,0.000000000,-0.066000223,-16.687564850
1748605008.869470,33.938000000,0.000000000,-333.357879639,0.000000000,0.000000000,12.593564987,-58.201103210,0.000000000,-0.066000223,-16.687664032
1748605008.872023,33.941000000,0.000000000,-333.357879639,0.000000000,0.000000000,12.593564987,-58.201103210,0.000000000,-0.066000223,-16.687753677
1748605008.874563,33.943000000,0.000000000,-333.357879639,0.000000000,0.000000000,12.593564987,-58.201103210,0.000000000,-0.066000223,-16.687833786
1748605008.877211,33.946000000,0.000000000,-333.357879639,0.000000000,0.000000000,12.593564987,-58.201103210,0.000000000,-0.066000223,-16.687906265
1748605008.879792,33.948000000,0.000000000,-333.357879639,0.000000000,0.000000000,12.593564987,-58.201103210,0.000000000,-0.066000223,-16.687971115
1748605008.882398,33.951000000,0.000000000,-333.357879639,0.000000000,0.000000000,12.593564987,-58.201103210,0.000000000,-0.066000223,-16.688030243
1748605008.884938,33.954000000,0.000000000,-333.357879639,0.000000000,0.000000000,12.593564987,-58.201103210,0.000000000,-0.066000223,-16.688083649
1748605008.887486,33.956000000,0.000000000,-333.357879639,0.000000000,0.000000000,12.593564987,-58.201103210,0.000000000,-0.066000223,-16.688131332
1748605008.890056,33.959000000,0.000000000,-333.357879639,0.000000000,0.000000000,12.593564987,-58.201103210,0.000000000,-0.066000223,-16.688173294
1748605008.892575,33.961000000,0.000000000,-333.357879639,0.000000000,0.000000000,12.593564987,-58.201103210,0.000000000,-0.066000223,-16.688211441
1748605008.895190,33.964000000,0.000000000,-333.357879639,0.000000000,0.000000000,12.593564987,-58.201103210,0.000000000,-0.066000223,-16.688245773
1748605008.897816,33.966000000,0.000000000,-333.357879639,0.000000000,0.000000000,12.593564987,-58.201103210,0.000000000,-0.066000223,-16.688278198
1748605008.900244,33.969000000,0.000000000,-333.357879639,0.000000000,0.000000000,12.593564987,-58.201103210,0.000000000,-0.066000223,-16.688304901
1748605008.902699,33.971000000,0.000000000,-333.357879639,0.000000000,0.000000000,12.593564987,-58.201103210,0.000000000,-0.066000223,-16.688331604
1748605008.905251,33.974000000,0.000000000,-333.357879639,0.000000000,0.000000000,12.593564987,-58.201103210,0.000000000,-0.066000223,-16.688354492
1748605008.907840,33.976000000,0.000000000,-333.357879639,0.000000000,0.000000000,12.593564987,-58.201103210,0.000000000,-0.066000223,-16.688373566
1748605008.910469,33.979000000,0.000000000,-333.357879639,0.000000000,0.000000000,12.593564987,-58.201103210,0.000000000,-0.066000223,-16.688392639
1748605008.913001,33.982000000,0.000000000,-333.357879639,0.000000000,0.000000000,12.593564987,-58.201103210,0.000000000,-0.066000223,-16.688409805
1748605008.915565,33.984000000,0.000000000,-333.357879639,0.000000000,0.000000000,12.593564987,-58.201103210,0.000000000,-0.066000223,-16.688425064
1748605008.918031,33.987000000,0.000000000,-333.357879639,0.000000000,0.000000000,12.593564987,-58.201103210,0.000000000,-0.066000223,-16.688438416
1748605008.920488,33.989000000,0.000000000,-333.357879639,0.000000000,0.000000000,12.593564987,-58.201103210,0.000000000,-0.066000223,-16.688449860
