liamjosephnolan/thesis_matlab/pitch_prbs_response/prbs_roll_0_pitch_0.csv
__time,/psm_joint_telemetry/header/stamp,/psm_joint_telemetry/insertion/effort,/psm_joint_telemetry/insertion/position,/psm_joint_telemetry/insertion/velocity,/psm_joint_telemetry/pitch/effort,/psm_joint_telemetry/pitch/position,/psm_joint_telemetry/pitch/velocity,/psm_joint_telemetry/roll/effort,/psm_joint_telemetry/roll/position,/psm_joint_telemetry/roll/velocity
1748602355.087497,28.736000000,0.000000000,333.357879639,0.000000000,0.000000000,-3.053326607,-77.878837585,0.000000000,-0.066000223,-16.545295715
1748602355.089895,28.739000000,0.000000000,333.357879639,0.000000000,0.000000000,-3.053326607,-77.878837585,0.000000000,-0.066000223,-16.542976379
1748602355.092299,28.741000000,0.000000000,333.357879639,0.000000000,0.000000000,-3.053326607,-77.878837585,0.000000000,-0.066000223,-16.540887833
1748602355.094651,28.743000000,0.000000000,333.357879639,0.000000000,0.000000000,-3.053326607,-77.878837585,0.000000000,-0.066000223,-16.539007187
1748602355.096992,28.746000000,0.000000000,333.357879639,0.000000000,0.000000000,-3.053326607,-77.878837585,0.000000000,-0.066000223,-16.537317276
1748602355.099414,28.748000000,0.000000000,333.357879639,0.000000000,0.000000000,-3.053326607,-77.878837585,0.000000000,-0.066000223,-16.535793304
1748602355.101722,28.750000000,0.000000000,333.357879639,0.000000000,0.000000000,-3.053326607,-77.878837585,0.000000000,-0.066000223,-16.534423828
1748602355.104114,28.753000000,0.000000000,333.357879639,0.000000000,0.000000000,-3.053326607,-77.878837585,0.000000000,-0.066000223,-16.533191681
1748602355.106482,28.755000000,0.000000000,333.357879639,0.000000000,0.000000000,-3.053326607,-77.878837585,0.000000000,-0.066000223,-16.532081604
1748602355.108915,28.758000000,0.000000000,333.357879639,0.000000000,0.000000000,-3.039827108,-79.687759399,0.000000000,-0.066000223,-16.530876160
1748602355.111291,28.760000000,0.000000000,333.357879639,0.000000000,0.000000000,-3.039827108,-77.468193054,0.000000000,-0.066000223,-16.529977798
1748602355.113669,28.762000000,0.000000000,333.357879639,0.000000000,0.000000000,-3.039827108,-77.468193054,0.000000000,-0.066000223,-16.529169083
1748602355.116052,28.765000000,0.000000000,333.357879639,0.000000000,0.000000000,-3.039827108,-77.468193054,0.000000000,-0.066000223,-16.528440475
1748602355.118414,28.767000000,0.000000000,333.357879639,0.000000000,0.000000000,-3.039827108,-77.468193054,0.000000000,-0.066000223,-16.527786255
1748602355.120872,28.769000000,0.000000000,333.357879639,0.000000000,0.000000000,-3.039827108,-77.468193054,0.000000000,-0.066000223,-16.527196884
1748602355.123503,28.772000000,0.000000000,333.357879639,0.000000000,0.000000000,-3.039827108,-77.468193054,0.000000000,-0.066000223,-16.526664734
1748602355.125812,28.774000000,0.000000000,333.357879639,0.000000000,0.000000000,-3.039827108,-77.468193054,0.000000000,-0.066000223,-16.526187897
1748602355.128260,28.777000000,0.000000000,333.357879639,0.000000000,0.000000000,-3.039827108,-77.468193054,0.000000000,-0.066000223,-16.525756836
1748602355.130637,28.779000000,0.000000000,333.357879639,0.000000000,0.000000000,-3.039827108,-77.468193054,0.000000000,-0.066000223,-16.525371552
1748602355.133094,28.782000000,0.000000000,333.357879639,0.000000000,0.000000000,-3.039827108,-77.468193054,0.000000000,-0.066000223,-16.525022507
1748602355.135405,28.784000000,0.000000000,333.357879639,0.000000000,0.000000000,-3.039827108,-77.468193054,0.000000000,-0.066000223,-16.524709702
1748602355.137750,28.786000000,0.000000000,333.357879639,0.000000000,0.000000000,-3.039827108,-77.468193054,0.000000000,-0.066000223,-16.524427414
1748602355.140068,28.789000000,0.000000000,333.357879639,0.000000000,0.000000000,-3.039827108,-77.468193054,0.000000000,-0.066000223,-16.524173737
1748602355.142407,28.791000000,0.000000000,333.357879639,0.000000000,0.000000000,-3.039827108,-77.468193054,0.000000000,-0.066000223,-16.523944855
1748602355.144765,28.793000000,0.000000000,333.357879639,0.000000000,0.000000000,-3.039827108,-77.468193054,0.000000000,-0.066000223,-16.523738861
1748602355.147115,28.796000000,0.000000000,333.357879639,0.000000000,0.000000000,-3.039827108,-77.468193054,0.000000000,-0.066000223,-16.523553848
1748602355.149549,28.798000000,0.000000000,333.357879639,0.000000000,0.000000000,-3.039827108,-77.468193054,0.000000000,-0.066000223,-16.523387909
1748602355.151881,28.801000000,0.000000000,333.357879639,0.000000000,0.000000000,-3.053326607,-75.714920044,0.000000000,-0.066000223,-16.523441315
1748602355.154243,28.803000000,0.000000000,333.357879639,0.000000000,0.000000000,-3.053326607,-77.878837585,0.000000000,-0.066000223,-16.523307800
1748602355.156636,28.805000000,0.000000000,333.357879639,0.000000000,0.000000000,-3.053326607,-77.878837585,0.000000000,-0.066000223,-16.523185730
1748602355.159002,28.808000000,0.000000000,333.357879639,0.000000000,0.000000000,-3.066826105,-76.082008362,0.000000000,-0.066000223,-16.523281097
1748602355.161372,28.810000000,0.000000000,333.357879639,0.000000000,0.000000000,-3.066826105,-78.289474487,0.000000000,-0.066000223,-16.523181915
1748602355.163705,28.812000000,0.000000000,333.357879639,0.000000000,0.000000000,-3.066826105,-78.289474487,0.000000000,-0.066000223,-16.523094177
1748602355.166089,28.815000000,0.000000000,333.357879639,0.000000000,0.000000000,-3.066826105,-78.289474487,0.000000000,-0.066000223,-16.523014069
1748602355.168447,28.817000000,0.000000000,333.357879639,0.000000000,0.000000000,-3.066826105,-78.289474487,0.000000000,-0.066000223,-16.522941589
1748602355.170837,28.820000000,0.000000000,333.357879639,0.000000000,0.000000000,-3.066826105,-78.289474487,0.000000000,-0.066000223,-16.522878647
1748602355.173237,28.822000000,0.000000000,333.357879639,0.000000000,0.000000000,-3.066826105,-78.289474487,0.000000000,-0.066000223,-16.522819519
1748602355.175610,28.824000000,0.000000000,333.357879639,0.000000000,0.000000000,-3.066826105,-78.289474487,0.000000000,-0.066000223,-16.522768021
1748602355.177984,28.827000000,0.000000000,333.357879639,0.000000000,0.000000000,-3.066826105,-78.289474487,0.000000000,-0.066000223,-16.522720337
1748602355.180380,28.829000000,0.000000000,333.357879639,0.000000000,0.000000000,-3.066826105,-78.289474487,0.000000000,-0.066000223,-16.522678375
1748602355.182811,28.831000000,0.000000000,333.357879639,0.000000000,0.000000000,-3.066826105,-78.289474487,0.000000000,-0.066000223,-16.522640228
1748602355.185171,28.834000000,0.000000000,333.357879639,0.000000000,0.000000000,-3.066826105,-78.289474487,0.000000000,-0.066000223,-16.522605896
1748602355.187554,28.836000000,0.000000000,333.357879639,0.000000000,0.000000000,-3.066826105,-78.289474487,0.000000000,-0.066000223,-16.522575378
1748602355.189968,28.839000000,0.000000000,333.357879639,0.000000000,0.000000000,-3.066826105,-78.289474487,0.000000000,-0.066000223,-16.522546768
1748602355.192372,28.841000000,0.000000000,333.357879639,0.000000000,0.000000000,-3.066826105,-78.289474487,0.000000000,-0.066000223,-16.522521973
1748602355.194882,28.843000000,0.000000000,333.357879639,0.000000000,0.000000000,-3.066826105,-78.289474487,0.000000000,-0.066000223,-16.522499084
1748602355.197248,28.846000000,0.000000000,333.357879639,0.000000000,0.000000000,-3.066826105,-78.289474487,0.000000000,-0.066000223,-16.522480011
1748602355.199665,28.848000000,0.000000000,333.357879639,0.000000000,0.000000000,-3.066826105,-78.289474487,0.000000000,-0.066000223,-16.522460938
1748602355.202062,28.851000000,0.000000000,333.357879639,0.000000000,0.000000000,-3.066826105,-78.289474487,0.000000000,-0.066000223,-16.522443771
1748602355.204443,28.853000000,0.000000000,333.357879639,0.000000000,0.000000000,-3.066826105,-78.289474487,0.000000000,-0.066000223,-16.522430420
1748602355.206894,28.855000000,0.000000000,333.357879639,0.000000000,0.000000000,-3.066826105,-78.289474487,0.000000000,-0.066000223,-16.522417068
1748602355.209283,28.858000000,0.000000000,333.357879639,0.000000000,0.000000000,-3.066826105,-78.289474487,0.000000000,-0.066000223,-16.522403717
1748602355.211705,28.860000000,0.000000000,333.357879639,0.000000000,0.000000000,-3.066826105,-78.289474487,0.000000000,-0.066000223,-16.522394180
1748602355.214006,28.863000000,0.000000000,333.357879639,0.000000000,0.000000000,-3.066826105,-78.289474487,0.000000000,-0.066000223,-16.522384644
1748602355.216363,28.865000000,0.000000000,333.357879639,0.000000000,0.000000000,-3.066826105,-78.289474487,0.000000000,-0.066000223,-16.522375107
1748602355.218707,28.867000000,0.000000000,333.357879639,0.000000000,0.000000000,-3.066826105,-78.289474487,0.000000000,-0.066000223,-16.522367477
1748602355.221073,28.870000000,0.000000000,333.357879639,0.000000000,0.000000000,-3.066826105,-78.289474487,0.000000000,-0.066000223,-16.522359848
1748602355.223432,28.872000000,0.000000000,333.357879639,0.000000000,0.000000000,-3.066826105,-78.289474487,0.000000000,-0.066000223,-16.522354126
1748602355.225834,28.875000000,0.000000000,333.357879639,0.000000000,0.000000000,-3.066826105,-78.289474487,0.000000000,-0.066000223,-16.522348404
1748602355.228227,28.877000000,0.000000000,333.357879639,0.000000000,0.000000000,-3.066826105,-78.289474487,0.000000000,-0.066000223,-16.522342682
1748602355.230665,28.879000000,0.000000000,333.357879639,0.000000000,0.000000000,-3.066826105,-78.289474487,0.000000000,-0.066000223,-16.522338867
1748602355.233056,28.882000000,0.000000000,333.357879639,0.000000000,0.000000000,-3.066826105,-78.289474487,0.000000000,-0.066000223,-16.522335052
1748602355.235459,28.884000000,0.000000000,333.357879639,0.000000000,0.000000000,-3.066826105,-78.289474487,0.000000000,-0.066000223,-16.522331238
1748602355.237822,28.887000000,0.000000000,333.357879639,0.000000000,0.000000000,-3.066826105,-78.289474487,0.000000000,-0.066000223,-16.522327423
1748602355.240185,28.889000000,0.000000000,333.357879639,0.000000000,0.000000000,-3.066826105,-78.289474487,0.000000000,-0.066000223,-16.522323608
1748602355.242594,28.891000000,0.000000000,333.357879639,0.000000000,0.000000000,-3.066826105,-78.289474487,0.000000000,-0.066000223,-16.522321701
1748602355.244968,28.894000000,0.000000000,333.357879639,0.000000000,0.000000000,-3.066826105,-78.289474487,0.000000000,-0.066000223,-16.522319794
1748602355.247382,28.896000000,0.000000000,333.357879639,0.000000000,0.000000000,-3.080325603,-76.485214233,0.000000000,-0.066000223,-16.522520065
1748602355.249849,28.898000000,0.000000000,333.357879639,0.000000000,0.000000000,-3.093827963,-76.935737610,0.000000000,-0.066000223,-16.522720337
1748602355.252326,28.901000000,0.000000000,333.357879639,0.000000000,0.000000000,-3.107327461,-77.349533081,0.000000000,-0.066000223,-16.522924423
1748602355.254730,28.903000000,0.000000000,333.357879639,0.000000000,0.000000000,-3.107327461,-79.521484375,0.000000000,-0.066000223,-16.522924423
1748602355.257178,28.906000000,0.000000000,333.357879639,0.000000000,0.000000000,-3.107327461,-79.521484375,0.000000000,-0.066000223,-16.522922516
1748602355.259721,28.908000000,0.000000000,333.357879639,0.000000000,0.000000000,-3.107327461,-79.521484375,0.000000000,-0.066000223,-16.522920609
1748602355.262120,28.911000000,0.000000000,333.357879639,0.000000000,0.000000000,-3.107327461,-79.521484375,0.000000000,-0.066000223,-16.522920609
1748602355.264530,28.913000000,0.000000000,333.357879639,0.000000000,0.000000000,-3.107327461,-79.521484375,0.000000000,-0.066000223,-16.522918701
1748602355.266986,28.916000000,0.000000000,333.357879639,0.000000000,0.000000000,-3.107327461,-79.521484375,0.000000000,-0.066000223,-16.522918701
1748602355.269525,28.918000000,0.000000000,333.357879639,0.000000000,0.000000000,-3.107327461,-79.521484375,0.000000000,-0.066000223,-16.522916794
1748602355.271930,28.921000000,0.000000000,333.357879639,0.000000000,0.000000000,-3.107327461,-79.521484375,0.000000000,-0.066000223,-16.522916794
1748602355.274375,28.923000000,0.000000000,333.357879639,0.000000000,0.000000000,-3.107327461,-79.521484375,0.000000000,-0.066000223,-16.522914886
1748602355.276839,28.925000000,0.000000000,333.357879639,0.000000000,0.000000000,-3.120827198,-77.772613525,0.000000000,-0.066000223,-16.523117065
1748602355.279225,28.928000000,0.000000000,333.357879639,0.000000000,0.000000000,-3.120827198,-79.932128906,0.000000000,-0.066000223,-16.523117065
1748602355.281651,28.930000000,0.000000000,333.357879639,0.000000000,0.000000000,-3.107327461,-81.730842590,0.000000000,-0.066000223,-16.522912979
1748602355.284117,28.933000000,0.000000000,333.357879639,0.000000000,0.000000000,-3.107327461,-79.521484375,0.000000000,-0.066000223,-16.522912979
1748602355.286500,28.935000000,0.000000000,333.357879639,0.000000000,0.000000000,-3.120827198,-77.781433105,0.000000000,-0.066000223,-16.523115158
1748602355.288877,28.938000000,0.000000000,333.357879639,0.000000000,0.000000000,-3.120827198,-79.932128906,0.000000000,-0.066000223,-16.523115158
1748602355.291255,28.940000000,0.000000000,333.357879639,0.000000000,0.000000000,-3.120827198,-79.932128906,0.000000000,-0.066000223,-16.523115158
1748602355.293680,28.942000000,0.000000000,333.357879639,0.000000000,0.000000000,-3.120827198,-79.932128906,0.000000000,-0.066000223,-16.523113251
1748602355.296121,28.945000000,0.000000000,333.357879639,0.000000000,0.000000000,-3.120827198,-79.932128906,0.000000000,-0.066000223,-16.523113251
1748602355.298506,28.947000000,0.000000000,333.357879639,0.000000000,0.000000000,-3.120827198,-79.932128906,0.000000000,-0.066000223,-16.523113251
1748602355.300931,28.950000000,0.000000000,333.357879639,0.000000000,0.000000000,-3.120827198,-79.932128906,0.000000000,-0.066000223,-16.523113251
1748602355.303318,28.952000000,0.000000000,333.357879639,0.000000000,0.000000000,-3.120827198,-79.932128906,0.000000000,-0.066000223,-16.523113251
1748602355.305730,28.954000000,0.000000000,333.357879639,0.000000000,0.000000000,-3.120827198,-79.932128906,0.000000000,-0.066000223,-16.523113251
1748602355.308098,28.957000000,0.000000000,333.357879639,0.000000000,0.000000000,-3.120827198,-79.932128906,0.000000000,-0.066000223,-16.523113251
1748602355.310494,28.959000000,0.000000000,333.357879639,0.000000000,0.000000000,-3.120827198,-79.932128906,0.000000000,-0.066000223,-16.523113251
1748602355.312849,28.962000000,0.000000000,333.357879639,0.000000000,0.000000000,-3.120827198,-79.932128906,0.000000000,-0.066000223,-16.523113251
1748602355.315157,28.964000000,0.000000000,333.357879639,0.000000000,0.000000000,-3.120827198,-79.932128906,0.000000000,-0.066000223,-16.523113251
1748602355.317522,28.966000000,0.000000000,333.357879639,0.000000000,0.000000000,-3.120827198,-79.932128906,0.000000000,-0.066000223,-16.523111343
1748602355.319906,28.969000000,0.000000000,333.357879639,0.000000000,0.000000000,-3.120827198,-79.932128906,0.000000000,-0.066000223,-16.523111343
1748602355.322258,28.971000000,0.000000000,333.357879639,0.000000000,0.000000000,-3.120827198,-79.932128906,0.000000000,-0.066000223,-16.523111343
1748602355.324670,28.973000000,0.000000000,333.357879639,0.000000000,0.000000000,-3.120827198,-79.932128906,0.000000000,-0.066000223,-16.523111343
1748602355.327062,28.976000000,0.000000000,333.357879639,0.000000000,0.000000000,-3.120827198,-79.932128906,0.000000000,-0.066000223,-16.523111343
1748602355.329427,28.978000000,0.000000000,333.357879639,0.000000000,0.000000000,-3.120827198,-79.932128906,0.000000000,-0.066000223,-16.523111343
1748602355.331845,28.980000000,0.000000000,333.357879639,0.000000000,0.000000000,-3.120827198,-79.932128906,0.000000000,-0.066000223,-16.523111343
1748602355.334243,28.983000000,0.000000000,333.357879639,0.000000000,0.000000000,-3.120827198,-79.932128906,0.000000000,-0.066000223,-16.523111343
1748602355.336617,28.985000000,0.000000000,333.357879639,0.000000000,0.000000000,-3.120827198,-79.932128906,0.000000000,-0.066000223,-16.523111343
1748602355.338984,28.988000000,0.000000000,333.357879639,0.000000000,0.000000000,-3.120827198,-79.932128906,0.000000000,-0.066000223,-16.523111343
1748602355.341359,28.990000000,0.000000000,333.357879639,0.000000000,0.000000000,-3.120827198,-79.932128906,0.000000000,-0.066000223,-16.523111343
1748602355.343740,28.992000000,0.000000000,333.357879639,0.000000000,0.000000000,-3.120827198,-79.932128906,0.000000000,-0.066000223,-16.523111343
1748602355.346163,28.995000000,0.000000000,333.357879639,0.000000000,0.000000000,-3.120827198,-79.932128906,0.000000000,-0.066000223,-16.523111343
1748602355.348623,28.997000000,0.000000000,333.357879639,0.000000000,0.000000000,-3.120827198,-79.932128906,0.000000000,-0.066000223,-16.523111343
1748602355.351034,29.000000000,0.000000000,333.357879639,0.000000000,0.000000000,-3.120827198,-79.932128906,0.000000000,-0.066000223,-16.523111343
1748602355.353417,29.002000000,0.000000000,333.357879639,0.000000000,0.000000000,-3.120827198,-79.932128906,0.000000000,-0.066000223,-16.523111343
1748602355.355816,29.004000000,0.000000000,333.357879639,0.000000000,0.000000000,-3.120827198,-79.932128906,0.000000000,-0.066000223,-16.523111343
1748602355.358191,29.007000000,0.000000000,333.357879639,0.000000000,0.000000000,-3.120827198,-79.932128906,0.000000000,-0.066000223,-16.523111343
1748602355.360543,29.009000000,0.000000000,333.357879639,0.000000000,0.000000000,-3.134329319,-78.120979309,0.000000000,-0.066000223,-16.523315430
1748602355.362874,29.012000000,0.000000000,333.357879639,0.000000000,0.000000000,-3.134329319,-80.342849731,0.000000000,-0.066000223,-16.523315430
1748602355.365220,29.014000000,0.000000000,333.357879639,0.000000000,0.000000000,-3.120827198,-82.192138672,0.000000000,-0.066000223,-16.523111343
1748602355.367547,29.016000000,0.000000000,333.357879639,0.000000000,0.000000000,-3.120827198,-79.932128906,0.000000000,-0.066000223,-16.523111343
1748602355.369979,29.019000000,0.000000000,333.357879639,0.000000000,0.000000000,-3.120827198,-79.932128906,0.000000000,-0.066000223,-16.523111343
1748602355.372347,29.021000000,0.000000000,333.357879639,0.000000000,0.000000000,-3.120827198,-79.932128906,0.000000000,-0.066000223,-16.523111343
1748602355.374735,29.023000000,0.000000000,333.357879639,0.000000000,0.000000000,-3.120827198,-79.932128906,0.000000000,-0.066000223,-16.523111343
1748602355.377110,29.026000000,0.000000000,333.357879639,0.000000000,0.000000000,-3.120827198,-79.932128906,0.000000000,-0.066000223,-16.523111343
1748602355.379470,29.028000000,0.000000000,333.357879639,0.000000000,0.000000000,-3.134329319,-78.127525330,0.000000000,-0.066000223,-16.523315430
1748602355.381864,29.031000000,0.000000000,333.357879639,0.000000000,0.000000000,-3.120827198,-82.163414001,0.000000000,-0.066000223,-16.523111343
1748602355.384227,29.033000000,0.000000000,333.357879639,0.000000000,0.000000000,-3.120827198,-79.932128906,0.000000000,-0.066000223,-16.523111343
1748602355.386617,29.035000000,0.000000000,333.357879639,0.000000000,0.000000000,-3.120827198,-79.932128906,0.000000000,-0.066000223,-16.523111343
1748602355.389013,29.038000000,0.000000000,333.357879639,0.000000000,0.000000000,-3.134329319,-78.149665833,0.000000000,-0.066000223,-16.523315430
1748602355.391497,29.040000000,0.000000000,333.357879639,0.000000000,0.000000000,-3.120827198,-82.152122498,0.000000000,-0.066000223,-16.523111343
1748602355.393958,29.043000000,0.000000000,333.357879639,0.000000000,0.000000000,-3.120827198,-79.932128906,0.000000000,-0.066000223,-16.523111343
1748602355.396440,29.045000000,0.000000000,333.357879639,0.000000000,0.000000000,-3.120827198,-79.932128906,0.000000000,-0.066000223,-16.523111343
1748602355.399052,29.048000000,0.000000000,333.357879639,0.000000000,0.000000000,-3.134329319,-78.210075378,0.000000000,-0.066000223,-16.523315430
1748602355.401709,29.050000000,0.000000000,333.357879639,0.000000000,0.000000000,-3.120827198,-81.926757813,0.000000000,-0.066000223,-16.523111343
1748602355.404198,29.053000000,0.000000000,333.357879639,0.000000000,0.000000000,-3.120827198,-79.932128906,0.000000000,-0.066000223,-16.523111343
1748602355.406653,29.055000000,0.000000000,333.357879639,0.000000000,0.000000000,-3.134329319,-78.305778503,0.000000000,-0.066000223,-16.523315430
1748602355.409103,29.058000000,0.000000000,333.357879639,0.000000000,0.000000000,-3.120827198,-82.070968628,0.000000000,-0.066000223,-16.523111343
1748602355.411527,29.060000000,0.000000000,333.357879639,0.000000000,0.000000000,-3.120827198,-79.932128906,0.000000000,-0.066000223,-16.523111343
1748602355.413964,29.063000000,0.000000000,333.357879639,0.000000000,0.000000000,-3.134329319,-78.182952881,0.000000000,-0.066000223,-16.523315430
1748602355.416381,29.065000000,0.000000000,333.357879639,0.000000000,0.000000000,-3.120827198,-82.109893799,0.000000000,-0.066000223,-16.523111343
1748602355.418780,29.067000000,0.000000000,333.357879639,0.000000000,0.000000000,-3.134329319,-78.172271729,0.000000000,-0.066000223,-16.523315430
1748602355.421288,29.070000000,0.000000000,333.357879639,0.000000000,0.000000000,-3.120827198,-82.123481750,0.000000000,-0.066000223,-16.523111343
1748602355.423767,29.072000000,0.000000000,333.357879639,0.000000000,0.000000000,-3.134329319,-78.231452942,0.000000000,-0.066000223,-16.523315430
1748602355.426277,29.075000000,0.000000000,333.357879639,0.000000000,0.000000000,-3.120827198,-82.057159424,0.000000000,-0.066000223,-16.523111343
1748602355.428710,29.077000000,0.000000000,333.357879639,0.000000000,0.000000000,-3.120827198,-79.932128906,0.000000000,-0.066000223,-16.523111343
1748602355.431244,29.080000000,0.000000000,333.357879639,0.000000000,0.000000000,-3.120827198,-79.932128906,0.000000000,-0.066000223,-16.523111343
1748602355.433762,29.082000000,0.000000000,333.357879639,0.000000000,0.000000000,-3.120827198,-79.932128906,0.000000000,-0.066000223,-16.523111343
1748602355.436172,29.085000000,0.000000000,333.357879639,0.000000000,0.000000000,-3.120827198,-79.932128906,0.000000000,-0.066000223,-16.523111343
1748602355.438709,29.087000000,0.000000000,333.357879639,0.000000000,0.000000000,-3.134329319,-78.184722900,0.000000000,-0.066000223,-16.523315430
1748602355.441183,29.090000000,0.000000000,333.357879639,0.000000000,0.000000000,-3.120827198,-82.046920776,0.000000000,-0.066000223,-16.523111343
1748602355.443626,29.092000000,0.000000000,333.357879639,0.000000000,0.000000000,-3.120827198,-79.932128906,0.000000000,-0.066000223,-16.523111343
1748602355.445928,29.095000000,0.000000000,333.357879639,0.000000000,0.000000000,-3.120827198,-79.932128906,0.000000000,-0.066000223,-16.523111343
1748602355.448324,29.097000000,0.000000000,333.357879639,0.000000000,0.000000000,-3.134329319,-78.100166321,0.000000000,-0.066000223,-16.523315430
1748602355.450765,29.099000000,0.000000000,333.357879639,0.000000000,0.000000000,-3.120827198,-82.134483337,0.000000000,-0.066000223,-16.523111343
1748602355.453277,29.102000000,0.000000000,333.357879639,0.000000000,0.000000000,-3.120827198,-79.932128906,0.000000000,-0.066000223,-16.523111343
1748602355.455703,29.104000000,0.000000000,333.357879639,0.000000000,0.000000000,-3.120827198,-79.932128906,0.000000000,-0.066000223,-16.523111343
1748602355.458196,29.107000000,0.000000000,333.357879639,0.000000000,0.000000000,-3.120827198,-79.932128906,0.000000000,-0.066000223,-16.523111343
1748602355.460664,29.109000000,0.000000000,333.357879639,0.000000000,0.000000000,-3.134329319,-78.214385986,0.000000000,-0.066000223,-16.523315430
1748602355.463135,29.112000000,0.000000000,333.357879639,0.000000000,0.000000000,-3.120827198,-82.044372559,0.000000000,-0.066000223,-16.523111343
1748602355.465570,29.114000000,0.000000000,333.357879639,0.000000000,0.000000000,-3.120827198,-79.932128906,0.000000000,-0.066000223,-16.523111343
1748602355.468061,29.117000000,0.000000000,333.357879639,0.000000000,0.000000000,-3.134329319,-78.190017700,0.000000000,-0.066000223,-16.523315430
1748602355.470514,29.119000000,0.000000000,333.357879639,0.000000000,0.000000000,-3.134329319,-80.342849731,0.000000000,-0.066000223,-16.523315430
1748602355.472890,29.122000000,0.000000000,333.357879639,0.000000000,0.000000000,-3.120827198,-82.070968628,0.000000000,-0.066000223,-16.523111343
1748602355.475260,29.124000000,0.000000000,333.357879639,0.000000000,0.000000000,-3.120827198,-79.932128906,0.000000000,-0.066000223,-16.523111343
1748602355.477633,29.126000000,0.000000000,333.357879639,0.000000000,0.000000000,-3.134329319,-78.115341187,0.000000000,-0.066000223,-16.523315430
1748602355.480048,29.129000000,0.000000000,333.357879639,0.000000000,0.000000000,-3.134329319,-80.342849731,0.000000000,-0.066000223,-16.523315430
1748602355.482470,29.131000000,0.000000000,333.357879639,0.000000000,0.000000000,-3.120827198,-82.125312805,0.000000000,-0.066000223,-16.523111343
1748602355.484953,29.134000000,0.000000000,333.357879639,0.000000000,0.000000000,-3.120827198,-79.932128906,0.000000000,-0.066000223,-16.523111343
1748602355.487349,29.136000000,0.000000000,333.357879639,0.000000000,0.000000000,-3.134329319,-78.183837891,0.000000000,-0.066000223,-16.523315430
1748602355.489804,29.138000000,0.000000000,333.357879639,0.000000000,0.000000000,-3.120827198,-82.094688416,0.000000000,-0.066000223,-16.523111343
1748602355.492209,29.141000000,0.000000000,333.357879639,0.000000000,0.000000000,-3.134329319,-78.190895081,0.000000000,-0.066000223,-16.523315430
1748602355.494630,29.143000000,0.000000000,333.357879639,0.000000000,0.000000000,-3.120827198,-82.119842529,0.000000000,-0.066000223,-16.523111343
1748602355.497043,29.146000000,0.000000000,333.357879639,0.000000000,0.000000000,-3.134329319,-78.175842285,0.000000000,-0.066000223,-16.523315430
1748602355.499406,29.148000000,0.000000000,333.357879639,0.000000000,0.000000000,-3.120827198,-82.121658325,0.000000000,-0.066000223,-16.523111343
1748602355.501755,29.150000000,0.000000000,333.357879639,0.000000000,0.000000000,-3.134329319,-78.126594543,0.000000000,-0.066000223,-16.523315430
1748602355.504140,29.153000000,0.000000000,333.357879639,0.000000000,0.000000000,-3.120827198,-82.170051575,0.000000000,-0.066000223,-16.523111343
1748602355.506521,29.155000000,0.000000000,333.357879639,0.000000000,0.000000000,-3.120827198,-79.932128906,0.000000000,-0.066000223,-16.523111343
1748602355.508920,29.158000000,0.000000000,333.357879639,0.000000000,0.000000000,-3.134329319,-78.137725830,0.000000000,-0.066000223,-16.523315430
1748602355.511376,29.160000000,0.000000000,333.357879639,0.000000000,0.000000000,-3.120827198,-82.132644653,0.000000000,-0.066000223,-16.523111343
1748602355.513767,29.162000000,0.000000000,333.357879639,0.000000000,0.000000000,-3.120827198,-79.932128906,0.000000000,-0.066000223,-16.523111343
1748602355.516229,29.165000000,0.000000000,333.357879639,0.000000000,0.000000000,-3.120827198,-79.932128906,0.000000000,-0.066000223,-16.523111343
1748602355.518681,29.167000000,0.000000000,333.357879639,0.000000000,0.000000000,-3.120827198,-79.932128906,0.000000000,-0.066000223,-16.523111343
1748602355.521120,29.170000000,0.000000000,333.357879639,0.000000000,0.000000000,-3.120827198,-79.932128906,0.000000000,-0.066000223,-16.523111343
1748602355.523568,29.172000000,0.000000000,333.357879639,0.000000000,0.000000000,-3.120827198,-79.932128906,0.000000000,-0.066000223,-16.523111343
1748602355.525998,29.175000000,0.000000000,333.357879639,0.000000000,0.000000000,-3.134329319,-78.192657471,0.000000000,-0.066000223,-16.523315430
1748602355.528412,29.177000000,0.000000000,333.357879639,0.000000000,0.000000000,-3.120827198,-82.133560181,0.000000000,-0.066000223,-16.523111343
1748602355.530797,29.179000000,0.000000000,333.357879639,0.000000000,0.000000000,-3.134329319,-78.158767700,0.000000000,-0.066000223,-16.523315430
1748602355.533227,29.182000000,0.000000000,333.357879639,0.000000000,0.000000000,-3.120827198,-82.135406494,0.000000000,-0.066000223,-16.523111343
1748602355.535758,29.184000000,0.000000000,333.357879639,0.000000000,0.000000000,-3.120827198,-79.932128906,0.000000000,-0.066000223,-16.523111343
1748602355.538108,29.187000000,0.000000000,333.357879639,0.000000000,0.000000000,-3.120827198,-79.932128906,0.000000000,-0.066000223,-16.523111343
1748602355.540499,29.189000000,0.000000000,333.357879639,0.000000000,0.000000000,-3.134329319,-78.165985107,0.000000000,-0.066000223,-16.523315430
1748602355.542901,29.192000000,0.000000000,333.357879639,0.000000000,0.000000000,-3.120827198,-82.136329651,0.000000000,-0.066000223,-16.523111343
1748602355.545261,29.194000000,0.000000000,333.357879639,0.000000000,0.000000000,-3.134329319,-78.134033203,0.000000000,-0.066000223,-16.523315430
1748602355.547636,29.196000000,0.000000000,333.357879639,0.000000000,0.000000000,-3.120827198,-82.146522522,0.000000000,-0.066000223,-16.523111343
1748602355.550023,29.199000000,0.000000000,333.357879639,0.000000000,0.000000000,-3.134329319,-78.137725830,0.000000000,-0.066000223,-16.523315430
1748602355.552402,29.201000000,0.000000000,333.357879639,0.000000000,0.000000000,-3.134329319,-80.342849731,0.000000000,-0.066000223,-16.523315430
1748602355.554806,29.203000000,0.000000000,333.357879639,0.000000000,0.000000000,-3.120827198,-82.150253296,0.000000000,-0.066000223,-16.523111343
1748602355.557170,29.206000000,0.000000000,333.357879639,0.000000000,0.000000000,-3.120827198,-109.932128906,0.000000000,-0.066000223,-16.523111343
1748602355.559571,29.208000000,0.000000000,333.357879639,0.000000000,0.000000000,-3.093827963,-113.553749084,0.000000000,-0.066000223,-16.522703171
1748602355.561993,29.211000000,0.000000000,333.357879639,0.000000000,0.000000000,-3.039827108,-116.294822693,0.000000000,-0.066000223,-16.521888733
1748602355.564395,29.213000000,0.000000000,333.357879639,0.000000000,0.000000000,-3.026324749,-109.235275269,0.000000000,-0.066000223,-16.521684647
1748602355.566823,29.215000000,0.000000000,333.357879639,0.000000000,0.000000000,-3.012825251,-108.827774048,0.000000000,-0.066000223,-16.521480560
1748602355.569200,29.218000000,0.000000000,333.357879639,0.000000000,0.000000000,-2.999325752,-108.417137146,0.000000000,-0.066000223,-16.521278381
1748602355.571657,29.220000000,0.000000000,333.357879639,0.000000000,0.000000000,-2.985823393,-108.021423340,0.000000000,-0.066000223,-16.521074295
1748602355.574121,29.223000000,0.000000000,333.357879639,0.000000000,0.000000000,-2.972323895,-107.561973572,0.000000000,-0.066000223,-16.520870209
1748602355.576565,29.225000000,0.000000000,333.357879639,0.000000000,0.000000000,-2.972323895,-105.414825439,0.000000000,-0.066000223,-16.520870209
1748602355.579038,29.228000000,0.000000000,333.357879639,0.000000000,0.000000000,-2.958824396,-107.130516052,0.000000000,-0.066000223,-16.520666122
1748602355.581490,29.230000000,0.000000000,333.357879639,0.000000000,0.000000000,-2.945324898,-106.747718811,0.000000000,-0.066000223,-16.520462036
1748602355.583996,29.233000000,0.000000000,333.357879639,0.000000000,0.000000000,-2.918323040,-108.114746094,0.000000000,-0.066000223,-16.520055771
1748602355.586306,29.235000000,0.000000000,333.357879639,0.000000000,0.000000000,-2.904823303,-105.465805054,0.000000000,-0.066000223,-16.519851685
1748602355.588716,29.237000000,0.000000000,333.357879639,0.000000000,0.000000000,-2.891321182,-105.171737671,0.000000000,-0.066000223,-16.519647598
1748602355.591095,29.240000000,0.000000000,333.357879639,0.000000000,0.000000000,-2.877821684,-104.716606140,0.000000000,-0.066000223,-16.519443512
1748602355.593479,29.242000000,0.000000000,333.357879639,0.000000000,0.000000000,-2.864322186,-104.339775085,0.000000000,-0.066000223,-16.519239426
1748602355.595883,29.245000000,0.000000000,333.357879639,0.000000000,0.000000000,-2.823820591,-107.539909363,0.000000000,-0.066000223,-16.518629074
1748602355.598244,29.247000000,0.000000000,333.357879639,0.000000000,0.000000000,-2.796818972,-104.422271729,0.000000000,-0.066000223,-16.518220901
1748602355.600616,29.249000000,0.000000000,333.357879639,0.000000000,0.000000000,-2.810321093,-98.248008728,0.000000000,-0.066000223,-16.518424988
1748602355.603025,29.252000000,0.000000000,333.357879639,0.000000000,0.000000000,-2.796818972,-102.297088623,0.000000000,-0.066000223,-16.518220901
1748602355.605413,29.254000000,0.000000000,333.357879639,0.000000000,0.000000000,-2.783319473,-101.842849731,0.000000000,-0.066000223,-16.518016815
1748602355.607803,29.256000000,0.000000000,333.357879639,0.000000000,0.000000000,-2.769819736,-101.449485779,0.000000000,-0.066000223,-16.517812729
1748602355.610185,29.259000000,0.000000000,333.357879639,0.000000000,0.000000000,-2.769819736,-69.254867554,0.000000000,-0.066000223,-16.517812729
1748602355.612545,29.261000000,0.000000000,333.357879639,0.000000000,0.000000000,-2.810321093,-63.861236572,0.000000000,-0.066000223,-16.518424988
1748602355.614970,29.264000000,0.000000000,333.357879639,0.000000000,0.000000000,-2.891321182,-59.525375366,0.000000000,-0.066000223,-16.519647598
1748602355.617374,29.266000000,0.000000000,333.357879639,0.000000000,0.000000000,-2.904823303,-71.186462402,0.000000000,-0.066000223,-16.519851685
1748602355.619750,29.268000000,0.000000000,333.357879639,0.000000000,0.000000000,-2.877821684,-76.927932739,0.000000000,-0.066000223,-16.519443512
1748602355.622122,29.271000000,0.000000000,333.357879639,0.000000000,0.000000000,-2.877821684,-72.540168762,0.000000000,-0.066000223,-16.519443512
1748602355.624510,29.273000000,0.000000000,333.357879639,0.000000000,0.000000000,-2.891321182,-70.734977722,0.000000000,-0.066000223,-16.519647598
1748602355.626961,29.276000000,0.000000000,333.357879639,0.000000000,0.000000000,-2.918323040,-69.338188171,0.000000000,-0.066000223,-16.520055771
1748602355.629446,29.278000000,0.000000000,333.357879639,0.000000000,0.000000000,-2.918323040,-73.772178650,0.000000000,-0.066000223,-16.520055771
1748602355.631856,29.281000000,0.000000000,333.357879639,0.000000000,0.000000000,-2.904823303,-75.488754272,0.000000000,-0.066000223,-16.519851685
1748602355.634307,29.283000000,0.000000000,333.357879639,0.000000000,0.000000000,-2.904823303,-73.361526489,0.000000000,-0.066000223,-16.519851685
1748602355.636746,29.285000000,0.000000000,333.357879639,0.000000000,0.000000000,-2.904823303,-73.361526489,0.000000000,-0.066000223,-16.519851685
1748602355.639132,29.288000000,0.000000000,333.357879639,0.000000000,0.000000000,-2.931822538,-69.877952576,0.000000000,-0.066000223,-16.520257950
1748602355.641515,29.290000000,0.000000000,333.357879639,0.000000000,0.000000000,-2.958824396,-70.620033264,0.000000000,-0.066000223,-16.520666122
1748602355.643929,29.293000000,0.000000000,333.357879639,0.000000000,0.000000000,-2.958824396,-75.004180908,0.000000000,-0.066000223,-16.520666122
1748602355.646338,29.295000000,0.000000000,333.357879639,0.000000000,0.000000000,-2.945324898,-76.801933289,0.000000000,-0.066000223,-16.520462036
1748602355.648777,29.297000000,0.000000000,333.357879639,0.000000000,0.000000000,-2.945324898,-74.593544006,0.000000000,-0.066000223,-16.520462036
1748602355.651190,29.300000000,0.000000000,333.357879639,0.000000000,0.000000000,-2.945324898,-74.593544006,0.000000000,-0.066000223,-16.520462036
1748602355.653576,29.302000000,0.000000000,333.357879639,0.000000000,0.000000000,-2.945324898,-74.593544006,0.000000000,-0.066000223,-16.520462036
1748602355.655951,29.305000000,0.000000000,333.357879639,0.000000000,0.000000000,-2.945324898,-74.593544006,0.000000000,-0.066000223,-16.520462036
1748602355.658338,29.307000000,0.000000000,333.357879639,0.000000000,0.000000000,-2.931822538,-76.386131287,0.000000000,-0.066000223,-16.520257950
1748602355.660782,29.309000000,0.000000000,333.357879639,0.000000000,0.000000000,-2.918323040,-105.977790833,0.000000000,-0.066000223,-16.520055771
1748602355.663162,29.312000000,0.000000000,333.357879639,0.000000000,0.000000000,-2.837320328,-114.427368164,0.000000000,-0.066000223,-16.518831253
1748602355.665565,29.314000000,0.000000000,333.357879639,0.000000000,0.000000000,-2.715818882,-117.530487061,0.000000000,-0.066000223,-16.516998291
1748602355.667939,29.317000000,0.000000000,333.357879639,0.000000000,0.000000000,-2.675317526,-102.937103271,0.000000000,-0.066000223,-16.516386032
1748602355.670326,29.319000000,0.000000000,333.357879639,0.000000000,0.000000000,-2.702316761,-92.799453735,0.000000000,-0.066000223,-16.516794205
1748602355.672711,29.321000000,0.000000000,333.357879639,0.000000000,0.000000000,-2.729318380,-93.627777100,0.000000000,-0.066000223,-16.517200470
1748602355.675121,29.324000000,0.000000000,333.357879639,0.000000000,0.000000000,-2.729318380,-98.022865295,0.000000000,-0.066000223,-16.517200470
1748602355.677516,29.326000000,0.000000000,333.357879639,0.000000000,0.000000000,-2.702316761,-101.576499939,0.000000000,-0.066000223,-16.516794205
1748602355.679967,29.329000000,0.000000000,333.357879639,0.000000000,0.000000000,-2.648315668,-104.352340698,0.000000000,-0.066000223,-16.515977859
1748602355.682462,29.331000000,0.000000000,333.357879639,0.000000000,0.000000000,-2.634816170,-97.323745728,0.000000000,-0.066000223,-16.515775681
1748602355.685119,29.334000000,0.000000000,333.357879639,0.000000000,0.000000000,-2.634816170,-95.148208618,0.000000000,-0.066000223,-16.515775681
1748602355.687403,29.336000000,0.000000000,333.357879639,0.000000000,0.000000000,-2.607814312,-98.454917908,0.000000000,-0.066000223,-16.515367508
1748602355.689754,29.338000000,0.000000000,333.357879639,0.000000000,0.000000000,-2.567312956,-99.587036133,0.000000000,-0.066000223,-16.514755249
1748602355.692101,29.341000000,0.000000000,333.357879639,0.000000000,0.000000000,-2.553813457,-94.918830872,0.000000000,-0.066000223,-16.514553070
1748602355.694436,29.343000000,0.000000000,333.357879639,0.000000000,0.000000000,-2.553813457,-92.684196472,0.000000000,-0.066000223,-16.514553070
1748602355.696795,29.345000000,0.000000000,333.357879639,0.000000000,0.000000000,-2.526814461,-96.364669800,0.000000000,-0.066000223,-16.514144897
1748602355.699161,29.348000000,0.000000000,333.357879639,0.000000000,0.000000000,-2.513312101,-93.689193726,0.000000000,-0.066000223,-16.513940811
1748602355.701528,29.350000000,0.000000000,333.357879639,0.000000000,0.000000000,-2.486312866,-95.083198547,0.000000000,-0.066000223,-16.513532639
1748602355.703914,29.353000000,0.000000000,333.357879639,0.000000000,0.000000000,-2.472810745,-92.442993164,0.000000000,-0.066000223,-16.513328552
1748602355.706303,29.355000000,0.000000000,333.357879639,0.000000000,0.000000000,-2.472810745,-90.220184326,0.000000000,-0.066000223,-16.513328552
1748602355.708704,29.357000000,0.000000000,333.357879639,0.000000000,0.000000000,-2.472810745,-90.220184326,0.000000000,-0.066000223,-16.513328552
1748602355.711103,29.360000000,0.000000000,333.357879639,0.000000000,0.000000000,-2.472810745,-90.220184326,0.000000000,-0.066000223,-16.513328552
1748602355.713478,29.362000000,0.000000000,333.357879639,0.000000000,0.000000000,-2.472810745,-90.220184326,0.000000000,-0.066000223,-16.513328552
1748602355.715895,29.365000000,0.000000000,333.357879639,0.000000000,0.000000000,-2.472810745,-90.220184326,0.000000000,-0.066000223,-16.513328552
1748602355.718289,29.367000000,0.000000000,333.357879639,0.000000000,0.000000000,-2.472810745,-90.220184326,0.000000000,-0.066000223,-16.513328552
1748602355.720699,29.369000000,0.000000000,333.357879639,0.000000000,0.000000000,-2.472810745,-90.220184326,0.000000000,-0.066000223,-16.513328552
1748602355.723156,29.372000000,0.000000000,333.357879639,0.000000000,0.000000000,-2.459311247,-91.979698181,0.000000000,-0.066000223,-16.513126373
1748602355.725569,29.374000000,0.000000000,333.357879639,0.000000000,0.000000000,-2.459311247,-89.809539795,0.000000000,-0.066000223,-16.513126373
1748602355.728071,29.377000000,0.000000000,333.357879639,0.000000000,0.000000000,-2.459311247,-89.809539795,0.000000000,-0.066000223,-16.513126373
1748602355.730520,29.379000000,0.000000000,333.357879639,0.000000000,0.000000000,-2.459311247,-89.809539795,0.000000000,-0.066000223,-16.513126373
1748602355.732925,29.382000000,0.000000000,333.357879639,0.000000000,0.000000000,-2.459311247,-89.809539795,0.000000000,-0.066000223,-16.513126373
1748602355.735277,29.384000000,0.000000000,333.357879639,0.000000000,0.000000000,-2.445811749,-91.593482971,0.000000000,-0.066000223,-16.512922287
1748602355.737662,29.386000000,0.000000000,333.357879639,0.000000000,0.000000000,-2.432312012,-91.210670471,0.000000000,-0.066000223,-16.512718201
1748602355.740042,29.389000000,0.000000000,333.357879639,0.000000000,0.000000000,-2.391810656,-94.362495422,0.000000000,-0.066000223,-16.512105942
1748602355.742438,29.391000000,0.000000000,333.357879639,0.000000000,0.000000000,-2.391810656,-87.756248474,0.000000000,-0.066000223,-16.512105942
1748602355.744890,29.394000000,0.000000000,333.357879639,0.000000000,0.000000000,-2.391810656,-87.756248474,0.000000000,-0.066000223,-16.512105942
1748602355.747216,29.396000000,0.000000000,333.357879639,0.000000000,0.000000000,-2.391810656,-87.756248474,0.000000000,-0.066000223,-16.512105942
1748602355.749631,29.398000000,0.000000000,333.357879639,0.000000000,0.000000000,-2.391810656,-87.756248474,0.000000000,-0.066000223,-16.512105942
1748602355.752036,29.401000000,0.000000000,333.357879639,0.000000000,0.000000000,-2.378308535,-89.540534973,0.000000000,-0.066000223,-16.511903763
1748602355.754414,29.403000000,0.000000000,333.357879639,0.000000000,0.000000000,-2.364809036,-89.119453430,0.000000000,-0.066000223,-16.511697769
1748602355.756801,29.405000000,0.000000000,333.357879639,0.000000000,0.000000000,-2.351309299,-88.734519958,0.000000000,-0.066000223,-16.511495590
1748602355.759173,29.408000000,0.000000000,333.357879639,0.000000000,0.000000000,-2.324307442,-90.123832703,0.000000000,-0.066000223,-16.511087418
1748602355.761565,29.410000000,0.000000000,333.357879639,0.000000000,0.000000000,-2.297308445,-89.285446167,0.000000000,-0.066000223,-16.510681152
1748602355.763961,29.413000000,0.000000000,333.357879639,0.000000000,0.000000000,-2.283806324,-86.680625916,0.000000000,-0.066000223,-16.510475159
1748602355.766396,29.415000000,0.000000000,333.357879639,0.000000000,0.000000000,-2.270306587,-86.239402771,0.000000000,-0.066000223,-16.510272980
1748602355.768772,29.417000000,0.000000000,333.357879639,0.000000000,0.000000000,-2.256807089,-85.828727722,0.000000000,-0.066000223,-16.510068893
1748602355.771183,29.420000000,0.000000000,333.357879639,0.000000000,0.000000000,-2.243304729,-85.457023621,0.000000000,-0.066000223,-16.509864807
1748602355.773589,29.422000000,0.000000000,333.357879639,0.000000000,0.000000000,-2.243304729,-83.238861084,0.000000000,-0.066000223,-16.509864807
1748602355.776010,29.425000000,0.000000000,333.357879639,0.000000000,0.000000000,-2.229805231,-85.016418457,0.000000000,-0.066000223,-16.509660721
1748602355.778435,29.427000000,0.000000000,333.357879639,0.000000000,0.000000000,-2.216305733,-84.596717834,0.000000000,-0.066000223,-16.509456635
1748602355.780766,29.429000000,0.000000000,333.357879639,0.000000000,0.000000000,-2.202806234,-84.183380127,0.000000000,-0.066000223,-16.509252548
1748602355.783120,29.432000000,0.000000000,333.357879639,0.000000000,0.000000000,-2.189303875,-83.817184448,0.000000000,-0.066000223,-16.509050369
1748602355.785483,29.434000000,0.000000000,333.357879639,0.000000000,0.000000000,-2.189303875,-81.596214294,0.000000000,-0.066000223,-16.509050369
1748602355.787879,29.437000000,0.000000000,333.357879639,0.000000000,0.000000000,-2.175804377,-83.405143738,0.000000000,-0.066000223,-16.508846283
1748602355.790262,29.439000000,0.000000000,333.357879639,0.000000000,0.000000000,-2.175804377,-81.185577393,0.000000000,-0.066000223,-16.508846283
1748602355.792702,29.441000000,0.000000000,333.357879639,0.000000000,0.000000000,-2.162304878,-82.980545044,0.000000000,-0.066000223,-16.508642197
1748602355.795062,29.444000000,0.000000000,333.357879639,0.000000000,0.000000000,-2.162304878,-80.774932861,0.000000000,-0.066000223,-16.508642197
1748602355.797430,29.446000000,0.000000000,333.357879639,0.000000000,0.000000000,-2.162304878,-80.774932861,0.000000000,-0.066000223,-16.508642197
1748602355.799893,29.449000000,0.000000000,333.357879639,0.000000000,0.000000000,-2.148802519,-82.583305359,0.000000000,-0.066000223,-16.508438110
1748602355.802316,29.451000000,0.000000000,333.357879639,0.000000000,0.000000000,-2.148802519,-80.364204407,0.000000000,-0.066000223,-16.508438110
1748602355.804708,29.453000000,0.000000000,333.357879639,0.000000000,0.000000000,-2.148802519,-80.364204407,0.000000000,-0.066000223,-16.508438110
1748602355.807091,29.456000000,0.000000000,333.357879639,0.000000000,0.000000000,-2.135303020,-82.149063110,0.000000000,-0.066000223,-16.508234024
1748602355.809476,29.458000000,0.000000000,333.357879639,0.000000000,0.000000000,-2.135303020,-79.953567505,0.000000000,-0.066000223,-16.508234024
1748602355.811900,29.461000000,0.000000000,333.357879639,0.000000000,0.000000000,-2.135303020,-79.953567505,0.000000000,-0.066000223,-16.508234024
1748602355.814277,29.463000000,0.000000000,333.357879639,0.000000000,0.000000000,-2.121803522,-81.728401184,0.000000000,-0.066000223,-16.508029938
1748602355.816813,29.465000000,0.000000000,333.357879639,0.000000000,0.000000000,-2.094801664,-83.120361328,0.000000000,-0.066000223,-16.507623672
1748602355.819247,29.468000000,0.000000000,333.357879639,0.000000000,0.000000000,-2.081302166,-80.381233215,0.000000000,-0.066000223,-16.507419586
1748602355.821680,29.470000000,0.000000000,333.357879639,0.000000000,0.000000000,-2.081302166,-78.310920715,0.000000000,-0.066000223,-16.507419586
1748602355.824097,29.473000000,0.000000000,333.357879639,0.000000000,0.000000000,-2.094801664,-76.565620422,0.000000000,-0.066000223,-16.507623672
1748602355.826587,29.475000000,0.000000000,333.357879639,0.000000000,0.000000000,-2.081302166,-80.490966797,0.000000000,-0.066000223,-16.507419586
1748602355.829059,29.478000000,0.000000000,333.357879639,0.000000000,0.000000000,-2.081302166,-78.310920715,0.000000000,-0.066000223,-16.507419586
1748602355.831537,29.480000000,0.000000000,333.357879639,0.000000000,0.000000000,-2.081302166,-48.310920715,0.000000000,-0.066000223,-16.507419586
1748602355.833981,29.483000000,0.000000000,333.357879639,0.000000000,0.000000000,-2.121803522,-43.140201569,0.000000000,-0.066000223,-16.508029938
1748602355.836445,29.485000000,0.000000000,333.357879639,0.000000000,0.000000000,-2.175804377,-42.571945190,0.000000000,-0.066000223,-16.508846283
1748602355.838914,29.488000000,0.000000000,333.357879639,0.000000000,0.000000000,-2.189303875,-49.486068726,0.000000000,-0.066000223,-16.509050369
1748602355.841453,29.490000000,0.000000000,333.357879639,0.000000000,0.000000000,-2.175804377,-53.305915833,0.000000000,-0.066000223,-16.508846283
1748602355.843903,29.493000000,0.000000000,333.357879639,0.000000000,0.000000000,-2.162304878,-52.875808716,0.000000000,-0.066000223,-16.508642197
1748602355.846271,29.495000000,0.000000000,333.357879639,0.000000000,0.000000000,-2.175804377,-49.059242249,0.000000000,-0.066000223,-16.508846283
1748602355.848661,29.497000000,0.000000000,333.357879639,0.000000000,0.000000000,-2.175804377,-51.185577393,0.000000000,-0.066000223,-16.508846283
1748602355.851044,29.500000000,0.000000000,333.357879639,0.000000000,0.000000000,-2.189303875,-49.400718689,0.000000000,-0.066000223,-16.509050369
1748602355.853422,29.502000000,0.000000000,333.357879639,0.000000000,0.000000000,-2.189303875,-51.596214294,0.000000000,-0.066000223,-16.509050369
1748602355.855797,29.504000000,0.000000000,333.357879639,0.000000000,0.000000000,-2.189303875,-51.596214294,0.000000000,-0.066000223,-16.509050369
1748602355.858175,29.507000000,0.000000000,333.357879639,0.000000000,0.000000000,-2.189303875,-51.596214294,0.000000000,-0.066000223,-16.509050369
1748602355.860574,29.509000000,0.000000000,333.357879639,0.000000000,0.000000000,-2.202806234,-49.794372559,0.000000000,-0.066000223,-16.509252548
1748602355.862989,29.512000000,0.000000000,333.357879639,0.000000000,0.000000000,-2.229805231,-48.426212311,0.000000000,-0.066000223,-16.509660721
1748602355.865394,29.514000000,0.000000000,333.357879639,0.000000000,0.000000000,-2.243304729,-51.038772583,0.000000000,-0.066000223,-16.509864807
1748602355.867825,29.516000000,0.000000000,333.357879639,0.000000000,0.000000000,-2.243304729,-53.238861084,0.000000000,-0.066000223,-16.509864807
1748602355.870233,29.519000000,0.000000000,333.357879639,0.000000000,0.000000000,-2.243304729,-53.238861084,0.000000000,-0.066000223,-16.509864807
1748602355.872692,29.521000000,0.000000000,333.357879639,0.000000000,0.000000000,-2.256807089,-51.461837769,0.000000000,-0.066000223,-16.510068893
1748602355.875107,29.524000000,0.000000000,333.357879639,0.000000000,0.000000000,-2.270306587,-51.911323547,0.000000000,-0.066000223,-16.510272980
1748602355.877509,29.526000000,0.000000000,333.357879639,0.000000000,0.000000000,-2.270306587,-54.060226440,0.000000000,-0.066000223,-16.510272980
1748602355.879858,29.529000000,0.000000000,333.357879639,0.000000000,0.000000000,-2.270306587,-54.060226440,0.000000000,-0.066000223,-16.510272980
1748602355.882263,29.531000000,0.000000000,333.357879639,0.000000000,0.000000000,-2.270306587,-54.060226440,0.000000000,-0.066000223,-16.510272980
1748602355.884598,29.533000000,0.000000000,333.357879639,0.000000000,0.000000000,-2.270306587,-54.060226440,0.000000000,-0.066000223,-16.510272980
1748602355.886966,29.536000000,0.000000000,333.357879639,0.000000000,0.000000000,-2.270306587,-54.060226440,0.000000000,-0.066000223,-16.510272980
1748602355.889331,29.538000000,0.000000000,333.357879639,0.000000000,0.000000000,-2.270306587,-54.060226440,0.000000000,-0.066000223,-16.510272980
1748602355.891702,29.540000000,0.000000000,333.357879639,0.000000000,0.000000000,-2.270306587,-54.060226440,0.000000000,-0.066000223,-16.510272980
1748602355.894078,29.543000000,0.000000000,333.357879639,0.000000000,0.000000000,-2.270306587,-54.060226440,0.000000000,-0.066000223,-16.510272980
1748602355.896461,29.545000000,0.000000000,333.357879639,0.000000000,0.000000000,-2.270306587,-54.060226440,0.000000000,-0.066000223,-16.510272980
1748602355.898848,29.548000000,0.000000000,333.357879639,0.000000000,0.000000000,-2.270306587,-54.060226440,0.000000000,-0.066000223,-16.510272980
1748602355.901263,29.550000000,0.000000000,333.357879639,0.000000000,0.000000000,-2.270306587,-54.060226440,0.000000000,-0.066000223,-16.510272980
1748602355.903625,29.552000000,0.000000000,333.357879639,0.000000000,0.000000000,-2.270306587,-54.060226440,0.000000000,-0.066000223,-16.510272980
1748602355.905991,29.555000000,0.000000000,333.357879639,0.000000000,0.000000000,-2.270306587,-54.060226440,0.000000000,-0.066000223,-16.510272980
1748602355.908428,29.557000000,0.000000000,333.357879639,0.000000000,0.000000000,-2.270306587,-54.060226440,0.000000000,-0.066000223,-16.510272980
1748602355.910933,29.560000000,0.000000000,333.357879639,0.000000000,0.000000000,-2.270306587,-54.060226440,0.000000000,-0.066000223,-16.510272980
1748602355.913353,29.562000000,0.000000000,333.357879639,0.000000000,0.000000000,-2.270306587,-54.060226440,0.000000000,-0.066000223,-16.510272980
1748602355.915795,29.564000000,0.000000000,333.357879639,0.000000000,0.000000000,-2.270306587,-54.060226440,0.000000000,-0.066000223,-16.510272980
1748602355.918144,29.567000000,0.000000000,333.357879639,0.000000000,0.000000000,-2.270306587,-54.060226440,0.000000000,-0.066000223,-16.510272980
1748602355.920496,29.569000000,0.000000000,333.357879639,0.000000000,0.000000000,-2.270306587,-54.060226440,0.000000000,-0.066000223,-16.510272980
1748602355.922868,29.572000000,0.000000000,333.357879639,0.000000000,0.000000000,-2.297308445,-50.434494019,0.000000000,-0.066000223,-16.510681152
1748602355.925246,29.574000000,0.000000000,333.357879639,0.000000000,0.000000000,-2.310807943,-53.067047119,0.000000000,-0.066000223,-16.510883331
1748602355.927639,29.576000000,0.000000000,333.357879639,0.000000000,0.000000000,-2.337807178,-51.674362183,0.000000000,-0.066000223,-16.511291504
1748602355.930078,29.579000000,0.000000000,333.357879639,0.000000000,0.000000000,-2.351309299,-54.349174500,0.000000000,-0.066000223,-16.511495590
1748602355.932469,29.581000000,0.000000000,333.357879639,0.000000000,0.000000000,-2.378308535,-52.985404968,0.000000000,-0.066000223,-16.511903763
1748602355.934877,29.584000000,0.000000000,333.357879639,0.000000000,0.000000000,-2.405310154,-53.762603760,0.000000000,-0.066000223,-16.512311935
1748602355.937246,29.586000000,0.000000000,333.357879639,0.000000000,0.000000000,-2.432312012,-54.607757568,0.000000000,-0.066000223,-16.512718201
1748602355.939625,29.588000000,0.000000000,333.357879639,0.000000000,0.000000000,-2.445811749,-57.183967590,0.000000000,-0.066000223,-16.512922287
1748602355.942017,29.591000000,0.000000000,333.357879639,0.000000000,0.000000000,-2.459311247,-57.597434998,0.000000000,-0.066000223,-16.513126373
1748602355.944412,29.593000000,0.000000000,333.357879639,0.000000000,0.000000000,-2.499812603,-54.415908813,0.000000000,-0.066000223,-16.513736725
1748602355.946835,29.596000000,0.000000000,333.357879639,0.000000000,0.000000000,-2.540313959,-55.700294495,0.000000000,-0.066000223,-16.514348984
1748602355.949284,29.598000000,0.000000000,333.357879639,0.000000000,0.000000000,-2.567312956,-58.736549377,0.000000000,-0.066000223,-16.514755249
1748602355.951666,29.600000000,0.000000000,333.357879639,0.000000000,0.000000000,-2.567312956,-63.094833374,0.000000000,-0.066000223,-16.514755249
1748602355.954046,29.603000000,0.000000000,333.357879639,0.000000000,0.000000000,-2.594314814,-59.517402649,0.000000000,-0.066000223,-16.515163422
1748602355.956435,29.605000000,0.000000000,333.357879639,0.000000000,0.000000000,-2.634816170,-58.474983215,0.000000000,-0.066000223,-16.515775681
1748602355.958868,29.608000000,0.000000000,333.357879639,0.000000000,0.000000000,-2.675317526,-59.768447876,0.000000000,-0.066000223,-16.516386032
1748602355.961246,29.610000000,0.000000000,333.357879639,0.000000000,0.000000000,-2.702316761,-62.841377258,0.000000000,-0.066000223,-16.516794205
1748602355.963649,29.612000000,0.000000000,333.357879639,0.000000000,0.000000000,-2.715818882,-65.415382385,0.000000000,-0.066000223,-16.516998291
1748602355.966051,29.615000000,0.000000000,333.357879639,0.000000000,0.000000000,-2.742817879,-64.057106018,0.000000000,-0.066000223,-16.517406464
1748602355.968460,29.617000000,0.000000000,333.357879639,0.000000000,0.000000000,-2.769819736,-64.874366760,0.000000000,-0.066000223,-16.517812729
1748602355.970840,29.620000000,0.000000000,333.357879639,0.000000000,0.000000000,-2.783319473,-67.476364136,0.000000000,-0.066000223,-16.518016815
1748602355.973227,29.622000000,0.000000000,333.357879639,0.000000000,0.000000000,-2.796818972,-67.868690491,0.000000000,-0.066000223,-16.518220901
1748602355.975627,29.624000000,0.000000000,333.357879639,0.000000000,0.000000000,-2.810321093,-68.278060913,0.000000000,-0.066000223,-16.518424988
1748602355.978044,29.627000000,0.000000000,333.357879639,0.000000000,0.000000000,-2.837320328,-66.942611694,0.000000000,-0.066000223,-16.518831253
1748602355.980455,29.629000000,0.000000000,333.357879639,0.000000000,0.000000000,-2.837320328,-71.308158875,0.000000000,-0.066000223,-16.518831253
1748602355.982887,29.632000000,0.000000000,333.357879639,0.000000000,0.000000000,-2.837320328,-71.308158875,0.000000000,-0.066000223,-16.518831253
1748602355.985270,29.634000000,0.000000000,333.357879639,0.000000000,0.000000000,-2.837320328,-71.308158875,0.000000000,-0.066000223,-16.518831253
1748602355.987687,29.636000000,0.000000000,333.357879639,0.000000000,0.000000000,-2.837320328,-71.308158875,0.000000000,-0.066000223,-16.518831253
1748602355.990063,29.639000000,0.000000000,333.357879639,0.000000000,0.000000000,-2.850822449,-69.543815613,0.000000000,-0.066000223,-16.519035339
1748602355.992443,29.641000000,0.000000000,333.357879639,0.000000000,0.000000000,-2.877821684,-68.121490479,0.000000000,-0.066000223,-16.519443512
1748602355.994841,29.644000000,0.000000000,333.357879639,0.000000000,0.000000000,-2.904823303,-68.931304932,0.000000000,-0.056998730,-14.761689186
1748602355.997322,29.646000000,0.000000000,333.357879639,0.000000000,0.000000000,-2.904823303,-73.361526489,0.000000000,-0.056998730,-14.712181091
1748602355.999758,29.648000000,0.000000000,333.357879639,0.000000000,0.000000000,-2.918323040,-71.608222961,0.000000000,-0.056998730,-14.667867661
1748602356.002164,29.651000000,0.000000000,333.357879639,0.000000000,0.000000000,-2.918323040,-73.772178650,0.000000000,-0.056998730,-14.627758980
1748602356.004619,29.653000000,0.000000000,333.357879639,0.000000000,0.000000000,-2.931822538,-71.990974426,0.000000000,-0.056998730,-14.591891289
1748602356.007009,29.656000000,0.000000000,333.357879639,0.000000000,0.000000000,-2.958824396,-70.634582520,0.000000000,-0.056998730,-14.559848785
1748602356.009436,29.658000000,0.000000000,333.357879639,0.000000000,0.000000000,-2.985823393,-71.468986511,0.000000000,-0.056998730,-14.531035423
1748602356.011885,29.661000000,0.000000000,333.357879639,0.000000000,0.000000000,-2.999325752,-74.047531128,0.000000000,-0.056998730,-14.504914284
1748602356.014501,29.663000000,0.000000000,333.357879639,0.000000000,0.000000000,-3.012825251,-74.488235474,0.000000000,-0.056998730,-14.481418610
1748602356.016935,29.666000000,0.000000000,333.357879639,0.000000000,0.000000000,-3.053326607,-71.742271423,0.000000000,-0.056998730,-14.460703850
1748602356.019260,29.668000000,0.000000000,333.357879639,0.000000000,0.000000000,-3.080325603,-74.467956543,0.000000000,-0.056998730,-14.441897392
1748602356.021648,29.670000000,0.000000000,333.357879639,0.000000000,0.000000000,-3.120827198,-73.204864502,0.000000000,-0.056998730,-14.425204277
1748602356.024022,29.673000000,0.000000000,333.357879639,0.000000000,0.000000000,-3.134329319,-78.150581360,0.000000000,-0.056998730,-14.409826279
1748602356.026423,29.675000000,0.000000000,333.357879639,0.000000000,0.000000000,-3.134329319,-80.342849731,0.000000000,-0.056998730,-14.395803452
1748602356.028791,29.677000000,0.000000000,333.357879639,0.000000000,0.000000000,-3.147828817,-78.552482605,0.000000000,-0.056998730,-14.383378983
1748602356.031203,29.680000000,0.000000000,333.357879639,0.000000000,0.000000000,-3.188330173,-75.320716858,0.000000000,-0.066000223,-16.127828598
1748602356.033566,29.682000000,0.000000000,333.357879639,0.000000000,0.000000000,-3.255830765,-73.047042847,0.000000000,-0.066000223,-16.168178558
1748602356.035958,29.685000000,0.000000000,333.357879639,0.000000000,0.000000000,-3.269332886,-82.237907410,0.000000000,-0.066000223,-16.204027176
1748602356.038333,29.687000000,0.000000000,333.357879639,0.000000000,0.000000000,-3.269332886,-84.449508667,0.000000000,-0.066000223,-16.236160278
1748602356.040707,29.689000000,0.000000000,333.357879639,0.000000000,0.000000000,-3.296332121,-80.837242126,0.000000000,-0.066000223,-16.265398026
1748602356.043140,29.692000000,0.000000000,333.357879639,0.000000000,0.000000000,-3.350332975,-78.049667358,0.000000000,-0.066000223,-16.292095184
1748602356.045553,29.694000000,0.000000000,333.357879639,0.000000000,0.000000000,-3.377334833,-83.434799194,0.000000000,-0.066000223,-16.315879822
1748602356.047969,29.697000000,0.000000000,333.357879639,0.000000000,0.000000000,-3.390834332,-85.949035645,0.000000000,-0.066000223,-16.337162018
1748602356.050395,29.699000000,0.000000000,333.357879639,0.000000000,0.000000000,-3.390834332,-88.145446777,0.000000000,-0.066000223,-16.356164932
1748602356.052797,29.701000000,0.000000000,333.357879639,0.000000000,0.000000000,-3.417836189,-84.618865967,0.000000000,-0.066000223,-16.373624802
1748602356.055187,29.704000000,0.000000000,333.357879639,0.000000000,0.000000000,-3.444835186,-85.404411316,0.000000000,-0.066000223,-16.389383316
1748602356.057567,29.706000000,0.000000000,333.357879639,0.000000000,0.000000000,-3.485336542,-84.435890198,0.000000000,-0.066000223,-16.403793335
1748602356.059947,29.709000000,0.000000000,333.357879639,0.000000000,0.000000000,-3.485336542,-91.020103455,0.000000000,-0.066000223,-16.416275024
1748602356.062346,29.711000000,0.000000000,333.357879639,0.000000000,0.000000000,-3.498836040,-89.240722656,0.000000000,-0.066000223,-16.427696228
1748602356.064778,29.713000000,0.000000000,333.357879639,0.000000000,0.000000000,-3.525837898,-87.842254639,0.000000000,-0.066000223,-16.438186646
1748602356.067306,29.716000000,0.000000000,333.357879639,0.000000000,0.000000000,-3.566339254,-86.940811157,0.000000000,-0.066000223,-16.447860718
1748602356.069710,29.718000000,0.000000000,333.357879639,0.000000000,0.000000000,-3.579838753,-91.784606934,0.000000000,-0.066000223,-16.456251144
1748602356.072076,29.721000000,0.000000000,333.357879639,0.000000000,0.000000000,-3.579838753,-93.894752502,0.000000000,-0.066000223,-16.463630676
1748602356.074438,29.723000000,0.000000000,333.357879639,0.000000000,0.000000000,-3.579838753,-93.894752502,0.000000000,-0.066000223,-16.470272064
1748602356.076793,29.725000000,0.000000000,333.357879639,0.000000000,0.000000000,-3.579838753,-93.894752502,0.000000000,-0.066000223,-16.476249695
1748602356.079131,29.728000000,0.000000000,333.357879639,0.000000000,0.000000000,-3.593341112,-92.070373535,0.000000000,-0.066000223,-16.481822968
1748602356.081482,29.730000000,0.000000000,333.357879639,0.000000000,0.000000000,-3.606840611,-122.464286804,0.000000000,-0.066000223,-16.486862183
1748602356.083862,29.733000000,0.000000000,333.357879639,0.000000000,0.000000000,-3.552839756,-132.027709961,0.000000000,-0.066000223,-16.490432739
1748602356.086253,29.735000000,0.000000000,333.357879639,0.000000000,0.000000000,-3.485336542,-132.062988281,0.000000000,-0.066000223,-16.493360519
1748602356.088670,29.737000000,0.000000000,333.357879639,0.000000000,0.000000000,-3.458337545,-124.623023987,0.000000000,-0.066000223,-16.496488571
1748602356.091045,29.740000000,0.000000000,333.357879639,0.000000000,0.000000000,-3.458337545,-120.198822021,0.000000000,-0.066000223,-16.499660492
1748602356.093376,29.742000000,0.000000000,333.357879639,0.000000000,0.000000000,-3.458337545,-120.198822021,0.000000000,-0.066000223,-16.502515793
1748602356.095768,29.744000000,0.000000000,333.357879639,0.000000000,0.000000000,-3.471837044,-118.382385254,0.000000000,-0.066000223,-16.505285263
1748602356.098183,29.747000000,0.000000000,333.357879639,0.000000000,0.000000000,-3.471837044,-120.609458923,0.000000000,-0.066000223,-16.507598877
1748602356.100665,29.749000000,0.000000000,333.357879639,0.000000000,0.000000000,-3.458337545,-122.349479675,0.000000000,-0.066000223,-16.509477615
1748602356.103123,29.752000000,0.000000000,333.357879639,0.000000000,0.000000000,-3.458337545,-120.198822021,0.000000000,-0.066000223,-16.511350632
1748602356.105607,29.754000000,0.000000000,333.357879639,0.000000000,0.000000000,-3.458337545,-120.198822021,0.000000000,-0.066000223,-16.513034821
1748602356.108062,29.757000000,0.000000000,333.357879639,0.000000000,0.000000000,-3.458337545,-120.198822021,0.000000000,-0.066000223,-16.514553070
1748602356.110517,29.759000000,0.000000000,333.357879639,0.000000000,0.000000000,-3.458337545,-120.198822021,0.000000000,-0.066000223,-16.515918732
1748602356.112916,29.762000000,0.000000000,333.357879639,0.000000000,0.000000000,-3.458337545,-120.198822021,0.000000000,-0.066000223,-16.517147064
1748602356.115325,29.764000000,0.000000000,333.357879639,0.000000000,0.000000000,-3.458337545,-120.198822021,0.000000000,-0.066000223,-16.518253326
1748602356.117818,29.766000000,0.000000000,333.357879639,0.000000000,0.000000000,-3.458337545,-120.198822021,0.000000000,-0.066000223,-16.519248962
1748602356.120246,29.769000000,0.000000000,333.357879639,0.000000000,0.000000000,-3.458337545,-120.198822021,0.000000000,-0.066000223,-16.520143509
1748602356.122694,29.771000000,0.000000000,333.357879639,0.000000000,0.000000000,-3.458337545,-120.198822021,0.000000000,-0.066000223,-16.520950317
1748602356.125064,29.774000000,0.000000000,333.357879639,0.000000000,0.000000000,-3.458337545,-120.198822021,0.000000000,-0.066000223,-16.521675110
1748602356.127438,29.776000000,0.000000000,333.357879639,0.000000000,0.000000000,-3.458337545,-120.198822021,0.000000000,-0.066000223,-16.522329330
1748602356.129863,29.778000000,0.000000000,333.357879639,0.000000000,0.000000000,-3.458337545,-120.198822021,0.000000000,-0.066000223,-16.522916794
1748602356.132317,29.781000000,0.000000000,333.357879639,0.000000000,0.000000000,-3.458337545,-120.198822021,0.000000000,-0.066000223,-16.523445129
1748602356.134719,29.783000000,0.000000000,333.357879639,0.000000000,0.000000000,-3.458337545,-120.198822021,0.000000000,-0.066000223,-16.523921967
1748602356.137090,29.786000000,0.000000000,333.357879639,0.000000000,0.000000000,-3.471837044,-118.410293579,0.000000000,-0.066000223,-16.524555206
1748602356.139470,29.788000000,0.000000000,333.357879639,0.000000000,0.000000000,-3.471837044,-120.609458923,0.000000000,-0.066000223,-16.524940491
1748602356.141913,29.791000000,0.000000000,333.357879639,0.000000000,0.000000000,-3.471837044,-120.609458923,0.000000000,-0.066000223,-16.525287628
1748602356.144420,29.793000000,0.000000000,333.357879639,0.000000000,0.000000000,-3.471837044,-120.609458923,0.000000000,-0.066000223,-16.525600433
1748602356.146810,29.795000000,0.000000000,333.357879639,0.000000000,0.000000000,-3.471837044,-120.609458923,0.000000000,-0.066000223,-16.525880814
1748602356.149219,29.798000000,0.000000000,333.357879639,0.000000000,0.000000000,-3.471837044,-120.609458923,0.000000000,-0.066000223,-16.526134491
1748602356.151656,29.800000000,0.000000000,333.357879639,0.000000000,0.000000000,-3.471837044,-120.609458923,0.000000000,-0.066000223,-16.526361465
1748602356.154059,29.803000000,0.000000000,333.357879639,0.000000000,0.000000000,-3.471837044,-120.609458923,0.000000000,-0.074999034,-18.292568207
1748602356.156544,29.805000000,0.000000000,333.357879639,0.000000000,0.000000000,-3.471837044,-120.609458923,0.000000000,-0.074999034,-18.341529846
1748602356.158999,29.808000000,0.000000000,333.357879639,0.000000000,0.000000000,-3.471837044,-120.609458923,0.000000000,-0.074999034,-18.385597229
1748602356.161379,29.810000000,0.000000000,333.357879639,0.000000000,0.000000000,-3.458337545,-122.339859009,0.000000000,-0.074999034,-18.425083160
1748602356.163812,29.812000000,0.000000000,333.357879639,0.000000000,0.000000000,-3.458337545,-120.198822021,0.000000000,-0.074999034,-18.460771561
1748602356.166200,29.815000000,0.000000000,333.357879639,0.000000000,0.000000000,-3.458337545,-120.198822021,0.000000000,-0.074999034,-18.492891312
1748602356.168551,29.817000000,0.000000000,333.357879639,0.000000000,0.000000000,-3.444835186,-121.992332458,0.000000000,-0.074999034,-18.521610260
1748602356.170910,29.820000000,0.000000000,333.357879639,0.000000000,0.000000000,-3.431335688,-121.610198975,0.000000000,-0.074999034,-18.547428131
1748602356.173290,29.822000000,0.000000000,333.357879639,0.000000000,0.000000000,-3.417836189,-121.191062927,0.000000000,-0.074999034,-18.570640564
1748602356.175682,29.824000000,0.000000000,333.357879639,0.000000000,0.000000000,-3.390834332,-122.564552307,0.000000000,-0.074999034,-18.591304779
1748602356.178074,29.827000000,0.000000000,333.357879639,0.000000000,0.000000000,-3.377334833,-119.945053101,0.000000000,-0.074999034,-18.610052109
1748602356.180495,29.829000000,0.000000000,333.357879639,0.000000000,0.000000000,-3.350332975,-121.304908752,0.000000000,-0.074999034,-18.626691818
1748602356.182903,29.832000000,0.000000000,333.357879639,0.000000000,0.000000000,-3.336833477,-118.688270569,0.000000000,-0.074999034,-18.641824722
1748602356.185253,29.834000000,0.000000000,333.357879639,0.000000000,0.000000000,-3.309831619,-120.058296204,0.000000000,-0.084000528,-20.417425156
1748602356.187632,29.836000000,0.000000000,333.357879639,0.000000000,0.000000000,-3.255830765,-122.985404968,0.000000000,-0.074999034,-18.727207184
1748602356.190012,29.839000000,0.000000000,333.357879639,0.000000000,0.000000000,-3.255830765,-114.038787842,0.000000000,-0.084000528,-20.489002228
1748602356.192381,29.841000000,0.000000000,333.357879639,0.000000000,0.000000000,-3.242331028,-115.842147827,0.000000000,-0.084000528,-20.543180466
1748602356.194768,29.843000000,0.000000000,333.357879639,0.000000000,0.000000000,-3.228831530,-115.437995911,0.000000000,-0.084000528,-20.591905594
1748602356.197136,29.846000000,0.000000000,333.357879639,0.000000000,0.000000000,-3.188330173,-118.611137390,0.000000000,-0.084000528,-20.635339737
1748602356.199555,29.848000000,0.000000000,333.357879639,0.000000000,0.000000000,-3.174830675,-113.800041199,0.000000000,-0.084000528,-20.674734116
1748602356.201929,29.851000000,0.000000000,333.357879639,0.000000000,0.000000000,-3.147828817,-115.121269226,0.000000000,-0.084000528,-20.709949493
1748602356.204301,29.853000000,0.000000000,333.357879639,0.000000000,0.000000000,-3.107327461,-116.177841187,0.000000000,-0.084000528,-20.741371155
1748602356.206695,29.855000000,0.000000000,333.357879639,0.000000000,0.000000000,-3.093827963,-111.322944641,0.000000000,-0.084000528,-20.769989014
1748602356.209118,29.858000000,0.000000000,333.357879639,0.000000000,0.000000000,-3.080325603,-110.904350281,0.000000000,-0.084000528,-20.795717239
1748602356.211652,29.860000000,0.000000000,333.357879639,0.000000000,0.000000000,-3.066826105,-110.465011597,0.000000000,-0.084000528,-20.818840027
1748602356.214034,29.863000000,0.000000000,333.357879639,0.000000000,0.000000000,-3.026324749,-113.406158447,0.000000000,-0.084000528,-20.839168549
1748602356.216494,29.865000000,0.000000000,333.357879639,0.000000000,0.000000000,-2.999325752,-110.603507996,0.000000000,-0.084000528,-20.857604980
1748602356.218787,29.867000000,0.000000000,333.357879639,0.000000000,0.000000000,-2.972323895,-109.760978699,0.000000000,-0.084000528,-20.874139786
1748602356.221166,29.870000000,0.000000000,333.357879639,0.000000000,0.000000000,-2.958824396,-107.227493286,0.000000000,-0.084000528,-20.889202118
1748602356.223548,29.872000000,0.000000000,333.357879639,0.000000000,0.000000000,-2.931822538,-108.596359253,0.000000000,-0.084000528,-20.902492523
1748602356.225912,29.875000000,0.000000000,333.357879639,0.000000000,0.000000000,-2.891321182,-109.598754883,0.000000000,-0.084000528,-20.914155960
1748602356.228333,29.877000000,0.000000000,333.357879639,0.000000000,0.000000000,-2.850822449,-108.394493103,0.000000000,-0.084000528,-20.924570084
1748602356.230702,29.879000000,0.000000000,333.357879639,0.000000000,0.000000000,-2.810321093,-107.016654968,0.000000000,-0.084000528,-20.933860779
1748602356.233102,29.882000000,0.000000000,333.357879639,0.000000000,0.000000000,-2.796818972,-102.303665161,0.000000000,-0.084000528,-20.942630768
1748602356.235494,29.884000000,0.000000000,333.357879639,0.000000000,0.000000000,-2.796818972,-100.076156616,0.000000000,-0.084000528,-20.950742722
1748602356.237867,29.887000000,0.000000000,333.357879639,0.000000000,0.000000000,-2.783319473,-101.853706360,0.000000000,-0.074999034,-19.193532944
1748602356.240240,29.889000000,0.000000000,333.357879639,0.000000000,0.000000000,-2.756320238,-103.281524658,0.000000000,-0.074999034,-19.150629044
1748602356.242665,29.891000000,0.000000000,333.357879639,0.000000000,0.000000000,-2.715818882,-104.260169983,0.000000000,-0.074999034,-19.111690521
1748602356.245093,29.894000000,0.000000000,333.357879639,0.000000000,0.000000000,-2.702316761,-99.376564026,0.000000000,-0.074999034,-19.077163696
1748602356.247498,29.896000000,0.000000000,333.357879639,0.000000000,0.000000000,-2.702316761,-97.201499939,0.000000000,-0.074999034,-19.046346664
1748602356.249902,29.899000000,0.000000000,333.357879639,0.000000000,0.000000000,-2.688817024,-98.986389160,0.000000000,-0.074999034,-19.018341064
1748602356.252394,29.901000000,0.000000000,333.357879639,0.000000000,0.000000000,-2.648315668,-102.107574463,0.000000000,-0.084000528,-20.758548737
1748602356.254787,29.903000000,0.000000000,333.357879639,0.000000000,0.000000000,-2.621316671,-98.981666565,0.000000000,-0.074999034,-19.004724503
1748602356.257179,29.906000000,0.000000000,333.357879639,0.000000000,0.000000000,-2.607814312,-96.532928467,0.000000000,-0.084000528,-20.741781235
1748602356.259601,29.908000000,0.000000000,333.357879639,0.000000000,0.000000000,-2.607814312,-94.326843262,0.000000000,-0.074999034,-19.004085541
1748602356.262086,29.911000000,0.000000000,333.357879639,0.000000000,0.000000000,-2.607814312,-94.326843262,0.000000000,-0.084000528,-20.748756409
1748602356.264504,29.913000000,0.000000000,333.357879639,0.000000000,0.000000000,-2.594314814,-96.066856384,0.000000000,-0.074999034,-19.002326965
1748602356.266936,29.916000000,0.000000000,333.357879639,0.000000000,0.000000000,-2.567312956,-97.478981018,0.000000000,-0.074999034,-18.978277206
1748602356.269277,29.918000000,0.000000000,333.357879639,0.000000000,0.000000000,-2.526814461,-98.386833191,0.000000000,-0.074999034,-18.956327438
1748602356.271648,29.920000000,0.000000000,333.357879639,0.000000000,0.000000000,-2.499812603,-95.434844971,0.000000000,-0.074999034,-18.936773300
1748602356.274064,29.923000000,0.000000000,333.357879639,0.000000000,0.000000000,-2.486312866,-92.844902039,0.000000000,-0.074999034,-18.919393539
1748602356.276442,29.925000000,0.000000000,333.357879639,0.000000000,0.000000000,-2.472810745,-92.378311157,0.000000000,-0.074999034,-18.903728485
1748602356.278808,29.928000000,0.000000000,333.357879639,0.000000000,0.000000000,-2.459311247,-92.038497925,0.000000000,-0.074999034,-18.889610291
1748602356.281271,29.930000000,0.000000000,333.357879639,0.000000000,0.000000000,-2.445811749,-91.640197754,0.000000000,-0.074999034,-18.876884460
1748602356.283624,29.932000000,0.000000000,333.357879639,0.000000000,0.000000000,-2.418809891,-92.902267456,0.000000000,-0.074999034,-18.865158081
1748602356.286022,29.935000000,0.000000000,333.357879639,0.000000000,0.000000000,-2.364809036,-95.783767700,0.000000000,-0.074999034,-18.854070663
1748602356.288394,29.937000000,0.000000000,333.357879639,0.000000000,0.000000000,-2.324307442,-92.292617798,0.000000000,-0.074999034,-18.844249725
1748602356.290786,29.939000000,0.000000000,333.357879639,0.000000000,0.000000000,-2.324307442,-85.702873230,0.000000000,-0.074999034,-18.836078644
1748602356.293185,29.942000000,0.000000000,333.357879639,0.000000000,0.000000000,-2.310807943,-87.500625610,0.000000000,-0.074999034,-18.828479767
1748602356.295624,29.944000000,0.000000000,333.357879639,0.000000000,0.000000000,-2.243304729,-94.185325623,0.000000000,-0.074999034,-18.820653915
1748602356.298101,29.947000000,0.000000000,333.357879639,0.000000000,0.000000000,-2.189303875,-90.248771667,0.000000000,-0.074999034,-18.813741684
1748602356.300535,29.949000000,0.000000000,333.357879639,0.000000000,0.000000000,-2.135303020,-88.490386963,0.000000000,-0.074999034,-18.807428360
1748602356.303000,29.952000000,0.000000000,333.357879639,0.000000000,0.000000000,-2.135303020,-79.953567505,0.000000000,-0.074999034,-18.802614212
1748602356.305459,29.954000000,0.000000000,333.357879639,0.000000000,0.000000000,-2.135303020,-79.953567505,0.000000000,-0.074999034,-18.798280716
1748602356.307914,29.957000000,0.000000000,333.357879639,0.000000000,0.000000000,-2.108304024,-83.424827576,0.000000000,-0.074999034,-18.793909073
1748602356.310379,29.959000000,0.000000000,333.357879639,0.000000000,0.000000000,-2.040800810,-87.763267517,0.000000000,-0.074999034,-18.789215088
1748602356.312811,29.961000000,0.000000000,333.357879639,0.000000000,0.000000000,-1.986799836,-84.071105957,0.000000000,-0.074999034,-18.785116196
1748602356.315387,29.964000000,0.000000000,333.357879639,0.000000000,0.000000000,-1.986799836,-75.436264038,0.000000000,-0.074999034,-18.782278061
1748602356.317899,29.966000000,0.000000000,333.357879639,0.000000000,0.000000000,-1.973300219,-77.073402405,0.000000000,-0.074999034,-18.779487610
1748602356.320281,29.969000000,0.000000000,333.357879639,0.000000000,0.000000000,-1.932798862,-80.114349365,0.000000000,-0.074999034,-18.776487350
1748602356.322666,29.971000000,0.000000000,333.357879639,0.000000000,0.000000000,-1.905797124,-77.304077148,0.000000000,-0.074999034,-18.773950577
1748602356.325083,29.974000000,0.000000000,333.357879639,0.000000000,0.000000000,-1.838296652,-81.924468994,0.000000000,-0.066000223,-17.006324768
1748602356.327446,29.976000000,0.000000000,333.357879639,0.000000000,0.000000000,-1.824794412,-72.702354431,0.000000000,-0.066000223,-16.955787659
1748602356.329875,29.979000000,0.000000000,333.357879639,0.000000000,0.000000000,-1.811294794,-72.307861328,0.000000000,-0.066000223,-16.910291672
1748602356.332280,29.981000000,0.000000000,333.357879639,0.000000000,0.000000000,-1.784295797,-73.616630554,0.000000000,-0.066000223,-16.869064331
1748602356.334676,29.983000000,0.000000000,333.357879639,0.000000000,0.000000000,-1.757293940,-72.862953186,0.000000000,-0.066000223,-16.831932068
1748602356.337046,29.986000000,0.000000000,333.357879639,0.000000000,0.000000000,-1.730292082,-72.014083862,0.000000000,-0.066000223,-16.798482895
1748602356.339448,29.988000000,0.000000000,333.357879639,0.000000000,0.000000000,-1.716792583,-69.433189392,0.000000000,-0.066000223,-16.768598557
1748602356.341855,29.991000000,0.000000000,333.357879639,0.000000000,0.000000000,-1.689793468,-70.776252747,0.000000000,-0.066000223,-16.741439819
1748602356.344358,29.993000000,0.000000000,333.357879639,0.000000000,0.000000000,-1.662791729,-69.966247559,0.000000000,-0.066000223,-16.716964722
1748602356.346809,29.995000000,0.000000000,333.357879639,0.000000000,0.000000000,-1.662791729,-65.580291748,0.000000000,-0.066000223,-16.695379257
1748602356.349304,29.998000000,0.000000000,333.357879639,0.000000000,0.000000000,-1.649292111,-67.344314575,0.000000000,-0.066000223,-16.675720215
1748602356.351796,30.000000000,0.000000000,333.357879639,0.000000000,0.000000000,-1.622290373,-68.629051208,0.000000000,-0.066000223,-16.657775879
1748602356.354207,30.003000000,0.000000000,333.357879639,0.000000000,0.000000000,-1.608790755,-66.036026001,0.000000000,-0.066000223,-16.641819000
1748602356.356615,30.005000000,0.000000000,333.357879639,0.000000000,0.000000000,-1.595291138,-65.716125488,0.000000000,-0.066000223,-16.627441406
1748602356.358946,30.008000000,0.000000000,333.357879639,0.000000000,0.000000000,-1.595291138,-63.527000427,0.000000000,-0.066000223,-16.614706039
1748602356.361345,30.010000000,0.000000000,333.357879639,0.000000000,0.000000000,-1.595291138,-63.527000427,0.000000000,-0.066000223,-16.603242874
1748602356.363717,30.012000000,0.000000000,333.357879639,0.000000000,0.000000000,-1.581789017,-65.323249817,0.000000000,-0.066000223,-16.592706680
1748602356.366080,30.015000000,0.000000000,333.357879639,0.000000000,0.000000000,-1.568289399,-64.923355103,0.000000000,-0.066000223,-16.583206177
1748602356.368452,30.017000000,0.000000000,333.357879639,0.000000000,0.000000000,-1.554789782,-64.520202637,0.000000000,-0.066000223,-16.574634552
1748602356.370852,30.020000000,0.000000000,333.357879639,0.000000000,0.000000000,-1.554789782,-62.294994354,0.000000000,-0.066000223,-16.567117691
1748602356.373202,30.022000000,0.000000000,333.357879639,0.000000000,0.000000000,-1.554789782,-62.294994354,0.000000000,-0.066000223,-16.560354233
1748602356.375675,30.024000000,0.000000000,333.357879639,0.000000000,0.000000000,-1.541287661,-64.118392944,0.000000000,-0.066000223,-16.554054260
1748602356.378143,30.027000000,0.000000000,333.357879639,0.000000000,0.000000000,-1.527788043,-63.607742310,0.000000000,-0.066000223,-16.548362732
1748602356.380573,30.029000000,0.000000000,333.357879639,0.000000000,0.000000000,-1.514288425,-63.188484192,0.000000000,-0.066000223,-16.543220520
1748602356.382957,30.032000000,0.000000000,333.357879639,0.000000000,0.000000000,-1.487286687,-64.593139648,0.000000000,-0.066000223,-16.538364410
1748602356.385352,30.034000000,0.000000000,333.357879639,0.000000000,0.000000000,-1.473787069,-62.037540436,0.000000000,-0.066000223,-16.534162521
1748602356.387757,30.036000000,0.000000000,333.357879639,0.000000000,0.000000000,-1.460287571,-61.620426178,0.000000000,-0.066000223,-16.530363083
1748602356.390130,30.039000000,0.000000000,333.357879639,0.000000000,0.000000000,-1.446785331,-61.196441650,0.000000000,-0.066000223,-16.526922226
1748602356.392533,30.041000000,0.000000000,333.357879639,0.000000000,0.000000000,-1.433285713,-60.810165405,0.000000000,-0.066000223,-16.523805618
1748602356.394970,30.044000000,0.000000000,333.357879639,0.000000000,0.000000000,-1.406283975,-62.149002075,0.000000000,-0.066000223,-16.520772934
1748602356.397383,30.046000000,0.000000000,333.357879639,0.000000000,0.000000000,-1.392784357,-59.536251068,0.000000000,-0.056998730,-14.744054794
1748602356.399814,30.048000000,0.000000000,333.357879639,0.000000000,0.000000000,-1.379284859,-59.144527435,0.000000000,-0.056998730,-14.694084167
1748602356.402303,30.051000000,0.000000000,333.357879639,0.000000000,0.000000000,-1.365785360,-58.723926544,0.000000000,-0.056998730,-14.649102211
1748602356.404710,30.053000000,0.000000000,333.357879639,0.000000000,0.000000000,-1.352283001,-58.258316040,0.000000000,-0.056998730,-14.608606339
1748602356.407105,30.056000000,0.000000000,333.357879639,0.000000000,0.000000000,-1.338783503,-57.894477844,0.000000000,-0.056998730,-14.572150230
1748602356.409571,30.058000000,0.000000000,333.357879639,0.000000000,0.000000000,-1.325284004,-57.501880646,0.000000000,-0.056998730,-14.539325714
1748602356.411998,30.061000000,0.000000000,333.357879639,0.000000000,0.000000000,-1.325284004,-55.313682556,0.000000000,-0.056998730,-14.509993553
1748602356.414441,30.063000000,0.000000000,333.357879639,0.000000000,0.000000000,-1.311781645,-57.078056335,0.000000000,-0.056998730,-14.483377457
1748602356.416927,30.066000000,0.000000000,333.357879639,0.000000000,0.000000000,-1.311781645,-54.902954102,0.000000000,-0.056998730,-14.459621429
1748602356.419311,30.068000000,0.000000000,333.357879639,0.000000000,0.000000000,-1.311781645,-54.902954102,0.000000000,-0.056998730,-14.438241959
1748602356.421703,30.070000000,0.000000000,333.357879639,0.000000000,0.000000000,-1.311781645,-54.902954102,0.000000000,-0.056998730,-14.419000626
1748602356.424069,30.073000000,0.000000000,333.357879639,0.000000000,0.000000000,-1.298282146,-56.682331085,0.000000000,-0.056998730,-14.401479721
1748602356.426452,30.075000000,0.000000000,333.357879639,0.000000000,0.000000000,-1.298282146,-54.492313385,0.000000000,-0.066000223,-16.148694992
1748602356.428954,30.078000000,0.000000000,333.357879639,0.000000000,0.000000000,-1.298282146,-54.492313385,0.000000000,-0.066000223,-16.183385849
1748602356.431367,30.080000000,0.000000000,333.357879639,0.000000000,0.000000000,-1.298282146,-54.492313385,0.000000000,-0.066000223,-16.214607239
1748602356.433769,30.082000000,0.000000000,333.357879639,0.000000000,0.000000000,-1.298282146,-54.492313385,0.000000000,-0.066000223,-16.242706299
1748602356.436158,30.085000000,0.000000000,333.357879639,0.000000000,0.000000000,-1.298282146,-54.492313385,0.000000000,-0.066000223,-16.267995834
1748602356.438530,30.087000000,0.000000000,333.357879639,0.000000000,0.000000000,-1.298282146,-54.492313385,0.000000000,-0.066000223,-16.290756226
1748602356.440928,30.090000000,0.000000000,333.357879639,0.000000000,0.000000000,-1.298282146,-54.492313385,0.000000000,-0.066000223,-16.311239243
1748602356.443421,30.092000000,0.000000000,333.357879639,0.000000000,0.000000000,-1.298282146,-54.492313385,0.000000000,-0.066000223,-16.329675674
1748602356.445966,30.095000000,0.000000000,333.357879639,0.000000000,0.000000000,-1.298282146,-54.492313385,0.000000000,-0.066000223,-16.346267700
1748602356.448375,30.097000000,0.000000000,333.357879639,0.000000000,0.000000000,-1.298282146,-54.492313385,0.000000000,-0.066000223,-16.361200333
1748602356.450809,30.099000000,0.000000000,333.357879639,0.000000000,0.000000000,-1.298282146,-54.492313385,0.000000000,-0.056998730,-14.600537300
1748602356.453172,30.102000000,0.000000000,333.357879639,0.000000000,0.000000000,-1.311781645,-52.740818024,0.000000000,-0.066000223,-16.341079712
1748602356.455544,30.104000000,0.000000000,333.357879639,0.000000000,0.000000000,-1.325284004,-53.096454620,0.000000000,-0.056998730,-14.592761993
1748602356.457999,30.107000000,0.000000000,333.357879639,0.000000000,0.000000000,-1.325284004,-55.313682556,0.000000000,-0.066000223,-16.322456360
1748602356.460395,30.109000000,0.000000000,333.357879639,0.000000000,0.000000000,-1.325284004,-55.313682556,0.000000000,-0.056998730,-14.562898636
1748602356.462801,30.111000000,0.000000000,333.357879639,0.000000000,0.000000000,-1.325284004,-55.313682556,0.000000000,-0.066000223,-16.303611755
1748602356.465174,30.114000000,0.000000000,333.357879639,0.000000000,0.000000000,-1.338783503,-53.526988983,0.000000000,-0.066000223,-16.323024750
1748602356.467561,30.116000000,0.000000000,333.357879639,0.000000000,0.000000000,-1.338783503,-55.724319458,0.000000000,-0.066000223,-16.340343475
1748602356.470064,30.119000000,0.000000000,333.357879639,0.000000000,0.000000000,-1.352283001,-53.926570892,0.000000000,-0.066000223,-16.356111526
1748602356.472460,30.121000000,0.000000000,333.357879639,0.000000000,0.000000000,-1.352283001,-56.134960175,0.000000000,-0.066000223,-16.370141983
1748602356.474844,30.124000000,0.000000000,333.357879639,0.000000000,0.000000000,-1.365785360,-54.346057892,0.000000000,-0.066000223,-16.382953644
1748602356.477237,30.126000000,0.000000000,333.357879639,0.000000000,0.000000000,-1.379284859,-54.750713348,0.000000000,-0.066000223,-16.394506454
1748602356.479653,30.128000000,0.000000000,333.357879639,0.000000000,0.000000000,-1.392784357,-55.165962219,0.000000000,-0.066000223,-16.404924393
1748602356.482105,30.131000000,0.000000000,333.357879639,0.000000000,0.000000000,-1.379284859,-59.138179779,0.000000000,-0.066000223,-16.413946152
1748602356.484601,30.133000000,0.000000000,333.357879639,0.000000000,0.000000000,-1.379284859,-56.956329346,0.000000000,-0.066000223,-16.422233582
1748602356.486959,30.136000000,0.000000000,333.357879639,0.000000000,0.000000000,-1.392784357,-55.248332977,0.000000000,-0.066000223,-16.429883957
1748602356.489339,30.138000000,0.000000000,333.357879639,0.000000000,0.000000000,-1.392784357,-57.366966248,0.000000000,-0.066000223,-16.436597824
1748602356.491792,30.140000000,0.000000000,333.357879639,0.000000000,0.000000000,-1.406283975,-55.565486908,0.000000000,-0.066000223,-16.442834854
1748602356.494207,30.143000000,0.000000000,333.357879639,0.000000000,0.000000000,-1.406283975,-57.777610779,0.000000000,-0.066000223,-16.448274612
1748602356.496710,30.145000000,0.000000000,333.357879639,0.000000000,0.000000000,-1.406283975,-57.777610779,0.000000000,-0.066000223,-16.453170776
1748602356.499212,30.148000000,0.000000000,333.357879639,0.000000000,0.000000000,-1.419786215,-56.044250488,0.000000000,-0.066000223,-16.457773209
1748602356.501620,30.150000000,0.000000000,333.357879639,0.000000000,0.000000000,-1.433285713,-56.503944397,0.000000000,-0.066000223,-16.461936951
1748602356.504062,30.153000000,0.000000000,333.357879639,0.000000000,0.000000000,-1.433285713,-58.598972321,0.000000000,-0.066000223,-16.465507507
1748602356.506454,30.155000000,0.000000000,333.357879639,0.000000000,0.000000000,-1.446785331,-56.866821289,0.000000000,-0.066000223,-16.468919754
1748602356.508867,30.157000000,0.000000000,333.357879639,0.000000000,0.000000000,-1.446785331,-59.009616852,0.000000000,-0.066000223,-16.471811295
1748602356.511203,30.160000000,0.000000000,333.357879639,0.000000000,0.000000000,-1.460287571,-57.232608795,0.000000000,-0.066000223,-16.474615097
1748602356.513611,30.162000000,0.000000000,333.357879639,0.000000000,0.000000000,-1.473787069,-57.596343994,0.000000000,-0.066000223,-16.477155685
1748602356.516000,30.165000000,0.000000000,333.357879639,0.000000000,0.000000000,-1.487286687,-58.046104431,0.000000000,-0.066000223,-16.479467392
1748602356.518386,30.167000000,0.000000000,333.357879639,0.000000000,0.000000000,-1.500786304,-58.455833435,0.000000000,-0.066000223,-16.481565475
1748602356.520818,30.169000000,0.000000000,333.357879639,0.000000000,0.000000000,-1.514288425,-58.871631622,0.000000000,-0.066000223,-16.483476639
1748602356.523189,30.172000000,0.000000000,333.357879639,0.000000000,0.000000000,-1.541287661,-57.511474609,0.000000000,-0.066000223,-16.485418320
1748602356.525561,30.174000000,0.000000000,333.357879639,0.000000000,0.000000000,-1.554789782,-60.068428040,0.000000000,-0.066000223,-16.487003326
1748602356.527917,30.177000000,0.000000000,333.357879639,0.000000000,0.000000000,-1.554789782,-62.294994354,0.000000000,-0.066000223,-16.488248825
1748602356.530340,30.179000000,0.000000000,333.357879639,0.000000000,0.000000000,-1.568289399,-60.490726471,0.000000000,-0.066000223,-16.489576340
1748602356.532764,30.181000000,0.000000000,333.357879639,0.000000000,0.000000000,-1.608790755,-57.426708221,0.000000000,-0.066000223,-16.491191864
1748602356.535233,30.184000000,0.000000000,333.357879639,0.000000000,0.000000000,-1.622290373,-62.174526215,0.000000000,-0.066000223,-16.492303848
1748602356.537617,30.186000000,0.000000000,333.357879639,0.000000000,0.000000000,-1.622290373,-64.348289490,0.000000000,-0.066000223,-16.493122101
1748602356.540009,30.189000000,0.000000000,333.357879639,0.000000000,0.000000000,-1.622290373,-64.348289490,0.000000000,-0.066000223,-16.493858337
1748602356.542401,30.191000000,0.000000000,333.357879639,0.000000000,0.000000000,-1.662791729,-59.007041931,0.000000000,-0.066000223,-16.495128632
1748602356.544824,30.193000000,0.000000000,333.357879639,0.000000000,0.000000000,-1.689793468,-61.980716705,0.000000000,-0.066000223,-16.496133804
1748602356.547204,30.196000000,0.000000000,333.357879639,0.000000000,0.000000000,-1.703293085,-64.642120361,0.000000000,-0.066000223,-16.496873856
1748602356.549591,30.198000000,0.000000000,333.357879639,0.000000000,0.000000000,-1.716792583,-65.020095825,0.000000000,-0.066000223,-16.497560501
1748602356.551942,30.201000000,0.000000000,333.357879639,0.000000000,0.000000000,-1.757293940,-61.761928558,0.000000000,-0.066000223,-16.498605728
1748602356.554314,30.203000000,0.000000000,333.357879639,0.000000000,0.000000000,-1.784295797,-64.817916870,0.000000000,-0.066000223,-16.499404907
1748602356.556668,30.205000000,0.000000000,333.357879639,0.000000000,0.000000000,-1.797795296,-67.474853516,0.000000000,-0.066000223,-16.499959946
1748602356.559068,30.208000000,0.000000000,333.357879639,0.000000000,0.000000000,-1.824794412,-66.054069519,0.000000000,-0.066000223,-16.500686646
1748602356.561453,30.210000000,0.000000000,333.357879639,0.000000000,0.000000000,-1.851796150,-66.912368774,0.000000000,-0.074999034,-18.264364243
1748602356.563842,30.213000000,0.000000000,333.357879639,0.000000000,0.000000000,-1.878798008,-67.737419128,0.000000000,-0.066000223,-16.550386429
1748602356.566246,30.215000000,0.000000000,333.357879639,0.000000000,0.000000000,-1.905797124,-68.548027039,0.000000000,-0.074999034,-18.308164597
1748602356.568610,30.217000000,0.000000000,333.357879639,0.000000000,0.000000000,-1.905797124,-72.972251892,0.000000000,-0.074999034,-18.352882385
1748602356.571066,30.220000000,0.000000000,333.357879639,0.000000000,0.000000000,-1.905797124,-72.972251892,0.000000000,-0.074999034,-18.393129349
1748602356.573455,30.222000000,0.000000000,333.357879639,0.000000000,0.000000000,-1.932798862,-69.416778564,0.000000000,-0.074999034,-18.429704666
1748602356.575848,30.225000000,0.000000000,333.357879639,0.000000000,0.000000000,-1.986799836,-66.715606689,0.000000000,-0.074999034,-18.463043213
1748602356.578194,30.227000000,0.000000000,333.357879639,0.000000000,0.000000000,-2.027301311,-70.075798035,0.000000000,-0.074999034,-18.492971420
1748602356.580558,30.229000000,0.000000000,333.357879639,0.000000000,0.000000000,-2.027301311,-76.668273926,0.000000000,-0.074999034,-18.519418716
1748602356.583047,30.232000000,0.000000000,333.357879639,0.000000000,0.000000000,-2.013801575,-78.487571716,0.000000000,-0.074999034,-18.543024063
1748602356.585420,30.234000000,0.000000000,333.357879639,0.000000000,0.000000000,-2.027301311,-74.536735535,0.000000000,-0.074999034,-18.564641953
1748602356.587755,30.236000000,0.000000000,333.357879639,0.000000000,0.000000000,-2.067802429,-71.218620300,0.000000000,-0.074999034,-18.584527969
1748602356.590104,30.239000000,0.000000000,333.357879639,0.000000000,0.000000000,-2.094801664,-74.267372131,0.000000000,-0.074999034,-18.602296829
1748602356.592451,30.241000000,0.000000000,333.357879639,0.000000000,0.000000000,-2.094801664,-78.721557617,0.000000000,-0.074999034,-18.617925644
1748602356.594784,30.243000000,0.000000000,333.357879639,0.000000000,0.000000000,-2.094801664,-78.721557617,0.000000000,-0.074999034,-18.631992340
1748602356.597193,30.246000000,0.000000000,333.357879639,0.000000000,0.000000000,-2.094801664,-78.721557617,0.000000000,-0.074999034,-18.644651413
1748602356.599591,30.248000000,0.000000000,333.357879639,0.000000000,0.000000000,-2.108304024,-76.934494019,0.000000000,-0.074999034,-18.656261444
1748602356.601947,30.251000000,0.000000000,333.357879639,0.000000000,0.000000000,-2.148802519,-73.799606323,0.000000000,-0.074999034,-18.667165756
1748602356.604342,30.253000000,0.000000000,333.357879639,0.000000000,0.000000000,-2.175804377,-76.727188110,0.000000000,-0.074999034,-18.676836014
1748602356.606738,30.255000000,0.000000000,333.357879639,0.000000000,0.000000000,-2.162304878,-82.983322144,0.000000000,-0.074999034,-18.684930801
1748602356.609122,30.258000000,0.000000000,333.357879639,0.000000000,0.000000000,-2.162304878,-80.774932861,0.000000000,-0.074999034,-18.692411423
1748602356.611559,30.260000000,0.000000000,333.357879639,0.000000000,0.000000000,-2.175804377,-78.979034424,0.000000000,-0.074999034,-18.699367523
1748602356.613935,30.263000000,0.000000000,333.357879639,0.000000000,0.000000000,-2.216305733,-75.871566772,0.000000000,-0.074999034,-18.706094742
1748602356.616321,30.265000000,0.000000000,333.357879639,0.000000000,0.000000000,-2.229805231,-80.615188599,0.000000000,-0.074999034,-18.711774826
1748602356.618709,30.267000000,0.000000000,333.357879639,0.000000000,0.000000000,-2.229805231,-82.828224182,0.000000000,-0.074999034,-18.716688156
1748602356.621148,30.270000000,0.000000000,333.357879639,0.000000000,0.000000000,-2.229805231,-82.828224182,0.000000000,-0.074999034,-18.721109390
1748602356.623605,30.272000000,0.000000000,333.357879639,0.000000000,0.000000000,-2.256807089,-79.444030762,0.000000000,-0.074999034,-18.725540161
1748602356.626104,30.275000000,0.000000000,333.357879639,0.000000000,0.000000000,-2.283806324,-80.173042297,0.000000000,-0.066000223,-16.955034256
1748602356.628566,30.277000000,0.000000000,333.357879639,0.000000000,0.000000000,-2.297308445,-82.781143188,0.000000000,-0.066000223,-16.910852432
1748602356.630962,30.280000000,0.000000000,333.357879639,0.000000000,0.000000000,-2.297308445,-84.881591797,0.000000000,-0.066000223,-16.870836258
1748602356.633396,30.282000000,0.000000000,333.357879639,0.000000000,0.000000000,-2.324307442,-81.299018860,0.000000000,-0.066000223,-16.835334778
1748602356.635787,30.284000000,0.000000000,333.357879639,0.000000000,0.000000000,-2.351309299,-82.169097900,0.000000000,-0.066000223,-16.803417206
1748602356.638259,30.287000000,0.000000000,333.357879639,0.000000000,0.000000000,-2.364809036,-84.738441467,0.000000000,-0.066000223,-16.774471283
1748602356.640599,30.289000000,0.000000000,333.357879639,0.000000000,0.000000000,-2.378308535,-85.190467834,0.000000000,-0.066000223,-16.748439789
1748602356.642945,30.292000000,0.000000000,333.357879639,0.000000000,0.000000000,-2.405310154,-83.747817993,0.000000000,-0.066000223,-16.725265503
1748602356.645339,30.294000000,0.000000000,333.357879639,0.000000000,0.000000000,-2.432312012,-84.531753540,0.000000000,-0.066000223,-16.704441071
1748602356.647660,30.296000000,0.000000000,333.357879639,0.000000000,0.000000000,-2.445811749,-87.183967590,0.000000000,-0.066000223,-16.685503006
1748602356.650035,30.299000000,0.000000000,333.357879639,0.000000000,0.000000000,-2.445811749,-89.398902893,0.000000000,-0.066000223,-16.668243408
1748602356.652406,30.301000000,0.000000000,333.357879639,0.000000000,0.000000000,-2.486312866,-83.991371155,0.000000000,-0.066000223,-16.653392792
1748602356.654787,30.303000000,0.000000000,333.357879639,0.000000000,0.000000000,-2.540313959,-83.383544922,0.000000000,-0.066000223,-16.640308380
1748602356.657151,30.306000000,0.000000000,333.357879639,0.000000000,0.000000000,-2.553813457,-90.467437744,0.000000000,-0.066000223,-16.627935410
1748602356.659549,30.308000000,0.000000000,333.357879639,0.000000000,0.000000000,-2.553813457,-92.684196472,0.000000000,-0.066000223,-16.616596222
1748602356.661956,30.311000000,0.000000000,333.357879639,0.000000000,0.000000000,-2.567312956,-90.885513306,0.000000000,-0.066000223,-16.606609344
1748602356.664332,30.313000000,0.000000000,333.357879639,0.000000000,0.000000000,-2.634816170,-84.188072205,0.000000000,-0.066000223,-16.598514557
1748602356.666736,30.315000000,0.000000000,333.357879639,0.000000000,0.000000000,-2.688817024,-87.953117371,0.000000000,-0.066000223,-16.591104507
1748602356.669094,30.318000000,0.000000000,333.357879639,0.000000000,0.000000000,-2.675317526,-98.587684631,0.000000000,-0.066000223,-16.583438873
1748602356.671474,30.320000000,0.000000000,333.357879639,0.000000000,0.000000000,-2.661815166,-98.190460205,0.000000000,-0.066000223,-16.576520920
1748602356.673874,30.323000000,0.000000000,333.357879639,0.000000000,0.000000000,-2.675317526,-94.175056458,0.000000000,-0.066000223,-16.570697784
1748602356.676261,30.325000000,0.000000000,333.357879639,0.000000000,0.000000000,-2.688817024,-94.599922180,0.000000000,-0.066000223,-16.565479279
1748602356.678667,30.327000000,0.000000000,333.357879639,0.000000000,0.000000000,-2.688817024,-96.790855408,0.000000000,-0.066000223,-16.560590744
1748602356.681130,30.330000000,0.000000000,333.357879639,0.000000000,0.000000000,-2.675317526,-98.560264587,0.000000000,-0.066000223,-16.555980682
1748602356.683534,30.332000000,0.000000000,333.357879639,0.000000000,0.000000000,-2.688817024,-94.624267578,0.000000000,-0.066000223,-16.552230835
1748602356.685964,30.335000000,0.000000000,333.357879639,0.000000000,0.000000000,-2.675317526,-98.572059631,0.000000000,-0.066000223,-16.548456192
1748602356.688354,30.337000000,0.000000000,333.357879639,0.000000000,0.000000000,-2.688817024,-94.617111206,0.000000000,-0.066000223,-16.545457840
1748602356.690713,30.339000000,0.000000000,333.357879639,0.000000000,0.000000000,-2.688817024,-96.790855408,0.000000000,-0.066000223,-16.542572021
1748602356.693063,30.342000000,0.000000000,333.357879639,0.000000000,0.000000000,-2.688817024,-96.790855408,0.000000000,-0.066000223,-16.539974213
1748602356.695522,30.344000000,0.000000000,333.357879639,0.000000000,0.000000000,-2.688817024,-96.790855408,0.000000000,-0.066000223,-16.537635803
1748602356.697922,30.347000000,0.000000000,333.357879639,0.000000000,0.000000000,-2.688817024,-96.790855408,0.000000000,-0.066000223,-16.535530090
1748602356.700272,30.349000000,0.000000000,333.357879639,0.000000000,0.000000000,-2.688817024,-96.790855408,0.000000000,-0.066000223,-16.533636093
1748602356.702604,30.351000000,0.000000000,333.357879639,0.000000000,0.000000000,-2.688817024,-96.790855408,0.000000000,-0.066000223,-16.531932831
1748602356.704975,30.354000000,0.000000000,333.357879639,0.000000000,0.000000000,-2.688817024,-96.790855408,0.000000000,-0.066000223,-16.530397415
1748602356.707415,30.356000000,0.000000000,333.357879639,0.000000000,0.000000000,-2.675317526,-98.597915649,0.000000000,-0.066000223,-16.528810501
1748602356.709794,30.358000000,0.000000000,333.357879639,0.000000000,0.000000000,-2.675317526,-96.380218506,0.000000000,-0.066000223,-16.527568817
1748602356.712212,30.361000000,0.000000000,333.357879639,0.000000000,0.000000000,-2.675317526,-96.380218506,0.000000000,-0.066000223,-16.526451111
1748602356.714661,30.363000000,0.000000000,333.357879639,0.000000000,0.000000000,-2.675317526,-96.380218506,0.000000000,-0.066000223,-16.525444031
