liamjosephnolan/thesis_matlab/pitch_prbs_response/prbs_roll_m20_pitch_m15.csv
__time,/psm_joint_telemetry/header/stamp,/psm_joint_telemetry/insertion/effort,/psm_joint_telemetry/insertion/position,/psm_joint_telemetry/insertion/velocity,/psm_joint_telemetry/pitch/effort,/psm_joint_telemetry/pitch/position,/psm_joint_telemetry/pitch/velocity,/psm_joint_telemetry/roll/effort,/psm_joint_telemetry/roll/position,/psm_joint_telemetry/roll/velocity
1748598495.982378,46.483000000,0.000000000,-1000.073669434,0.000000000,0.000000000,-18.659717560,-130.661544800,0.000000000,-19.965000153,9.114556313
1748598495.984780,46.486000000,0.000000000,-1000.073669434,0.000000000,0.000000000,-18.646215439,-128.014312744,0.000000000,-19.965000153,9.093658447
1748598495.987211,46.488000000,0.000000000,-1000.073669434,0.000000000,0.000000000,-18.619215012,-129.362670898,0.000000000,-19.965000153,9.074914932
1748598495.989599,46.491000000,0.000000000,-1000.073669434,0.000000000,0.000000000,-18.592214584,-128.599273682,0.000000000,-19.965000153,9.058064461
1748598495.991983,46.493000000,0.000000000,-1000.073669434,0.000000000,0.000000000,-18.578714371,-126.067207336,0.000000000,-19.965000153,9.042860031
1748598495.994401,46.496000000,0.000000000,-1000.073669434,0.000000000,0.000000000,-18.565214157,-125.647338867,0.000000000,-19.965000153,9.029183388
1748598495.996878,46.498000000,0.000000000,-1000.073669434,0.000000000,0.000000000,-18.551713943,-125.247741699,0.000000000,-19.965000153,9.016883850
1748598495.999326,46.500000000,0.000000000,-1000.073669434,0.000000000,0.000000000,-18.538213730,-124.749877930,0.000000000,-19.965000153,9.005823135
1748598496.001741,46.503000000,0.000000000,-1000.073669434,0.000000000,0.000000000,-18.524713516,-124.395355225,0.000000000,-19.965000153,8.995876312
1748598496.004109,46.505000000,0.000000000,-1000.073669434,0.000000000,0.000000000,-18.511211395,-123.990371704,0.000000000,-19.965000153,8.986932755
1748598496.006519,46.508000000,0.000000000,-1000.073669434,0.000000000,0.000000000,-18.497713089,-123.601081848,0.000000000,-19.965000153,8.978892326
1748598496.008902,46.510000000,0.000000000,-1000.073669434,0.000000000,0.000000000,-18.484210968,-123.200256348,0.000000000,-19.965000153,8.971663475
1748598496.011351,46.513000000,0.000000000,-1000.073669434,0.000000000,0.000000000,-18.457210541,-124.492599487,0.000000000,-19.965000153,8.965231895
1748598496.013841,46.515000000,0.000000000,-1000.073669434,0.000000000,0.000000000,-18.430210114,-123.669494629,0.000000000,-19.965000153,8.959460258
1748598496.016345,46.517000000,0.000000000,-1000.073669434,0.000000000,0.000000000,-18.430210114,-119.343215942,0.000000000,-19.965000153,8.954145432
1748598496.019040,46.520000000,0.000000000,-1000.073669434,0.000000000,0.000000000,-18.416709900,-121.012794495,0.000000000,-19.965000153,8.949430466
1748598496.021450,46.523000000,0.000000000,-1000.073669434,0.000000000,0.000000000,-18.403209686,-120.540718079,0.000000000,-19.965000153,8.945195198
1748598496.024012,46.525000000,0.000000000,-1000.073669434,0.000000000,0.000000000,-18.389709473,-120.208869934,0.000000000,-19.965000153,8.941390991
1748598496.026383,46.528000000,0.000000000,-1000.073669434,0.000000000,0.000000000,-18.376209259,-119.795707703,0.000000000,-19.965000153,8.937974930
1748598496.028788,46.530000000,0.000000000,-1000.073669434,0.000000000,0.000000000,-18.376209259,-117.700569153,0.000000000,-19.965000153,8.934838295
1748598496.031149,46.532000000,0.000000000,-1000.073669434,0.000000000,0.000000000,-18.362709045,-119.466461182,0.000000000,-19.965000153,8.932084084
1748598496.033676,46.535000000,0.000000000,-1000.073669434,0.000000000,0.000000000,-18.349208832,-119.114006042,0.000000000,-19.965000153,8.929615021
1748598496.036065,46.537000000,0.000000000,-1000.073669434,0.000000000,0.000000000,-18.335708618,-118.586479187,0.000000000,-19.965000153,8.927399635
1748598496.038441,46.540000000,0.000000000,-1000.073669434,0.000000000,0.000000000,-18.322208405,-118.261810303,0.000000000,-19.965000153,8.925414085
1748598496.040790,46.542000000,0.000000000,-1000.073669434,0.000000000,0.000000000,-18.308708191,-117.853919983,0.000000000,-19.965000153,8.923633575
1748598496.043140,46.544000000,0.000000000,-1000.073669434,0.000000000,0.000000000,-18.308708191,-115.647262573,0.000000000,-19.965000153,8.921966553
1748598496.045600,46.547000000,0.000000000,-1000.073669434,0.000000000,0.000000000,-18.295207977,-117.473258972,0.000000000,-19.965000153,8.920539856
1748598496.047904,46.549000000,0.000000000,-1000.073669434,0.000000000,0.000000000,-18.268207550,-118.862136841,0.000000000,-19.965000153,8.919333458
1748598496.050347,46.552000000,0.000000000,-1000.073669434,0.000000000,0.000000000,-18.254705429,-116.196823120,0.000000000,-19.965000153,8.918191910
1748598496.052735,46.554000000,0.000000000,-1000.073669434,0.000000000,0.000000000,-18.241207123,-115.755012512,0.000000000,-19.965000153,8.917171478
1748598496.055099,46.556000000,0.000000000,-1000.073669434,0.000000000,0.000000000,-18.227705002,-115.382827759,0.000000000,-19.965000153,8.916260719
1748598496.057424,46.559000000,0.000000000,-1000.073669434,0.000000000,0.000000000,-18.200704575,-116.827629089,0.000000000,-19.965000153,8.915520668
1748598496.059800,46.561000000,0.000000000,-1000.073669434,0.000000000,0.000000000,-18.187204361,-114.201286316,0.000000000,-19.965000153,8.914796829
1748598496.062186,46.563000000,0.000000000,-1000.073669434,0.000000000,0.000000000,-18.173704147,-113.749099731,0.000000000,-19.965000153,8.914153099
1748598496.064569,46.566000000,0.000000000,-1000.073669434,0.000000000,0.000000000,-18.160203934,-113.346809387,0.000000000,-19.965000153,8.913580894
1748598496.066967,46.568000000,0.000000000,-1000.073669434,0.000000000,0.000000000,-18.133203506,-114.697998047,0.000000000,-19.965000153,8.913146973
1748598496.069359,46.571000000,0.000000000,-1000.073669434,0.000000000,0.000000000,-18.119701385,-112.081062317,0.000000000,-19.965000153,8.912697792
1748598496.071789,46.573000000,0.000000000,-1000.073669434,0.000000000,0.000000000,-18.106203079,-111.692703247,0.000000000,-19.965000153,8.912301064
1748598496.074228,46.575000000,0.000000000,-1000.073669434,0.000000000,0.000000000,-18.079202652,-112.988685608,0.000000000,-19.965000153,8.912023544
1748598496.076681,46.578000000,0.000000000,-1000.073669434,0.000000000,0.000000000,-18.052202225,-112.140907288,0.000000000,-19.965000153,8.911789894
1748598496.079116,46.580000000,0.000000000,-1000.073669434,0.000000000,0.000000000,-18.025199890,-111.311080933,0.000000000,-19.965000153,8.911593437
1748598496.081626,46.583000000,0.000000000,-1000.073669434,0.000000000,0.000000000,-18.011699677,-108.777503967,0.000000000,-19.965000153,8.911357880
1748598496.084034,46.585000000,0.000000000,-1000.073669434,0.000000000,0.000000000,-17.998199463,-108.357101440,0.000000000,-19.965000153,8.911154747
1748598496.086432,46.588000000,0.000000000,-1000.073669434,0.000000000,0.000000000,-17.971199036,-109.768173218,0.000000000,-19.965000153,8.911051750
1748598496.088818,46.590000000,0.000000000,-1000.073669434,0.000000000,0.000000000,-17.957698822,-107.164642334,0.000000000,-19.965000153,8.910899162
1748598496.091176,46.592000000,0.000000000,-1000.073669434,0.000000000,0.000000000,-17.944198608,-106.777091980,0.000000000,-19.965000153,8.910771370
1748598496.093619,46.595000000,0.000000000,-1000.073669434,0.000000000,0.000000000,-17.917198181,-108.153121948,0.000000000,-19.965000153,8.910735130
1748598496.096120,46.597000000,0.000000000,-1000.073669434,0.000000000,0.000000000,-17.903697968,-105.481582642,0.000000000,-19.965000153,8.910644531
1748598496.098709,46.600000000,0.000000000,-1000.073669434,0.000000000,0.000000000,-17.876697540,-106.746879578,0.000000000,-19.965000153,8.910644531
1748598496.101054,46.602000000,0.000000000,-1000.073669434,0.000000000,0.000000000,-17.863195419,-104.162712097,0.000000000,-19.965000153,8.910585403
1748598496.103486,46.605000000,0.000000000,-1000.073669434,0.000000000,0.000000000,-17.849697113,-103.867210388,0.000000000,-19.965000153,8.910539627
1748598496.105843,46.607000000,0.000000000,-1000.073669434,0.000000000,0.000000000,-17.822696686,-105.196731567,0.000000000,-19.965000153,8.910578728
1748598496.108160,46.609000000,0.000000000,-1000.073669434,0.000000000,0.000000000,-17.809194565,-102.684837341,0.000000000,-19.965000153,8.910555840
1748598496.110641,46.612000000,0.000000000,-1000.073669434,0.000000000,0.000000000,-17.795696259,-102.300399780,0.000000000,-19.965000153,8.910541534
1748598496.113106,46.614000000,0.000000000,-1000.073669434,0.000000000,0.000000000,-17.768693924,-103.506706238,0.000000000,-19.965000153,8.910610199
1748598496.115459,46.617000000,0.000000000,-1000.073669434,0.000000000,0.000000000,-17.768693924,-99.220619202,0.000000000,-19.965000153,8.910540581
1748598496.117846,46.619000000,0.000000000,-1000.073669434,0.000000000,0.000000000,-17.755193710,-101.049468994,0.000000000,-19.965000153,8.910550117
1748598496.120159,46.621000000,0.000000000,-1000.073669434,0.000000000,0.000000000,-17.714693069,-104.203498840,0.000000000,-19.965000153,8.910713196
1748598496.122491,46.624000000,0.000000000,-1000.073669434,0.000000000,0.000000000,-17.701190948,-99.426300049,0.000000000,-19.965000153,8.910735130
1748598496.124854,46.626000000,0.000000000,-1000.073669434,0.000000000,0.000000000,-17.701190948,-97.167259216,0.000000000,-19.965000153,8.910689354
1748598496.127193,46.628000000,0.000000000,-1000.073669434,0.000000000,0.000000000,-17.687692642,-98.976020813,0.000000000,-19.965000153,8.910721779
1748598496.129633,46.631000000,0.000000000,-1000.073669434,0.000000000,0.000000000,-17.674190521,-98.594360352,0.000000000,-19.965000153,8.910757065
1748598496.132025,46.633000000,0.000000000,-1000.073669434,0.000000000,0.000000000,-17.674190521,-96.345932007,0.000000000,-19.965000153,8.910723686
1748598496.134387,46.636000000,0.000000000,-1000.073669434,0.000000000,0.000000000,-17.660692215,-98.122421265,0.000000000,-19.965000153,8.910765648
1748598496.136757,46.638000000,0.000000000,-1000.073669434,0.000000000,0.000000000,-17.647190094,-97.740867615,0.000000000,-19.965000153,8.910813332
1748598496.139127,46.640000000,0.000000000,-1000.073669434,0.000000000,0.000000000,-17.620189667,-99.170898438,0.000000000,-19.965000153,8.910935402
1748598496.141544,46.643000000,0.000000000,-1000.073669434,0.000000000,0.000000000,-17.579689026,-100.127532959,0.000000000,-19.965000153,8.911132813
1748598496.143929,46.645000000,0.000000000,-1000.073669434,0.000000000,0.000000000,-17.579689026,-93.471298218,0.000000000,-19.965000153,8.911112785
1748598496.146390,46.648000000,0.000000000,-1000.073669434,0.000000000,0.000000000,-17.579689026,-93.471298218,0.000000000,-19.965000153,8.911094666
1748598496.148911,46.650000000,0.000000000,-1000.073669434,0.000000000,0.000000000,-17.539188385,-98.804260254,0.000000000,-19.965000153,8.911299706
1748598496.151323,46.652000000,0.000000000,-1000.073669434,0.000000000,0.000000000,-17.512187958,-95.588356018,0.000000000,-19.965000153,8.911431313
1748598496.153793,46.655000000,0.000000000,-1000.073669434,0.000000000,0.000000000,-17.512187958,-91.417991638,0.000000000,-19.965000153,8.911418915
1748598496.156176,46.657000000,0.000000000,-1000.073669434,0.000000000,0.000000000,-17.498687744,-93.153717041,0.000000000,-19.965000153,8.911479950
1748598496.158588,46.660000000,0.000000000,-1000.073669434,0.000000000,0.000000000,-17.471687317,-94.535514832,0.000000000,-19.965000153,8.911616325
1748598496.160959,46.662000000,0.000000000,-1000.073669434,0.000000000,0.000000000,-17.485187531,-88.411987305,0.000000000,-19.965000153,8.911533356
1748598496.163386,46.665000000,0.000000000,-1000.073669434,0.000000000,0.000000000,-17.471687317,-92.407562256,0.000000000,-19.965000153,8.911598206
1748598496.165789,46.667000000,0.000000000,-1000.073669434,0.000000000,0.000000000,-17.444684982,-93.712646484,0.000000000,-19.965000153,8.911737442
1748598496.168160,46.669000000,0.000000000,-1000.073669434,0.000000000,0.000000000,-17.417684555,-92.951072693,0.000000000,-19.965000153,8.911877632
1748598496.170551,46.672000000,0.000000000,-1000.073669434,0.000000000,0.000000000,-17.417684555,-88.543304443,0.000000000,-19.965000153,8.911871910
1748598496.172945,46.674000000,0.000000000,-1000.073669434,0.000000000,0.000000000,-17.404186249,-90.339965820,0.000000000,-19.965000153,8.911939621
1748598496.175316,46.677000000,0.000000000,-1000.073669434,0.000000000,0.000000000,-17.377185822,-91.697120667,0.000000000,-19.965000153,8.912079811
1748598496.177690,46.679000000,0.000000000,-1000.073669434,0.000000000,0.000000000,-17.363683701,-89.121589661,0.000000000,-19.965000153,8.912150383
1748598496.180085,46.681000000,0.000000000,-1000.073669434,0.000000000,0.000000000,-17.350183487,-88.705009460,0.000000000,-19.965000153,8.912218094
1748598496.182477,46.684000000,0.000000000,-1000.073669434,0.000000000,0.000000000,-17.336683273,-88.286911011,0.000000000,-19.965000153,8.912289619
1748598496.184890,46.686000000,0.000000000,-1000.073669434,0.000000000,0.000000000,-17.323183060,-87.862457275,0.000000000,-19.965000153,8.912358284
1748598496.187284,46.688000000,0.000000000,-1000.073669434,0.000000000,0.000000000,-17.323183060,-85.668670654,0.000000000,-19.965000153,8.912355423
1748598496.189635,46.691000000,0.000000000,-1000.073669434,0.000000000,0.000000000,-17.309682846,-87.460052490,0.000000000,-19.965000153,8.912426949
1748598496.191999,46.693000000,0.000000000,-1000.073669434,0.000000000,0.000000000,-17.309682846,-85.258010864,0.000000000,-19.965000153,8.912425041
1748598496.194356,46.696000000,0.000000000,-1000.073669434,0.000000000,0.000000000,-17.296182632,-87.078315735,0.000000000,-19.965000153,8.912494659
1748598496.196823,46.698000000,0.000000000,-1000.073669434,0.000000000,0.000000000,-17.296182632,-84.847351074,0.000000000,-19.965000153,8.912492752
1748598496.199395,46.700000000,0.000000000,-1000.073669434,0.000000000,0.000000000,-17.296182632,-84.847351074,0.000000000,-19.965000153,8.912491798
1748598496.201936,46.703000000,0.000000000,-1000.073669434,0.000000000,0.000000000,-17.296182632,-84.847351074,0.000000000,-19.965000153,8.912489891
1748598496.204313,46.706000000,0.000000000,-1000.073669434,0.000000000,0.000000000,-17.269182205,-88.105903625,0.000000000,-19.965000153,8.912634850
1748598496.206683,46.708000000,0.000000000,-1000.073669434,0.000000000,0.000000000,-17.269182205,-84.026023865,0.000000000,-19.965000153,8.912633896
1748598496.209076,46.710000000,0.000000000,-1000.073669434,0.000000000,0.000000000,-17.269182205,-84.026023865,0.000000000,-19.965000153,8.912632942
1748598496.211430,46.713000000,0.000000000,-1000.073669434,0.000000000,0.000000000,-17.255680084,-85.823196411,0.000000000,-19.965000153,8.912705421
1748598496.213834,46.715000000,0.000000000,-1000.073669434,0.000000000,0.000000000,-17.242181778,-85.427818298,0.000000000,-19.965000153,8.912777901
1748598496.216182,46.717000000,0.000000000,-1000.073669434,0.000000000,0.000000000,-17.242181778,-83.204704285,0.000000000,-19.965000153,8.912776947
1748598496.218573,46.720000000,0.000000000,-1000.073669434,0.000000000,0.000000000,-17.242181778,-83.204704285,0.000000000,-19.965000153,8.912775993
1748598496.220954,46.722000000,0.000000000,-1000.073669434,0.000000000,0.000000000,-17.242181778,-83.204704285,0.000000000,-19.965000153,8.912775040
1748598496.223336,46.725000000,0.000000000,-1000.073669434,0.000000000,0.000000000,-17.242181778,-83.204704285,0.000000000,-19.965000153,8.912775040
1748598496.225732,46.727000000,0.000000000,-1000.073669434,0.000000000,0.000000000,-17.242181778,-83.204704285,0.000000000,-19.965000153,8.912774086
1748598496.228088,46.729000000,0.000000000,-1000.073669434,0.000000000,0.000000000,-17.242181778,-83.204704285,0.000000000,-19.965000153,8.912774086
1748598496.230566,46.732000000,0.000000000,-1000.073669434,0.000000000,0.000000000,-17.242181778,-83.204704285,0.000000000,-19.965000153,8.912773132
1748598496.232928,46.734000000,0.000000000,-1000.073669434,0.000000000,0.000000000,-17.242181778,-83.204704285,0.000000000,-19.965000153,8.912773132
1748598496.235382,46.737000000,0.000000000,-1000.073669434,0.000000000,0.000000000,-17.242181778,-83.204704285,0.000000000,-19.965000153,8.912772179
1748598496.237806,46.739000000,0.000000000,-1000.073669434,0.000000000,0.000000000,-17.242181778,-83.204704285,0.000000000,-19.965000153,8.912772179
1748598496.240256,46.741000000,0.000000000,-1000.073669434,0.000000000,0.000000000,-17.228679657,-84.971748352,0.000000000,-19.965000153,8.912845612
1748598496.242704,46.744000000,0.000000000,-1000.073669434,0.000000000,0.000000000,-17.201679230,-86.265426636,0.000000000,-19.965000153,8.912991524
1748598496.245158,46.746000000,0.000000000,-1000.073669434,0.000000000,0.000000000,-17.201679230,-81.972656250,0.000000000,-19.965000153,8.912991524
1748598496.247652,46.749000000,0.000000000,-1000.073669434,0.000000000,0.000000000,-17.201679230,-81.972656250,0.000000000,-19.965000153,8.912991524
1748598496.250013,46.751000000,0.000000000,-1000.073669434,0.000000000,0.000000000,-17.201679230,-81.972656250,0.000000000,-19.965000153,8.912991524
1748598496.252375,46.754000000,0.000000000,-1000.073669434,0.000000000,0.000000000,-17.174678802,-85.590698242,0.000000000,-19.965000153,8.913138390
1748598496.254722,46.756000000,0.000000000,-1000.073669434,0.000000000,0.000000000,-17.161178589,-82.969757080,0.000000000,-19.965000153,8.913210869
1748598496.257108,46.758000000,0.000000000,-1000.073669434,0.000000000,0.000000000,-17.174678802,-78.911827087,0.000000000,-19.965000153,8.913137436
1748598496.259476,46.761000000,0.000000000,-1000.073669434,0.000000000,0.000000000,-17.161178589,-82.954757690,0.000000000,-19.965000153,8.913210869
1748598496.261844,46.763000000,0.000000000,-1000.073669434,0.000000000,0.000000000,-17.161178589,-80.740676880,0.000000000,-19.965000153,8.913210869
1748598496.264268,46.765000000,0.000000000,-1000.073669434,0.000000000,0.000000000,-17.161178589,-80.740676880,0.000000000,-19.965000153,8.913210869
1748598496.266650,46.768000000,0.000000000,-1000.073669434,0.000000000,0.000000000,-17.161178589,-80.740676880,0.000000000,-19.965000153,8.913210869
1748598496.269050,46.770000000,0.000000000,-1000.073669434,0.000000000,0.000000000,-17.161178589,-80.740676880,0.000000000,-19.965000153,8.913210869
1748598496.271422,46.773000000,0.000000000,-1000.073669434,0.000000000,0.000000000,-17.161178589,-80.740676880,0.000000000,-19.965000153,8.913210869
1748598496.273782,46.775000000,0.000000000,-1000.073669434,0.000000000,0.000000000,-17.161178589,-80.740676880,0.000000000,-19.965000153,8.913210869
1748598496.276142,46.777000000,0.000000000,-1000.073669434,0.000000000,0.000000000,-17.161178589,-80.740676880,0.000000000,-19.965000153,8.913210869
1748598496.278509,46.780000000,0.000000000,-1000.073669434,0.000000000,0.000000000,-17.161178589,-80.740676880,0.000000000,-19.965000153,8.913210869
1748598496.280983,46.782000000,0.000000000,-1000.073669434,0.000000000,0.000000000,-17.161178589,-80.740676880,0.000000000,-19.965000153,8.913209915
1748598496.283378,46.785000000,0.000000000,-1000.073669434,0.000000000,0.000000000,-17.161178589,-80.740676880,0.000000000,-19.965000153,8.913209915
1748598496.285773,46.787000000,0.000000000,-1000.073669434,0.000000000,0.000000000,-17.161178589,-80.740676880,0.000000000,-19.965000153,8.913209915
1748598496.288207,46.789000000,0.000000000,-1000.073669434,0.000000000,0.000000000,-17.161178589,-80.740676880,0.000000000,-19.965000153,8.913209915
1748598496.290648,46.792000000,0.000000000,-1000.073669434,0.000000000,0.000000000,-17.161178589,-80.740676880,0.000000000,-19.965000153,8.913209915
1748598496.293151,46.794000000,0.000000000,-1000.073669434,0.000000000,0.000000000,-17.174678802,-78.989974976,0.000000000,-19.965000153,8.913136482
1748598496.295631,46.797000000,0.000000000,-1000.073669434,0.000000000,0.000000000,-17.161178589,-82.871429443,0.000000000,-19.965000153,8.913209915
1748598496.298174,46.799000000,0.000000000,-1000.073669434,0.000000000,0.000000000,-17.161178589,-80.740676880,0.000000000,-19.965000153,8.913209915
1748598496.300484,46.802000000,0.000000000,-1000.073669434,0.000000000,0.000000000,-17.174678802,-79.044464111,0.000000000,-19.965000153,8.913136482
1748598496.302839,46.804000000,0.000000000,-1000.073669434,0.000000000,0.000000000,-17.174678802,-81.151336670,0.000000000,-19.965000153,8.913136482
1748598496.305186,46.806000000,0.000000000,-1000.073669434,0.000000000,0.000000000,-17.174678802,-81.151336670,0.000000000,-19.965000153,8.913136482
1748598496.307587,46.809000000,0.000000000,-1000.073669434,0.000000000,0.000000000,-17.174678802,-81.151336670,0.000000000,-19.965000153,8.913136482
1748598496.309967,46.811000000,0.000000000,-1000.073669434,0.000000000,0.000000000,-17.174678802,-81.151336670,0.000000000,-19.965000153,8.913136482
1748598496.312343,46.814000000,0.000000000,-1000.073669434,0.000000000,0.000000000,-17.174678802,-81.151336670,0.000000000,-19.965000153,8.913136482
1748598496.314733,46.816000000,0.000000000,-1000.073669434,0.000000000,0.000000000,-17.161178589,-82.958488464,0.000000000,-19.965000153,8.913209915
1748598496.317104,46.818000000,0.000000000,-1000.073669434,0.000000000,0.000000000,-17.174678802,-78.937255859,0.000000000,-19.965000153,8.913136482
1748598496.319470,46.821000000,0.000000000,-1000.073669434,0.000000000,0.000000000,-17.174678802,-81.151336670,0.000000000,-19.965000153,8.913136482
1748598496.321852,46.823000000,0.000000000,-1000.073669434,0.000000000,0.000000000,-17.174678802,-81.151336670,0.000000000,-19.965000153,8.913136482
1748598496.324224,46.825000000,0.000000000,-1000.073669434,0.000000000,0.000000000,-17.174678802,-81.151336670,0.000000000,-19.965000153,8.913136482
1748598496.326594,46.828000000,0.000000000,-1000.073669434,0.000000000,0.000000000,-17.174678802,-81.151336670,0.000000000,-19.965000153,8.913136482
1748598496.328967,46.830000000,0.000000000,-1000.073669434,0.000000000,0.000000000,-17.174678802,-81.151336670,0.000000000,-19.965000153,8.913136482
1748598496.331410,46.833000000,0.000000000,-1000.073669434,0.000000000,0.000000000,-17.174678802,-81.151336670,0.000000000,-19.965000153,8.913136482
1748598496.333809,46.835000000,0.000000000,-1000.073669434,0.000000000,0.000000000,-17.174678802,-81.151336670,0.000000000,-19.965000153,8.913136482
1748598496.336260,46.837000000,0.000000000,-1000.073669434,0.000000000,0.000000000,-17.174678802,-81.151336670,0.000000000,-19.965000153,8.913136482
1748598496.338681,46.840000000,0.000000000,-1000.073669434,0.000000000,0.000000000,-17.174678802,-81.151336670,0.000000000,-19.965000153,8.913136482
1748598496.341069,46.842000000,0.000000000,-1000.073669434,0.000000000,0.000000000,-17.174678802,-81.151336670,0.000000000,-19.965000153,8.913136482
1748598496.343440,46.845000000,0.000000000,-1000.073669434,0.000000000,0.000000000,-17.174678802,-81.151336670,0.000000000,-19.965000153,8.913136482
1748598496.345812,46.847000000,0.000000000,-1000.073669434,0.000000000,0.000000000,-17.174678802,-81.151336670,0.000000000,-19.965000153,8.913136482
1748598496.348271,46.849000000,0.000000000,-1000.073669434,0.000000000,0.000000000,-17.174678802,-81.151336670,0.000000000,-19.965000153,8.913136482
1748598496.350647,46.852000000,0.000000000,-1000.073669434,0.000000000,0.000000000,-17.174678802,-81.151336670,0.000000000,-19.965000153,8.913136482
1748598496.353105,46.854000000,0.000000000,-1000.073669434,0.000000000,0.000000000,-17.174678802,-81.151336670,0.000000000,-19.965000153,8.913136482
1748598496.355470,46.857000000,0.000000000,-1000.073669434,0.000000000,0.000000000,-17.174678802,-81.151336670,0.000000000,-19.965000153,8.913136482
1748598496.357874,46.859000000,0.000000000,-1000.073669434,0.000000000,0.000000000,-17.188179016,-79.345115662,0.000000000,-19.965000153,8.913063049
1748598496.360259,46.861000000,0.000000000,-1000.073669434,0.000000000,0.000000000,-17.188179016,-81.561996460,0.000000000,-19.965000153,8.913063049
1748598496.362646,46.864000000,0.000000000,-1000.073669434,0.000000000,0.000000000,-17.188179016,-81.561996460,0.000000000,-19.965000153,8.913063049
1748598496.365129,46.866000000,0.000000000,-1000.073669434,0.000000000,0.000000000,-17.188179016,-81.561996460,0.000000000,-19.965000153,8.913063049
1748598496.367612,46.869000000,0.000000000,-1000.073669434,0.000000000,0.000000000,-17.188179016,-81.561996460,0.000000000,-19.965000153,8.913063049
1748598496.369999,46.871000000,0.000000000,-1000.073669434,0.000000000,0.000000000,-17.188179016,-81.561996460,0.000000000,-19.965000153,8.913063049
1748598496.372422,46.874000000,0.000000000,-1000.073669434,0.000000000,0.000000000,-17.201679230,-79.773376465,0.000000000,-19.965000153,8.912989616
1748598496.374795,46.876000000,0.000000000,-1000.073669434,0.000000000,0.000000000,-17.228679657,-78.388061523,0.000000000,-19.965000153,8.912842751
1748598496.377174,46.878000000,0.000000000,-1000.073669434,0.000000000,0.000000000,-17.228679657,-82.793983459,0.000000000,-19.965000153,8.912842751
1748598496.379634,46.881000000,0.000000000,-1000.073669434,0.000000000,0.000000000,-17.228679657,-82.793983459,0.000000000,-19.965000153,8.912842751
1748598496.382067,46.883000000,0.000000000,-1000.073669434,0.000000000,0.000000000,-17.228679657,-82.793983459,0.000000000,-19.965000153,8.912842751
1748598496.384496,46.886000000,0.000000000,-1000.073669434,0.000000000,0.000000000,-17.242181778,-81.054512024,0.000000000,-19.965000153,8.912769318
1748598496.386934,46.888000000,0.000000000,-1000.073669434,0.000000000,0.000000000,-17.269182205,-79.710380554,0.000000000,-19.965000153,8.912622452
1748598496.389407,46.891000000,0.000000000,-1000.073669434,0.000000000,0.000000000,-17.269182205,-84.026023865,0.000000000,-19.965000153,8.912622452
1748598496.391818,46.893000000,0.000000000,-1000.073669434,0.000000000,0.000000000,-17.269182205,-84.026023865,0.000000000,-19.965000153,8.912622452
1748598496.394205,46.895000000,0.000000000,-1000.073669434,0.000000000,0.000000000,-17.269182205,-84.026023865,0.000000000,-19.965000153,8.912622452
1748598496.396583,46.898000000,0.000000000,-1000.073669434,0.000000000,0.000000000,-17.282680511,-82.236740112,0.000000000,-19.965000153,8.912549019
1748598496.399096,46.900000000,0.000000000,-1000.073669434,0.000000000,0.000000000,-17.269182205,-86.240722656,0.000000000,-19.965000153,8.912622452
1748598496.401418,46.903000000,0.000000000,-1000.073669434,0.000000000,0.000000000,-17.269182205,-84.026023865,0.000000000,-19.965000153,8.912622452
1748598496.403774,46.905000000,0.000000000,-1000.073669434,0.000000000,0.000000000,-17.269182205,-84.026023865,0.000000000,-19.965000153,8.912622452
1748598496.406143,46.907000000,0.000000000,-1000.073669434,0.000000000,0.000000000,-17.282680511,-82.214454651,0.000000000,-19.965000153,8.912549019
1748598496.408518,46.910000000,0.000000000,-1000.073669434,0.000000000,0.000000000,-17.269182205,-86.246330261,0.000000000,-19.965000153,8.912622452
1748598496.410879,46.912000000,0.000000000,-1000.073669434,0.000000000,0.000000000,-17.282680511,-82.208808899,0.000000000,-19.965000153,8.912549019
1748598496.413307,46.915000000,0.000000000,-1000.073669434,0.000000000,0.000000000,-17.282680511,-84.436630249,0.000000000,-19.965000153,8.912549019
1748598496.415711,46.917000000,0.000000000,-1000.073669434,0.000000000,0.000000000,-17.282680511,-84.436630249,0.000000000,-19.965000153,8.912549019
1748598496.418086,46.919000000,0.000000000,-1000.073669434,0.000000000,0.000000000,-17.282680511,-84.436630249,0.000000000,-19.965000153,8.912549019
1748598496.420485,46.922000000,0.000000000,-1000.073669434,0.000000000,0.000000000,-17.282680511,-84.436630249,0.000000000,-19.965000153,8.912549019
1748598496.422859,46.924000000,0.000000000,-1000.073669434,0.000000000,0.000000000,-17.269182205,-86.230522156,0.000000000,-19.965000153,8.912622452
1748598496.425252,46.926000000,0.000000000,-1000.073669434,0.000000000,0.000000000,-17.282680511,-82.224723816,0.000000000,-19.965000153,8.912549019
1748598496.427640,46.929000000,0.000000000,-1000.073669434,0.000000000,0.000000000,-17.282680511,-84.436630249,0.000000000,-19.965000153,8.912549019
1748598496.430115,46.931000000,0.000000000,-1000.073669434,0.000000000,0.000000000,-17.282680511,-84.436630249,0.000000000,-19.965000153,8.912549019
1748598496.432560,46.934000000,0.000000000,-1000.073669434,0.000000000,0.000000000,-17.282680511,-84.436630249,0.000000000,-19.965000153,8.912549019
1748598496.434924,46.936000000,0.000000000,-1000.073669434,0.000000000,0.000000000,-17.296182632,-82.699783325,0.000000000,-19.965000153,8.912475586
1748598496.437339,46.939000000,0.000000000,-1000.073669434,0.000000000,0.000000000,-17.282680511,-86.641754150,0.000000000,-19.965000153,8.912549019
1748598496.439730,46.941000000,0.000000000,-1000.073669434,0.000000000,0.000000000,-17.282680511,-84.436630249,0.000000000,-19.965000153,8.912549019
1748598496.442146,46.943000000,0.000000000,-1000.073669434,0.000000000,0.000000000,-17.282680511,-84.436630249,0.000000000,-19.965000153,8.912549019
1748598496.444535,46.946000000,0.000000000,-1000.073669434,0.000000000,0.000000000,-17.296182632,-82.665977478,0.000000000,-19.965000153,8.912475586
1748598496.446906,46.948000000,0.000000000,-1000.073669434,0.000000000,0.000000000,-17.282680511,-86.644523621,0.000000000,-19.965000153,8.912549019
1748598496.449339,46.951000000,0.000000000,-1000.073669434,0.000000000,0.000000000,-17.282680511,-84.436630249,0.000000000,-19.965000153,8.912549019
1748598496.451714,46.953000000,0.000000000,-1000.073669434,0.000000000,0.000000000,-17.282680511,-84.436630249,0.000000000,-19.965000153,8.912549019
1748598496.454087,46.955000000,0.000000000,-1000.073669434,0.000000000,0.000000000,-17.282680511,-84.436630249,0.000000000,-19.965000153,8.912549019
1748598496.456465,46.958000000,0.000000000,-1000.073669434,0.000000000,0.000000000,-17.282680511,-84.436630249,0.000000000,-19.965000153,8.912549019
1748598496.458854,46.960000000,0.000000000,-1000.073669434,0.000000000,0.000000000,-17.296182632,-82.634819031,0.000000000,-19.965000153,8.912475586
1748598496.461240,46.962000000,0.000000000,-1000.073669434,0.000000000,0.000000000,-17.296182632,-84.847351074,0.000000000,-19.965000153,8.912475586
1748598496.463654,46.965000000,0.000000000,-1000.073669434,0.000000000,0.000000000,-17.296182632,-84.847351074,0.000000000,-19.965000153,8.912475586
1748598496.466027,46.967000000,0.000000000,-1000.073669434,0.000000000,0.000000000,-17.296182632,-84.847351074,0.000000000,-19.965000153,8.912475586
1748598496.468425,46.970000000,0.000000000,-1000.073669434,0.000000000,0.000000000,-17.282680511,-86.642677307,0.000000000,-19.965000153,8.912549019
1748598496.470821,46.972000000,0.000000000,-1000.073669434,0.000000000,0.000000000,-17.282680511,-84.436630249,0.000000000,-19.965000153,8.912549019
1748598496.473209,46.974000000,0.000000000,-1000.073669434,0.000000000,0.000000000,-17.282680511,-84.436630249,0.000000000,-19.965000153,8.912549019
1748598496.475605,46.977000000,0.000000000,-1000.073669434,0.000000000,0.000000000,-17.282680511,-84.436630249,0.000000000,-19.965000153,8.912549019
1748598496.477986,46.979000000,0.000000000,-1000.073669434,0.000000000,0.000000000,-17.282680511,-84.436630249,0.000000000,-19.965000153,8.912549019
1748598496.480374,46.982000000,0.000000000,-1000.073669434,0.000000000,0.000000000,-17.282680511,-84.436630249,0.000000000,-19.965000153,8.912549019
1748598496.482795,46.984000000,0.000000000,-1000.073669434,0.000000000,0.000000000,-17.282680511,-84.436630249,0.000000000,-19.965000153,8.912549019
1748598496.485160,46.986000000,0.000000000,-1000.073669434,0.000000000,0.000000000,-17.282680511,-84.436630249,0.000000000,-19.965000153,8.912549019
1748598496.487576,46.989000000,0.000000000,-1000.073669434,0.000000000,0.000000000,-17.282680511,-84.436630249,0.000000000,-19.965000153,8.912549019
1748598496.489979,46.991000000,0.000000000,-1000.073669434,0.000000000,0.000000000,-17.282680511,-84.436630249,0.000000000,-19.965000153,8.912549019
1748598496.492377,46.994000000,0.000000000,-1000.073669434,0.000000000,0.000000000,-17.282680511,-84.436630249,0.000000000,-19.965000153,8.912549019
1748598496.494769,46.996000000,0.000000000,-1000.073669434,0.000000000,0.000000000,-17.282680511,-84.436630249,0.000000000,-19.965000153,8.912549019
1748598496.497325,46.998000000,0.000000000,-1000.073669434,0.000000000,0.000000000,-17.282680511,-84.436630249,0.000000000,-19.965000153,8.912549019
1748598496.499693,47.001000000,0.000000000,-1000.073669434,0.000000000,0.000000000,-17.282680511,-84.436630249,0.000000000,-19.965000153,8.912549019
1748598496.502080,47.003000000,0.000000000,-1000.073669434,0.000000000,0.000000000,-17.282680511,-84.436630249,0.000000000,-19.965000153,8.912549019
1748598496.504465,47.006000000,0.000000000,-1000.073669434,0.000000000,0.000000000,-17.282680511,-84.436630249,0.000000000,-19.965000153,8.912549019
1748598496.506855,47.008000000,0.000000000,-1000.073669434,0.000000000,0.000000000,-17.282680511,-84.436630249,0.000000000,-19.965000153,8.912549019
1748598496.509236,47.010000000,0.000000000,-1000.073669434,0.000000000,0.000000000,-17.282680511,-84.436630249,0.000000000,-19.965000153,8.912549019
1748598496.511733,47.013000000,0.000000000,-1000.073669434,0.000000000,0.000000000,-17.269182205,-86.224075317,0.000000000,-19.965000153,8.912622452
1748598496.514181,47.015000000,0.000000000,-1000.073669434,0.000000000,0.000000000,-17.269182205,-84.026023865,0.000000000,-19.965000153,8.912622452
1748598496.516646,47.018000000,0.000000000,-1000.073669434,0.000000000,0.000000000,-17.282680511,-82.277343750,0.000000000,-19.965000153,8.912549019
1748598496.519022,47.020000000,0.000000000,-1000.073669434,0.000000000,0.000000000,-17.282680511,-84.436630249,0.000000000,-19.965000153,8.912549019
1748598496.521411,47.023000000,0.000000000,-1000.073669434,0.000000000,0.000000000,-17.282680511,-84.436630249,0.000000000,-19.965000153,8.912549019
1748598496.523782,47.025000000,0.000000000,-1000.073669434,0.000000000,0.000000000,-17.282680511,-84.436630249,0.000000000,-19.965000153,8.912549019
1748598496.526142,47.027000000,0.000000000,-1000.073669434,0.000000000,0.000000000,-17.282680511,-84.436630249,0.000000000,-19.965000153,8.912549019
1748598496.528522,47.030000000,0.000000000,-1000.073669434,0.000000000,0.000000000,-17.282680511,-84.436630249,0.000000000,-19.965000153,8.912549019
1748598496.530939,47.032000000,0.000000000,-1000.073669434,0.000000000,0.000000000,-17.282680511,-84.436630249,0.000000000,-19.965000153,8.912549019
1748598496.533294,47.035000000,0.000000000,-1000.073669434,0.000000000,0.000000000,-17.282680511,-84.436630249,0.000000000,-19.965000153,8.912549019
1748598496.535704,47.037000000,0.000000000,-1000.073669434,0.000000000,0.000000000,-17.282680511,-84.436630249,0.000000000,-19.965000153,8.912549019
1748598496.538091,47.039000000,0.000000000,-1000.073669434,0.000000000,0.000000000,-17.282680511,-84.436630249,0.000000000,-19.965000153,8.912549019
1748598496.540460,47.042000000,0.000000000,-1000.073669434,0.000000000,0.000000000,-17.282680511,-84.436630249,0.000000000,-19.965000153,8.912549019
1748598496.542828,47.044000000,0.000000000,-1000.073669434,0.000000000,0.000000000,-17.282680511,-84.436630249,0.000000000,-19.965000153,8.912549019
1748598496.545206,47.046000000,0.000000000,-1000.073669434,0.000000000,0.000000000,-17.282680511,-84.436630249,0.000000000,-19.965000153,8.912549019
1748598496.547642,47.049000000,0.000000000,-1000.073669434,0.000000000,0.000000000,-17.282680511,-84.436630249,0.000000000,-19.965000153,8.912549019
1748598496.550084,47.051000000,0.000000000,-1000.073669434,0.000000000,0.000000000,-17.282680511,-84.436630249,0.000000000,-19.965000153,8.912549019
1748598496.552474,47.054000000,0.000000000,-1000.073669434,0.000000000,0.000000000,-17.282680511,-84.436630249,0.000000000,-19.965000153,8.912549019
1748598496.554853,47.056000000,0.000000000,-1000.073669434,0.000000000,0.000000000,-17.282680511,-84.436630249,0.000000000,-19.965000153,8.912549019
1748598496.557219,47.058000000,0.000000000,-1000.073669434,0.000000000,0.000000000,-17.282680511,-84.436630249,0.000000000,-19.965000153,8.912549019
1748598496.559628,47.061000000,0.000000000,-1000.073669434,0.000000000,0.000000000,-17.282680511,-84.436630249,0.000000000,-19.965000153,8.912549019
1748598496.562086,47.063000000,0.000000000,-1000.073669434,0.000000000,0.000000000,-17.282680511,-84.436630249,0.000000000,-19.965000153,8.912549019
1748598496.564575,47.066000000,0.000000000,-1000.073669434,0.000000000,0.000000000,-17.282680511,-84.436630249,0.000000000,-19.965000153,8.912549019
1748598496.566996,47.068000000,0.000000000,-1000.073669434,0.000000000,0.000000000,-17.282680511,-84.436630249,0.000000000,-19.965000153,8.912549019
1748598496.569397,47.071000000,0.000000000,-1000.073669434,0.000000000,0.000000000,-17.282680511,-84.436630249,0.000000000,-19.965000153,8.912549019
1748598496.571807,47.073000000,0.000000000,-1000.073669434,0.000000000,0.000000000,-17.282680511,-84.436630249,0.000000000,-19.965000153,8.912549019
1748598496.574192,47.075000000,0.000000000,-1000.073669434,0.000000000,0.000000000,-17.282680511,-84.436630249,0.000000000,-19.965000153,8.912549019
1748598496.576663,47.078000000,0.000000000,-1000.073669434,0.000000000,0.000000000,-17.282680511,-84.436630249,0.000000000,-19.965000153,8.912549019
1748598496.579035,47.080000000,0.000000000,-1000.073669434,0.000000000,0.000000000,-17.282680511,-84.436630249,0.000000000,-19.965000153,8.912549019
1748598496.581485,47.083000000,0.000000000,-1000.073669434,0.000000000,0.000000000,-17.282680511,-84.436630249,0.000000000,-19.965000153,8.912549019
1748598496.583840,47.085000000,0.000000000,-1000.073669434,0.000000000,0.000000000,-17.282680511,-84.436630249,0.000000000,-19.965000153,8.912549019
1748598496.586185,47.087000000,0.000000000,-1000.073669434,0.000000000,0.000000000,-17.282680511,-84.436630249,0.000000000,-19.965000153,8.912549019
1748598496.588570,47.090000000,0.000000000,-1000.073669434,0.000000000,0.000000000,-17.282680511,-84.436630249,0.000000000,-19.965000153,8.912549019
1748598496.590949,47.092000000,0.000000000,-1000.073669434,0.000000000,0.000000000,-17.282680511,-84.436630249,0.000000000,-19.965000153,8.912549019
1748598496.593314,47.095000000,0.000000000,-1000.073669434,0.000000000,0.000000000,-17.269182205,-86.239791870,0.000000000,-19.965000153,8.912622452
1748598496.595688,47.097000000,0.000000000,-1000.073669434,0.000000000,0.000000000,-17.269182205,-84.026023865,0.000000000,-19.965000153,8.912622452
1748598496.598317,47.099000000,0.000000000,-1000.073669434,0.000000000,0.000000000,-17.269182205,-84.026023865,0.000000000,-19.965000153,8.912622452
1748598496.600603,47.102000000,0.000000000,-1000.073669434,0.000000000,0.000000000,-17.269182205,-84.026023865,0.000000000,-19.965000153,8.912622452
1748598496.602997,47.104000000,0.000000000,-1000.073669434,0.000000000,0.000000000,-17.269182205,-84.026023865,0.000000000,-19.965000153,8.912622452
1748598496.605382,47.107000000,0.000000000,-1000.073669434,0.000000000,0.000000000,-17.269182205,-84.026023865,0.000000000,-19.965000153,8.912622452
1748598496.607807,47.109000000,0.000000000,-1000.073669434,0.000000000,0.000000000,-17.282680511,-82.237655640,0.000000000,-19.965000153,8.912549019
1748598496.610241,47.111000000,0.000000000,-1000.073669434,0.000000000,0.000000000,-17.282680511,-84.436630249,0.000000000,-19.965000153,8.912549019
1748598496.612729,47.114000000,0.000000000,-1000.073669434,0.000000000,0.000000000,-17.282680511,-84.436630249,0.000000000,-19.965000153,8.912549019
1748598496.615308,47.116000000,0.000000000,-1000.073669434,0.000000000,0.000000000,-17.282680511,-84.436630249,0.000000000,-19.965000153,8.912549019
1748598496.617701,47.119000000,0.000000000,-1000.073669434,0.000000000,0.000000000,-17.282680511,-84.436630249,0.000000000,-19.965000153,8.912549019
1748598496.620050,47.121000000,0.000000000,-1000.073669434,0.000000000,0.000000000,-17.269182205,-86.188858032,0.000000000,-19.965000153,8.912622452
1748598496.622436,47.124000000,0.000000000,-1000.073669434,0.000000000,0.000000000,-17.269182205,-84.026023865,0.000000000,-19.965000153,8.912622452
1748598496.624754,47.126000000,0.000000000,-1000.073669434,0.000000000,0.000000000,-17.269182205,-84.026023865,0.000000000,-19.965000153,8.912622452
1748598496.627119,47.128000000,0.000000000,-1000.073669434,0.000000000,0.000000000,-17.269182205,-84.026023865,0.000000000,-19.965000153,8.912622452
1748598496.629556,47.131000000,0.000000000,-1000.073669434,0.000000000,0.000000000,-17.269182205,-84.026023865,0.000000000,-19.965000153,8.912622452
1748598496.631926,47.133000000,0.000000000,-1000.073669434,0.000000000,0.000000000,-17.269182205,-84.026023865,0.000000000,-19.965000153,8.912622452
1748598496.634334,47.136000000,0.000000000,-1000.073669434,0.000000000,0.000000000,-17.269182205,-84.026023865,0.000000000,-19.965000153,8.912622452
1748598496.636673,47.138000000,0.000000000,-1000.073669434,0.000000000,0.000000000,-17.269182205,-84.026023865,0.000000000,-19.965000153,8.912622452
1748598496.639047,47.140000000,0.000000000,-1000.073669434,0.000000000,0.000000000,-17.269182205,-84.026023865,0.000000000,-19.965000153,8.912622452
1748598496.641428,47.143000000,0.000000000,-1000.073669434,0.000000000,0.000000000,-17.269182205,-84.026023865,0.000000000,-19.965000153,8.912622452
1748598496.643802,47.145000000,0.000000000,-1000.073669434,0.000000000,0.000000000,-17.269182205,-84.026023865,0.000000000,-19.965000153,8.912622452
1748598496.646210,47.147000000,0.000000000,-1000.073669434,0.000000000,0.000000000,-17.269182205,-84.026023865,0.000000000,-19.965000153,8.912622452
1748598496.648605,47.150000000,0.000000000,-1000.073669434,0.000000000,0.000000000,-17.269182205,-84.026023865,0.000000000,-19.965000153,8.912622452
1748598496.650979,47.152000000,0.000000000,-1000.073669434,0.000000000,0.000000000,-17.269182205,-84.026023865,0.000000000,-19.965000153,8.912622452
1748598496.653343,47.155000000,0.000000000,-1000.073669434,0.000000000,0.000000000,-17.269182205,-84.026023865,0.000000000,-19.965000153,8.912622452
1748598496.655742,47.157000000,0.000000000,-1000.073669434,0.000000000,0.000000000,-17.255680084,-85.839988708,0.000000000,-19.965000153,8.912695885
1748598496.658108,47.159000000,0.000000000,-1000.073669434,0.000000000,0.000000000,-17.255680084,-83.615303040,0.000000000,-19.965000153,8.912695885
1748598496.660568,47.162000000,0.000000000,-1000.073669434,0.000000000,0.000000000,-17.255680084,-83.615303040,0.000000000,-19.965000153,8.912695885
1748598496.663055,47.164000000,0.000000000,-1000.073669434,0.000000000,0.000000000,-17.255680084,-83.615303040,0.000000000,-19.965000153,8.912695885
1748598496.665422,47.167000000,0.000000000,-1000.073669434,0.000000000,0.000000000,-17.255680084,-83.615303040,0.000000000,-19.965000153,8.912695885
1748598496.667886,47.169000000,0.000000000,-1000.073669434,0.000000000,0.000000000,-17.255680084,-83.615303040,0.000000000,-19.965000153,8.912695885
1748598496.670317,47.172000000,0.000000000,-1000.073669434,0.000000000,0.000000000,-17.255680084,-83.615303040,0.000000000,-19.965000153,8.912695885
1748598496.672808,47.174000000,0.000000000,-1000.073669434,0.000000000,0.000000000,-17.255680084,-83.615303040,0.000000000,-19.965000153,8.912695885
1748598496.675133,47.176000000,0.000000000,-1000.073669434,0.000000000,0.000000000,-17.255680084,-83.615303040,0.000000000,-19.965000153,8.912695885
1748598496.677497,47.179000000,0.000000000,-1000.073669434,0.000000000,0.000000000,-17.255680084,-83.615303040,0.000000000,-19.965000153,8.912695885
1748598496.679928,47.181000000,0.000000000,-1000.073669434,0.000000000,0.000000000,-17.255680084,-83.615303040,0.000000000,-19.965000153,8.912695885
1748598496.682301,47.184000000,0.000000000,-1000.073669434,0.000000000,0.000000000,-17.255680084,-83.615303040,0.000000000,-19.965000153,8.912695885
1748598496.684708,47.186000000,0.000000000,-1000.073669434,0.000000000,0.000000000,-17.255680084,-83.615303040,0.000000000,-19.965000153,8.912695885
1748598496.687047,47.188000000,0.000000000,-1000.073669434,0.000000000,0.000000000,-17.255680084,-83.615303040,0.000000000,-19.965000153,8.912695885
1748598496.689408,47.191000000,0.000000000,-1000.073669434,0.000000000,0.000000000,-17.255680084,-83.615303040,0.000000000,-19.965000153,8.912695885
1748598496.691806,47.193000000,0.000000000,-1000.073669434,0.000000000,0.000000000,-17.255680084,-83.615303040,0.000000000,-19.965000153,8.912695885
1748598496.694182,47.195000000,0.000000000,-1000.073669434,0.000000000,0.000000000,-17.255680084,-83.615303040,0.000000000,-19.965000153,8.912695885
1748598496.696609,47.198000000,0.000000000,-1000.073669434,0.000000000,0.000000000,-17.255680084,-83.615303040,0.000000000,-19.965000153,8.912695885
1748598496.699025,47.200000000,0.000000000,-1000.073669434,0.000000000,0.000000000,-17.255680084,-83.615303040,0.000000000,-19.965000153,8.912695885
1748598496.701368,47.203000000,0.000000000,-1000.073669434,0.000000000,0.000000000,-17.255680084,-83.615303040,0.000000000,-19.965000153,8.912695885
1748598496.703732,47.205000000,0.000000000,-1000.073669434,0.000000000,0.000000000,-17.255680084,-83.615303040,0.000000000,-19.965000153,8.912695885
1748598496.706108,47.207000000,0.000000000,-1000.073669434,0.000000000,0.000000000,-17.255680084,-83.615303040,0.000000000,-19.965000153,8.912695885
1748598496.708516,47.210000000,0.000000000,-1000.073669434,0.000000000,0.000000000,-17.255680084,-83.615303040,0.000000000,-19.965000153,8.912695885
1748598496.710872,47.212000000,0.000000000,-1000.073669434,0.000000000,0.000000000,-17.255680084,-83.615303040,0.000000000,-19.965000153,8.912695885
1748598496.713363,47.215000000,0.000000000,-1000.073669434,0.000000000,0.000000000,-17.255680084,-83.615303040,0.000000000,-19.965000153,8.912695885
1748598496.715954,47.217000000,0.000000000,-1000.073669434,0.000000000,0.000000000,-17.255680084,-83.615303040,0.000000000,-19.965000153,8.912695885
1748598496.718271,47.219000000,0.000000000,-1000.073669434,0.000000000,0.000000000,-17.255680084,-83.615303040,0.000000000,-19.965000153,8.912695885
1748598496.720612,47.222000000,0.000000000,-1000.073669434,0.000000000,0.000000000,-17.255680084,-83.615303040,0.000000000,-19.965000153,8.912695885
1748598496.723003,47.224000000,0.000000000,-1000.073669434,0.000000000,0.000000000,-17.255680084,-83.615303040,0.000000000,-19.965000153,8.912695885
1748598496.725373,47.227000000,0.000000000,-1000.073669434,0.000000000,0.000000000,-17.255680084,-83.615303040,0.000000000,-19.965000153,8.912695885
1748598496.727743,47.229000000,0.000000000,-1000.073669434,0.000000000,0.000000000,-17.255680084,-83.615303040,0.000000000,-19.965000153,8.912695885
1748598496.730081,47.231000000,0.000000000,-1000.073669434,0.000000000,0.000000000,-17.269182205,-81.801338196,0.000000000,-19.965000153,8.912622452
1748598496.732460,47.234000000,0.000000000,-1000.073669434,0.000000000,0.000000000,-17.269182205,-84.026023865,0.000000000,-19.965000153,8.912622452
1748598496.734823,47.236000000,0.000000000,-1000.073669434,0.000000000,0.000000000,-17.255680084,-85.834365845,0.000000000,-19.965000153,8.912695885
1748598496.737195,47.238000000,0.000000000,-1000.073669434,0.000000000,0.000000000,-17.255680084,-83.615303040,0.000000000,-19.965000153,8.912695885
1748598496.739565,47.241000000,0.000000000,-1000.073669434,0.000000000,0.000000000,-17.255680084,-83.615303040,0.000000000,-19.965000153,8.912695885
1748598496.741935,47.243000000,0.000000000,-1000.073669434,0.000000000,0.000000000,-17.269182205,-81.813491821,0.000000000,-19.965000153,8.912622452
1748598496.744322,47.246000000,0.000000000,-1000.073669434,0.000000000,0.000000000,-17.269182205,-84.026023865,0.000000000,-19.965000153,8.912622452
1748598496.746731,47.248000000,0.000000000,-1000.073669434,0.000000000,0.000000000,-17.269182205,-84.026023865,0.000000000,-19.965000153,8.912622452
1748598496.749138,47.250000000,0.000000000,-1000.073669434,0.000000000,0.000000000,-17.269182205,-84.026023865,0.000000000,-19.965000153,8.912622452
1748598496.751527,47.253000000,0.000000000,-1000.073669434,0.000000000,0.000000000,-17.269182205,-84.026023865,0.000000000,-19.965000153,8.912622452
1748598496.753927,47.255000000,0.000000000,-1000.073669434,0.000000000,0.000000000,-17.269182205,-84.026023865,0.000000000,-19.965000153,8.912622452
1748598496.756297,47.257000000,0.000000000,-1000.073669434,0.000000000,0.000000000,-17.269182205,-84.026023865,0.000000000,-19.965000153,8.912622452
1748598496.758668,47.260000000,0.000000000,-1000.073669434,0.000000000,0.000000000,-17.269182205,-84.026023865,0.000000000,-19.965000153,8.912622452
1748598496.761032,47.262000000,0.000000000,-1000.073669434,0.000000000,0.000000000,-17.269182205,-84.026023865,0.000000000,-19.965000153,8.912622452
1748598496.763502,47.265000000,0.000000000,-1000.073669434,0.000000000,0.000000000,-17.269182205,-84.026023865,0.000000000,-19.965000153,8.912622452
1748598496.765937,47.267000000,0.000000000,-1000.073669434,0.000000000,0.000000000,-17.269182205,-84.026023865,0.000000000,-19.965000153,8.912622452
1748598496.768276,47.269000000,0.000000000,-1000.073669434,0.000000000,0.000000000,-17.269182205,-84.026023865,0.000000000,-19.965000153,8.912622452
1748598496.770629,47.272000000,0.000000000,-1000.073669434,0.000000000,0.000000000,-17.269182205,-84.026023865,0.000000000,-19.965000153,8.912622452
1748598496.772969,47.274000000,0.000000000,-1000.073669434,0.000000000,0.000000000,-17.269182205,-84.026023865,0.000000000,-19.965000153,8.912622452
1748598496.775367,47.277000000,0.000000000,-1000.073669434,0.000000000,0.000000000,-17.269182205,-84.026023865,0.000000000,-19.965000153,8.912622452
1748598496.777753,47.279000000,0.000000000,-1000.073669434,0.000000000,0.000000000,-17.269182205,-84.026023865,0.000000000,-19.965000153,8.912622452
1748598496.780108,47.281000000,0.000000000,-1000.073669434,0.000000000,0.000000000,-17.269182205,-84.026023865,0.000000000,-19.965000153,8.912622452
1748598496.782453,47.284000000,0.000000000,-1000.073669434,0.000000000,0.000000000,-17.269182205,-84.026023865,0.000000000,-19.965000153,8.912622452
1748598496.784821,47.286000000,0.000000000,-1000.073669434,0.000000000,0.000000000,-17.269182205,-84.026023865,0.000000000,-19.965000153,8.912622452
1748598496.787179,47.288000000,0.000000000,-1000.073669434,0.000000000,0.000000000,-17.269182205,-84.026023865,0.000000000,-19.965000153,8.912622452
1748598496.789561,47.291000000,0.000000000,-1000.073669434,0.000000000,0.000000000,-17.269182205,-84.026023865,0.000000000,-19.965000153,8.912622452
1748598496.791920,47.293000000,0.000000000,-1000.073669434,0.000000000,0.000000000,-17.269182205,-84.026023865,0.000000000,-19.965000153,8.912622452
1748598496.794276,47.295000000,0.000000000,-1000.073669434,0.000000000,0.000000000,-17.269182205,-84.026023865,0.000000000,-19.965000153,8.912622452
1748598496.796647,47.298000000,0.000000000,-1000.073669434,0.000000000,0.000000000,-17.269182205,-84.026023865,0.000000000,-19.965000153,8.912622452
1748598496.799090,47.300000000,0.000000000,-1000.073669434,0.000000000,0.000000000,-17.269182205,-84.026023865,0.000000000,-19.965000153,8.912622452
1748598496.801428,47.303000000,0.000000000,-1000.073669434,0.000000000,0.000000000,-17.269182205,-84.026023865,0.000000000,-19.965000153,8.912622452
1748598496.803821,47.305000000,0.000000000,-1000.073669434,0.000000000,0.000000000,-17.269182205,-84.026023865,0.000000000,-19.965000153,8.912622452
1748598496.806234,47.307000000,0.000000000,-1000.073669434,0.000000000,0.000000000,-17.269182205,-84.026023865,0.000000000,-19.965000153,8.912622452
1748598496.808664,47.310000000,0.000000000,-1000.073669434,0.000000000,0.000000000,-17.269182205,-84.026023865,0.000000000,-19.965000153,8.912622452
1748598496.811028,47.312000000,0.000000000,-1000.073669434,0.000000000,0.000000000,-17.269182205,-84.026023865,0.000000000,-19.965000153,8.912622452
1748598496.813434,47.315000000,0.000000000,-1000.073669434,0.000000000,0.000000000,-17.269182205,-84.026023865,0.000000000,-19.965000153,8.912622452
1748598496.815892,47.317000000,0.000000000,-1000.073669434,0.000000000,0.000000000,-17.269182205,-84.026023865,0.000000000,-19.965000153,8.912622452
1748598496.818192,47.319000000,0.000000000,-1000.073669434,0.000000000,0.000000000,-17.269182205,-84.026023865,0.000000000,-19.965000153,8.912622452
1748598496.820588,47.322000000,0.000000000,-1000.073669434,0.000000000,0.000000000,-17.269182205,-84.026023865,0.000000000,-19.965000153,8.912622452
1748598496.822974,47.324000000,0.000000000,-1000.073669434,0.000000000,0.000000000,-17.269182205,-84.026023865,0.000000000,-19.965000153,8.912622452
1748598496.825344,47.327000000,0.000000000,-1000.073669434,0.000000000,0.000000000,-17.269182205,-84.026023865,0.000000000,-19.965000153,8.912622452
1748598496.827750,47.329000000,0.000000000,-1000.073669434,0.000000000,0.000000000,-17.269182205,-84.026023865,0.000000000,-19.965000153,8.912622452
1748598496.830180,47.331000000,0.000000000,-1000.073669434,0.000000000,0.000000000,-17.269182205,-84.026023865,0.000000000,-19.965000153,8.912622452
1748598496.832599,47.334000000,0.000000000,-1000.073669434,0.000000000,0.000000000,-17.269182205,-84.026023865,0.000000000,-19.965000153,8.912622452
1748598496.834976,47.336000000,0.000000000,-1000.073669434,0.000000000,0.000000000,-17.269182205,-84.026023865,0.000000000,-19.965000153,8.912622452
1748598496.837396,47.339000000,0.000000000,-1000.073669434,0.000000000,0.000000000,-17.269182205,-84.026023865,0.000000000,-19.965000153,8.912622452
1748598496.839764,47.341000000,0.000000000,-1000.073669434,0.000000000,0.000000000,-17.269182205,-84.026023865,0.000000000,-19.965000153,8.912622452
1748598496.842130,47.343000000,0.000000000,-1000.073669434,0.000000000,0.000000000,-17.269182205,-84.026023865,0.000000000,-19.965000153,8.912622452
1748598496.844509,47.346000000,0.000000000,-1000.073669434,0.000000000,0.000000000,-17.269182205,-84.026023865,0.000000000,-19.965000153,8.912622452
1748598496.846947,47.348000000,0.000000000,-1000.073669434,0.000000000,0.000000000,-17.269182205,-84.026023865,0.000000000,-19.965000153,8.912622452
1748598496.849341,47.351000000,0.000000000,-1000.073669434,0.000000000,0.000000000,-17.269182205,-84.026023865,0.000000000,-19.965000153,8.912622452
1748598496.851724,47.353000000,0.000000000,-1000.073669434,0.000000000,0.000000000,-17.269182205,-84.026023865,0.000000000,-19.965000153,8.912622452
1748598496.854128,47.355000000,0.000000000,-1000.073669434,0.000000000,0.000000000,-17.269182205,-84.026023865,0.000000000,-19.965000153,8.912622452
1748598496.856524,47.358000000,0.000000000,-1000.073669434,0.000000000,0.000000000,-17.269182205,-84.026023865,0.000000000,-19.965000153,8.912622452
1748598496.858867,47.360000000,0.000000000,-1000.073669434,0.000000000,0.000000000,-17.269182205,-84.026023865,0.000000000,-19.965000153,8.912622452
1748598496.861300,47.362000000,0.000000000,-1000.073669434,0.000000000,0.000000000,-17.269182205,-84.026023865,0.000000000,-19.965000153,8.912622452
1748598496.863801,47.365000000,0.000000000,-1000.073669434,0.000000000,0.000000000,-17.269182205,-84.026023865,0.000000000,-19.965000153,8.912622452
1748598496.866250,47.367000000,0.000000000,-1000.073669434,0.000000000,0.000000000,-17.269182205,-84.026023865,0.000000000,-19.965000153,8.912622452
1748598496.868666,47.370000000,0.000000000,-1000.073669434,0.000000000,0.000000000,-17.269182205,-84.026023865,0.000000000,-19.965000153,8.912622452
1748598496.871031,47.372000000,0.000000000,-1000.073669434,0.000000000,0.000000000,-17.269182205,-84.026023865,0.000000000,-19.965000153,8.912622452
1748598496.873410,47.375000000,0.000000000,-1000.073669434,0.000000000,0.000000000,-17.269182205,-84.026023865,0.000000000,-19.965000153,8.912622452
1748598496.875742,47.377000000,0.000000000,-1000.073669434,0.000000000,0.000000000,-17.269182205,-84.026023865,0.000000000,-19.965000153,8.912622452
1748598496.878119,47.379000000,0.000000000,-1000.073669434,0.000000000,0.000000000,-17.269182205,-84.026023865,0.000000000,-19.965000153,8.912622452
1748598496.880525,47.382000000,0.000000000,-1000.073669434,0.000000000,0.000000000,-17.269182205,-84.026023865,0.000000000,-19.965000153,8.912622452
1748598496.882915,47.384000000,0.000000000,-1000.073669434,0.000000000,0.000000000,-17.269182205,-84.026023865,0.000000000,-19.965000153,8.912622452
1748598496.885284,47.387000000,0.000000000,-1000.073669434,0.000000000,0.000000000,-17.269182205,-84.026023865,0.000000000,-19.965000153,8.912622452
1748598496.887670,47.389000000,0.000000000,-1000.073669434,0.000000000,0.000000000,-17.269182205,-84.026023865,0.000000000,-19.965000153,8.912622452
1748598496.890031,47.391000000,0.000000000,-1000.073669434,0.000000000,0.000000000,-17.269182205,-84.026023865,0.000000000,-19.965000153,8.912622452
1748598496.892399,47.394000000,0.000000000,-1000.073669434,0.000000000,0.000000000,-17.269182205,-84.026023865,0.000000000,-19.965000153,8.912622452
1748598496.894765,47.396000000,0.000000000,-1000.073669434,0.000000000,0.000000000,-17.269182205,-84.026023865,0.000000000,-19.965000153,8.912622452
1748598496.897235,47.398000000,0.000000000,-1000.073669434,0.000000000,0.000000000,-17.269182205,-84.026023865,0.000000000,-19.965000153,8.912622452
1748598496.899643,47.401000000,0.000000000,-1000.073669434,0.000000000,0.000000000,-17.269182205,-84.026023865,0.000000000,-19.965000153,8.912622452
1748598496.902046,47.403000000,0.000000000,-1000.073669434,0.000000000,0.000000000,-17.269182205,-84.026023865,0.000000000,-19.965000153,8.912622452
1748598496.904439,47.406000000,0.000000000,-1000.073669434,0.000000000,0.000000000,-17.269182205,-84.026023865,0.000000000,-19.965000153,8.912622452
1748598496.906833,47.408000000,0.000000000,-1000.073669434,0.000000000,0.000000000,-17.269182205,-84.026023865,0.000000000,-19.965000153,8.912622452
1748598496.909239,47.410000000,0.000000000,-1000.073669434,0.000000000,0.000000000,-17.269182205,-84.026023865,0.000000000,-19.965000153,8.912622452
1748598496.911593,47.413000000,0.000000000,-1000.073669434,0.000000000,0.000000000,-17.269182205,-84.026023865,0.000000000,-19.965000153,8.912622452
1748598496.913940,47.415000000,0.000000000,-1000.073669434,0.000000000,0.000000000,-17.269182205,-84.026023865,0.000000000,-19.965000153,8.912622452
1748598496.916318,47.418000000,0.000000000,-1000.073669434,0.000000000,0.000000000,-17.269182205,-84.026023865,0.000000000,-19.965000153,8.912622452
1748598496.918701,47.420000000,0.000000000,-1000.073669434,0.000000000,0.000000000,-17.269182205,-84.026023865,0.000000000,-19.965000153,8.912622452
1748598496.921070,47.422000000,0.000000000,-1000.073669434,0.000000000,0.000000000,-17.269182205,-84.026023865,0.000000000,-19.965000153,8.912622452
1748598496.923442,47.425000000,0.000000000,-1000.073669434,0.000000000,0.000000000,-17.269182205,-84.026023865,0.000000000,-19.965000153,8.912622452
1748598496.925813,47.427000000,0.000000000,-1000.073669434,0.000000000,0.000000000,-17.269182205,-84.026023865,0.000000000,-19.965000153,8.912622452
1748598496.928200,47.429000000,0.000000000,-1000.073669434,0.000000000,0.000000000,-17.269182205,-84.026023865,0.000000000,-19.965000153,8.912622452
1748598496.930599,47.432000000,0.000000000,-1000.073669434,0.000000000,0.000000000,-17.269182205,-84.026023865,0.000000000,-19.965000153,8.912622452
1748598496.932984,47.434000000,0.000000000,-1000.073669434,0.000000000,0.000000000,-17.269182205,-84.026023865,0.000000000,-19.965000153,8.912622452
1748598496.935346,47.437000000,0.000000000,-1000.073669434,0.000000000,0.000000000,-17.269182205,-84.026023865,0.000000000,-19.965000153,8.912622452
1748598496.937751,47.439000000,0.000000000,-1000.073669434,0.000000000,0.000000000,-17.269182205,-84.026023865,0.000000000,-19.965000153,8.912622452
1748598496.940097,47.441000000,0.000000000,-1000.073669434,0.000000000,0.000000000,-17.269182205,-84.026023865,0.000000000,-19.965000153,8.912622452
1748598496.942468,47.444000000,0.000000000,-1000.073669434,0.000000000,0.000000000,-17.269182205,-84.026023865,0.000000000,-19.965000153,8.912622452
1748598496.944856,47.446000000,0.000000000,-1000.073669434,0.000000000,0.000000000,-17.269182205,-84.026023865,0.000000000,-19.965000153,8.912622452
1748598496.947224,47.448000000,0.000000000,-1000.073669434,0.000000000,0.000000000,-17.269182205,-84.026023865,0.000000000,-19.965000153,8.912622452
1748598496.949642,47.451000000,0.000000000,-1000.073669434,0.000000000,0.000000000,-17.269182205,-84.026023865,0.000000000,-19.965000153,8.912622452
1748598496.952003,47.453000000,0.000000000,-1000.073669434,0.000000000,0.000000000,-17.269182205,-84.026023865,0.000000000,-19.965000153,8.912622452
1748598496.954393,47.456000000,0.000000000,-1000.073669434,0.000000000,0.000000000,-17.269182205,-84.026023865,0.000000000,-19.965000153,8.912622452
1748598496.956787,47.458000000,0.000000000,-1000.073669434,0.000000000,0.000000000,-17.269182205,-84.026023865,0.000000000,-19.965000153,8.912622452
1748598496.959108,47.460000000,0.000000000,-1000.073669434,0.000000000,0.000000000,-17.269182205,-84.026023865,0.000000000,-19.965000153,8.912622452
1748598496.961468,47.463000000,0.000000000,-1000.073669434,0.000000000,0.000000000,-17.269182205,-84.026023865,0.000000000,-19.965000153,8.912622452
1748598496.963861,47.465000000,0.000000000,-1000.073669434,0.000000000,0.000000000,-17.269182205,-84.026023865,0.000000000,-19.965000153,8.912622452
1748598496.966298,47.467000000,0.000000000,-1000.073669434,0.000000000,0.000000000,-17.269182205,-84.026023865,0.000000000,-19.965000153,8.912622452
1748598496.968687,47.470000000,0.000000000,-1000.073669434,0.000000000,0.000000000,-17.269182205,-84.026023865,0.000000000,-19.965000153,8.912622452
1748598496.971056,47.472000000,0.000000000,-1000.073669434,0.000000000,0.000000000,-17.269182205,-84.026023865,0.000000000,-19.965000153,8.912622452
1748598496.973432,47.475000000,0.000000000,-1000.073669434,0.000000000,0.000000000,-17.269182205,-84.026023865,0.000000000,-19.965000153,8.912622452
1748598496.975827,47.477000000,0.000000000,-1000.073669434,0.000000000,0.000000000,-17.269182205,-84.026023865,0.000000000,-19.965000153,8.912622452
1748598496.978195,47.479000000,0.000000000,-1000.073669434,0.000000000,0.000000000,-17.269182205,-84.026023865,0.000000000,-19.965000153,8.912622452
1748598496.980638,47.482000000,0.000000000,-1000.073669434,0.000000000,0.000000000,-17.269182205,-84.026023865,0.000000000,-19.965000153,8.912622452
1748598496.983075,47.484000000,0.000000000,-1000.073669434,0.000000000,0.000000000,-17.269182205,-84.026023865,0.000000000,-19.965000153,8.912622452
1748598496.985437,47.487000000,0.000000000,-1000.073669434,0.000000000,0.000000000,-17.269182205,-84.026023865,0.000000000,-19.965000153,8.912622452
1748598496.987869,47.489000000,0.000000000,-1000.073669434,0.000000000,0.000000000,-17.269182205,-84.026023865,0.000000000,-19.965000153,8.912622452
1748598496.990207,47.491000000,0.000000000,-1000.073669434,0.000000000,0.000000000,-17.269182205,-84.026023865,0.000000000,-19.965000153,8.912622452
1748598496.992589,47.494000000,0.000000000,-1000.073669434,0.000000000,0.000000000,-17.269182205,-84.026023865,0.000000000,-19.965000153,8.912622452
1748598496.994948,47.496000000,0.000000000,-1000.073669434,0.000000000,0.000000000,-17.269182205,-84.026023865,0.000000000,-19.965000153,8.912622452
1748598496.997373,47.499000000,0.000000000,-1000.073669434,0.000000000,0.000000000,-17.269182205,-84.026023865,0.000000000,-19.965000153,8.912622452
1748598496.999918,47.501000000,0.000000000,-1000.073669434,0.000000000,0.000000000,-17.269182205,-84.026023865,0.000000000,-19.965000153,8.912622452
1748598497.002293,47.503000000,0.000000000,-1000.073669434,0.000000000,0.000000000,-17.269182205,-84.026023865,0.000000000,-19.965000153,8.912622452
1748598497.004705,47.506000000,0.000000000,-1000.073669434,0.000000000,0.000000000,-17.269182205,-84.026023865,0.000000000,-19.965000153,8.912622452
1748598497.007136,47.508000000,0.000000000,-1000.073669434,0.000000000,0.000000000,-17.269182205,-84.026023865,0.000000000,-19.965000153,8.912622452
1748598497.009549,47.511000000,0.000000000,-1000.073669434,0.000000000,0.000000000,-17.269182205,-84.026023865,0.000000000,-19.965000153,8.912622452
1748598497.011924,47.513000000,0.000000000,-1000.073669434,0.000000000,0.000000000,-17.269182205,-84.026023865,0.000000000,-19.965000153,8.912622452
1748598497.014297,47.516000000,0.000000000,-1000.073669434,0.000000000,0.000000000,-17.269182205,-84.026023865,0.000000000,-19.965000153,8.912622452
1748598497.016695,47.518000000,0.000000000,-1000.073669434,0.000000000,0.000000000,-17.269182205,-84.026023865,0.000000000,-19.965000153,8.912622452
1748598497.019055,47.520000000,0.000000000,-1000.073669434,0.000000000,0.000000000,-17.269182205,-84.026023865,0.000000000,-19.965000153,8.912622452
1748598497.021481,47.523000000,0.000000000,-1000.073669434,0.000000000,0.000000000,-17.269182205,-84.026023865,0.000000000,-19.965000153,8.912622452
1748598497.023860,47.525000000,0.000000000,-1000.073669434,0.000000000,0.000000000,-17.269182205,-84.026023865,0.000000000,-19.965000153,8.912622452
1748598497.026206,47.527000000,0.000000000,-1000.073669434,0.000000000,0.000000000,-17.269182205,-84.026023865,0.000000000,-19.965000153,8.912622452
1748598497.028580,47.530000000,0.000000000,-1000.073669434,0.000000000,0.000000000,-17.269182205,-84.026023865,0.000000000,-19.965000153,8.912622452
1748598497.030970,47.532000000,0.000000000,-1000.073669434,0.000000000,0.000000000,-17.269182205,-84.026023865,0.000000000,-19.965000153,8.912622452
1748598497.033338,47.535000000,0.000000000,-1000.073669434,0.000000000,0.000000000,-17.269182205,-84.026023865,0.000000000,-19.965000153,8.912622452
1748598497.035747,47.537000000,0.000000000,-1000.073669434,0.000000000,0.000000000,-17.269182205,-84.026023865,0.000000000,-19.965000153,8.912622452
1748598497.038100,47.539000000,0.000000000,-1000.073669434,0.000000000,0.000000000,-17.269182205,-84.026023865,0.000000000,-19.965000153,8.912622452
1748598497.040476,47.542000000,0.000000000,-1000.073669434,0.000000000,0.000000000,-17.269182205,-84.026023865,0.000000000,-19.965000153,8.912622452
1748598497.042859,47.544000000,0.000000000,-1000.073669434,0.000000000,0.000000000,-17.269182205,-84.026023865,0.000000000,-19.965000153,8.912622452
1748598497.045187,47.546000000,0.000000000,-1000.073669434,0.000000000,0.000000000,-17.269182205,-84.026023865,0.000000000,-19.965000153,8.912622452
1748598497.047570,47.549000000,0.000000000,-1000.073669434,0.000000000,0.000000000,-17.269182205,-84.026023865,0.000000000,-19.965000153,8.912622452
1748598497.050256,47.551000000,0.000000000,-1000.073669434,0.000000000,0.000000000,-17.269182205,-84.026023865,0.000000000,-19.965000153,8.912622452
1748598497.052525,47.554000000,0.000000000,-1000.073669434,0.000000000,0.000000000,-17.269182205,-84.026023865,0.000000000,-19.965000153,8.912622452
1748598497.054937,47.556000000,0.000000000,-1000.073669434,0.000000000,0.000000000,-17.269182205,-84.026023865,0.000000000,-19.965000153,8.912622452
1748598497.057261,47.559000000,0.000000000,-1000.073669434,0.000000000,0.000000000,-17.269182205,-84.026023865,0.000000000,-19.965000153,8.912622452
1748598497.059656,47.561000000,0.000000000,-1000.073669434,0.000000000,0.000000000,-17.269182205,-84.026023865,0.000000000,-19.965000153,8.912622452
1748598497.062052,47.563000000,0.000000000,-1000.073669434,0.000000000,0.000000000,-17.269182205,-84.026023865,0.000000000,-19.965000153,8.912622452
1748598497.064609,47.566000000,0.000000000,-1000.073669434,0.000000000,0.000000000,-17.269182205,-84.026023865,0.000000000,-19.965000153,8.912622452
1748598497.066982,47.568000000,0.000000000,-1000.073669434,0.000000000,0.000000000,-17.269182205,-84.026023865,0.000000000,-19.965000153,8.912622452
1748598497.069451,47.571000000,0.000000000,-1000.073669434,0.000000000,0.000000000,-17.269182205,-84.026023865,0.000000000,-19.965000153,8.912622452
1748598497.071856,47.573000000,0.000000000,-1000.073669434,0.000000000,0.000000000,-17.269182205,-84.026023865,0.000000000,-19.965000153,8.912622452
1748598497.074232,47.575000000,0.000000000,-1000.073669434,0.000000000,0.000000000,-17.269182205,-84.026023865,0.000000000,-19.965000153,8.912622452
1748598497.076619,47.578000000,0.000000000,-1000.073669434,0.000000000,0.000000000,-17.269182205,-84.026023865,0.000000000,-19.965000153,8.912622452
1748598497.079010,47.580000000,0.000000000,-1000.073669434,0.000000000,0.000000000,-17.269182205,-84.026023865,0.000000000,-19.965000153,8.912622452
1748598497.081427,47.583000000,0.000000000,-1000.073669434,0.000000000,0.000000000,-17.269182205,-84.026023865,0.000000000,-19.965000153,8.912622452
1748598497.083812,47.585000000,0.000000000,-1000.073669434,0.000000000,0.000000000,-17.269182205,-84.026023865,0.000000000,-19.965000153,8.912622452
1748598497.086172,47.587000000,0.000000000,-1000.073669434,0.000000000,0.000000000,-17.269182205,-84.026023865,0.000000000,-19.965000153,8.912622452
1748598497.088560,47.590000000,0.000000000,-1000.073669434,0.000000000,0.000000000,-17.269182205,-84.026023865,0.000000000,-19.965000153,8.912622452
1748598497.090948,47.592000000,0.000000000,-1000.073669434,0.000000000,0.000000000,-17.269182205,-84.026023865,0.000000000,-19.965000153,8.912622452
1748598497.093312,47.595000000,0.000000000,-1000.073669434,0.000000000,0.000000000,-17.269182205,-84.026023865,0.000000000,-19.965000153,8.912622452
1748598497.095715,47.597000000,0.000000000,-1000.073669434,0.000000000,0.000000000,-17.269182205,-84.026023865,0.000000000,-19.965000153,8.912622452
1748598497.098218,47.599000000,0.000000000,-1000.073669434,0.000000000,0.000000000,-17.269182205,-84.026023865,0.000000000,-19.965000153,8.912622452
1748598497.100639,47.602000000,0.000000000,-1000.073669434,0.000000000,0.000000000,-17.269182205,-84.026023865,0.000000000,-19.965000153,8.912622452
1748598497.103025,47.604000000,0.000000000,-1000.073669434,0.000000000,0.000000000,-17.269182205,-84.026023865,0.000000000,-19.965000153,8.912622452
1748598497.105505,47.607000000,0.000000000,-1000.073669434,0.000000000,0.000000000,-17.269182205,-84.026023865,0.000000000,-19.965000153,8.912622452
1748598497.107843,47.609000000,0.000000000,-1000.073669434,0.000000000,0.000000000,-17.269182205,-84.026023865,0.000000000,-19.965000153,8.912622452
1748598497.110267,47.611000000,0.000000000,-1000.073669434,0.000000000,0.000000000,-17.269182205,-84.026023865,0.000000000,-19.965000153,8.912622452
1748598497.112649,47.614000000,0.000000000,-1000.073669434,0.000000000,0.000000000,-17.269182205,-84.026023865,0.000000000,-19.965000153,8.912622452
1748598497.115065,47.616000000,0.000000000,-1000.073669434,0.000000000,0.000000000,-17.269182205,-84.026023865,0.000000000,-19.965000153,8.912622452
1748598497.117434,47.619000000,0.000000000,-1000.073669434,0.000000000,0.000000000,-17.269182205,-84.026023865,0.000000000,-19.965000153,8.912622452
1748598497.119801,47.621000000,0.000000000,-1000.073669434,0.000000000,0.000000000,-17.269182205,-84.026023865,0.000000000,-19.965000153,8.912622452
1748598497.122179,47.623000000,0.000000000,-1000.073669434,0.000000000,0.000000000,-17.269182205,-84.026023865,0.000000000,-19.965000153,8.912622452
1748598497.124557,47.626000000,0.000000000,-1000.073669434,0.000000000,0.000000000,-17.269182205,-84.026023865,0.000000000,-19.965000153,8.912622452
1748598497.126956,47.628000000,0.000000000,-1000.073669434,0.000000000,0.000000000,-17.269182205,-84.026023865,0.000000000,-19.965000153,8.912622452
1748598497.129363,47.631000000,0.000000000,-1000.073669434,0.000000000,0.000000000,-17.269182205,-84.026023865,0.000000000,-19.965000153,8.912622452
1748598497.131750,47.633000000,0.000000000,-1000.073669434,0.000000000,0.000000000,-17.269182205,-84.026023865,0.000000000,-19.965000153,8.912622452
1748598497.134105,47.635000000,0.000000000,-1000.073669434,0.000000000,0.000000000,-17.269182205,-84.026023865,0.000000000,-19.965000153,8.912622452
1748598497.136462,47.638000000,0.000000000,-1000.073669434,0.000000000,0.000000000,-17.269182205,-84.026023865,0.000000000,-19.965000153,8.912622452
1748598497.138846,47.640000000,0.000000000,-1000.073669434,0.000000000,0.000000000,-17.269182205,-84.026023865,0.000000000,-19.965000153,8.912622452
1748598497.141231,47.642000000,0.000000000,-1000.073669434,0.000000000,0.000000000,-17.269182205,-84.026023865,0.000000000,-19.965000153,8.912622452
1748598497.143639,47.645000000,0.000000000,-1000.073669434,0.000000000,0.000000000,-17.269182205,-84.026023865,0.000000000,-19.965000153,8.912622452
1748598497.146057,47.647000000,0.000000000,-1000.073669434,0.000000000,0.000000000,-17.269182205,-84.026023865,0.000000000,-19.965000153,8.912622452
1748598497.148569,47.650000000,0.000000000,-1000.073669434,0.000000000,0.000000000,-17.269182205,-84.026023865,0.000000000,-19.965000153,8.912622452
1748598497.150945,47.652000000,0.000000000,-1000.073669434,0.000000000,0.000000000,-17.269182205,-84.026023865,0.000000000,-19.965000153,8.912622452
1748598497.153440,47.655000000,0.000000000,-1000.073669434,0.000000000,0.000000000,-17.269182205,-84.026023865,0.000000000,-19.965000153,8.912622452
1748598497.155824,47.657000000,0.000000000,-1000.073669434,0.000000000,0.000000000,-17.269182205,-84.026023865,0.000000000,-19.965000153,8.912622452
1748598497.158201,47.659000000,0.000000000,-1000.073669434,0.000000000,0.000000000,-17.269182205,-84.026023865,0.000000000,-19.965000153,8.912622452
1748598497.160560,47.662000000,0.000000000,-1000.073669434,0.000000000,0.000000000,-17.269182205,-84.026023865,0.000000000,-19.965000153,8.912622452
1748598497.163007,47.664000000,0.000000000,-1000.073669434,0.000000000,0.000000000,-17.269182205,-84.026023865,0.000000000,-19.965000153,8.912622452
1748598497.165394,47.667000000,0.000000000,-1000.073669434,0.000000000,0.000000000,-17.269182205,-84.026023865,0.000000000,-19.965000153,8.912622452
1748598497.167815,47.669000000,0.000000000,-1000.073669434,0.000000000,0.000000000,-17.269182205,-84.026023865,0.000000000,-19.965000153,8.912622452
1748598497.170184,47.671000000,0.000000000,-1000.073669434,0.000000000,0.000000000,-17.269182205,-84.026023865,0.000000000,-19.965000153,8.912622452
1748598497.172559,47.674000000,0.000000000,-1000.073669434,0.000000000,0.000000000,-17.269182205,-84.026023865,0.000000000,-19.965000153,8.912622452
1748598497.174994,47.676000000,0.000000000,-1000.073669434,0.000000000,0.000000000,-17.269182205,-84.026023865,0.000000000,-19.965000153,8.912622452
1748598497.177451,47.679000000,0.000000000,-1000.073669434,0.000000000,0.000000000,-17.269182205,-84.026023865,0.000000000,-19.965000153,8.912622452
1748598497.179880,47.681000000,0.000000000,-1000.073669434,0.000000000,0.000000000,-17.269182205,-84.026023865,0.000000000,-19.965000153,8.912622452
1748598497.182334,47.684000000,0.000000000,-1000.073669434,0.000000000,0.000000000,-17.269182205,-84.026023865,0.000000000,-19.965000153,8.912622452
1748598497.184751,47.686000000,0.000000000,-1000.073669434,0.000000000,0.000000000,-17.269182205,-84.026023865,0.000000000,-19.965000153,8.912622452
1748598497.187206,47.688000000,0.000000000,-1000.073669434,0.000000000,0.000000000,-17.269182205,-84.026023865,0.000000000,-19.965000153,8.912622452
1748598497.189672,47.691000000,0.000000000,-1000.073669434,0.000000000,0.000000000,-17.269182205,-84.026023865,0.000000000,-19.965000153,8.912622452
1748598497.192117,47.693000000,0.000000000,-1000.073669434,0.000000000,0.000000000,-17.269182205,-84.026023865,0.000000000,-19.965000153,8.912622452
1748598497.194577,47.696000000,0.000000000,-1000.073669434,0.000000000,0.000000000,-17.269182205,-84.026023865,0.000000000,-19.965000153,8.912622452
1748598497.197119,47.698000000,0.000000000,-1000.073669434,0.000000000,0.000000000,-17.269182205,-84.026023865,0.000000000,-19.965000153,8.912622452
1748598497.199678,47.701000000,0.000000000,-1000.073669434,0.000000000,0.000000000,-17.269182205,-84.026023865,0.000000000,-19.965000153,8.912622452
1748598497.202178,47.703000000,0.000000000,-1000.073669434,0.000000000,0.000000000,-17.269182205,-84.026023865,0.000000000,-19.965000153,8.912622452
1748598497.204581,47.706000000,0.000000000,-1000.073669434,0.000000000,0.000000000,-17.269182205,-84.026023865,0.000000000,-19.965000153,8.912622452
1748598497.206970,47.708000000,0.000000000,-1000.073669434,0.000000000,0.000000000,-17.269182205,-84.026023865,0.000000000,-19.965000153,8.912622452
1748598497.209350,47.711000000,0.000000000,-1000.073669434,0.000000000,0.000000000,-17.269182205,-84.026023865,0.000000000,-19.965000153,8.912622452
1748598497.211748,47.713000000,0.000000000,-1000.073669434,0.000000000,0.000000000,-17.269182205,-84.026023865,0.000000000,-19.965000153,8.912622452
1748598497.214135,47.715000000,0.000000000,-1000.073669434,0.000000000,0.000000000,-17.269182205,-84.026023865,0.000000000,-19.965000153,8.912622452
1748598497.216501,47.718000000,0.000000000,-1000.073669434,0.000000000,0.000000000,-17.269182205,-84.026023865,0.000000000,-19.965000153,8.912622452
1748598497.218897,47.720000000,0.000000000,-1000.073669434,0.000000000,0.000000000,-17.269182205,-84.026023865,0.000000000,-19.965000153,8.912622452
1748598497.221250,47.722000000,0.000000000,-1000.073669434,0.000000000,0.000000000,-17.269182205,-84.026023865,0.000000000,-19.965000153,8.912622452
1748598497.223630,47.725000000,0.000000000,-1000.073669434,0.000000000,0.000000000,-17.269182205,-84.026023865,0.000000000,-19.965000153,8.912622452
1748598497.226010,47.727000000,0.000000000,-1000.073669434,0.000000000,0.000000000,-17.269182205,-84.026023865,0.000000000,-19.965000153,8.912622452
1748598497.228377,47.730000000,0.000000000,-1000.073669434,0.000000000,0.000000000,-17.269182205,-84.026023865,0.000000000,-19.965000153,8.912622452
1748598497.230793,47.732000000,0.000000000,-1000.073669434,0.000000000,0.000000000,-17.269182205,-84.026023865,0.000000000,-19.965000153,8.912622452
1748598497.233161,47.734000000,0.000000000,-1000.073669434,0.000000000,0.000000000,-17.269182205,-84.026023865,0.000000000,-19.965000153,8.912622452
1748598497.235564,47.737000000,0.000000000,-1000.073669434,0.000000000,0.000000000,-17.269182205,-84.026023865,0.000000000,-19.965000153,8.912622452
1748598497.237951,47.739000000,0.000000000,-1000.073669434,0.000000000,0.000000000,-17.269182205,-84.026023865,0.000000000,-19.965000153,8.912622452
1748598497.240334,47.742000000,0.000000000,-1000.073669434,0.000000000,0.000000000,-17.269182205,-84.026023865,0.000000000,-19.965000153,8.912622452
1748598497.242774,47.744000000,0.000000000,-1000.073669434,0.000000000,0.000000000,-17.269182205,-84.026023865,0.000000000,-19.965000153,8.912622452
1748598497.245158,47.746000000,0.000000000,-1000.073669434,0.000000000,0.000000000,-17.269182205,-84.026023865,0.000000000,-19.965000153,8.912622452
1748598497.247588,47.749000000,0.000000000,-1000.073669434,0.000000000,0.000000000,-17.269182205,-84.026023865,0.000000000,-19.965000153,8.912622452
1748598497.250054,47.751000000,0.000000000,-1000.073669434,0.000000000,0.000000000,-17.269182205,-84.026023865,0.000000000,-19.965000153,8.912622452
1748598497.252599,47.754000000,0.000000000,-1000.073669434,0.000000000,0.000000000,-17.269182205,-84.026023865,0.000000000,-19.965000153,8.912622452
1748598497.254984,47.756000000,0.000000000,-1000.073669434,0.000000000,0.000000000,-17.269182205,-84.026023865,0.000000000,-19.965000153,8.912622452
1748598497.257362,47.759000000,0.000000000,-1000.073669434,0.000000000,0.000000000,-17.269182205,-84.026023865,0.000000000,-19.965000153,8.912622452
1748598497.259760,47.761000000,0.000000000,-1000.073669434,0.000000000,0.000000000,-17.269182205,-84.026023865,0.000000000,-19.965000153,8.912622452
1748598497.262142,47.763000000,0.000000000,-1000.073669434,0.000000000,0.000000000,-17.269182205,-84.026023865,0.000000000,-19.965000153,8.912622452
1748598497.264604,47.766000000,0.000000000,-1000.073669434,0.000000000,0.000000000,-17.269182205,-84.026023865,0.000000000,-19.965000153,8.912622452
1748598497.267092,47.768000000,0.000000000,-1000.073669434,0.000000000,0.000000000,-17.269182205,-84.026023865,0.000000000,-19.965000153,8.912622452
1748598497.269513,47.771000000,0.000000000,-1000.073669434,0.000000000,0.000000000,-17.269182205,-84.026023865,0.000000000,-19.965000153,8.912622452
1748598497.271899,47.773000000,0.000000000,-1000.073669434,0.000000000,0.000000000,-17.269182205,-84.026023865,0.000000000,-19.965000153,8.912622452
1748598497.274265,47.775000000,0.000000000,-1000.073669434,0.000000000,0.000000000,-17.269182205,-84.026023865,0.000000000,-19.965000153,8.912622452
1748598497.276644,47.778000000,0.000000000,-1000.073669434,0.000000000,0.000000000,-17.269182205,-84.026023865,0.000000000,-19.965000153,8.912622452
1748598497.279011,47.780000000,0.000000000,-1000.073669434,0.000000000,0.000000000,-17.269182205,-84.026023865,0.000000000,-19.965000153,8.912622452
1748598497.281447,47.783000000,0.000000000,-1000.073669434,0.000000000,0.000000000,-17.269182205,-84.026023865,0.000000000,-19.965000153,8.912622452
1748598497.283819,47.785000000,0.000000000,-1000.073669434,0.000000000,0.000000000,-17.269182205,-84.026023865,0.000000000,-19.965000153,8.912622452
1748598497.286224,47.787000000,0.000000000,-1000.073669434,0.000000000,0.000000000,-17.269182205,-84.026023865,0.000000000,-19.965000153,8.912622452
1748598497.288578,47.790000000,0.000000000,-1000.073669434,0.000000000,0.000000000,-17.269182205,-84.026023865,0.000000000,-19.965000153,8.912622452
1748598497.290965,47.792000000,0.000000000,-1000.073669434,0.000000000,0.000000000,-17.269182205,-84.026023865,0.000000000,-19.965000153,8.912622452
1748598497.293328,47.795000000,0.000000000,-1000.073669434,0.000000000,0.000000000,-17.269182205,-84.026023865,0.000000000,-19.965000153,8.912622452
1748598497.295694,47.797000000,0.000000000,-1000.073669434,0.000000000,0.000000000,-17.269182205,-84.026023865,0.000000000,-19.965000153,8.912622452
1748598497.298103,47.799000000,0.000000000,-1000.073669434,0.000000000,0.000000000,-17.269182205,-84.026023865,0.000000000,-19.965000153,8.912622452
1748598497.300481,47.802000000,0.000000000,-1000.073669434,0.000000000,0.000000000,-17.269182205,-84.026023865,0.000000000,-19.965000153,8.912622452
1748598497.302869,47.804000000,0.000000000,-1000.073669434,0.000000000,0.000000000,-17.269182205,-84.026023865,0.000000000,-19.965000153,8.912622452
1748598497.305294,47.806000000,0.000000000,-1000.073669434,0.000000000,0.000000000,-17.269182205,-84.026023865,0.000000000,-19.965000153,8.912622452
1748598497.307724,47.809000000,0.000000000,-1000.073669434,0.000000000,0.000000000,-17.269182205,-84.026023865,0.000000000,-19.965000153,8.912622452
1748598497.310113,47.811000000,0.000000000,-1000.073669434,0.000000000,0.000000000,-17.269182205,-84.026023865,0.000000000,-19.965000153,8.912622452
1748598497.312544,47.814000000,0.000000000,-1000.073669434,0.000000000,0.000000000,-17.269182205,-84.026023865,0.000000000,-19.965000153,8.912622452
1748598497.314945,47.816000000,0.000000000,-1000.073669434,0.000000000,0.000000000,-17.269182205,-84.026023865,0.000000000,-19.965000153,8.912622452
1748598497.317346,47.819000000,0.000000000,-1000.073669434,0.000000000,0.000000000,-17.269182205,-84.026023865,0.000000000,-19.965000153,8.912622452
1748598497.319756,47.821000000,0.000000000,-1000.073669434,0.000000000,0.000000000,-17.269182205,-84.026023865,0.000000000,-19.965000153,8.912622452
1748598497.322191,47.823000000,0.000000000,-1000.073669434,0.000000000,0.000000000,-17.269182205,-84.026023865,0.000000000,-19.965000153,8.912622452
1748598497.324574,47.826000000,0.000000000,-1000.073669434,0.000000000,0.000000000,-17.269182205,-84.026023865,0.000000000,-19.965000153,8.912622452
1748598497.326971,47.828000000,0.000000000,-1000.073669434,0.000000000,0.000000000,-17.269182205,-84.026023865,0.000000000,-19.965000153,8.912622452
1748598497.329325,47.831000000,0.000000000,-1000.073669434,0.000000000,0.000000000,-17.269182205,-84.026023865,0.000000000,-19.965000153,8.912622452
1748598497.331785,47.833000000,0.000000000,-1000.073669434,0.000000000,0.000000000,-17.269182205,-84.026023865,0.000000000,-19.965000153,8.912622452
1748598497.334155,47.835000000,0.000000000,-1000.073669434,0.000000000,0.000000000,-17.269182205,-84.026023865,0.000000000,-19.965000153,8.912622452
1748598497.336606,47.838000000,0.000000000,-1000.073669434,0.000000000,0.000000000,-17.269182205,-84.026023865,0.000000000,-19.965000153,8.912622452
1748598497.338984,47.840000000,0.000000000,-1000.073669434,0.000000000,0.000000000,-17.269182205,-84.026023865,0.000000000,-19.965000153,8.912622452
1748598497.341416,47.843000000,0.000000000,-1000.073669434,0.000000000,0.000000000,-17.269182205,-84.026023865,0.000000000,-19.965000153,8.912622452
1748598497.343825,47.845000000,0.000000000,-1000.073669434,0.000000000,0.000000000,-17.269182205,-84.026023865,0.000000000,-19.965000153,8.912622452
1748598497.346277,47.847000000,0.000000000,-1000.073669434,0.000000000,0.000000000,-17.269182205,-84.026023865,0.000000000,-19.965000153,8.912622452
1748598497.348782,47.850000000,0.000000000,-1000.073669434,0.000000000,0.000000000,-17.269182205,-84.026023865,0.000000000,-19.965000153,8.912622452
1748598497.351174,47.852000000,0.000000000,-1000.073669434,0.000000000,0.000000000,-17.269182205,-84.026023865,0.000000000,-19.965000153,8.912622452
1748598497.353553,47.855000000,0.000000000,-1000.073669434,0.000000000,0.000000000,-17.269182205,-84.026023865,0.000000000,-19.965000153,8.912622452
1748598497.355956,47.857000000,0.000000000,-1000.073669434,0.000000000,0.000000000,-17.269182205,-84.026023865,0.000000000,-19.965000153,8.912622452
1748598497.358324,47.860000000,0.000000000,-1000.073669434,0.000000000,0.000000000,-17.269182205,-84.026023865,0.000000000,-19.965000153,8.912622452
1748598497.360706,47.862000000,0.000000000,-1000.073669434,0.000000000,0.000000000,-17.269182205,-84.026023865,0.000000000,-19.965000153,8.912622452
1748598497.363136,47.864000000,0.000000000,-1000.073669434,0.000000000,0.000000000,-17.269182205,-84.026023865,0.000000000,-19.965000153,8.912622452
1748598497.365548,47.867000000,0.000000000,-1000.073669434,0.000000000,0.000000000,-17.269182205,-84.026023865,0.000000000,-19.965000153,8.912622452
1748598497.367917,47.869000000,0.000000000,-1000.073669434,0.000000000,0.000000000,-17.269182205,-84.026023865,0.000000000,-19.965000153,8.912622452
1748598497.370294,47.872000000,0.000000000,-1000.073669434,0.000000000,0.000000000,-17.269182205,-84.026023865,0.000000000,-19.965000153,8.912622452
1748598497.372664,47.874000000,0.000000000,-1000.073669434,0.000000000,0.000000000,-17.269182205,-84.026023865,0.000000000,-19.965000153,8.912622452
1748598497.375047,47.876000000,0.000000000,-1000.073669434,0.000000000,0.000000000,-17.269182205,-84.026023865,0.000000000,-19.965000153,8.912622452
1748598497.377420,47.879000000,0.000000000,-1000.073669434,0.000000000,0.000000000,-17.269182205,-84.026023865,0.000000000,-19.965000153,8.912622452
1748598497.379850,47.881000000,0.000000000,-1000.073669434,0.000000000,0.000000000,-17.269182205,-84.026023865,0.000000000,-19.965000153,8.912622452
1748598497.382264,47.883000000,0.000000000,-1000.073669434,0.000000000,0.000000000,-17.269182205,-84.026023865,0.000000000,-19.965000153,8.912622452
1748598497.384649,47.886000000,0.000000000,-1000.073669434,0.000000000,0.000000000,-17.269182205,-54.026023865,0.000000000,-19.965000153,8.912622452
1748598497.387071,47.888000000,0.000000000,-1000.073669434,0.000000000,0.000000000,-17.336683273,-45.055286407,0.000000000,-19.965000153,8.912256241
1748598497.389422,47.891000000,0.000000000,-1000.073669434,0.000000000,0.000000000,-17.444684982,-41.828960419,0.000000000,-19.965000153,8.911668777
1748598497.391805,47.893000000,0.000000000,-1000.073669434,0.000000000,0.000000000,-17.485187531,-53.940124512,0.000000000,-19.965000153,8.911448479
1748598497.394233,47.895000000,0.000000000,-1000.073669434,0.000000000,0.000000000,-17.485187531,-60.596672058,0.000000000,-19.965000153,8.911448479
1748598497.396689,47.898000000,0.000000000,-1000.073669434,0.000000000,0.000000000,-17.485187531,-90.596672058,0.000000000,-19.965000153,8.911448479
1748598497.399207,47.900000000,0.000000000,-1000.073669434,0.000000000,0.000000000,-17.444684982,-95.801460266,0.000000000,-19.965000153,8.911668777
1748598497.401571,47.903000000,0.000000000,-1000.073669434,0.000000000,0.000000000,-17.390684128,-96.283088684,0.000000000,-19.965000153,8.911962509
1748598497.403975,47.905000000,0.000000000,-1000.073669434,0.000000000,0.000000000,-17.377185822,-89.498474121,0.000000000,-19.965000153,8.912034988
1748598497.406348,47.908000000,0.000000000,-1000.073669434,0.000000000,0.000000000,-17.377185822,-87.311378479,0.000000000,-19.965000153,8.912034988
1748598497.408749,47.910000000,0.000000000,-1000.073669434,0.000000000,0.000000000,-17.377185822,-87.311378479,0.000000000,-19.965000153,8.912034988
1748598497.411122,47.912000000,0.000000000,-1000.073669434,0.000000000,0.000000000,-17.390684128,-85.512855530,0.000000000,-19.965000153,8.911962509
1748598497.413522,47.915000000,0.000000000,-1000.073669434,0.000000000,0.000000000,-17.404186249,-85.918304443,0.000000000,-19.965000153,8.911889076
1748598497.415918,47.917000000,0.000000000,-1000.073669434,0.000000000,0.000000000,-17.417684555,-86.336036682,0.000000000,-19.965000153,8.911815643
1748598497.418290,47.920000000,0.000000000,-1000.073669434,0.000000000,0.000000000,-17.404186249,-60.336273193,0.000000000,-19.965000153,8.911889076
1748598497.420665,47.922000000,0.000000000,-1000.073669434,0.000000000,0.000000000,-17.458187103,-50.937606812,0.000000000,-19.965000153,8.911595345
1748598497.423043,47.924000000,0.000000000,-1000.073669434,0.000000000,0.000000000,-17.539188385,-48.943653107,0.000000000,-19.965000153,8.911154747
1748598497.425412,47.927000000,0.000000000,-1000.073669434,0.000000000,0.000000000,-17.566188812,-58.641769409,0.000000000,-19.965000153,8.911007881
1748598497.427780,47.929000000,0.000000000,-1000.073669434,0.000000000,0.000000000,-17.552688599,-64.874351501,0.000000000,-19.965000153,8.911081314
1748598497.430194,47.931000000,0.000000000,-1000.073669434,0.000000000,0.000000000,-17.566188812,-60.838150024,0.000000000,-19.965000153,8.911007881
1748598497.432586,47.934000000,0.000000000,-1000.073669434,0.000000000,0.000000000,-17.606689453,-57.719490051,0.000000000,-19.965000153,8.910787582
1748598497.434971,47.936000000,0.000000000,-1000.073669434,0.000000000,0.000000000,-17.647190094,-58.932273865,0.000000000,-19.965000153,8.910568237
1748598497.437349,47.939000000,0.000000000,-1000.073669434,0.000000000,0.000000000,-17.633691788,-67.322204590,0.000000000,-19.965000153,8.910640717
1748598497.439718,47.941000000,0.000000000,-1000.073669434,0.000000000,0.000000000,-17.606689453,-68.736045837,0.000000000,-19.965000153,8.910787582
1748598497.442108,47.943000000,0.000000000,-1000.073669434,0.000000000,0.000000000,-17.606689453,-64.292625427,0.000000000,-19.965000153,8.910787582
1748598497.444468,47.946000000,0.000000000,-1000.073669434,0.000000000,0.000000000,-17.633691788,-60.689254761,0.000000000,-19.965000153,8.910640717
1748598497.446895,47.948000000,0.000000000,-1000.073669434,0.000000000,0.000000000,-17.687692642,-57.866683960,0.000000000,-19.965000153,8.910347939
1748598497.449273,47.950000000,0.000000000,-1000.073669434,0.000000000,0.000000000,-17.755193710,-57.927192688,0.000000000,-19.965000153,8.909980774
1748598497.451641,47.953000000,0.000000000,-1000.073669434,0.000000000,0.000000000,-17.755193710,-68.809959412,0.000000000,-19.965000153,8.909980774
1748598497.454037,47.955000000,0.000000000,-1000.073669434,0.000000000,0.000000000,-17.755193710,-68.809959412,0.000000000,-19.965000153,8.909980774
1748598497.456413,47.958000000,0.000000000,-1000.073669434,0.000000000,0.000000000,-17.782194138,-65.238227844,0.000000000,-19.965000153,8.909833908
1748598497.458779,47.960000000,0.000000000,-1000.073669434,0.000000000,0.000000000,-17.795696259,-67.830398560,0.000000000,-19.965000153,8.909760475
1748598497.461133,47.962000000,0.000000000,-1000.073669434,0.000000000,0.000000000,-17.782194138,-71.861625671,0.000000000,-19.965000153,8.909833908
1748598497.463485,47.965000000,0.000000000,-1000.073669434,0.000000000,0.000000000,-17.768693924,-71.461082458,0.000000000,-19.965000153,8.909907341
1748598497.465821,47.967000000,0.000000000,-1000.073669434,0.000000000,0.000000000,-17.782194138,-67.393684387,0.000000000,-19.965000153,8.909833908
1748598497.468224,47.969000000,0.000000000,-1000.073669434,0.000000000,0.000000000,-17.795696259,-67.790687561,0.000000000,-19.965000153,8.909760475
1748598497.470570,47.972000000,0.000000000,-1000.073669434,0.000000000,0.000000000,-17.809194565,-68.248107910,0.000000000,-19.965000153,8.909687042
1748598497.472968,47.974000000,0.000000000,-1000.073669434,0.000000000,0.000000000,-17.822696686,-68.629203796,0.000000000,-19.965000153,8.909613609
1748598497.475328,47.977000000,0.000000000,-1000.073669434,0.000000000,0.000000000,-17.822696686,-70.863327026,0.000000000,-19.965000153,8.909613609
1748598497.477701,47.979000000,0.000000000,-1000.073669434,0.000000000,0.000000000,-17.822696686,-70.863327026,0.000000000,-19.965000153,8.909613609
1748598497.480087,47.981000000,0.000000000,-1000.073669434,0.000000000,0.000000000,-17.822696686,-70.863327026,0.000000000,-19.973999023,7.491467953
1748598497.482472,47.984000000,0.000000000,-1000.073669434,0.000000000,0.000000000,-17.849697113,-67.247154236,0.000000000,-19.973999023,7.404273033
1748598497.484836,47.986000000,0.000000000,-1000.073669434,0.000000000,0.000000000,-17.876697540,-68.088958740,0.000000000,-19.973999023,7.325769424
1748598497.487284,47.988000000,0.000000000,-1000.073669434,0.000000000,0.000000000,-17.876697540,-72.505973816,0.000000000,-19.973999023,7.255056381
1748598497.489715,47.991000000,0.000000000,-1000.073669434,0.000000000,0.000000000,-17.876697540,-72.505973816,0.000000000,-19.965000153,8.634853363
1748598497.492097,47.993000000,0.000000000,-1000.073669434,0.000000000,0.000000000,-17.890197754,-70.751716614,0.000000000,-19.965000153,8.662199020
1748598497.494469,47.996000000,0.000000000,-1000.073669434,0.000000000,0.000000000,-17.930698395,-67.542495728,0.000000000,-19.965000153,8.686609268
1748598497.496871,47.998000000,0.000000000,-1000.073669434,0.000000000,0.000000000,-17.984699249,-66.912544250,0.000000000,-19.965000153,8.708467484
1748598497.499369,48.000000000,0.000000000,-1000.073669434,0.000000000,0.000000000,-17.971199036,-77.590972900,0.000000000,-19.965000153,8.728588104
1748598497.501683,48.003000000,0.000000000,-1000.073669434,0.000000000,0.000000000,-17.957698822,-77.118949890,0.000000000,-19.965000153,8.746701241
1748598497.504006,48.005000000,0.000000000,-1000.073669434,0.000000000,0.000000000,-17.971199036,-73.150581360,0.000000000,-19.965000153,8.762829781
1748598497.506405,48.008000000,0.000000000,-1000.073669434,0.000000000,0.000000000,-17.984699249,-73.535446167,0.000000000,-19.965000153,8.777338982
1748598497.508761,48.010000000,0.000000000,-1000.073669434,0.000000000,0.000000000,-17.984699249,-75.791267395,0.000000000,-19.965000153,8.790477753
1748598497.511141,48.012000000,0.000000000,-1000.073669434,0.000000000,0.000000000,-17.984699249,-75.791267395,0.000000000,-19.965000153,8.802303314
1748598497.513529,48.015000000,0.000000000,-1000.073669434,0.000000000,0.000000000,-17.984699249,-75.791267395,0.000000000,-19.955999374,10.232097626
1748598497.515889,48.017000000,0.000000000,-1000.073669434,0.000000000,0.000000000,-18.011699677,-72.154426575,0.000000000,-19.955999374,10.328482628
1748598497.518241,48.019000000,0.000000000,-1000.073669434,0.000000000,0.000000000,-18.079202652,-67.571914673,0.000000000,-19.955999374,10.414691925
1748598497.520627,48.022000000,0.000000000,-1000.073669434,0.000000000,0.000000000,-18.119701385,-73.236343384,0.000000000,-19.955999374,10.492618561
1748598497.522996,48.024000000,0.000000000,-1000.073669434,0.000000000,0.000000000,-18.160203934,-74.490165710,0.000000000,-19.955999374,10.562748909
1748598497.525356,48.027000000,0.000000000,-1000.073669434,0.000000000,0.000000000,-18.173704147,-79.321846008,0.000000000,-19.955999374,10.626173019
1748598497.527744,48.029000000,0.000000000,-1000.073669434,0.000000000,0.000000000,-18.227705002,-74.308250427,0.000000000,-19.955999374,10.682801247
1748598497.530179,48.031000000,0.000000000,-1000.073669434,0.000000000,0.000000000,-18.268207550,-77.778305054,0.000000000,-19.955999374,10.733898163
1748598497.532619,48.034000000,0.000000000,-1000.073669434,0.000000000,0.000000000,-18.281705856,-82.646034241,0.000000000,-19.955999374,10.780150414
1748598497.534994,48.036000000,0.000000000,-1000.073669434,0.000000000,0.000000000,-18.281705856,-84.825881958,0.000000000,-19.965000153,9.383180618
1748598497.537377,48.039000000,0.000000000,-1000.073669434,0.000000000,0.000000000,-18.322208405,-79.454246521,0.000000000,-19.965000153,9.335498810
1748598497.539798,48.041000000,0.000000000,-1000.073669434,0.000000000,0.000000000,-18.376209259,-78.833061218,0.000000000,-19.965000153,9.292516708
1748598497.542259,48.043000000,0.000000000,-1000.073669434,0.000000000,0.000000000,-18.389709473,-85.950752258,0.000000000,-19.965000153,9.253890991
1748598497.544658,48.046000000,0.000000000,-1000.073669434,0.000000000,0.000000000,-18.403209686,-86.362304688,0.000000000,-19.965000153,9.219116211
1748598497.547107,48.048000000,0.000000000,-1000.073669434,0.000000000,0.000000000,-18.416709900,-86.749687195,0.000000000,-19.965000153,9.187808037
1748598497.549551,48.051000000,0.000000000,-1000.073669434,0.000000000,0.000000000,-18.443710327,-85.436462402,0.000000000,-19.965000153,9.159575462
1748598497.551907,48.053000000,0.000000000,-1000.073669434,0.000000000,0.000000000,-18.470712662,-86.198318481,0.000000000,-19.965000153,9.134145737
1748598497.554261,48.055000000,0.000000000,-1000.073669434,0.000000000,0.000000000,-18.484210968,-88.802398682,0.000000000,-19.965000153,9.111289978
1748598497.556632,48.058000000,0.000000000,-1000.073669434,0.000000000,0.000000000,-18.511211395,-87.324363708,0.000000000,-19.965000153,9.090656281
1748598497.559008,48.060000000,0.000000000,-1000.073669434,0.000000000,0.000000000,-18.524713516,-90.000709534,0.000000000,-19.965000153,9.072123528
1748598497.561382,48.063000000,0.000000000,-1000.073669434,0.000000000,0.000000000,-18.551713943,-88.609207153,0.000000000,-19.965000153,9.055377007
1748598497.563773,48.065000000,0.000000000,-1000.073669434,0.000000000,0.000000000,-18.578714371,-89.424926758,0.000000000,-19.965000153,9.040287971
1748598497.566149,48.067000000,0.000000000,-1000.073669434,0.000000000,0.000000000,-18.592214584,-92.064559937,0.000000000,-19.965000153,9.026748657
1748598497.568547,48.070000000,0.000000000,-1000.073669434,0.000000000,0.000000000,-18.578714371,-96.079292297,0.000000000,-19.965000153,9.014678955
1748598497.570965,48.072000000,0.000000000,-1000.073669434,0.000000000,0.000000000,-18.578714371,-93.860549927,0.000000000,-19.965000153,9.003762245
1748598497.573369,48.075000000,0.000000000,-1000.073669434,0.000000000,0.000000000,-18.592214584,-92.102729797,0.000000000,-19.965000153,8.993871689
1748598497.575757,48.077000000,0.000000000,-1000.073669434,0.000000000,0.000000000,-18.605714798,-92.489921570,0.000000000,-19.965000153,8.984963417
1748598497.578134,48.079000000,0.000000000,-1000.073669434,0.000000000,0.000000000,-18.632717133,-91.091484070,0.000000000,-19.965000153,8.976872444
1748598497.580707,48.082000000,0.000000000,-1000.073669434,0.000000000,0.000000000,-18.659717560,-91.901992798,0.000000000,-19.965000153,8.969573975
1748598497.583036,48.084000000,0.000000000,-1000.073669434,0.000000000,0.000000000,-18.686717987,-92.940567017,0.000000000,-19.965000153,8.962988853
